; generated by PrusaSlicer 2.7.0+win64 on 2024-04-06 at 17:23:11 UTC


;
;
; 

; external perimeters extrusion width = 0.60mm
; perimeters extrusion width = 0.50mm
; infill extrusion width = 0.50mm
; solid infill extrusion width = 0.50mm
; top infill extrusion width = 0.45mm
; first layer extrusion width = 0.42mm

M73 P0 R159
M73 Q0 S162
M201 X1000 Y1000 Z200 E5000 ; sets maximum accelerations, mm/sec^2
M203 X200 Y200 Z12 E120 ; sets maximum feedrates, mm / sec
M204 S1250 T1250 ; sets acceleration (S) and retract acceleration (R), mm/sec^2
M205 X8.00 Y8.00 Z0.40 E4.50 ; sets the jerk limits, mm/sec
M205 S0 T0 ; sets the minimum extruding and travel feed rate, mm/sec

; printing object Back.stl id:0 copy 0
; stop printing object Back.stl id:0 copy 0

;TYPE:Custom
M862.3 P "MK3S" ; printer model check
M862.1 P0.4 ; nozzle diameter check
M115 U3.13.2 ; tell printer latest fw version
G90 ; use absolute coordinates
M83 ; extruder relative mode
M104 S215 ; set extruder temp
M140 S60 ; set bed temp
M190 S60 ; wait for bed temp
M109 S215 ; wait for extruder temp
G28 W ; home all without mesh bed level
G80 X61.8989 Y61.9353 W126.203 H86.1177 ; mesh bed levelling

G1 Z0.2 F720
G1 Y-3 F1000 ; go outside print area
G92 E0
G1 X60 E9 F1000 ; intro line
G1 X100 E12.5 F1000 ; intro line
M73 P0 R158

G92 E0
M221 S95

; Don't change E values below. Excessive value can damage the printer.

M907 E538 ; set extruder motor current
G21 ; set units to millimeters
G90 ; use absolute coordinates
M83 ; use relative distances for extrusion
M900 K0.05 ; Filament gcode LA 1.5
M900 K30 ; Filament gcode LA 1.0

M107
;LAYER_CHANGE
;Z:0.2
;HEIGHT:0.2
;BEFORE_LAYER_CHANGE
G92 E0.0
;0.2


G1 E-.8 F2100
G1 Z.2 F720
;AFTER_LAYER_CHANGE
;0.2
G1 X63.165 Y63.177 F10800
G1 Z.2 F720
G1 E.8 F2100
M204 S800
;TYPE:Skirt/Brim
;WIDTH:0.42
G1 F1200
G1 X64.218 Y62.31 E.04277
G1 X65.16 Y62.124 E.03011
G1 X68.203 Y62.15 E.09541
G1 X185.556 Y63.141 E3.67965
G1 X186.86 Y63.543 E.04278
G1 X187.727 Y64.596 E.04277
G1 X187.913 Y65.538 E.03011
G1 X187.237 Y145.508 E2.50749
G1 X186.835 Y146.811 E.04275
G1 X185.781 Y147.679 E.04281
G1 X184.84 Y147.864 E.03007
G1 X64.444 Y146.847 E3.77507
G1 X63.141 Y146.445 E.04275
G1 X62.273 Y145.392 E.04279
G1 X62.087 Y144.45 E.03011
G1 X62.763 Y64.481 E2.50746
G1 X63.147 Y63.234 E.04091
M73 Q0 S161
M204 S1000
; printing object Back.stl id:0 copy 0
;WIPE_START
G1 F8640
G1 X63.165 Y63.177 E-.0138
G1 X64.218 Y62.31 E-.31495
G1 X65.16 Y62.124 E-.22171
G1 X66.241 Y62.133 E-.24954
;WIPE_END
G1 Z.6 F720
G1 X65.258 Y143.69 F10800
G1 Z.2 F720
G1 E.8 F2100
M204 S800
;TYPE:Perimeter
;WIDTH:0.419999
G1 F1200
G1 X65.92 Y65.295 E2.4581
G1 X184.742 Y66.298 E3.72571
G1 X184.411 Y105.496 E1.22907
G1 X184.08 Y144.694 E1.22907
G1 X65.318 Y143.691 E3.72383
M204 S1000
G1 X64.878 Y144.064 F10800
M204 S800
;TYPE:External perimeter
G1 F1200
G1 X65.546 Y64.914 E2.48178
G1 X185.122 Y65.924 E3.74935
G1 X184.788 Y105.499 E1.24089
G1 X184.454 Y145.074 E1.24089
G1 X64.938 Y144.064 E3.74747
M204 S1000
;WIPE_START
G1 F8640
M73 P0 R157
G1 X64.878 Y144.064 E-.01385
G1 X64.907 Y140.659 E-.78615
;WIPE_END
G1 Z.6 F720
G1 X183.802 Y66.46 F10800
G1 Z.2 F720
G1 E.8 F2100
M204 S800
;TYPE:Solid infill
;WIDTH:0.420055
G1 F1200
G1 X184.396 Y67.054 E.02634
G1 X184.392 Y67.583 E.01659
G1 X183.435 Y66.626 E.04244
G1 X182.898 Y66.622 E.01684
G1 X184.387 Y68.112 E.06606
G1 X184.383 Y68.641 E.01659
G1 X182.36 Y66.617 E.08974
G1 X181.822 Y66.613 E.01687
G1 X184.379 Y69.17 E.1134
G1 X184.374 Y69.698 E.01656
G1 X181.284 Y66.608 E.13704
G1 X180.746 Y66.604 E.01687
G1 X184.37 Y70.227 E.1607
G1 X184.365 Y70.756 E.01659
G1 X180.208 Y66.599 E.18436
G1 X179.67 Y66.595 E.01687
G1 X184.361 Y71.285 E.20802
G1 X184.356 Y71.814 E.01659
G1 X179.132 Y66.59 E.23167
G1 X178.594 Y66.586 E.01687
G1 X184.352 Y72.343 E.25533
G1 X184.347 Y72.872 E.01659
G1 X178.057 Y66.581 E.27897
G1 X177.519 Y66.576 E.01687
G1 X184.343 Y73.401 E.30265
G1 X184.338 Y73.93 E.01659
G1 X176.981 Y66.572 E.32629
G1 X176.443 Y66.567 E.01687
G1 X184.334 Y74.458 E.34995
G1 X184.329 Y74.987 E.01659
G1 X175.905 Y66.563 E.37359
G1 X175.367 Y66.558 E.01687
G1 X184.325 Y75.516 E.39727
G1 X184.32 Y76.045 E.01659
G1 X174.829 Y66.554 E.42091
G1 X174.291 Y66.549 E.01687
G1 X184.316 Y76.574 E.44459
G1 X184.312 Y77.103 E.01659
G1 X173.753 Y66.545 E.46825
G1 X173.215 Y66.54 E.01687
G1 X184.307 Y77.632 E.49191
G1 X184.303 Y78.161 E.01659
G1 X172.678 Y66.536 E.51555
G1 X172.14 Y66.531 E.01687
G1 X184.298 Y78.689 E.53919
G1 X184.294 Y79.218 E.01659
G1 X171.602 Y66.526 E.56287
G1 X171.064 Y66.522 E.01687
G1 X184.289 Y79.747 E.5865
G1 X184.285 Y80.276 E.01659
G1 X170.526 Y66.517 E.61019
G1 X169.988 Y66.513 E.01687
G1 X184.28 Y80.805 E.63382
G1 X184.276 Y81.334 E.01659
G1 X169.45 Y66.508 E.65751
G1 X168.912 Y66.504 E.01687
G1 X184.271 Y81.863 E.68114
G1 X184.267 Y82.392 E.01659
M73 Q0 S160
G1 X168.374 Y66.499 E.70483
G1 X167.837 Y66.495 E.01684
G1 X184.262 Y82.92 E.72842
G1 X184.258 Y83.449 E.01659
G1 X167.299 Y66.49 E.7521
G1 X166.761 Y66.486 E.01687
G1 X184.253 Y83.978 E.77574
G1 X184.249 Y84.507 E.01659
G1 X166.223 Y66.481 E.79942
G1 X165.685 Y66.477 E.01687
G1 X184.244 Y85.036 E.82306
G1 X184.24 Y85.565 E.01659
G1 X165.147 Y66.472 E.84674
G1 X164.609 Y66.467 E.01687
M73 P1 R157
G1 X184.236 Y86.094 E.87042
G1 X184.231 Y86.623 E.01659
M73 Q1 S160
G1 X164.071 Y66.463 E.89406
G1 X163.533 Y66.458 E.01687
G1 X184.227 Y87.152 E.91774
G1 X184.222 Y87.68 E.01656
G1 X162.996 Y66.454 E.94133
G1 X162.458 Y66.449 E.01687
G1 X184.218 Y88.209 E.96502
G1 X184.213 Y88.738 E.01659
G1 X161.92 Y66.445 E.98865
G1 X161.382 Y66.44 E.01687
G1 X184.209 Y89.267 E1.01234
G1 X184.204 Y89.796 E.01659
G1 X160.844 Y66.436 E1.03597
G1 X160.306 Y66.431 E.01687
G1 X184.2 Y90.325 E1.05966
G1 X184.195 Y90.854 E.01659
G1 X159.768 Y66.427 E1.08329
G1 X159.23 Y66.422 E.01687
G1 X184.191 Y91.383 E1.10698
G1 X184.186 Y91.911 E.01656
G1 X158.692 Y66.417 E1.13061
G1 X158.155 Y66.413 E.01684
G1 X184.182 Y92.44 E1.15425
G1 X184.177 Y92.969 E.01659
G1 X157.617 Y66.408 E1.17791
G1 X157.079 Y66.404 E.01687
G1 X184.173 Y93.498 E1.20157
G1 X184.169 Y94.027 E.01659
G1 X156.541 Y66.399 E1.22525
G1 X156.003 Y66.395 E.01687
M73 P1 R156
G1 X184.164 Y94.556 E1.24889
G1 X184.16 Y95.085 E.01659
G1 X155.465 Y66.39 E1.27257
G1 X154.927 Y66.386 E.01687
G1 X184.155 Y95.614 E1.29621
G1 X184.151 Y96.142 E.01656
G1 X154.389 Y66.381 E1.31987
G1 X153.851 Y66.377 E.01687
G1 X184.146 Y96.671 E1.34351
G1 X184.142 Y97.2 E.01659
G1 X153.313 Y66.372 E1.36719
G1 X152.776 Y66.367 E.01684
G1 X184.137 Y97.729 E1.39083
G1 X184.133 Y98.258 E.01659
G1 X152.238 Y66.363 E1.41449
G1 X151.7 Y66.358 E.01687
G1 X184.128 Y98.787 E1.43815
G1 X184.124 Y99.316 E.01659
G1 X151.162 Y66.354 E1.4618
G1 X150.624 Y66.349 E.01687
G1 X184.119 Y99.845 E1.48546
G1 X184.115 Y100.374 E.01659
M73 Q1 S159
G1 X150.086 Y66.345 E1.50912
G1 X149.548 Y66.34 E.01687
G1 X184.11 Y100.902 E1.53276
G1 X184.106 Y101.431 E.01659
G1 X149.01 Y66.336 E1.55642
G1 X148.472 Y66.331 E.01687
G1 X184.101 Y101.96 E1.58008
G1 X184.097 Y102.489 E.01659
G1 X147.935 Y66.327 E1.60372
G1 X147.397 Y66.322 E.01687
G1 X184.093 Y103.018 E1.6274
G1 X184.088 Y103.547 E.01659
G1 X146.859 Y66.318 E1.65104
G1 X146.321 Y66.313 E.01687
G1 X184.084 Y104.076 E1.67472
G1 X184.079 Y104.605 E.01659
G1 X145.783 Y66.308 E1.69838
G1 X145.245 Y66.304 E.01687
G1 X184.075 Y105.133 E1.72202
G1 X184.07 Y105.662 E.01659
G1 X144.707 Y66.299 E1.74568
G1 X144.169 Y66.295 E.01687
G1 X184.066 Y106.191 E1.76934
G1 X184.061 Y106.72 E.01659
G1 X143.631 Y66.29 E1.793
G1 X143.094 Y66.286 E.01684
G1 X184.057 Y107.249 E1.81663
G1 X184.052 Y107.778 E.01659
M73 P1 R155
G1 X142.556 Y66.281 E1.84029
G1 X142.018 Y66.277 E.01687
G1 X184.048 Y108.307 E1.86395
G1 X184.043 Y108.836 E.01659
M73 P2 R155
G1 X141.48 Y66.272 E1.88761
G1 X140.942 Y66.268 E.01687
M73 Q2 S159
G1 X184.039 Y109.364 E1.91125
G1 X184.034 Y109.893 E.01659
G1 X140.404 Y66.263 E1.93491
G1 X139.866 Y66.258 E.01687
G1 X184.03 Y110.422 E1.95859
G1 X184.025 Y110.951 E.01659
G1 X139.328 Y66.254 E1.98223
G1 X138.79 Y66.249 E.01687
M73 Q2 S158
G1 X184.021 Y111.48 E2.00591
G1 X184.017 Y112.009 E.01659
G1 X138.252 Y66.245 E2.02957
G1 X137.715 Y66.24 E.01684
G1 X184.012 Y112.538 E2.05321
G1 X184.008 Y113.067 E.01659
G1 X137.177 Y66.236 E2.07687
G1 X136.639 Y66.231 E.01687
G1 X184.003 Y113.596 E2.10053
G1 X183.999 Y114.124 E.01656
G1 X136.101 Y66.227 E2.12417
G1 X135.563 Y66.222 E.01687
G1 X183.994 Y114.653 E2.14783
G1 X183.99 Y115.182 E.01659
G1 X135.025 Y66.218 E2.17149
G1 X134.487 Y66.213 E.01687
G1 X183.985 Y115.711 E2.19515
G1 X183.981 Y116.24 E.01659
G1 X133.949 Y66.208 E2.21883
G1 X133.411 Y66.204 E.01687
G1 X183.976 Y116.769 E2.24247
G1 X183.972 Y117.298 E.01659
M73 P2 R154
G1 X132.874 Y66.199 E2.26613
G1 X132.336 Y66.195 E.01687
G1 X183.967 Y117.827 E2.28976
G1 X183.963 Y118.355 E.01656
G1 X131.798 Y66.19 E2.31342
G1 X131.26 Y66.186 E.01687
G1 X183.958 Y118.884 E2.33706
G1 X183.954 Y119.413 E.01659
G1 X130.722 Y66.181 E2.36074
G1 X130.184 Y66.177 E.01687
G1 X183.95 Y119.942 E2.3844
G1 X183.945 Y120.471 E.01659
M73 Q2 S157
G1 X129.646 Y66.172 E2.40806
G1 X129.108 Y66.168 E.01687
G1 X183.941 Y121 E2.43172
G1 X183.936 Y121.529 E.01659
G1 X128.57 Y66.163 E2.45538
G1 X128.033 Y66.159 E.01684
G1 X183.932 Y122.058 E2.47902
G1 X183.927 Y122.587 E.01659
G1 X127.495 Y66.154 E2.50268
G1 X126.957 Y66.149 E.01687
M73 P3 R154
G1 X183.923 Y123.115 E2.52634
G1 X183.918 Y123.644 E.01659
G1 X126.419 Y66.145 E2.54998
G1 X125.881 Y66.14 E.01687
M73 Q3 S157
G1 X183.914 Y124.173 E2.57366
G1 X183.909 Y124.702 E.01659
G1 X125.343 Y66.136 E2.5973
G1 X124.805 Y66.131 E.01687
M73 P3 R153
G1 X183.905 Y125.231 E2.62098
G1 X183.9 Y125.76 E.01659
G1 X124.267 Y66.127 E2.64462
G1 X123.729 Y66.122 E.01687
G1 X183.896 Y126.289 E2.6683
G1 X183.891 Y126.818 E.01659
G1 X123.191 Y66.118 E2.69193
G1 X122.654 Y66.113 E.01684
G1 X183.887 Y127.346 E2.71557
G1 X183.882 Y127.875 E.01659
G1 X122.116 Y66.109 E2.73921
G1 X121.578 Y66.104 E.01687
M73 Q3 S156
G1 X183.878 Y128.404 E2.76289
G1 X183.874 Y128.933 E.01659
G1 X121.04 Y66.099 E2.78657
G1 X120.502 Y66.095 E.01687
G1 X183.869 Y129.462 E2.81021
G1 X183.865 Y129.991 E.01659
G1 X119.964 Y66.09 E2.83389
G1 X119.426 Y66.086 E.01687
G1 X183.86 Y130.52 E2.85753
G1 X183.856 Y131.049 E.01659
G1 X118.888 Y66.081 E2.88121
G1 X118.35 Y66.077 E.01687
G1 X183.851 Y131.577 E2.90483
G1 X183.847 Y132.106 E.01659
G1 X117.813 Y66.072 E2.92849
G1 X117.275 Y66.068 E.01687
M73 P3 R152
G1 X183.842 Y132.635 E2.95213
G1 X183.838 Y133.164 E.01659
G1 X116.737 Y66.063 E2.97581
G1 X116.199 Y66.059 E.01687
G1 X183.833 Y133.693 E2.99945
G1 X183.829 Y134.222 E.01659
G1 X115.661 Y66.054 E3.02313
G1 X115.123 Y66.049 E.01687
M73 P4 R152
G1 X183.824 Y134.751 E3.04679
G1 X183.82 Y135.28 E.01659
M73 Q4 S155
G1 X114.585 Y66.045 E3.07045
G1 X114.047 Y66.04 E.01687
G1 X183.815 Y135.809 E3.09411
G1 X183.811 Y136.337 E.01656
G1 X113.509 Y66.036 E3.11774
G1 X112.972 Y66.031 E.01684
G1 X183.807 Y136.866 E3.1414
G1 X183.802 Y137.395 E.01659
G1 X112.434 Y66.027 E3.16504
G1 X111.896 Y66.022 E.01687
G1 X183.798 Y137.924 E3.18872
G1 X183.793 Y138.453 E.01659
G1 X111.358 Y66.018 E3.21236
G1 X110.82 Y66.013 E.01687
M73 P4 R151
G1 X183.789 Y138.982 E3.23604
G1 X183.784 Y139.511 E.01659
G1 X110.282 Y66.009 E3.25968
G1 X109.744 Y66.004 E.01687
G1 X183.78 Y140.04 E3.28336
G1 X183.775 Y140.568 E.01656
G1 X109.206 Y66 E3.30698
G1 X108.668 Y65.995 E.01687
M73 Q4 S154
G1 X183.771 Y141.097 E3.33066
G1 X183.766 Y141.626 E.01659
G1 X108.131 Y65.99 E3.3543
G1 X107.593 Y65.986 E.01687
G1 X183.762 Y142.155 E3.37796
G1 X183.757 Y142.684 E.01659
G1 X107.055 Y65.981 E3.40162
G1 X106.517 Y65.977 E.01687
G1 X183.753 Y143.213 E3.42528
G1 X183.748 Y143.742 E.01659
G1 X105.979 Y65.972 E3.44894
G1 X105.441 Y65.968 E.01687
M73 P5 R151
G1 X183.744 Y144.271 E3.4726
G1 X183.743 Y144.351 E.00251
M73 P5 R150
G1 X183.288 Y144.348 E.01427
G1 X104.903 Y65.963 E3.47623
G1 X104.365 Y65.959 E.01687
M73 Q5 S154
G1 X182.75 Y144.343 E3.47621
G1 X182.212 Y144.338 E.01687
G1 X103.827 Y65.954 E3.47621
G1 X103.289 Y65.95 E.01687
G1 X181.674 Y144.334 E3.47621
G1 X181.136 Y144.329 E.01687
M73 Q5 S153
G1 X102.752 Y65.945 E3.47619
G1 X102.214 Y65.94 E.01687
G1 X180.598 Y144.325 E3.47621
G1 X180.06 Y144.32 E.01687
G1 X101.676 Y65.936 E3.47619
G1 X101.138 Y65.931 E.01687
G1 X179.522 Y144.316 E3.47621
G1 X178.984 Y144.311 E.01687
G1 X100.6 Y65.927 E3.47619
G1 X100.062 Y65.922 E.01687
G1 X178.446 Y144.307 E3.47621
G1 X177.909 Y144.302 E.01684
G1 X99.524 Y65.918 E3.47621
G1 X98.986 Y65.913 E.01687
M73 P5 R149
G1 X177.371 Y144.298 E3.47623
G1 X176.833 Y144.293 E.01687
G1 X98.448 Y65.909 E3.47621
G1 X97.911 Y65.904 E.01684
G1 X176.295 Y144.288 E3.47619
G1 X175.757 Y144.284 E.01687
G1 X97.373 Y65.9 E3.47619
G1 X96.835 Y65.895 E.01687
M73 Q5 S152
G1 X175.219 Y144.279 E3.47619
G1 X174.681 Y144.275 E.01687
M73 P6 R149
G1 X96.297 Y65.89 E3.47621
G1 X95.759 Y65.886 E.01687
G1 X174.143 Y144.27 E3.47619
G1 X173.605 Y144.266 E.01687
M73 Q6 S152
G1 X95.221 Y65.881 E3.47621
G1 X94.683 Y65.877 E.01687
G1 X173.068 Y144.261 E3.47621
G1 X172.53 Y144.257 E.01687
G1 X94.145 Y65.872 E3.47623
G1 X93.607 Y65.868 E.01687
G1 X171.992 Y144.252 E3.47621
G1 X171.454 Y144.248 E.01687
M73 P6 R148
G1 X93.07 Y65.863 E3.47621
G1 X92.532 Y65.859 E.01687
G1 X170.916 Y144.243 E3.47619
G1 X170.378 Y144.238 E.01687
G1 X91.994 Y65.854 E3.47619
G1 X91.456 Y65.85 E.01687
G1 X169.84 Y144.234 E3.47619
G1 X169.302 Y144.229 E.01687
M73 Q6 S151
G1 X90.918 Y65.845 E3.47619
G1 X90.38 Y65.84 E.01687
G1 X168.764 Y144.225 E3.47621
G1 X168.227 Y144.22 E.01684
G1 X89.842 Y65.836 E3.47621
G1 X89.304 Y65.831 E.01687
G1 X167.689 Y144.216 E3.47623
G1 X167.151 Y144.211 E.01687
G1 X88.766 Y65.827 E3.47621
G1 X88.228 Y65.822 E.01687
G1 X166.613 Y144.207 E3.47623
G1 X166.075 Y144.202 E.01687
M73 P6 R147
G1 X87.691 Y65.818 E3.47619
G1 X87.153 Y65.813 E.01687
M73 P7 R147
G1 X165.537 Y144.198 E3.47621
G1 X164.999 Y144.193 E.01687
G1 X86.615 Y65.809 E3.47619
G1 X86.077 Y65.804 E.01687
G1 X164.461 Y144.189 E3.47621
G1 X163.923 Y144.184 E.01687
M73 Q7 S151
G1 X85.539 Y65.8 E3.47619
G1 X85.001 Y65.795 E.01687
M73 Q7 S150
G1 X163.385 Y144.179 E3.47619
G1 X162.848 Y144.175 E.01684
G1 X84.463 Y65.791 E3.47621
G1 X83.925 Y65.786 E.01687
G1 X162.31 Y144.17 E3.47621
G1 X161.772 Y144.166 E.01687
G1 X83.387 Y65.781 E3.47623
G1 X82.85 Y65.777 E.01684
G1 X161.234 Y144.161 E3.47619
G1 X160.696 Y144.157 E.01687
G1 X82.312 Y65.772 E3.47621
G1 X81.774 Y65.768 E.01687
M73 P7 R146
G1 X160.158 Y144.152 E3.47619
G1 X159.62 Y144.148 E.01687
G1 X81.236 Y65.763 E3.47621
G1 X80.698 Y65.759 E.01687
G1 X159.082 Y144.143 E3.47619
G1 X158.544 Y144.139 E.01687
G1 X80.16 Y65.754 E3.47621
G1 X79.622 Y65.75 E.01687
M73 Q7 S149
G1 X158.007 Y144.134 E3.47621
G1 X157.469 Y144.129 E.01687
G1 X79.084 Y65.745 E3.47621
G1 X78.546 Y65.741 E.01687
G1 X156.931 Y144.125 E3.47621
G1 X156.393 Y144.12 E.01687
M73 P8 R146
G1 X78.009 Y65.736 E3.47619
G1 X77.471 Y65.731 E.01687
G1 X155.855 Y144.116 E3.47621
G1 X155.317 Y144.111 E.01687
G1 X76.933 Y65.727 E3.47619
G1 X76.395 Y65.722 E.01687
M73 Q8 S149
G1 X154.779 Y144.107 E3.47621
G1 X154.241 Y144.102 E.01687
M73 P8 R145
G1 X75.857 Y65.718 E3.47619
G1 X75.319 Y65.713 E.01687
G1 X153.703 Y144.098 E3.47621
G1 X153.166 Y144.093 E.01684
G1 X74.781 Y65.709 E3.47621
G1 X74.243 Y65.704 E.01687
G1 X152.628 Y144.089 E3.47623
G1 X152.09 Y144.084 E.01687
M73 Q8 S148
G1 X73.705 Y65.7 E3.47621
G1 X73.167 Y65.695 E.01687
G1 X151.552 Y144.079 E3.47621
G1 X151.014 Y144.075 E.01687
G1 X72.63 Y65.691 E3.47619
G1 X72.092 Y65.686 E.01687
G1 X150.476 Y144.07 E3.47619
G1 X149.938 Y144.066 E.01687
G1 X71.554 Y65.681 E3.47621
G1 X71.016 Y65.677 E.01687
G1 X149.4 Y144.061 E3.47619
G1 X148.862 Y144.057 E.01687
G1 X70.478 Y65.672 E3.47621
G1 X69.94 Y65.668 E.01687
M73 P8 R144
G1 X148.325 Y144.052 E3.47621
G1 X147.787 Y144.048 E.01687
G1 X69.402 Y65.663 E3.47623
G1 X68.864 Y65.659 E.01687
G1 X147.249 Y144.043 E3.47621
G1 X146.711 Y144.039 E.01687
M73 P9 R144
G1 X68.326 Y65.654 E3.47623
G1 X67.789 Y65.65 E.01684
