; generated by PrusaSlicer 2.7.0+win64 on 2024-04-06 at 17:22:22 UTC


;
;
; 

; external perimeters extrusion width = 0.45mm
; perimeters extrusion width = 0.45mm
; infill extrusion width = 0.45mm
; solid infill extrusion width = 0.45mm
; top infill extrusion width = 0.40mm
; first layer extrusion width = 0.42mm

M73 P0 R52
M73 Q0 S53
M201 X1000 Y1000 Z200 E5000 ; sets maximum accelerations, mm/sec^2
M203 X200 Y200 Z12 E120 ; sets maximum feedrates, mm / sec
M204 S1250 T1250 ; sets acceleration (S) and retract acceleration (R), mm/sec^2
M205 X8.00 Y8.00 Z0.40 E4.50 ; sets the jerk limits, mm/sec
M205 S0 T0 ; sets the minimum extruding and travel feed rate, mm/sec

; printing object FrontPlate.stl id:0 copy 0
; stop printing object FrontPlate.stl id:0 copy 0

;TYPE:Custom
M862.3 P "MK3S" ; printer model check
M862.1 P0.4 ; nozzle diameter check
M115 U3.13.2 ; tell printer latest fw version
G90 ; use absolute coordinates
M83 ; extruder relative mode
M104 S215 ; set extruder temp
M140 S60 ; set bed temp
M190 S60 ; wait for bed temp
M109 S215 ; wait for extruder temp
G28 W ; home all without mesh bed level
G80 X62.2344 Y69.99 W125.531 H69.8717 ; mesh bed levelling

G1 Z0.2 F720
G1 Y-3 F1000 ; go outside print area
G92 E0
G1 X60 E9 F1000 ; intro line
G1 X100 E12.5 F1000 ; intro line
M73 Q0 S52

G92 E0
M221 S95

; Don't change E values below. Excessive value can damage the printer.
M907 E430 ; set extruder motor current
G21 ; set units to millimeters
G90 ; use absolute coordinates
M83 ; use relative distances for extrusion
M900 K0.05 ; Filament gcode LA 1.5
M900 K30 ; Filament gcode LA 1.0

M107
;LAYER_CHANGE
;Z:0.2
;HEIGHT:0.2
;BEFORE_LAYER_CHANGE
G92 E0.0
;0.2


G1 E-.8 F2100
M73 P0 R51
G1 Z.2 F720
;AFTER_LAYER_CHANGE
;0.2
G1 X62.815 Y71.249 F10800
G1 Z.2 F720
G1 E.8 F2100
M204 S800
;TYPE:Skirt/Brim
;WIDTH:0.42
G1 F1200
G1 X63.86 Y70.372 E.04277
G1 X64.8 Y70.179 E.03009
G1 X185.2 Y70.179 E3.77506
G1 X186.507 Y70.57 E.04277
G1 X187.383 Y71.616 E.04278
G1 X187.577 Y72.556 E.03009
G1 X187.577 Y137.296 E2.02988
G1 X187.185 Y138.603 E.04278
G1 X186.14 Y139.48 E.04277
G1 X185.2 Y139.673 E.03009
G1 X64.8 Y139.673 E3.77506
G1 X63.493 Y139.282 E.04277
G1 X62.617 Y138.236 E.04278
G1 X62.423 Y137.296 E.03009
G1 X62.423 Y72.556 E2.02988
G1 X62.797 Y71.306 E.04091
M204 S1000
; printing object FrontPlate.stl id:0 copy 0
;WIPE_START
G1 F8640
G1 X62.815 Y71.249 E-.0138
G1 X63.86 Y70.372 E-.31501
G1 X64.8 Y70.179 E-.22158
G1 X65.881 Y70.179 E-.24961
;WIPE_END
G1 Z.6 F720
G1 X65.587 Y136.509 F10800
G1 Z.2 F720
G1 E.8 F2100
M204 S800
;TYPE:Perimeter
;WIDTH:0.419999
G1 F1200
G1 X65.587 Y73.343 E1.98052
G1 X184.413 Y73.343 E3.7257
G1 X184.413 Y78.447 E.16003
M73 P1 R51
M73 Q1 S52
G1 X184.413 Y136.509 E1.82049
G1 X65.647 Y136.509 E3.72382
M204 S1000
G1 X65.21 Y136.886 F10800
M204 S800
;TYPE:External perimeter
G1 F1200
G1 X65.21 Y72.966 E2.00416
G1 X184.79 Y72.966 E3.74934
G1 X184.79 Y78.447 E.17185
G1 X184.79 Y136.886 E1.83231
G1 X65.27 Y136.886 E3.74746
M204 S1000
;WIPE_START
G1 F8640
M73 P2 R51
M73 Q2 S51
G1 X65.21 Y136.886 E-.01385
G1 X65.21 Y133.481 E-.78615
;WIPE_END
G1 Z.6 F720
G1 X171.353 Y78.621 F10800
G1 Z.2 F720
G1 E.8 F2100
M204 S800
;TYPE:Perimeter
G1 F1200
G1 X171.402 Y78.599 E.00168
G1 X171.812 Y78.498 E.01324
G1 X172.206 Y78.471 E.01238
G1 X172.655 Y78.515 E.01415
G1 X173.061 Y78.633 E.01326
G1 X173.355 Y78.77 E.01017
G1 X173.782 Y79.069 E.01634
G1 X174.075 Y79.374 E.01326
G1 X174.31 Y79.725 E.01324
G1 X174.481 Y80.112 E.01327
G1 X174.582 Y80.523 E.01327
G1 X174.611 Y80.945 E.01326
G1 X174.565 Y81.365 E.01325
G1 X174.448 Y81.772 E.01328
G1 X174.261 Y82.151 E.01325
G1 X174.012 Y82.493 E.01326
G1 X173.706 Y82.786 E.01328
G1 X173.355 Y83.021 E.01324
G1 X172.968 Y83.192 E.01327
G1 X172.558 Y83.293 E.01324
G1 X172.136 Y83.321 E.01326
G1 X171.715 Y83.276 E.01328
G1 X171.309 Y83.158 E.01326
G1 X170.929 Y82.972 E.01327
G1 X170.588 Y82.722 E.01326
G1 X170.295 Y82.417 E.01326
G1 X170.06 Y82.066 E.01324
G1 X169.9 Y81.705 E.01238
G1 X169.788 Y81.268 E.01414
G1 X169.759 Y80.846 E.01326
G1 X169.805 Y80.426 E.01325
G1 X169.922 Y80.02 E.01325
G1 X170.109 Y79.64 E.01328
G1 X170.358 Y79.299 E.01324
G1 X170.663 Y79.006 E.01326
G1 X171.015 Y78.77 E.01329
G1 X171.298 Y78.645 E.0097
M204 S1000
G1 X171.523 Y78.957 F10800
M204 S800
;TYPE:External perimeter
G1 F1200
G1 X171.845 Y78.874 E.01043
G1 X172.177 Y78.847 E.01044
G1 X172.557 Y78.879 E.01196
G1 X172.902 Y78.975 E.01123
G1 X173.196 Y79.112 E.01017
G1 X173.515 Y79.336 E.01222
G1 X173.766 Y79.59 E.0112
G1 X173.969 Y79.885 E.01123
M73 P2 R50
G1 X174.117 Y80.21 E.0112
G1 X174.207 Y80.556 E.01121
G1 X174.235 Y80.912 E.0112
G1 X174.201 Y81.268 E.01121
G1 X174.106 Y81.612 E.01119
G1 X173.952 Y81.935 E.01122
G1 X173.745 Y82.226 E.0112
G1 X173.49 Y82.477 E.01122
G1 X173.196 Y82.679 E.01118
G1 X172.871 Y82.828 E.01121
G1 X172.525 Y82.917 E.0112
G1 X172.169 Y82.946 E.0112
G1 X171.813 Y82.912 E.01121
G1 X171.468 Y82.816 E.01123
G1 X171.146 Y82.663 E.01118
G1 X170.855 Y82.455 E.01122
G1 X170.604 Y82.201 E.0112
G1 X170.401 Y81.906 E.01123
G1 X170.263 Y81.604 E.01041
G1 X170.163 Y81.236 E.01196
G1 X170.135 Y80.879 E.01123
G1 X170.169 Y80.523 E.01121
G1 X170.264 Y80.179 E.01119
G1 X170.418 Y79.856 E.01122
G1 X170.625 Y79.565 E.0112
G1 X170.88 Y79.315 E.0112
G1 X171.174 Y79.112 E.0112
G1 X171.467 Y78.978 E.0101
M204 S1000
;WIPE_START
G1 F8640
G1 X171.523 Y78.957 E-.01381
G1 X171.845 Y78.874 E-.07678
G1 X172.177 Y78.847 E-.07691
G1 X172.557 Y78.879 E-.08805
G1 X172.902 Y78.975 E-.08269
G1 X173.196 Y79.112 E-.07489
G1 X173.515 Y79.336 E-.09
G1 X173.766 Y79.59 E-.08245
G1 X173.969 Y79.885 E-.08269
G1 X174.117 Y80.21 E-.08246
G1 X174.171 Y80.416 E-.04927
;WIPE_END
G1 Z.6 F720
G1 X174.572 Y129.324 F10800
G1 Z.2 F720
G1 E.8 F2100
M204 S800
;TYPE:Perimeter
G1 F1200
G1 X174.567 Y129.377 E.00167
G1 X174.448 Y129.788 E.01342
G1 X174.252 Y130.185 E.01388
G1 X174.016 Y130.506 E.01249
G1 X173.713 Y130.8 E.01324
G1 X173.362 Y131.037 E.01328
G1 X172.976 Y131.209 E.01325
G1 X172.565 Y131.311 E.01328
G1 X172.143 Y131.341 E.01326
G1 X171.723 Y131.297 E.01324
G1 X171.313 Y131.179 E.01338
G1 X170.916 Y130.983 E.01388
G1 X170.594 Y130.747 E.01252
G1 X170.301 Y130.443 E.01324
G1 X170.064 Y130.093 E.01325
G1 X169.892 Y129.706 E.01328
G1 X169.789 Y129.296 E.01325
G1 X169.76 Y128.87 E.01339
G1 X169.809 Y128.43 E.01388
G1 X169.92 Y128.047 E.0125
G1 X170.105 Y127.667 E.01325
G1 X170.353 Y127.325 E.01325
G1 X170.658 Y127.031 E.01328
G1 X171.008 Y126.795 E.01324
G1 X171.399 Y126.621 E.01342
G1 X171.828 Y126.517 E.01384
G1 X172.226 Y126.49 E.01251
G1 X172.647 Y126.534 E.01327
G1 X173.053 Y126.65 E.01324
G1 X173.433 Y126.836 E.01327
G1 X173.775 Y127.084 E.01325
G1 X174.069 Y127.388 E.01326
G1 X174.306 Y127.739 E.01328
G1 X174.478 Y128.125 E.01325
G1 X174.581 Y128.535 E.01325
G1 X174.61 Y128.957 E.01326
G1 X174.578 Y129.265 E.00971
M204 S1000
G1 X174.14 Y129.508 F10800
M204 S800
;TYPE:External perimeter
G1 F1200
G1 X174.107 Y129.627 E.00387
G1 X173.943 Y129.968 E.01186
G1 X173.749 Y130.241 E.0105
G1 X173.495 Y130.492 E.0112
G1 X173.201 Y130.696 E.01122
G1 X172.877 Y130.845 E.01118
G1 X172.531 Y130.936 E.01122
G1 X172.175 Y130.965 E.0112
G1 X171.819 Y130.933 E.01121
G1 X171.474 Y130.838 E.01122
G1 X171.133 Y130.674 E.01186
G1 X170.86 Y130.48 E.0105
G1 X170.609 Y130.226 E.0112
G1 X170.405 Y129.932 E.01122
G1 X170.256 Y129.608 E.01118
G1 X170.165 Y129.262 E.01122
G1 X170.135 Y128.904 E.01126
G1 X170.173 Y128.528 E.01185
G1 X170.262 Y128.206 E.01047
G1 X170.415 Y127.882 E.01123
G1 X170.621 Y127.591 E.01118
G1 X170.875 Y127.339 E.01122
G1 X171.168 Y127.136 E.01118
G1 X171.494 Y126.986 E.01125
G1 X171.861 Y126.892 E.01188
G1 X172.195 Y126.866 E.0105
G1 X172.55 Y126.899 E.01118
G1 X172.895 Y126.993 E.01121
G1 X173.218 Y127.145 E.01119
G1 X173.51 Y127.351 E.0112
G1 X173.761 Y127.605 E.0112
G1 X173.965 Y127.899 E.01122
G1 X174.114 Y128.224 E.01121
G1 X174.205 Y128.569 E.01119
G1 X174.235 Y128.925 E.0112
G1 X174.202 Y129.281 E.01121
G1 X174.156 Y129.45 E.00549
M204 S1000
;WIPE_START
G1 F8640
G1 X174.14 Y129.508 E-.01389
G1 X174.107 Y129.627 E-.02851
G1 X173.943 Y129.968 E-.08737
G1 X173.749 Y130.241 E-.07733
G1 X173.495 Y130.492 E-.08245
G1 X173.201 Y130.696 E-.08263
G1 X172.877 Y130.845 E-.08234
G1 X172.531 Y130.936 E-.08261
G1 X172.175 Y130.965 E-.08247
G1 X171.819 Y130.933 E-.08253
G1 X171.474 Y130.838 E-.08263
G1 X171.414 Y130.809 E-.01524
;WIPE_END
G1 Z.6 F720
G1 X167.682 Y132.843 F10800
G1 Z.2 F720
G1 E.8 F2100
M204 S800
;TYPE:Perimeter
G1 F1200
G1 X167.667 Y132.942 E.00314
G1 X167.495 Y133.207 E.00991
G1 X167.224 Y133.334 E.00938
G1 X167.126 Y133.343 E.00309
G1 X82.874 Y133.343 E2.64166
G1 X82.674 Y133.306 E.00638
G1 X82.509 Y133.21 E.00599
G1 X82.335 Y132.95 E.00981
G1 X82.308 Y132.218 E.02297
G1 X82.308 Y128.909 E.10375
G1 X82.308 Y77.034 E1.6265
G1 X82.334 Y76.864 E.00539
G1 X82.508 Y76.603 E.00984
G1 X82.776 Y76.477 E.00929
G1 X82.874 Y76.469 E.00308
G1 X167.126 Y76.469 E2.64166
G1 X167.33 Y76.506 E.0065
G1 X167.496 Y76.606 E.00608
G1 X167.668 Y76.872 E.00993
G1 X167.692 Y77.459 E.01842
G1 X167.692 Y132.777 E1.73445
G1 X167.691 Y132.783 E.00019
M204 S1000
G1 X167.315 Y132.777 F10800
M204 S800
;TYPE:External perimeter
G1 F1200
G1 X167.249 Y132.92 E.00494
G1 X167.126 Y132.966 E.00412
G1 X82.874 Y132.966 E2.64166
G1 X82.752 Y132.921 E.00408
G1 X82.685 Y132.777 E.00498
G1 X82.685 Y128.909 E.12128
G1 X82.685 Y77.034 E1.6265
G1 X82.752 Y76.89 E.00498
G1 X82.874 Y76.846 E.00407
G1 X167.126 Y76.846 E2.64166
G1 X167.25 Y76.891 E.00414
M73 P3 R50
G1 X167.315 Y77.034 E.00493
G1 X167.315 Y132.717 E1.7459
M204 S1000
;WIPE_START
G1 F8640
M73 Q3 S51
G1 X167.315 Y132.777 E-.01385
G1 X167.249 Y132.92 E-.03637
G1 X167.126 Y132.966 E-.03032
G1 X164.01 Y132.966 E-.71946
;WIPE_END
G1 Z.6 F720
G1 X75.663 Y128.482 F10800
G1 Z.2 F720
G1 E.8 F2100
M204 S800
;TYPE:Perimeter
G1 F1200
G1 X75.669 Y128.43 E.00164
G1 X75.78 Y128.047 E.0125
G1 X75.965 Y127.667 E.01325
G1 X76.214 Y127.325 E.01326
G1 X76.517 Y127.031 E.01324
G1 X76.868 Y126.794 E.01328
G1 X77.259 Y126.621 E.01341
G1 X77.688 Y126.517 E.01384
G1 X78.086 Y126.49 E.01251
G1 X78.507 Y126.534 E.01327
G1 X78.913 Y126.651 E.01325
G1 X79.293 Y126.836 E.01325
G1 X79.636 Y127.084 E.01327
G1 X79.929 Y127.388 E.01324
G1 X80.166 Y127.739 E.01328
G1 X80.338 Y128.125 E.01325
G1 X80.441 Y128.535 E.01325
G1 X80.47 Y128.957 E.01326
G1 X80.426 Y129.377 E.01324
G1 X80.308 Y129.788 E.01341
G1 X80.112 Y130.184 E.01385
G1 X79.876 Y130.506 E.01252
G1 X79.573 Y130.8 E.01324
G1 X79.263 Y131.015 E.01183
G1 X78.836 Y131.209 E.01471
G1 X78.426 Y131.311 E.01325
G1 X78.004 Y131.341 E.01326
G1 X77.583 Y131.297 E.01327
G1 X77.173 Y131.179 E.01338
G1 X76.776 Y130.982 E.0139
G1 X76.454 Y130.747 E.0125
G1 X76.161 Y130.443 E.01324
G1 X75.924 Y130.093 E.01325
G1 X75.752 Y129.707 E.01325
G1 X75.649 Y129.296 E.01329
G1 X75.62 Y128.87 E.01339
G1 X75.656 Y128.542 E.01035
M204 S1000
G1 X76.041 Y128.499 F10800
M204 S800
;TYPE:External perimeter
G1 F1200
G1 X76.122 Y128.205 E.00956
G1 X76.275 Y127.882 E.01121
G1 X76.481 Y127.591 E.01118
G1 X76.735 Y127.339 E.01122
G1 X77.029 Y127.136 E.0112
G1 X77.355 Y126.986 E.01125
G1 X77.721 Y126.892 E.01185
G1 X78.055 Y126.866 E.0105
G1 X78.41 Y126.899 E.01118
G1 X78.755 Y126.993 E.01121
G1 X79.078 Y127.145 E.01119
G1 X79.37 Y127.352 E.01122
G1 X79.621 Y127.605 E.01117
G1 X79.825 Y127.899 E.01122
G1 X79.974 Y128.223 E.01118
G1 X80.065 Y128.569 E.01122
G1 X80.095 Y128.925 E.0112
G1 X80.062 Y129.281 E.01121
G1 X79.967 Y129.627 E.01125
G1 X79.803 Y129.968 E.01186
G1 X79.609 Y130.241 E.0105
G1 X79.355 Y130.492 E.0112
G1 X79.075 Y130.688 E.01072
G1 X78.737 Y130.845 E.01169
G1 X78.392 Y130.936 E.01119
G1 X78.035 Y130.965 E.01123
G1 X77.679 Y130.933 E.01121
G1 X77.334 Y130.838 E.01122
G1 X76.992 Y130.674 E.01189
G1 X76.72 Y130.48 E.01048
G1 X76.469 Y130.226 E.0112
G1 X76.265 Y129.932 E.01122
G1 X76.116 Y129.608 E.01118
G1 X76.025 Y129.262 E.01122
G1 X75.995 Y128.904 E.01126
G1 X76.03 Y128.558 E.0109
M204 S1000
;WIPE_START
G1 F8640
G1 X76.041 Y128.499 E-.01386
G1 X76.122 Y128.205 E-.07041
G1 X76.275 Y127.882 E-.08253
G1 X76.481 Y127.591 E-.08232
G1 X76.735 Y127.339 E-.08262
G1 X77.029 Y127.136 E-.0825
G1 X77.355 Y126.986 E-.08286
G1 X77.721 Y126.892 E-.08725
G1 X78.055 Y126.866 E-.07735
G1 X78.41 Y126.899 E-.08232
G1 X78.644 Y126.963 E-.05598
;WIPE_END
G1 Z.6 F720
G1 X77.213 Y78.621 F10800
G1 Z.2 F720
G1 E.8 F2100
M204 S800
;TYPE:Perimeter
G1 F1200
G1 X77.262 Y78.599 E.00168
G1 X77.672 Y78.498 E.01324
G1 X78.065 Y78.471 E.01235
G1 X78.515 Y78.515 E.01418
G1 X78.921 Y78.633 E.01326
G1 X79.301 Y78.819 E.01327
G1 X79.642 Y79.069 E.01326
G1 X79.935 Y79.374 E.01326
G1 X80.17 Y79.725 E.01324
G1 X80.341 Y80.112 E.01327
G1 X80.436 Y80.495 E.01237
G1 X80.471 Y80.945 E.01415
G1 X80.425 Y81.365 E.01325
G1 X80.308 Y81.772 E.01328
G1 X80.121 Y82.151 E.01325
G1 X79.872 Y82.493 E.01326
G1 X79.566 Y82.786 E.01328
G1 X79.215 Y83.021 E.01324
G1 X78.828 Y83.192 E.01327
G1 X78.418 Y83.293 E.01324
G1 X77.996 Y83.321 E.01326
G1 X77.575 Y83.276 E.01328
G1 X77.169 Y83.158 E.01326
G1 X76.789 Y82.972 E.01327
G1 X76.448 Y82.722 E.01326
G1 X76.155 Y82.417 E.01326
G1 X75.92 Y82.066 E.01324
G1 X75.749 Y81.679 E.01327
G1 X75.648 Y81.268 E.01327
G1 X75.619 Y80.945 E.01017
G1 X75.665 Y80.426 E.01634
G1 X75.782 Y80.02 E.01325
G1 X75.969 Y79.64 E.01328
G1 X76.218 Y79.299 E.01324
G1 X76.523 Y79.006 E.01326
G1 X76.875 Y78.77 E.01329
G1 X77.158 Y78.645 E.0097
M204 S1000
G1 X77.383 Y78.957 F10800
M204 S800
;TYPE:External perimeter
G1 F1200
G1 X77.705 Y78.874 E.01043
G1 X78.037 Y78.847 E.01044
G1 X78.417 Y78.879 E.01196
G1 X78.762 Y78.975 E.01123
G1 X79.084 Y79.128 E.01118
G1 X79.375 Y79.336 E.01122
G1 X79.626 Y79.59 E.0112
G1 X79.829 Y79.885 E.01123
G1 X79.977 Y80.21 E.0112
G1 X80.061 Y80.532 E.01043
G1 X80.095 Y80.912 E.01196
G1 X80.061 Y81.268 E.01121
G1 X79.966 Y81.612 E.01119
G1 X79.812 Y81.935 E.01122
G1 X79.605 Y82.226 E.0112
G1 X79.35 Y82.477 E.01122
G1 X79.056 Y82.679 E.01118
G1 X78.731 Y82.828 E.01121
G1 X78.385 Y82.917 E.0112
G1 X78.029 Y82.946 E.0112
G1 X77.673 Y82.912 E.01121
G1 X77.328 Y82.817 E.01122
G1 X77.006 Y82.663 E.01119
G1 X76.715 Y82.456 E.0112
G1 X76.464 Y82.201 E.01122
G1 X76.261 Y81.906 E.01123
G1 X76.113 Y81.581 E.0112
G1 X76.023 Y81.235 E.01121
G1 X75.995 Y80.912 E.01017
G1 X76.029 Y80.523 E.01224
G1 X76.124 Y80.179 E.01119
G1 X76.278 Y79.856 E.01122
G1 X76.485 Y79.565 E.0112
G1 X76.74 Y79.315 E.0112
G1 X77.034 Y79.112 E.0112
G1 X77.327 Y78.978 E.0101
M204 S1000
;WIPE_START
G1 F8640
G1 X77.383 Y78.957 E-.01381
G1 X77.705 Y78.874 E-.07678
G1 X78.037 Y78.847 E-.07691
G1 X78.417 Y78.879 E-.08805
G1 X78.762 Y78.975 E-.08269
G1 X79.084 Y79.128 E-.08232
G1 X79.375 Y79.336 E-.08259
G1 X79.626 Y79.59 E-.08245
G1 X79.829 Y79.885 E-.08269
G1 X79.977 Y80.21 E-.08246
G1 X80.031 Y80.417 E-.04925
;WIPE_END
G1 Z.6 F720
G1 X183.481 Y73.512 F10800
G1 Z.2 F720
G1 E.8 F2100
M204 S800
;TYPE:Solid infill
;WIDTH:0.420158
G1 F1200
G1 X184.074 Y74.105 E.02631
G1 X184.074 Y74.639 E.01675
G1 X183.117 Y73.682 E.04245
G1 X182.583 Y73.682 E.01675
G1 X184.074 Y75.172 E.06612
G1 X184.074 Y75.706 E.01675
G1 X182.05 Y73.682 E.08979
G1 X181.516 Y73.682 E.01675
G1 X184.074 Y76.239 E.11345
G1 X184.074 Y76.773 E.01675
G1 X180.983 Y73.682 E.13712
G1 X180.449 Y73.682 E.01675
G1 X184.074 Y77.306 E.16078
G1 X184.074 Y77.84 E.01675
G1 X179.916 Y73.682 E.18445
G1 X179.382 Y73.682 E.01675
G1 X184.074 Y78.373 E.20812
G1 X184.074 Y78.907 E.01675
G1 X178.849 Y73.682 E.23178
G1 X178.315 Y73.682 E.01675
G1 X184.074 Y79.44 E.25545
G1 X184.074 Y79.974 E.01675
G1 X177.782 Y73.682 E.27912
G1 X177.248 Y73.682 E.01675
G1 X184.074 Y80.507 E.30278
G1 X184.074 Y81.041 E.01675
G1 X176.715 Y73.682 E.32645
G1 X176.181 Y73.682 E.01675
G1 X184.074 Y81.574 E.35011
G1 X184.074 Y82.108 E.01675
G1 X175.648 Y73.682 E.37378
G1 X175.114 Y73.682 E.01675
G1 X184.074 Y82.641 E.39745
G1 X184.074 Y83.175 E.01675
G1 X174.581 Y73.682 E.42111
G1 X174.047 Y73.682 E.01675
G1 X184.074 Y83.708 E.44478
G1 X184.074 Y84.242 E.01675
G1 X173.514 Y73.682 E.46844
G1 X172.98 Y73.682 E.01675
