; generated by PrusaSlicer 2.7.0+win64 on 2023-12-24 at 23:51:47 UTC


;
;
; 

; external perimeters extrusion width = 0.45mm
; perimeters extrusion width = 0.45mm
; infill extrusion width = 0.45mm
; solid infill extrusion width = 0.45mm
; top infill extrusion width = 0.40mm
; first layer extrusion width = 0.42mm

M73 P0 R24
M73 Q0 S24
M201 X1000 Y1000 Z200 E5000 ; sets maximum accelerations, mm/sec^2
M203 X200 Y200 Z12 E120 ; sets maximum feedrates, mm / sec
M204 S1250 T1250 ; sets acceleration (S) and retract acceleration (R), mm/sec^2
M205 X8.00 Y8.00 Z0.40 E4.50 ; sets the jerk limits, mm/sec
M205 S0 T0 ; sets the minimum extruding and travel feed rate, mm/sec

; printing object 3x3_cali_rl.stl id:0 copy 0
; stop printing object 3x3_cali_rl.stl id:0 copy 0

;TYPE:Custom
M862.3 P "MK3S" ; printer model check
M862.1 P0.4 ; nozzle diameter check
M115 U3.13.2 ; tell printer latest fw version
G90 ; use absolute coordinates
M83 ; extruder relative mode
M104 S215 ; set extruder temp
M140 S60 ; set bed temp
M190 S60 ; wait for bed temp
M109 S215 ; wait for extruder temp
G28 W ; home all without mesh bed level
G80 X17.4433 Y15.4777 W215.113 H179.045 ; mesh bed levelling

G1 Z0.2 F720
G1 Y-3 F1000 ; go outside print area
G92 E0
G1 X60 E9 F1000 ; intro line
G1 X100 E12.5 F1000 ; intro line

G92 E0
M221 S95

; Don't change E values below. Excessive value can damage the printer.

M907 E538 ; set extruder motor current
G21 ; set units to millimeters
G90 ; use absolute coordinates
M83 ; use relative distances for extrusion
M900 K0.05 ; Filament gcode LA 1.5
M900 K30 ; Filament gcode LA 1.0

M107
;LAYER_CHANGE
;Z:0.2
;HEIGHT:0.2
;BEFORE_LAYER_CHANGE
G92 E0.0
;0.2


G1 E-.8 F2100
G1 Z.2 F720
;AFTER_LAYER_CHANGE
;0.2
G1 X18.023 Y16.736 F10800
G1 Z.2 F720
G1 E.8 F2100
M204 S800
;TYPE:Skirt/Brim
;WIDTH:0.42
G1 F1200
G1 X19.069 Y15.86 E.04278
G1 X20.009 Y15.666 E.03009
G1 X229.991 Y15.666 E6.58384
G1 X231.298 Y16.058 E.04278
M73 P1 R23
M73 Q1 S23
G1 X232.174 Y17.104 E.04278
G1 X232.368 Y18.043 E.03006
G1 X232.368 Y191.957 E5.45295
G1 X231.977 Y193.264 E.04277
G1 X230.931 Y194.14 E.04278
G1 X229.991 Y194.334 E.03009
G1 X20.009 Y194.334 E6.58384
G1 X18.702 Y193.942 E.04278
M73 P2 R23
M73 Q2 S23
G1 X17.826 Y192.896 E.04278
G1 X17.632 Y191.957 E.03006
G1 X17.632 Y18.043 E5.45295
G1 X18.006 Y16.794 E.04088
M73 P3 R23
M73 Q3 S23
M204 S1000
; printing object 3x3_cali_rl.stl id:0 copy 0
;WIPE_START
G1 F8640
G1 X18.023 Y16.736 E-.01396
G1 X19.069 Y15.86 E-.31504
G1 X20.009 Y15.666 E-.22162
G1 X21.089 Y15.666 E-.24938
;WIPE_END
G1 Z.6 F720
G1 X203.93 Y180.94 F10800
G1 Z.2 F720
G1 E.8 F2100
M204 S800
;TYPE:Perimeter
;WIDTH:0.419999
G1 F1200
G1 X203.887 Y180.761 E.00577
G1 X203.693 Y180.545 E.0091
G1 X203.383 Y180.452 E.01015
G1 X139.84 Y180.454 E1.99234
G1 X139.579 Y180.545 E.00867
G1 X139.385 Y180.761 E.0091
G1 X139.324 Y181.017 E.00825
G1 X139.324 Y191.17 E.31834
G1 X114.068 Y191.17 E.79188
G1 X114.068 Y181.034 E.31781
G1 X114.007 Y180.778 E.00825
G1 X113.813 Y180.561 E.00913
G1 X113.503 Y180.468 E.01015
G1 X46.568 Y180.47 E2.0987
G1 X46.307 Y180.561 E.00867
G1 X46.113 Y180.778 E.00913
G1 X46.052 Y181.034 E.00825
G1 X46.052 Y191.17 E.31781
G1 X20.796 Y191.17 E.79188
G1 X20.796 Y165.914 E.79188
M73 P4 R23
M73 Q4 S23
G1 X31.207 Y165.914 E.32643
G1 X31.306 Y165.905 E.00312
G1 X31.57 Y165.782 E.00913
G1 X31.732 Y165.558 E.00867
G1 X31.772 Y165.348 E.0067
G1 X31.772 Y118.357 E1.47337
G1 X31.732 Y118.147 E.0067
G1 X31.649 Y118.004 E.00518
G1 X31.46 Y117.851 E.00762
G1 X31.207 Y117.791 E.00815
G1 X20.796 Y117.791 E.32643
G1 X20.796 Y92.535 E.79188
G1 X31.428 Y92.535 E.33336
G1 X31.527 Y92.527 E.00311
G1 X31.788 Y92.406 E.00902
G1 X31.953 Y92.182 E.00872
G1 X31.994 Y91.97 E.00677
G1 X31.994 Y44.652 E1.48362
G1 X31.953 Y44.439 E.0068
G1 X31.868 Y44.296 E.00522
G1 X31.679 Y44.145 E.00759
G1 X31.428 Y44.086 E.00808
G1 X20.796 Y44.086 E.33336
G1 X20.796 Y18.83 E.79188
G1 X46.052 Y18.83 E.79188
G1 X46.052 Y28.095 E.2905
G1 X46.121 Y28.366 E.00877
G1 X46.322 Y28.578 E.00916
G1 X46.617 Y28.661 E.00961
G1 X113.503 Y28.661 E2.09716
G1 X113.798 Y28.578 E.00961
M73 P5 R22
M73 Q5 S23
G1 X113.999 Y28.366 E.00916
G1 X114.068 Y28.095 E.00877
G1 X114.068 Y18.83 E.2905
G1 X139.324 Y18.83 E.79188
G1 X139.324 Y27.958 E.2862
M73 Q5 S22
G1 X139.394 Y28.231 E.00884
G1 X139.597 Y28.442 E.00918
G1 X139.89 Y28.524 E.00954
G1 X203.383 Y28.524 E1.99078
G1 X203.675 Y28.442 E.00951
G1 X203.878 Y28.231 E.00918
G1 X203.948 Y27.958 E.00884
G1 X203.948 Y18.83 E.2862
G1 X229.204 Y18.83 E.79188
G1 X229.204 Y44.086 E.79188
G1 X218.366 Y44.086 E.33982
G1 X218.266 Y44.095 E.00315
G1 X218.003 Y44.218 E.0091
G1 X217.841 Y44.442 E.00867
G1 X217.8 Y44.652 E.00671
G1 X217.802 Y92.019 E1.48516
G1 X217.925 Y92.324 E.01031
G1 X218.114 Y92.476 E.0076
G1 X218.366 Y92.535 E.00811
G1 X229.204 Y92.535 E.33982
G1 X229.204 Y117.791 E.79188
M73 Q6 S22
G1 X218.144 Y117.791 E.34678
M73 P6 R22
G1 X218.044 Y117.8 E.00315
G1 X217.78 Y117.924 E.00915
G1 X217.618 Y118.148 E.00867
G1 X217.579 Y118.357 E.00667
G1 X217.581 Y165.398 E1.47494
G1 X217.7 Y165.699 E.01015
G1 X217.889 Y165.853 E.00764
G1 X218.144 Y165.914 E.00822
G1 X229.204 Y165.914 E.34678
G1 X229.204 Y176.974 E.34678
G1 X229.204 Y191.17 E.4451
G1 X203.948 Y191.17 E.79188
G1 X203.948 Y181.017 E.31834
G1 X203.944 Y180.999 E.00058
M204 S1000
G1 X203.571 Y181.017 F10800
M204 S800
;TYPE:External perimeter
G1 F1200
G1 X203.533 Y180.903 E.00377
G1 X203.383 Y180.829 E.00524
G1 X139.89 Y180.829 E1.99078
G1 X139.757 Y180.883 E.0045
G1 X139.701 Y181.017 E.00455
G1 X139.701 Y191.547 E.33016
G1 X113.691 Y191.547 E.81552
G1 X113.691 Y181.034 E.32963
G1 X113.653 Y180.919 E.0038
G1 X113.503 Y180.845 E.00524
G1 X46.617 Y180.845 E2.09716
G1 X46.485 Y180.899 E.00447
M73 P7 R22
M73 Q7 S22
G1 X46.429 Y181.034 E.00458
G1 X46.429 Y191.547 E.32963
G1 X20.419 Y191.547 E.81552
G1 X20.419 Y165.537 E.81552
G1 X31.207 Y165.537 E.33825
G1 X31.328 Y165.493 E.00404
G1 X31.395 Y165.348 E.00501
G1 X31.395 Y118.357 E1.47337
G1 X31.354 Y118.239 E.00392
G1 X31.207 Y118.168 E.00512
G1 X20.419 Y118.168 E.33825
G1 X20.419 Y92.158 E.81552
G1 X31.428 Y92.158 E.34518
G1 X31.548 Y92.115 E.004
G1 X31.617 Y91.97 E.00503
G1 X31.617 Y44.652 E1.48362
G1 X31.575 Y44.533 E.00396
G1 X31.428 Y44.463 E.0051
G1 X20.419 Y44.463 E.34518
G1 X20.419 Y18.453 E.81552
G1 X46.429 Y18.453 E.81552
M73 P8 R22
M73 Q8 S22
G1 X46.429 Y28.095 E.30232
G1 X46.471 Y28.215 E.00399
G1 X46.617 Y28.284 E.00506
G1 X113.503 Y28.284 E2.09716
G1 X113.63 Y28.234 E.00428
G1 X113.691 Y28.095 E.00476
G1 X113.691 Y18.453 E.30232
G1 X139.701 Y18.453 E.81552
G1 X139.701 Y27.958 E.29802
G1 X139.744 Y28.078 E.004
G1 X139.89 Y28.146 E.00505
G1 X203.383 Y28.146 E1.99078
G1 X203.509 Y28.098 E.00423
G1 X203.571 Y27.958 E.0048
G1 X203.571 Y18.453 E.29802
G1 X229.581 Y18.453 E.81552
G1 X229.581 Y44.463 E.81552
G1 X218.366 Y44.463 E.35164
G1 X218.245 Y44.507 E.00404
M73 Q9 S22
G1 X218.177 Y44.652 E.00502
G1 X218.177 Y91.97 E1.48362
G1 X218.219 Y92.088 E.00393
M73 P9 R22
G1 X218.366 Y92.158 E.0051
G1 X229.581 Y92.158 E.35164
G1 X229.581 Y118.168 E.81552
M73 P9 R21
G1 X218.144 Y118.168 E.3586
G1 X218.023 Y118.212 E.00404
G1 X217.956 Y118.357 E.00501
G1 X217.956 Y165.348 E1.47337
G1 X217.996 Y165.465 E.00388
M73 Q9 S21
G1 X218.144 Y165.537 E.00516
G1 X229.581 Y165.537 E.3586
G1 X229.581 Y176.974 E.3586
G1 X229.581 Y191.547 E.45693
G1 X203.571 Y191.547 E.81552
G1 X203.571 Y181.077 E.32828
M204 S1000
;WIPE_START
G1 F8640
G1 X203.571 Y181.017 E-.01385
G1 X203.533 Y180.903 E-.02775
G1 X203.383 Y180.829 E-.03862
G1 X200.266 Y180.829 E-.71978
;WIPE_END
G1 Z.6 F720
G1 X160.506 Y103.26 F10800
G1 Z.2 F720
G1 E.8 F2100
M204 S800
;TYPE:Perimeter
G1 F1200
G1 X160.422 Y103.347 E.00379
G1 X160.13 Y103.429 E.00951
G1 X139.89 Y103.429 E.63461
G1 X139.714 Y103.401 E.00559
G1 X139.494 Y103.267 E.00808
G1 X139.345 Y103.015 E.00918
G1 X139.324 Y102.863 E.00481
G1 X139.324 Y92.535 E.32383
G1 X128.53 Y92.535 E.33844
G1 X128.279 Y92.477 E.00808
M73 Q10 S21
G1 X128.09 Y92.325 E.0076
G1 X127.966 Y92.019 E.01035
G1 X127.964 Y91.97 E.00154
G1 X127.964 Y44.652 E1.48362
G1 X128.005 Y44.441 E.00674
M73 P10 R21
G1 X128.168 Y44.217 E.00869
G1 X128.431 Y44.095 E.00909
G1 X128.53 Y44.086 E.00312
G1 X139.324 Y44.086 E.33844
G1 X139.324 Y32.881 E.35132
G1 X139.394 Y32.608 E.00884
G1 X139.597 Y32.397 E.00918
G1 X139.89 Y32.315 E.00954
G1 X203.383 Y32.315 E1.99078
G1 X203.675 Y32.397 E.00951
G1 X203.878 Y32.608 E.00918
G1 X203.948 Y32.881 E.00884
G1 X203.948 Y44.086 E.35132
G1 X214.337 Y44.086 E.32574
G1 X214.591 Y44.146 E.00818
G1 X214.779 Y44.299 E.0076
G1 X214.863 Y44.442 E.0052
G1 X214.903 Y44.652 E.0067
G1 X214.903 Y91.97 E1.48362
G1 X214.862 Y92.181 E.00674
G1 X214.698 Y92.405 E.0087
G1 X214.436 Y92.527 E.00906
G1 X214.276 Y92.535 E.00502
G1 X203.948 Y92.535 E.32383
G1 X203.948 Y102.866 E.32392
G1 X203.887 Y103.119 E.00816
G1 X203.693 Y103.336 E.00913
G1 X203.383 Y103.429 E.01015
G1 X181.996 Y103.427 E.67057
G1 X181.752 Y103.347 E.00805
G1 X181.55 Y103.136 E.00916
G1 X181.479 Y102.863 E.00884
G1 X181.479 Y95.186 E.24071
G1 X160.695 Y95.186 E.65167
G1 X160.695 Y102.863 E.24071
G1 X160.625 Y103.136 E.00884
G1 X160.548 Y103.217 E.0035
M204 S1000
G1 X160.256 Y103.003 F10800
M204 S800
;TYPE:External perimeter
G1 F1200
G1 X160.13 Y103.052 E.00424
G1 X139.89 Y103.052 E.63461
G1 X139.74 Y102.978 E.00524
M73 P11 R21
M73 Q11 S21
G1 X139.701 Y102.863 E.00381
G1 X139.701 Y92.158 E.33565
G1 X128.53 Y92.158 E.35026
G1 X128.383 Y92.088 E.0051
G1 X128.341 Y91.97 E.00393
G1 X128.341 Y44.652 E1.48362
G1 X128.409 Y44.507 E.00502
G1 X128.53 Y44.463 E.00404
G1 X139.701 Y44.463 E.35026
G1 X139.701 Y32.881 E.36314
G1 X139.763 Y32.741 E.0048
G1 X139.89 Y32.692 E.00427
G1 X203.383 Y32.692 E1.99078
G1 X203.528 Y32.761 E.00503
G1 X203.571 Y32.881 E.004
G1 X203.571 Y44.463 E.36314
G1 X214.337 Y44.463 E.33756
G1 X214.485 Y44.534 E.00515
G1 X214.526 Y44.652 E.00392
G1 X214.526 Y91.97 E1.48362
G1 X214.457 Y92.115 E.00503
G1 X214.276 Y92.158 E.00583
G1 X203.571 Y92.158 E.33565
G1 X203.571 Y102.864 E.33568
G1 X203.515 Y102.998 E.00455
G1 X203.383 Y103.052 E.00447
G1 X182.029 Y103.051 E.66954
G1 X181.888 Y102.967 E.00515
G1 X181.856 Y102.863 E.00341
G1 X181.856 Y94.809 E.25253
G1 X160.318 Y94.809 E.67531
M73 Q12 S21
G1 X160.318 Y102.863 E.25253
M73 P12 R21
G1 X160.281 Y102.948 E.00291
M204 S1000
;WIPE_START
G1 F8640
G1 X160.256 Y103.003 E-.01395
G1 X160.13 Y103.052 E-.03122
G1 X156.861 Y103.052 E-.75483
;WIPE_END
G1 Z.6 F720
G1 X90.342 Y107.39 F10800
G1 Z.2 F720
G1 E.8 F2100
M204 S800
;TYPE:Perimeter
G1 F1200
G1 X90.426 Y107.302 E.00381
G1 X90.719 Y107.221 E.00953
G1 X113.503 Y107.221 E.71438
G1 X113.679 Y107.249 E.00559
G1 X113.9 Y107.383 E.0081
G1 X114.048 Y107.635 E.00916
G1 X114.068 Y107.786 E.00478
G1 X114.068 Y117.791 E.3137
G1 X124.279 Y117.791 E.32016
G1 X124.533 Y117.851 E.00818
G1 X124.722 Y118.004 E.00762
G1 X124.805 Y118.147 E.00518
G1 X124.845 Y118.357 E.0067
G1 X124.845 Y165.348 E1.47337
G1 X124.805 Y165.557 E.00667
G1 X124.643 Y165.781 E.00867
G1 X124.38 Y165.905 E.00912
G1 X124.265 Y165.914 E.00362
G1 X114.068 Y165.914 E.31972
G1 X114.068 Y176.111 E.31972
G1 X114.007 Y176.367 E.00825
G1 X113.813 Y176.583 E.0091
G1 X113.503 Y176.676 E.01015
G1 X46.617 Y176.676 E2.09716
G1 X46.441 Y176.648 E.00559
G1 X46.22 Y176.514 E.0081
G1 X46.072 Y176.262 E.00916
G1 X46.052 Y176.111 E.00478
G1 X46.052 Y165.914 E.31972
G1 X35.235 Y165.914 E.33916
G1 X34.981 Y165.854 E.00818
G1 X34.793 Y165.701 E.0076
G1 X34.672 Y165.398 E.01023
G1 X34.67 Y165.348 E.00157
G1 X34.67 Y118.357 E1.47337
G1 X34.71 Y118.147 E.0067
M73 P13 R21
M73 Q13 S21
G1 X34.872 Y117.923 E.00867
G1 X35.135 Y117.8 E.0091
G1 X46.052 Y117.791 E.34229
G1 X46.052 Y107.786 E.3137
G1 X46.113 Y107.53 E.00825
G1 X46.308 Y107.313 E.00915
G1 X46.617 Y107.221 E.01011
G1 X68.803 Y107.221 E.69563
G1 X69.096 Y107.302 E.00953
G1 X69.299 Y107.513 E.00918
G1 X69.369 Y107.786 E.00884
G1 X69.369 Y115.97 E.2566
G1 X90.153 Y115.97 E.65167
G1 X90.153 Y107.786 E.2566
G1 X90.223 Y107.513 E.00884
M73 P13 R20
G1 X90.3 Y107.433 E.00348
M204 S1000
G1 X90.592 Y107.647 F10800
M204 S800
;TYPE:External perimeter
G1 F1200
G1 X90.719 Y107.598 E.00427
G1 X113.562 Y107.607 E.71623
G1 X113.679 Y107.719 E.00508
G1 X113.691 Y107.786 E.00213
G1 X113.691 Y118.168 E.32552
G1 X124.279 Y118.168 E.33198
G1 X124.427 Y118.239 E.00515
M73 Q13 S20
G1 X124.468 Y118.357 E.00392
G1 X124.468 Y165.348 E1.47337
G1 X124.401 Y165.493 E.00501
G1 X124.265 Y165.537 E.00448
G1 X113.691 Y165.537 E.33154
G1 X113.691 Y176.111 E.33154
G1 X113.635 Y176.245 E.00455
G1 X113.503 Y176.299 E.00447
G1 X46.617 Y176.299 E2.09716
G1 X46.467 Y176.225 E.00524
G1 X46.429 Y176.111 E.00377
G1 X46.429 Y165.537 E.33154
G1 X35.235 Y165.537 E.35098
M73 Q14 S20
G1 X35.088 Y165.466 E.00512
M73 P14 R20
G1 X35.047 Y165.348 E.00392
G1 X35.047 Y118.357 E1.47337
G1 X35.114 Y118.212 E.00501
G1 X35.235 Y118.168 E.00404
G1 X46.429 Y118.168 E.35098
G1 X46.429 Y107.786 E.32552
G1 X46.485 Y107.652 E.00455
G1 X46.617 Y107.598 E.00447
G1 X68.803 Y107.598 E.69563
G1 X68.949 Y107.666 E.00505
G1 X68.992 Y107.786 E.004
G1 X68.992 Y116.347 E.26842
G1 X90.53 Y116.347 E.67531
G1 X90.53 Y107.786 E.26842
G1 X90.568 Y107.701 E.00292
M204 S1000
;WIPE_START
G1 F8640
G1 X90.592 Y107.647 E-.01364
G1 X90.719 Y107.598 E-.03143
G1 X93.988 Y107.599 E-.75493
;WIPE_END
G1 Z.6 F720
G1 X160.539 Y107.423 F10800
G1 Z.2 F720
G1 E.8 F2100
M204 S800
;TYPE:Perimeter
G1 F1200
G1 X160.625 Y107.513 E.0039
G1 X160.695 Y107.786 E.00884
G1 X160.695 Y115.97 E.2566
G1 X181.479 Y115.97 E.65167
G1 X181.479 Y107.786 E.2566
G1 X181.55 Y107.513 E.00884
G1 X181.752 Y107.302 E.00916
G1 X182.045 Y107.221 E.00953
G1 X203.383 Y107.221 E.66904
G1 X203.693 Y107.313 E.01014
G1 X203.887 Y107.53 E.00913
G1 X203.948 Y107.786 E.00825
G1 X203.948 Y117.791 E.3137
G1 X214.115 Y117.791 E.31878
G1 X214.37 Y117.851 E.00821
G1 X214.559 Y118.005 E.00764
G1 X214.641 Y118.148 E.00517
G1 X214.681 Y118.357 E.00667
G1 X214.681 Y165.348 E1.47337
G1 X214.641 Y165.556 E.00664
M73 Q15 S20
G1 X214.48 Y165.781 E.00867
G1 X214.216 Y165.905 E.00915
G1 X214.115 Y165.914 E.00318
G1 X203.948 Y165.914 E.31878
G1 X203.948 Y176.094 E.31919
M73 P15 R20
G1 X203.887 Y176.35 E.00825
G1 X203.693 Y176.567 E.00913
G1 X203.383 Y176.66 E.01015
G1 X139.89 Y176.66 E1.99078
G1 X139.713 Y176.631 E.00562
G1 X139.493 Y176.497 E.00808
G1 X139.345 Y176.245 E.00916
G1 X139.324 Y176.094 E.00478
G1 X139.324 Y165.914 E.31919
G1 X128.192 Y165.902 E.34904
G1 X127.944 Y165.781 E.00865
G1 X127.782 Y165.557 E.00867
G1 X127.742 Y165.348 E.00667
G1 X127.742 Y118.357 E1.47337
G1 X127.783 Y118.147 E.00671
G1 X127.945 Y117.923 E.00867
G1 X128.208 Y117.8 E.0091
G1 X128.308 Y117.791 E.00315
G1 X139.324 Y117.791 E.3454
G1 X139.324 Y107.786 E.3137
G1 X139.386 Y107.529 E.00829
G1 X139.58 Y107.313 E.0091
G1 X139.89 Y107.221 E.01014
G1 X160.13 Y107.221 E.63461
G1 X160.422 Y107.302 E.0095
G1 X160.497 Y107.38 E.00339
M204 S1000
G1 X160.275 Y107.666 F10800
M204 S800
;TYPE:External perimeter
G1 F1200
G1 X160.318 Y107.786 E.004
G1 X160.318 Y116.347 E.26842
G1 X181.856 Y116.347 E.67531
G1 X181.856 Y107.786 E.26842
G1 X181.918 Y107.647 E.00477
G1 X182.045 Y107.598 E.00427
G1 X203.383 Y107.598 E.66904
G1 X203.533 Y107.672 E.00524
G1 X203.571 Y107.786 E.00377
G1 X203.571 Y118.168 E.32552
G1 X214.115 Y118.168 E.3306
G1 X214.263 Y118.239 E.00515
G1 X214.304 Y118.357 E.00392
G1 X214.304 Y165.348 E1.47337
G1 X214.237 Y165.492 E.00498
M73 P16 R20
M73 Q16 S20
G1 X214.115 Y165.537 E.00408
G1 X203.571 Y165.537 E.3306
G1 X203.571 Y176.094 E.33101
G1 X203.515 Y176.228 E.00455
G1 X203.383 Y176.283 E.00448
G1 X139.89 Y176.283 E1.99078
G1 X139.74 Y176.208 E.00526
G1 X139.701 Y176.094 E.00378
G1 X139.701 Y165.537 E.33101
G1 X128.269 Y165.533 E.35844
G1 X128.16 Y165.466 E.00401
G1 X128.12 Y165.348 E.00391
G1 X128.12 Y118.357 E1.47337
G1 X128.187 Y118.212 E.00501
G1 X128.308 Y118.168 E.00404
G1 X139.701 Y118.168 E.35722
G1 X139.701 Y107.786 E.32552
G1 X139.758 Y107.652 E.00457
G1 X139.89 Y107.598 E.00447
G1 X160.13 Y107.598 E.63461
G1 X160.221 Y107.641 E.00316
