; generated by PrusaSlicer 2.7.0+win64 on 2024-04-13 at 17:34:02 UTC


;
;
; 

; external perimeters extrusion width = 0.45mm
; perimeters extrusion width = 0.45mm
; infill extrusion width = 0.45mm
; solid infill extrusion width = 0.45mm
; top infill extrusion width = 0.40mm
; first layer extrusion width = 0.42mm

M73 P0 R28
M73 Q0 S28
M201 X1000 Y1000 Z200 E5000 ; sets maximum accelerations, mm/sec^2
M203 X200 Y200 Z12 E120 ; sets maximum feedrates, mm / sec
M204 S1250 T1250 ; sets acceleration (S) and retract acceleration (R), mm/sec^2
M205 X8.00 Y8.00 Z0.40 E4.50 ; sets the jerk limits, mm/sec
M205 S0 T0 ; sets the minimum extruding and travel feed rate, mm/sec

; printing object AAA_1_Battery_Holder.stl id:0 copy 0
; stop printing object AAA_1_Battery_Holder.stl id:0 copy 0

;TYPE:Custom
M862.3 P "MK3S" ; printer model check
M862.1 P0.4 ; nozzle diameter check
M115 U3.13.2 ; tell printer latest fw version
G90 ; use absolute coordinates
M83 ; extruder relative mode
M104 S215 ; set extruder temp
M140 S60 ; set bed temp
M190 S60 ; wait for bed temp
M109 S215 ; wait for extruder temp
G28 W ; home all without mesh bed level
G80 X97.9364 Y96.35 W54.1272 H17.3015 ; mesh bed levelling

G1 Z0.2 F720
G1 Y-3 F1000 ; go outside print area
G92 E0
G1 X60 E9 F1000 ; intro line
G1 X100 E12.5 F1000 ; intro line

G92 E0
M221 S95

; Don't change E values below. Excessive value can damage the printer.
M907 E430 ; set extruder motor current
G21 ; set units to millimeters
G90 ; use absolute coordinates
M83 ; use relative distances for extrusion
M900 K0.05 ; Filament gcode LA 1.5
M900 K30 ; Filament gcode LA 1.0

M107
;LAYER_CHANGE
;Z:0.2
;HEIGHT:0.2
;BEFORE_LAYER_CHANGE
G92 E0.0
;0.2


G1 E-.8 F2100
G1 Z.2 F720
;AFTER_LAYER_CHANGE
;0.2
G1 X98.521 Y100.025 F10800
G1 Z.2 F720
G1 E.8 F2100
M204 S800
;TYPE:Skirt/Brim
;WIDTH:0.42
G1 F1200
G1 X100.067 Y98.998 E.05819
G1 X112.62 Y96.652 E.4004
G1 X113.505 Y96.554 E.02792
G1 X136.064 Y96.539 E.70732
G1 X137.378 Y96.652 E.04135
G1 X149.933 Y98.998 E.40047
G1 X151.146 Y99.624 E.0428
G1 X151.873 Y101.334 E.05826
G1 X151.873 Y108.671 E.23005
G1 X151.479 Y109.977 E.04277
G1 X149.933 Y111.004 E.05819
G1 X136.831 Y113.421 E.41774
G1 X113.918 Y113.462 E.71842
G1 X112.611 Y113.348 E.04114
G1 X100.067 Y111.004 E.40012
G1 X98.855 Y110.379 E.04276
G1 X98.127 Y108.668 E.0583
G1 X98.127 Y101.331 E.23005
G1 X98.503 Y100.082 E.0409
M204 S1000
; printing object AAA_1_Battery_Holder.stl id:0 copy 0
;WIPE_START
G1 F8640
G1 X98.521 Y100.025 E-.0138
G1 X100.067 Y98.998 E-.42856
G1 X101.59 Y98.714 E-.35764
;WIPE_END
G1 Z.6 F720
G1 X140.284 Y101.948 F10800
G1 Z.2 F720
G1 E.8 F2100
M204 S800
;TYPE:Perimeter
;WIDTH:0.419999
G1 F1200
G1 X140.398 Y102.056 E.00492
G1 X140.663 Y102.122 E.00856
G1 X148.384 Y102.122 E.24209
G1 X148.384 Y105.001 E.09027
G1 X148.384 Y107.88 E.09027
G1 X140.663 Y107.88 E.24209
G1 X140.446 Y107.923 E.00694
G1 X140.224 Y108.088 E.00867
G1 X139.894 Y108.495 E.01643
G1 X139.355 Y109.005 E.02327
G1 X138.912 Y109.343 E.01747
G1 X138.436 Y109.627 E.01738
G1 X137.955 Y109.853 E.01666
G1 X137.352 Y110.056 E.01995
G1 X136.819 Y110.168 E.01708
G1 X136.272 Y110.226 E.01725
G1 X135.728 Y110.226 E.01706
G1 X135.181 Y110.168 E.01725
G1 X134.648 Y110.056 E.01708
G1 X134.114 Y109.876 E.01767
G1 X133.627 Y109.664 E.01665
G1 X133.152 Y109.389 E.01721
G1 X132.708 Y109.066 E.01722
G1 X132.304 Y108.704 E.01701
G1 X131.881 Y108.211 E.02037
G1 X131.601 Y107.946 E.01209
G1 X131.337 Y107.88 E.00853
G1 X118.663 Y107.88 E.39738
G1 X118.446 Y107.923 E.00694
G1 X118.224 Y108.088 E.00867
G1 X117.894 Y108.495 E.01643
G1 X117.355 Y109.005 E.02327
G1 X116.912 Y109.343 E.01747
G1 X116.436 Y109.627 E.01738
G1 X115.955 Y109.853 E.01666
G1 X115.352 Y110.056 E.01995
G1 X114.819 Y110.168 E.01708
G1 X114.274 Y110.226 E.01718
G1 X113.726 Y110.226 E.01718
G1 X113.181 Y110.168 E.01718
G1 X112.648 Y110.056 E.01708
G1 X112.114 Y109.876 E.01767
G1 X111.627 Y109.664 E.01665
M73 Q1 S28
G1 X111.152 Y109.389 E.01721
G1 X110.708 Y109.066 E.01722
G1 X110.304 Y108.704 E.01701
G1 X109.881 Y108.211 E.02037
G1 X109.601 Y107.946 E.01209
G1 X109.337 Y107.88 E.00853
G1 X101.616 Y107.88 E.24209
G1 X101.616 Y102.122 E.18054
M73 P1 R28
G1 X109.337 Y102.122 E.24209
G1 X109.553 Y102.079 E.00691
G1 X109.776 Y101.913 E.00872
G1 X110.107 Y101.505 E.01647
G1 X110.643 Y100.997 E.02315
G1 X111.089 Y100.658 E.01757
G1 X111.565 Y100.374 E.01738
G1 X112.043 Y100.149 E.01656
G1 X112.648 Y99.946 E.02001
G1 X113.181 Y99.833 E.01708
G1 X113.725 Y99.776 E.01715
G1 X114.268 Y99.776 E.01703
G1 X115.095 Y99.884 E.02615
G1 X115.61 Y100.022 E.01672
G1 X116.38 Y100.342 E.02614
G1 X116.849 Y100.613 E.01698
G1 X117.292 Y100.934 E.01715
G1 X117.695 Y101.298 E.01703
G1 X118.118 Y101.79 E.02034
G1 X118.398 Y102.056 E.01211
G1 X118.663 Y102.122 E.00856
G1 X131.337 Y102.122 E.39738
G1 X131.553 Y102.079 E.00691
G1 X131.776 Y101.913 E.00872
G1 X132.107 Y101.505 E.01647
G1 X132.643 Y100.997 E.02315
G1 X133.089 Y100.658 E.01757
G1 X133.565 Y100.374 E.01738
G1 X134.037 Y100.153 E.01634
G1 X134.922 Y99.881 E.02903
G1 X135.453 Y99.797 E.01686
G1 X136 Y99.769 E.01717
G1 X136.547 Y99.797 E.01717
G1 X137.088 Y99.882 E.01717
G1 X137.61 Y100.022 E.01695
G1 X138.38 Y100.342 E.02614
G1 X138.849 Y100.613 E.01698
G1 X139.292 Y100.934 E.01715
G1 X139.695 Y101.298 E.01703
G1 X140.118 Y101.79 E.02034
G1 X140.24 Y101.906 E.00528
M204 S1000
G1 X140.52 Y101.679 F10800
M204 S800
;TYPE:External perimeter
G1 F1200
G1 X140.663 Y101.745 E.00494
G1 X148.761 Y101.745 E.25391
G1 X148.761 Y105.001 E.10209
G1 X148.761 Y108.257 E.10209
G1 X140.663 Y108.257 E.25391
G1 X140.517 Y108.327 E.00508
G1 X140.171 Y108.752 E.01718
G1 X139.614 Y109.279 E.02404
G1 X139.134 Y109.648 E.01898
G1 X138.624 Y109.954 E.01865
G1 X138.093 Y110.204 E.0184
G1 X137.451 Y110.42 E.02124
G1 X136.878 Y110.541 E.01836
G1 X136.292 Y110.603 E.01848
G1 X135.708 Y110.603 E.01831
G1 X135.122 Y110.541 E.01848
G1 X134.549 Y110.42 E.01836
G1 X133.994 Y110.233 E.01836
G1 X133.455 Y110 E.01841
G1 X132.946 Y109.706 E.01843
G1 X132.471 Y109.36 E.01843
G1 X132.034 Y108.968 E.01841
G1 X131.48 Y108.323 E.02666
G1 X131.337 Y108.257 E.00494
G1 X118.663 Y108.257 E.39738
G1 X118.517 Y108.327 E.00508
G1 X118.171 Y108.752 E.01718
G1 X117.614 Y109.279 E.02404
G1 X117.134 Y109.648 E.01898
G1 X116.624 Y109.954 E.01865
G1 X116.093 Y110.204 E.0184
G1 X115.451 Y110.42 E.02124
G1 X114.878 Y110.541 E.01836
G1 X114.294 Y110.603 E.01841
G1 X113.706 Y110.603 E.01844
G1 X113.122 Y110.541 E.01841
G1 X112.549 Y110.42 E.01836
G1 X111.994 Y110.233 E.01836
G1 X111.455 Y110 E.01841
G1 X110.946 Y109.706 E.01843
G1 X110.471 Y109.36 E.01843
G1 X110.034 Y108.968 E.01841
G1 X109.48 Y108.323 E.02666
G1 X109.337 Y108.257 E.00494
G1 X101.239 Y108.257 E.25391
G1 X101.239 Y101.745 E.20418
G1 X109.337 Y101.745 E.25391
G1 X109.483 Y101.675 E.00508
G1 X109.83 Y101.248 E.01725
G1 X110.384 Y100.723 E.02393
G1 X110.868 Y100.353 E.0191
G1 X111.377 Y100.047 E.01862
G1 X111.905 Y99.798 E.0183
G1 X112.549 Y99.582 E.0213
G1 X113.122 Y99.46 E.01837
G1 X113.705 Y99.399 E.01838
G1 X114.293 Y99.399 E.01844
G1 X115.169 Y99.514 E.0277
G1 X115.732 Y99.664 E.01827
G1 X116.547 Y100.004 E.02769
G1 X117.055 Y100.297 E.01839
G1 X117.53 Y100.641 E.01839
G1 X117.966 Y101.034 E.0184
G1 X118.52 Y101.679 E.02666
G1 X118.663 Y101.745 E.00494
G1 X131.337 Y101.745 E.39738
G1 X131.483 Y101.675 E.00508
G1 X131.83 Y101.248 E.01725
G1 X132.384 Y100.723 E.02393
G1 X132.868 Y100.353 E.0191
G1 X133.377 Y100.048 E.01861
G1 X133.903 Y99.799 E.01825
G1 X134.837 Y99.512 E.03064
G1 X135.414 Y99.421 E.01832
G1 X136 Y99.391 E.0184
G1 X136.586 Y99.421 E.0184
G1 X137.166 Y99.513 E.01841
G1 X137.732 Y99.664 E.01837
G1 X138.547 Y100.004 E.02769
G1 X139.055 Y100.296 E.01837
G1 X139.53 Y100.641 E.01841
G1 X139.966 Y101.034 E.0184
G1 X140.481 Y101.634 E.02479
M204 S1000
;WIPE_START
G1 F8640
G1 X140.52 Y101.679 E-.01375
G1 X140.663 Y101.745 E-.03637
G1 X143.911 Y101.745 E-.74988
;WIPE_END
G1 Z.6 F720
G1 X134.732 Y103.104 F10800
G1 Z.2 F720
G1 E.8 F2100
M204 S800
;TYPE:Perimeter
G1 F1200
G1 X134.777 Y103.068 E.00181
G1 X135.175 Y102.868 E.01397
G1 X135.61 Y102.748 E.01415
G1 X135.995 Y102.719 E.01211
G1 X136.502 Y102.77 E.01598
G1 X137.031 Y102.966 E.01769
G1 X137.425 Y103.221 E.01472
G1 X137.655 Y103.424 E.00962
G1 X137.931 Y103.777 E.01405
G1 X138.131 Y104.176 E.01399
G1 X138.252 Y104.608 E.01407
G1 X138.286 Y105.059 E.01418
G1 X138.23 Y105.502 E.014
G1 X138.09 Y105.926 E.014
G1 X137.869 Y106.318 E.01411
G1 X137.575 Y106.657 E.01407
G1 X137.226 Y106.929 E.01387
G1 X136.823 Y107.134 E.01418
G1 X136.393 Y107.252 E.01398
G1 X136.059 Y107.286 E.01053
G1 X135.545 Y107.242 E.01618
G1 X135.001 Y107.053 E.01806
G1 X134.574 Y106.78 E.01589
G1 X134.345 Y106.578 E.00957
G1 X134.069 Y106.225 E.01405
G1 X133.868 Y105.825 E.01404
G1 X133.748 Y105.395 E.014
G1 X133.714 Y104.943 E.01421
G1 X133.77 Y104.5 E.014
G1 X133.909 Y104.077 E.01396
G1 X134.132 Y103.683 E.0142
G1 X134.42 Y103.349 E.01383
G1 X134.684 Y103.141 E.01054
M204 S1000
G1 X134.794 Y103.531 F10800
M204 S800
;TYPE:External perimeter
G1 F1200
G1 X134.954 Y103.401 E.00646
G1 X135.285 Y103.229 E.0117
G1 X135.782 Y103.11 E.01602
G1 X136.35 Y103.123 E.01781
G1 X136.853 Y103.299 E.01671
G1 X137.185 Y103.512 E.01237
G1 X137.364 Y103.664 E.00736
G1 X137.598 Y103.954 E.01168
G1 X137.77 Y104.285 E.0117
G1 X137.894 Y104.813 E.01701
G1 X137.894 Y105.189 E.01179
G1 X137.771 Y105.715 E.01694
G1 X137.578 Y106.078 E.01289
G1 X137.337 Y106.365 E.01175
G1 X137.046 Y106.598 E.01169
G1 X136.716 Y106.773 E.01171
G1 X136.355 Y106.877 E.01178
G1 X136.021 Y106.911 E.01053
G1 X135.567 Y106.857 E.01434
G1 X135.18 Y106.721 E.01286
G1 X134.814 Y106.489 E.01359
G1 X134.636 Y106.338 E.00732
G1 X134.402 Y106.048 E.01168
G1 X134.229 Y105.715 E.01177
G1 X134.106 Y105.189 E.01694
G1 X134.106 Y104.813 E.01179
G1 X134.229 Y104.288 E.01691
G1 X134.423 Y103.923 E.01296
G1 X134.661 Y103.639 E.01162
G1 X134.747 Y103.569 E.00348
M204 S1000
;WIPE_START
G1 F8640
G1 X134.794 Y103.531 E-.01396
G1 X134.954 Y103.401 E-.0476
G1 X135.285 Y103.229 E-.08613
G1 X135.782 Y103.11 E-.118
G1 X136.35 Y103.123 E-.13119
G1 X136.853 Y103.299 E-.12305
G1 X137.185 Y103.512 E-.09108
G1 X137.364 Y103.664 E-.05422
G1 X137.598 Y103.954 E-.08604
G1 X137.696 Y104.142 E-.04873
;WIPE_END
G1 Z.6 F720
G1 X115.896 Y103.732 F10800
G1 Z.2 F720
G1 E.8 F2100
M204 S800
;TYPE:Perimeter
G1 F1200
G1 X115.931 Y103.777 E.00179
G1 X116.131 Y104.176 E.01399
G1 X116.252 Y104.612 E.01419
G1 X116.285 Y105.055 E.01393
G1 X116.23 Y105.501 E.01409
G1 X116.09 Y105.926 E.01403
G1 X115.869 Y106.318 E.01411
G1 X115.577 Y106.656 E.014
G1 X115.226 Y106.929 E.01394
G1 X114.823 Y107.134 E.01418
G1 X114.393 Y107.252 E.01398
G1 X113.942 Y107.286 E.01418
G1 X113.459 Y107.219 E.01529
G1 X113.005 Y107.054 E.01515
G1 X112.57 Y106.776 E.01619
G1 X112.345 Y106.578 E.0094
G1 X112.069 Y106.225 E.01405
G1 X111.868 Y105.825 E.01404
G1 X111.748 Y105.391 E.01412
G1 X111.716 Y104.947 E.01396
G1 X111.77 Y104.5 E.01412
G1 X111.909 Y104.077 E.01396
G1 X112.132 Y103.683 E.0142
G1 X112.422 Y103.347 E.01392
G1 X112.776 Y103.069 E.01411
G1 X113.175 Y102.869 E.01399
G1 X113.61 Y102.748 E.01416
G1 X114.066 Y102.724 E.01432
G1 X114.502 Y102.77 E.01375
G1 X115.03 Y102.966 E.01766
G1 X115.424 Y103.22 E.0147
G1 X115.655 Y103.424 E.00966
G1 X115.859 Y103.685 E.01039
M204 S1000
G1 X115.425 Y103.74 F10800
M204 S800
;TYPE:External perimeter
G1 F1200
G1 X115.598 Y103.954 E.00863
G1 X115.77 Y104.285 E.0117
G1 X115.891 Y104.795 E.01643
G1 X115.877 Y105.354 E.01753
G1 X115.757 Y105.749 E.01294
G1 X115.578 Y106.078 E.01174
G1 X115.338 Y106.364 E.01171
G1 X115.046 Y106.598 E.01173
G1 X114.716 Y106.773 E.01171
G1 X114.355 Y106.877 E.01178
G1 X113.98 Y106.911 E.01181
G1 X113.567 Y106.857 E.01306
G1 X113.185 Y106.723 E.01269
G1 X112.809 Y106.484 E.01397
G1 X112.636 Y106.338 E.0071
G1 X112.402 Y106.048 E.01168
G1 X112.229 Y105.715 E.01177
G1 X112.109 Y105.206 E.0164
G1 X112.123 Y104.647 E.01753
G1 X112.242 Y104.254 E.01287
G1 X112.423 Y103.923 E.01183
G1 X112.662 Y103.638 E.01166
G1 X112.954 Y103.402 E.01177
G1 X113.284 Y103.229 E.01168
G1 X113.646 Y103.123 E.01183
G1 X114.039 Y103.1 E.01234
G1 X114.392 Y103.13 E.01111
G1 X114.853 Y103.299 E.01539
G1 X115.184 Y103.511 E.01232
G1 X115.364 Y103.664 E.00741
G1 X115.388 Y103.693 E.00118
M204 S1000
;WIPE_START
G1 F8640
G1 X115.425 Y103.74 E-.01381
G1 X115.598 Y103.954 E-.06354
G1 X115.77 Y104.285 E-.08613
G1 X115.891 Y104.795 E-.12103
G1 X115.877 Y105.354 E-.12912
G1 X115.757 Y105.749 E-.09532
G1 X115.578 Y106.078 E-.08648
G1 X115.338 Y106.364 E-.08621
G1 X115.046 Y106.598 E-.0864
G1 X114.924 Y106.663 E-.03196
;WIPE_END
G1 Z.6 F720
G1 X148.214 Y103.057 F10800
G1 Z.2 F720
G1 E.8 F2100
M204 S800
;TYPE:Solid infill
;WIDTH:0.421421
G1 F1200
G1 X147.618 Y102.461 E.02653
G1 X147.082 Y102.46 E.01687
G1 X148.045 Y103.423 E.04286
G1 X148.045 Y103.958 E.01684
G1 X146.546 Y102.46 E.0667
G1 X146.01 Y102.459 E.01687
G1 X148.045 Y104.493 E.09055
G1 X148.045 Y105.029 E.01687
G1 X145.475 Y102.459 E.11439
G1 X144.939 Y102.458 E.01687
G1 X148.045 Y105.564 E.13824
G1 X148.045 Y106.099 E.01684
G1 X144.403 Y102.457 E.1621
G1 X143.867 Y102.457 E.01687
G1 X148.045 Y106.634 E.18594
G1 X148.045 Y107.17 E.01687
G1 X143.331 Y102.456 E.20981
G1 X142.795 Y102.456 E.01687
G1 X147.881 Y107.541 E.22635
G1 X147.346 Y107.541 E.01684
G1 X142.259 Y102.455 E.22639
G1 X141.724 Y102.454 E.01684
G1 X146.811 Y107.542 E.22644
G1 X146.276 Y107.543 E.01684
G1 X141.188 Y102.454 E.22648
G1 X140.652 Y102.453 E.01687
G1 X145.742 Y107.543 E.22655
G1 X145.207 Y107.544 E.01684
G1 X138.422 Y100.758 E.30201
G1 X138.229 Y100.647 E.00701
M73 P2 R27
M73 Q2 S28
G1 X137.461 Y100.333 E.02611
G1 X144.672 Y107.544 E.32095
G1 X144.138 Y107.545 E.01681
G1 X136.768 Y100.175 E.32803
G1 X136.512 Y100.135 E.00815
G1 X136.175 Y100.118 E.01062
G1 X143.603 Y107.546 E.33061
G1 X143.068 Y107.546 E.01684
G1 X135.651 Y100.128 E.33014
G1 X135.487 Y100.135 E.00517
G1 X135.172 Y100.185 E.01004
G1 X142.534 Y107.547 E.32767
G1 X141.999 Y107.547 E.01684
G1 X138.405 Y103.953 E.15996
G1 X138.179 Y103.531 E.01507
G1 X137.852 Y103.136 E.01614
G1 X137.444 Y102.805 E.01654
G1 X137.044 Y102.592 E.01426
G1 X134.743 Y100.291 E.10241
G1 X134.333 Y100.417 E.0135
G1 X136.322 Y102.406 E.08853
G1 X135.913 Y102.378 E.0129
G1 X135.774 Y102.393 E.0044
G1 X133.947 Y100.566 E.08132
G1 X133.595 Y100.749 E.01249
G1 X135.319 Y102.473 E.07673
G1 X134.921 Y102.611 E.01326
G1 X133.262 Y100.952 E.07384
G1 X132.952 Y101.177 E.01206
G1 X134.571 Y102.796 E.07206
G1 X134.273 Y103.033 E.01198
G1 X132.674 Y101.435 E.07115
G1 X132.4 Y101.695 E.01189
G1 X134.01 Y103.306 E.07168
G1 X133.777 Y103.608 E.012
G1 X132.154 Y101.984 E.07226
G1 X132.001 Y102.173 E.00765
G1 X131.896 Y102.262 E.00433
G1 X133.593 Y103.958 E.07551
G1 X133.461 Y104.362 E.01338
G1 X131.537 Y102.438 E.08563
G1 X131.392 Y102.46 E.00462
G1 X131.024 Y102.46 E.01158
G1 X133.388 Y104.825 E.10524
G1 X133.371 Y105.001 E.00556
G1 X133.409 Y105.381 E.01202
G1 X130.318 Y102.29 E.13758
M204 S1000
;WIPE_START
G1 F8640
G1 X132.768 Y104.74 E-.8
;WIPE_END
G1 Z.6 F720
G1 X138.398 Y104.481 F10800
G1 Z.2 F720
G1 E.8 F2100
M204 S800
G1 F1200
G1 X141.464 Y107.548 E.13649
G1 X140.929 Y107.548 E.01684
G1 X138.607 Y105.226 E.10335
G1 X138.578 Y105.511 E.00902
G1 X138.527 Y105.681 E.00559
G1 X140.427 Y107.582 E.08459
G1 X140.242 Y107.643 E.00613
G1 X140.073 Y107.762 E.00651
G1 X138.389 Y106.078 E.07495
G1 X138.201 Y106.426 E.01245
G1 X139.824 Y108.049 E.07224
G1 X139.645 Y108.263 E.00878
G1 X139.572 Y108.332 E.00316
G1 X137.967 Y106.727 E.07144
G1 X137.843 Y106.875 E.00608
G1 X137.697 Y106.992 E.00589
G1 X139.297 Y108.592 E.07121
G1 X139.068 Y108.809 E.00993
G1 X139.016 Y108.847 E.00203
G1 X137.392 Y107.223 E.07228
G1 X137.043 Y107.409 E.01245
G1 X138.707 Y109.073 E.07406
G1 X138.663 Y109.104 E.00169
G1 X138.371 Y109.273 E.01062
G1 X136.639 Y107.54 E.07711
G1 X136.521 Y107.576 E.00388
G1 X136.175 Y107.611 E.01095
G1 X138.016 Y109.453 E.08196
G1 X137.632 Y109.603 E.01297
G1 X135.405 Y107.377 E.0991
M204 S1000
;WIPE_START
G1 F8640
