;FLAVOR:Marlin
;TIME:5235
;Filament used: 5.62222m
;Layer height: 0.3
;Generated with Cura_SteamEngine 3.6.0
M140 S60
M105
M190 S60
M104 S185
M105
M109 S185
M82 ;absolute extrusion mode
G21 ;metric values
G90 ;absolute positioning
M82 ;set extruder to absolute mode
M107 ;start with the fan off
G28 X0 Y0 ;move X/Y to min endstops
G28 Z0 ;move Z to min endstops
G1 Z15.0 F100 ;move the platform down 15mm
G92 E0 ;zero the extruded length
G1 F200 E3 ;extrude 3mm of feed stock
G92 E0 ;zero the extruded length again
G1 F100
M117 Printing...
G5
G92 E0
G1 F2400 E-6
;LAYER_COUNT:8
;LAYER:0
M106 S255
M204 S3000
M205 X10 Y10
G0 F3000 X55.687 Y36.659 Z0.2
M204 S1800
M205 X8 Y8
;TYPE:SKIRT
G1 F2400 E0
G1 X56.092 Y36.069 E0.03332
G1 X56.733 Y35.357 E0.07793
G1 X57.206 Y34.905 E0.1084
G1 X57.75 Y34.44 E0.14172
G1 X58.343 Y34.04 E0.17503
G1 X58.888 Y33.748 E0.20382
G1 X62.6 Y31.99 E0.39507
G1 X67.341 Y29.503 E0.64436
G1 X71.876 Y26.787 E0.8905
G1 X76.27 Y23.805 E1.13777
G1 X80.46 Y20.602 E1.38336
G1 X84.476 Y17.154 E1.62982
G1 X88.325 Y13.453 E1.87846
G1 X90.099 Y11.597 E1.99801
G1 X93.641 Y7.559 E2.24813
G1 X96.001 Y4.604 E2.42422
G1 X96.478 Y4.071 E2.45753
G1 X97.061 Y3.555 E2.49378
G1 X97.688 Y3.065 E2.53083
G1 X98.275 Y2.657 E2.56412
G1 X98.905 Y2.317 E2.59745
G1 X99.568 Y2.049 E2.63075
G1 X100.257 Y1.857 E2.66406
G1 X100.796 Y1.762 E2.68954
G1 X101.489 Y1.671 E2.72209
G1 X102.202 Y1.618 E2.75538
G1 X102.917 Y1.645 E2.7887
G1 X103.624 Y1.751 E2.82199
G1 X104.029 Y1.849 E2.84139
G1 X104.766 Y2.053 E2.877
G1 X105.444 Y2.282 E2.91032
G1 X106.092 Y2.585 E2.94363
G1 X106.989 Y3.17 E2.9935
G1 X107.57 Y3.622 E3.02777
G1 X108.109 Y4.092 E3.06107
G1 X108.592 Y4.619 E3.09436
G1 X109.196 Y5.496 E3.14394
G1 X111.129 Y8.876 E3.32525
G1 X113.964 Y13.383 E3.57318
G1 X117.04 Y17.709 E3.82035
G1 X120.484 Y22.02 E4.07728
G1 X120.899 Y22.603 E4.1106
G1 X121.294 Y23.331 E4.14917
G1 X121.641 Y24.082 E4.18769
G1 X121.904 Y24.747 E4.22099
G1 X122.091 Y25.437 E4.25428
G1 X122.201 Y26.144 E4.2876
G1 X122.229 Y26.906 E4.3231
G1 X122.13 Y31.437 E4.53413
G1 X122.105 Y37.951 E4.83746
G1 X122.418 Y43.222 E5.08333
G1 X123.029 Y48.472 E5.32944
G1 X123.995 Y54.016 E5.59148
G1 X124.078 Y54.726 E5.62477
G1 X124.09 Y55.115 E5.64289
G1 X124.09 Y148.003 E9.96814
G1 X124.069 Y148.523 E9.99238
G1 X123.889 Y150.727 E10.09535
G1 X123.664 Y156.062 E10.34399
G1 X123.738 Y161.346 E10.59006
G1 X124.118 Y166.685 E10.83929
G1 X124.613 Y170.958 E11.03959
G1 X124.65 Y171.98 E11.08721
G1 X124.509 Y175.139 E11.23445
G1 X124.456 Y175.718 E11.26153
G1 X124.217 Y177.472 E11.34395
G1 X124.139 Y177.927 E11.36545
G1 X123.609 Y180.443 E11.48518
G1 X123.443 Y181.069 E11.51533
G1 X122.42 Y184.276 E11.67208
G1 X122.227 Y184.801 E11.69812
G1 X121.579 Y186.35 E11.77631
G1 X121.399 Y186.742 E11.79639
G1 X120.358 Y188.824 E11.90478
G1 X120.141 Y189.223 E11.92593
G1 X119.226 Y190.768 E12.00954
G1 X119.024 Y191.088 E12.02717
G1 X118.079 Y192.488 E12.10582
G1 X117.825 Y192.837 E12.12592
G1 X116.371 Y194.706 E12.23618
G1 X116.093 Y195.04 E12.25641
G1 X115.003 Y196.26 E12.33259
G1 X114.74 Y196.537 E12.35038
G1 X113.429 Y197.839 E12.43641
G1 X113.103 Y198.141 E12.45711
G1 X111.323 Y199.679 E12.56664
G1 X110.966 Y199.966 E12.58797
G1 X109.509 Y201.053 E12.67262
G1 X109.204 Y201.266 E12.68994
G1 X107.819 Y202.179 E12.76718
G1 X107.434 Y202.414 E12.78819
G1 X105.366 Y203.577 E12.89867
G1 X104.834 Y203.845 E12.9264
G1 X102.044 Y205.088 E13.06863
G1 X101.569 Y205.277 E13.09243
G1 X99.9 Y205.866 E13.17484
G1 X99.484 Y205.997 E13.19515
G1 X97.174 Y206.639 E13.30679
G1 X96.736 Y206.744 E13.32777
G1 X95.09 Y207.079 E13.40598
G1 X94.557 Y207.165 E13.43112
G1 X91.666 Y207.503 E13.56666
G1 X91.12 Y207.543 E13.59215
G1 X88.62 Y207.62 E13.70861
G1 X88.093 Y207.614 E13.73315
G1 X85.73 Y207.492 E13.84333
G1 X85.216 Y207.445 E13.86737
G1 X82.856 Y207.131 E13.97823
G1 X82.405 Y207.055 E13.99952
G1 X80.595 Y206.681 E14.08558
G1 X80.225 Y206.593 E14.10329
G1 X78.7 Y206.182 E14.17684
G1 X78.29 Y206.056 E14.19681
G1 X76.02 Y205.278 E14.30855
G1 X75.599 Y205.117 E14.32953
G1 X74.076 Y204.472 E14.40655
G1 X73.692 Y204.294 E14.42626
G1 X71.654 Y203.267 E14.53252
G1 X71.263 Y203.053 E14.55328
G1 X69.694 Y202.12 E14.63828
G1 X69.314 Y201.876 E14.65931
G1 X67.353 Y200.514 E14.77048
G1 X66.945 Y200.205 E14.79432
G1 X65.187 Y198.763 E14.90019
G1 X64.794 Y198.413 E14.9247
G1 X62.896 Y196.575 E15.04772
G1 X62.574 Y196.24 E15.06936
G1 X61.498 Y195.035 E15.14458
G1 X61.226 Y194.709 E15.16435
G1 X59.788 Y192.866 E15.2732
G1 X59.538 Y192.522 E15.293
G1 X58.726 Y191.325 E15.36036
G1 X58.506 Y190.978 E15.37949
G1 X57.283 Y188.9 E15.49176
G1 X57.009 Y188.381 E15.51909
G1 X55.688 Y185.576 E15.66346
G1 X55.488 Y185.104 E15.68733
G1 X54.9 Y183.542 E15.76505
G1 X54.759 Y183.124 E15.78559
G1 X54.126 Y181.012 E15.88825
G1 X54.021 Y180.614 E15.90742
G1 X53.675 Y179.115 E15.97906
G1 X53.553 Y178.411 E16.01233
G1 X53.511 Y177.676 E16.04661
G1 X53.507 Y55.254 E21.74709
G1 X53.55 Y54.511 E21.78174
G1 X53.951 Y51.085 E21.94236
G1 X54.33 Y45.738 E22.19196
G1 X54.466 Y40.446 E22.43846
G1 X54.524 Y39.733 E22.47177
G1 X54.662 Y39.031 E22.50509
G1 X54.877 Y38.349 E22.53838
G1 X55.059 Y37.917 E22.56021
G1 X55.35 Y37.29 E22.5924
G1 X55.687 Y36.659 E22.62571
M204 S3000
M205 X10 Y10
G0 F3000 X56.181 Y36.924
M204 S1800
M205 X8 Y8
G1 F2400 X56.573 Y36.364 E22.65754
G1 X57.12 Y35.762 E22.69541
G1 X57.593 Y35.31 E22.72588
G1 X58.114 Y34.868 E22.75769
G1 X58.683 Y34.489 E22.78953
G1 X59.128 Y34.254 E22.81296
G1 X62.86 Y32.486 E23.00525
G1 X67.61 Y29.995 E23.255
G1 X72.18 Y27.258 E23.50304
G1 X76.594 Y24.262 E23.75145
G1 X80.816 Y21.035 E23.99889
G1 X84.861 Y17.561 E24.24718
G1 X88.712 Y13.86 E24.49588
G1 X90.517 Y11.97 E24.61758
G1 X94.064 Y7.926 E24.86805
G1 X96.439 Y4.953 E25.04524
G1 X96.896 Y4.445 E25.07705
G1 X97.406 Y3.996 E25.10869
G1 X98.033 Y3.506 E25.14575
G1 X98.595 Y3.118 E25.17755
G1 X99.198 Y2.798 E25.20933
G1 X99.835 Y2.55 E25.24116
G1 X100.497 Y2.379 E25.273
G1 X100.869 Y2.318 E25.29055
G1 X101.562 Y2.227 E25.3231
G1 X102.243 Y2.178 E25.35489
G1 X102.926 Y2.208 E25.38673
G1 X103.88 Y2.389 E25.43194
G1 X104.617 Y2.593 E25.46755
G1 X105.264 Y2.813 E25.49937
G1 X105.88 Y3.108 E25.53117
G1 X106.645 Y3.612 E25.57383
G1 X107.226 Y4.064 E25.60811
G1 X107.74 Y4.514 E25.63992
G1 X108.197 Y5.021 E25.6717
G1 X108.709 Y5.774 E25.7141
G1 X110.644 Y9.157 E25.89558
G1 X113.502 Y13.7 E26.1455
G1 X116.583 Y18.034 E26.3931
G1 X120.047 Y22.37 E26.65152
G1 X120.441 Y22.928 E26.68333
G1 X120.785 Y23.565 E26.71704
G1 X121.132 Y24.316 E26.75556
G1 X121.382 Y24.952 E26.78738
G1 X121.556 Y25.613 E26.81921
G1 X121.652 Y26.29 E26.85105
G1 X121.67 Y26.894 E26.87919
G1 X121.57 Y31.478 E27.09269
G1 X121.545 Y37.966 E27.3948
G1 X121.859 Y43.268 E27.64212
G1 X122.476 Y48.562 E27.89029
G1 X123.443 Y54.112 E28.15262
G1 X123.53 Y55.115 E28.1995
G1 X123.53 Y148.003 E32.52475
G1 X123.511 Y148.478 E32.54689
G1 X123.331 Y150.684 E32.64995
G1 X123.103 Y156.064 E32.90069
G1 X123.179 Y161.377 E33.14811
G1 X123.559 Y166.722 E33.39763
G1 X124.057 Y171.023 E33.59924
G1 X124.09 Y171.955 E33.64266
G1 X123.949 Y175.114 E33.7899
G1 X123.902 Y175.642 E33.81459
G1 X123.663 Y177.396 E33.89702
G1 X123.591 Y177.812 E33.91667
G1 X123.061 Y180.328 E34.0364
G1 X122.91 Y180.899 E34.0639
G1 X121.887 Y184.106 E34.22065
G1 X121.711 Y184.585 E34.24441
G1 X121.063 Y186.134 E34.32259
G1 X120.898 Y186.492 E34.34095
G1 X119.857 Y188.574 E34.44934
G1 X119.659 Y188.938 E34.46863
G1 X118.744 Y190.483 E34.55225
G1 X118.559 Y190.774 E34.5683
G1 X117.614 Y192.174 E34.64695
G1 X117.383 Y192.493 E34.66529
G1 X115.929 Y194.362 E34.77556
G1 X115.675 Y194.667 E34.79404
G1 X114.585 Y195.887 E34.87022
G1 X114.345 Y196.14 E34.88646
G1 X113.034 Y197.442 E34.97249
G1 X112.737 Y197.717 E34.99134
G1 X110.957 Y199.255 E35.10088
G1 X110.631 Y199.517 E35.12035
G1 X109.174 Y200.604 E35.205
G1 X108.896 Y200.799 E35.22081
G1 X107.511 Y201.712 E35.29805
G1 X107.16 Y201.926 E35.31719
G1 X105.092 Y203.089 E35.42767
G1 X104.606 Y203.334 E35.45301
G1 X101.816 Y204.577 E35.59524
G1 X101.382 Y204.749 E35.61698
G1 X99.713 Y205.338 E35.69939
G1 X99.334 Y205.458 E35.7179
G1 X97.024 Y206.1 E35.82954
G1 X96.625 Y206.196 E35.84865
G1 X94.979 Y206.531 E35.92687
G1 X94.492 Y206.608 E35.94982
G1 X91.601 Y206.946 E36.08536
G1 X91.103 Y206.983 E36.10861
G1 X88.603 Y207.06 E36.22508
G1 X88.122 Y207.055 E36.24748
G1 X85.759 Y206.933 E36.35765
G1 X85.29 Y206.89 E36.37958
G1 X82.93 Y206.576 E36.49044
G1 X82.518 Y206.506 E36.5099
G1 X80.708 Y206.132 E36.59596
G1 X80.37 Y206.052 E36.61214
G1 X78.845 Y205.641 E36.68568
G1 X78.472 Y205.527 E36.70384
G1 X76.202 Y204.749 E36.81558
G1 X75.818 Y204.602 E36.83473
G1 X74.295 Y203.957 E36.91174
G1 X73.944 Y203.794 E36.92976
G1 X71.906 Y202.767 E37.03603
G1 X71.549 Y202.572 E37.05497
G1 X69.98 Y201.639 E37.13997
G1 X69.634 Y201.416 E37.15914
G1 X67.673 Y200.054 E37.27031
G1 X67.3 Y199.772 E37.29209
G1 X65.542 Y198.33 E37.39796
G1 X65.183 Y198.01 E37.42036
G1 X63.285 Y196.172 E37.54338
G1 X62.992 Y195.867 E37.56308
G1 X61.916 Y194.662 E37.6383
G1 X61.668 Y194.365 E37.65632
G1 X60.23 Y192.522 E37.76517
G1 X60.001 Y192.207 E37.7833
G1 X59.189 Y191.01 E37.85065
G1 X58.989 Y190.694 E37.86807
G1 X57.766 Y188.616 E37.98034
G1 X57.516 Y188.142 E38.00529
G1 X56.195 Y185.337 E38.14967
G1 X56.012 Y184.906 E38.17147
G1 X55.424 Y183.344 E38.24919
G1 X55.296 Y182.964 E38.26786
G1 X54.663 Y180.852 E38.37052
G1 X54.567 Y180.488 E38.38805
G1 X54.221 Y178.989 E38.45969
G1 X54.106 Y178.316 E38.49148
G1 X54.071 Y177.676 E38.52132
G1 X54.067 Y55.254 E44.2218
G1 X54.107 Y54.576 E44.25343
G1 X54.508 Y51.145 E44.41428
G1 X54.889 Y45.77 E44.66519
G1 X55.026 Y40.461 E44.91248
G1 X55.083 Y39.78 E44.9443
G1 X55.22 Y39.11 E44.97615
G1 X55.567 Y38.152 E45.02359
G1 X55.858 Y37.525 E45.05578
G1 X56.181 Y36.924 E45.08755
M204 S3000
M205 X10 Y10
G0 F3000 X56.675 Y37.19
M204 S1800
M205 X8 Y8
G1 F2400 X57.052 Y36.661 E45.1178
G1 X57.507 Y36.167 E45.14907
G1 X57.98 Y35.715 E45.17953
G1 X58.477 Y35.296 E45.2098
G1 X59.021 Y34.941 E45.24005
G1 X59.368 Y34.76 E45.25827
G1 X63.11 Y32.988 E45.45107
G1 X67.88 Y30.486 E45.70188
G1 X72.484 Y27.728 E45.95178
G1 X76.911 Y24.724 E46.2009
G1 X81.182 Y21.459 E46.45123
G1 X85.237 Y17.977 E46.70011
G1 X89.109 Y14.255 E46.9502
G1 X90.924 Y12.354 E47.07258
G1 X94.506 Y8.272 E47.32546
G1 X96.877 Y5.303 E47.50238
G1 X97.312 Y4.821 E47.53262
G1 X97.751 Y4.438 E47.55974
G1 X98.378 Y3.948 E47.5968
G1 X98.913 Y3.58 E47.62703
G1 X99.49 Y3.281 E47.6573
G1 X100.099 Y3.055 E47.68754
G1 X100.942 Y2.873 E47.7277
G1 X101.635 Y2.782 E47.76025
G1 X102.283 Y2.737 E47.79049
G1 X102.931 Y2.772 E47.82071
G1 X103.731 Y2.928 E47.85866
G1 X104.468 Y3.132 E47.89427
G1 X105.082 Y3.344 E47.92452
G1 X105.665 Y3.629 E47.95474
G1 X106.301 Y4.054 E47.99035
G1 X106.882 Y4.506 E48.02463
G1 X107.369 Y4.935 E48.05485
G1 X107.8 Y5.422 E48.08513
G1 X108.223 Y6.052 E48.12047
G1 X110.164 Y9.445 E48.30249
G1 X113.031 Y14.004 E48.55326
G1 X116.143 Y18.38 E48.8033
G1 X119.609 Y22.719 E49.06188
G1 X119.983 Y23.251 E49.09217
G1 X120.277 Y23.8 E49.12116
G1 X120.624 Y24.551 E49.15969
G1 X120.86 Y25.157 E49.18997
G1 X121.019 Y25.786 E49.22018
G1 X121.1 Y26.431 E49.25045
G1 X121.11 Y26.881 E49.27141
G1 X121.01 Y31.463 E49.48482
G1 X120.985 Y37.981 E49.78832
G1 X121.301 Y43.312 E50.03699
G1 X121.921 Y48.636 E50.28658
G1 X122.892 Y54.208 E50.54994
G1 X122.97 Y55.115 E50.59233
G1 X122.97 Y148.003 E54.91759
G1 X122.953 Y148.432 E54.93758
G1 X122.771 Y150.665 E55.0419
G1 X122.543 Y156.048 E55.29278
G1 X122.619 Y161.389 E55.5415
G1 X123.002 Y166.78 E55.79316
G1 X123.501 Y171.087 E55.99506
G1 X123.531 Y171.93 E56.03434
G1 X123.39 Y175.089 E56.18158
G1 X123.347 Y175.567 E56.20393
G1 X123.108 Y177.321 E56.28635
G1 X123.043 Y177.696 E56.30408
G1 X122.513 Y180.212 E56.4238
G1 X122.376 Y180.729 E56.44871
G1 X121.353 Y183.936 E56.60545
G1 X121.194 Y184.369 E56.62693
G1 X120.546 Y185.918 E56.70512
G1 X120.398 Y186.241 E56.72166
G1 X119.357 Y188.323 E56.83005
G1 X119.177 Y188.653 E56.84755
G1 X118.262 Y190.198 E56.93116
G1 X118.095 Y190.461 E56.94567
G1 X117.15 Y191.861 E57.02432
G1 X116.941 Y192.149 E57.04089
G1 X115.487 Y194.018 E57.15115
G1 X115.257 Y194.294 E57.16788
G1 X114.167 Y195.514 E57.24406
G1 X113.951 Y195.742 E57.25869
G1 X112.64 Y197.044 E57.34472
G1 X112.371 Y197.293 E57.36179
G1 X110.591 Y198.831 E57.47133
G1 X110.296 Y199.068 E57.48895
G1 X108.839 Y200.155 E57.57359
G1 X108.588 Y200.331 E57.58787
G1 X107.203 Y201.244 E57.66511
G1 X106.885 Y201.438 E57.68246
G1 X104.817 Y202.601 E57.79294
G1 X104.378 Y202.822 E57.81582
G1 X101.588 Y204.065 E57.95805
G1 X101.196 Y204.221 E57.97769
G1 X99.527 Y204.81 E58.0601
G1 X99.184 Y204.918 E58.07685
G1 X96.874 Y205.56 E58.18849
G1 X96.513 Y205.647 E58.20578
G1 X94.867 Y205.982 E58.284
G1 X94.427 Y206.052 E58.30474
G1 X91.536 Y206.39 E58.44028
G1 X91.086 Y206.423 E58.46129
G1 X88.586 Y206.5 E58.57775
G1 X88.151 Y206.496 E58.59801
G1 X85.788 Y206.374 E58.70819
G1 X85.364 Y206.335 E58.72801
G1 X83.004 Y206.021 E58.83887
G1 X82.632 Y205.958 E58.85644
G1 X80.822 Y205.584 E58.9425
G1 X80.516 Y205.511 E58.95715
G1 X78.991 Y205.1 E59.03069
G1 X78.653 Y204.997 E59.04715
G1 X76.383 Y204.219 E59.15888
G1 X76.036 Y204.086 E59.17619
G1 X74.513 Y203.441 E59.2532
G1 X74.196 Y203.294 E59.26947
G1 X72.158 Y202.267 E59.37574
G1 X71.835 Y202.09 E59.39289
G1 X70.266 Y201.157 E59.47789
G1 X69.953 Y200.956 E59.49521
G1 X67.992 Y199.594 E59.60639
G1 X67.655 Y199.339 E59.62607
G1 X65.897 Y197.897 E59.73194
G1 X65.573 Y197.608 E59.75216
G1 X63.675 Y195.77 E59.87518
G1 X63.41 Y195.494 E59.893
G1 X62.334 Y194.289 E59.96822
G1 X62.109 Y194.02 E59.98455
G1 X60.671 Y192.177 E60.0934
G1 X60.465 Y191.893 E60.10974
G1 X59.653 Y190.696 E60.17709
G1 X59.472 Y190.41 E60.19285
G1 X58.249 Y188.332 E60.30513
G1 X58.022 Y187.904 E60.32769
G1 X56.701 Y185.099 E60.47206
G1 X56.537 Y184.709 E60.49176
G1 X55.949 Y183.147 E60.56948
G1 X55.832 Y182.803 E60.58639
G1 X55.199 Y180.691 E60.68906
G1 X55.112 Y180.363 E60.70486
G1 X54.766 Y178.864 E60.7765
G1 X54.659 Y178.223 E60.80676
G1 X54.631 Y177.676 E60.83226
G1 X54.627 Y55.254 E66.53274
G1 X54.663 Y54.641 E66.56134
G1 X55.065 Y51.205 E66.72242
G1 X55.449 Y45.78 E66.97566
G1 X55.586 Y40.475 E67.22277
G1 X55.642 Y39.828 E67.25301
G1 X55.778 Y39.193 E67.28325
G1 X56.075 Y38.388 E67.3232
G1 X56.366 Y37.761 E67.35539
G1 X56.675 Y37.19 E67.38562
M204 S3000
M205 X10 Y10
G1 F2400 E61.38562
;MESH:Smashing_Duup.stl
G0 F3000 X77.938 Y33.858
G0 X79.452 Y33.943
G0 X80.185 Y32.997
M204 S1800
M205 X8 Y8
;TYPE:WALL-INNER
G1 F2400 E67.38562
G1 F1500 X80.236 Y33.989 E67.43187
G1 X80.257 Y34.383 E67.45025
G1 X80.256 Y34.946 E67.47646
G1 X80.252 Y35.937 E67.52261
G1 X80.251 Y35.968 E67.52405
G1 X80.113 Y39.08 E67.6691
G1 X79.921 Y43.379 E67.86948
G1 X79.91 Y39.071 E67.90599
G1 X79.913 Y35.968 E67.97566
G1 X79.914 Y35.936 E67.97677
G1 X79.945 Y34.945 E68.00362
G1 X79.976 Y34.368 E68.01799
G1 X79.997 Y34.002 E68.02557
G1 X80.076 Y33.004 E68.04071
G1 X80.103 Y32.818 E68.04946
G1 X80.147 Y32.53 E68.06303
G1 X80.177 Y32.829 E68.06424
G1 X80.185 Y32.997 E68.06517
M204 S3000
M205 X10 Y10
G0 F3000 X80.452 Y45.103
G0 X80.712 Y45.967
G0 X81.124 Y46.652
G0 X91.183 Y55.914
M204 S1800
M205 X8 Y8
G1 F1500 X91.836 Y55.914 E68.09557
G1 X92.259 Y55.821 E68.11574
G1 X92.835 Y55.577 E68.14487
G1 X93.31 Y55.235 E68.17212
G1 X93.669 Y54.753 E68.20011
G1 X93.882 Y54.243 E68.22584
G1 X94.08 Y53.654 E68.25478
G1 X94.344 Y52.75 E68.29863
G1 X94.42 Y52.487 E68.31138
G1 X94.456 Y52.365 E68.3173
