;FLAVOR:Marlin
;TIME:3842
;Filament used: 3.32357m
;Layer height: 0.2
;MINX:68.6
;MINY:88.6
;MINZ:0.2
;MAXX:141.4
;MAXY:121.4
;MAXZ:20
;Generated with Cura_SteamEngine 4.10.0
M140 S60
M105
M190 S60
M104 S230
M105
M109 S230
M82 ;absolute extrusion mode
G21 ;metric values
G90 ;absolute positionin
M82 ;absolute extrusion mode
G28
G29
M501
G92 E0 ;zero the extruded length
G1 F200 E5 ;extrude 3mm of feed stock
G92 E0 ;zero the extruded length again
G1 F100
G0 Y20 F100
M117 Printing...
G5
G92 E0
G92 E0
G1 F2400 E-1
;LAYER_COUNT:100
;LAYER:0
M107
M204 S3000
M205 X10 Y10
G1 F600 Z0.275
G0 F3000 X71.08 Y89.958 Z0.275
M204 S1800
M205 X8 Y8
;TYPE:SKIRT
G1 F600 Z0.2
G1 F2400 E0
G1 X71.668 Y89.551 E0.0333
G1 X72.298 Y89.212 E0.06661
G1 X72.962 Y88.946 E0.09992
G1 X73.651 Y88.755 E0.13321
G1 X74.358 Y88.642 E0.16655
G1 X75.15 Y88.603 E0.20347
G1 X75.33 Y88.6 E0.21186
G1 X94.293 Y88.6 E1.09485
G1 X95.11 Y88.612 E1.1329
G1 X95.558 Y88.634 E1.15379
G1 X98.357 Y88.874 E1.2846
G1 X101.013 Y89.023 E1.40847
G1 X103.623 Y89.097 E1.53005
G1 X106.3 Y89.097 E1.6547
G1 X108.908 Y89.023 E1.77619
G1 X111.586 Y88.871 E1.90109
G1 X113.065 Y88.746 E1.9702
G1 X113.194 Y88.742 E1.97621
G1 X114.461 Y88.633 E2.03543
G1 X115.15 Y88.603 E2.06754
G1 X115.33 Y88.6 E2.07592
G1 X134.376 Y88.601 E2.96278
G1 X135.074 Y88.61 E2.99529
G1 X135.787 Y88.659 E3.02857
G1 X136.491 Y88.787 E3.06189
G1 X137.176 Y88.993 E3.09519
G1 X137.833 Y89.275 E3.12848
G1 X138.455 Y89.628 E3.16179
G1 X139.034 Y90.048 E3.19509
G1 X139.563 Y90.53 E3.22842
G1 X140.034 Y91.068 E3.26171
G1 X140.442 Y91.655 E3.295
G1 X140.782 Y92.285 E3.32834
G1 X141.05 Y92.948 E3.36163
G1 X141.242 Y93.637 E3.39494
G1 X141.356 Y94.343 E3.42824
G1 X141.397 Y95.151 E3.46591
G1 X141.4 Y95.33 E3.47425
G1 X141.4 Y114.343 E4.35957
G1 X141.391 Y115.07 E4.39343
G1 X141.342 Y115.784 E4.42675
G1 X141.214 Y116.488 E4.46007
G1 X141.008 Y117.173 E4.49338
G1 X140.727 Y117.83 E4.52665
G1 X140.374 Y118.453 E4.55999
G1 X139.954 Y119.032 E4.5933
G1 X139.472 Y119.56 E4.62659
G1 X138.935 Y120.032 E4.65988
G1 X138.347 Y120.44 E4.69321
G1 X137.718 Y120.781 E4.72652
G1 X137.055 Y121.049 E4.75982
G1 X136.366 Y121.241 E4.79313
G1 X135.66 Y121.356 E4.82644
G1 X134.849 Y121.397 E4.86425
G1 X134.67 Y121.4 E4.87258
G1 X115.609 Y121.399 E5.76014
G1 X114.889 Y121.388 E5.79367
G1 X114.441 Y121.366 E5.81456
G1 X111.643 Y121.126 E5.94532
G1 X108.987 Y120.977 E6.06919
G1 X106.377 Y120.903 E6.19077
G1 X103.7 Y120.903 E6.31543
G1 X101.092 Y120.977 E6.43692
G1 X98.414 Y121.129 E6.56181
G1 X96.935 Y121.254 E6.63093
G1 X96.806 Y121.258 E6.63694
G1 X95.539 Y121.367 E6.69615
G1 X94.85 Y121.397 E6.72827
G1 X94.67 Y121.4 E6.73665
G1 X75.624 Y121.399 E7.62351
G1 X74.926 Y121.39 E7.65602
G1 X74.213 Y121.341 E7.68929
G1 X73.509 Y121.213 E7.72261
G1 X72.824 Y121.007 E7.75592
G1 X72.167 Y120.725 E7.78921
G1 X71.545 Y120.372 E7.82251
G1 X70.966 Y119.952 E7.85582
G1 X70.437 Y119.47 E7.88914
G1 X69.966 Y118.932 E7.92244
G1 X69.558 Y118.345 E7.95573
G1 X69.218 Y117.715 E7.98906
G1 X68.95 Y117.052 E8.02236
G1 X68.758 Y116.363 E8.05567
G1 X68.644 Y115.657 E8.08897
G1 X68.602 Y114.831 E8.12748
G1 X68.6 Y114.658 E8.13553
G1 X68.601 Y95.578 E9.02398
G1 X68.611 Y94.913 E9.05495
G1 X68.661 Y94.199 E9.08828
G1 X68.791 Y93.496 E9.12157
G1 X68.999 Y92.812 E9.15486
G1 X69.282 Y92.155 E9.18817
G1 X69.636 Y91.533 E9.22149
G1 X70.058 Y90.955 E9.25481
G1 X70.541 Y90.428 E9.2881
G1 X71.08 Y89.958 E9.3214
M204 S3000
M205 X10 Y10
G0 F3000 X71.62 Y90.254
M204 S1800
M205 X8 Y8
G1 F2400 X72.199 Y89.89 E9.35325
G1 X72.816 Y89.597 E9.38505
G1 X73.463 Y89.378 E9.41686
G1 X74.131 Y89.236 E9.44866
G1 X74.846 Y89.171 E9.48209
G1 X75.33 Y89.16 E9.50463
G1 X94.293 Y89.16 E10.38763
G1 X95.101 Y89.172 E10.42526
G1 X95.51 Y89.192 E10.44432
G1 X98.312 Y89.432 E10.57527
G1 X100.965 Y89.581 E10.699
G1 X103.642 Y89.657 E10.82371
G1 X106.281 Y89.657 E10.94659
G1 X108.954 Y89.581 E11.07111
G1 X111.63 Y89.43 E11.19591
G1 X113.112 Y89.304 E11.26517
G1 X113.237 Y89.301 E11.27099
G1 X114.51 Y89.191 E11.33049
G1 X115.165 Y89.162 E11.36102
G1 X115.33 Y89.16 E11.3687
G1 X134.368 Y89.16 E12.25519
G1 X135.066 Y89.169 E12.28769
G1 X135.748 Y89.218 E12.31953
G1 X136.419 Y89.346 E12.35134
G1 X137.07 Y89.552 E12.38313
G1 X137.694 Y89.832 E12.41498
G1 X138.28 Y90.183 E12.44679
G1 X138.821 Y90.6 E12.47859
G1 X139.31 Y91.078 E12.51044
G1 X139.739 Y91.609 E12.54222
G1 X140.104 Y92.187 E12.57405
G1 X140.398 Y92.803 E12.60584
G1 X140.619 Y93.45 E12.63767
G1 X140.763 Y94.118 E12.66949
G1 X140.829 Y94.845 E12.70348
G1 X140.84 Y95.33 E12.72607
G1 X140.84 Y114.336 E13.61107
G1 X140.831 Y115.063 E13.64493
G1 X140.782 Y115.745 E13.67677
G1 X140.654 Y116.416 E13.70857
G1 X140.449 Y117.068 E13.7404
G1 X140.169 Y117.691 E13.7722
G1 X139.819 Y118.277 E13.80399
G1 X139.402 Y118.819 E13.83583
G1 X138.925 Y119.308 E13.86764
G1 X138.394 Y119.737 E13.89942
G1 X137.816 Y120.102 E13.93126
G1 X137.2 Y120.397 E13.96306
G1 X136.553 Y120.618 E13.9949
G1 X135.885 Y120.762 E14.02671
G1 X135.155 Y120.829 E14.06085
G1 X134.67 Y120.84 E14.08344
G1 X115.618 Y120.839 E14.97058
G1 X114.898 Y120.828 E15.00411
G1 X114.489 Y120.808 E15.02318
G1 X111.688 Y120.568 E15.15408
G1 X109.035 Y120.419 E15.27781
G1 X106.358 Y120.343 E15.40251
G1 X103.719 Y120.343 E15.5254
G1 X101.046 Y120.419 E15.64991
G1 X98.37 Y120.57 E15.77472
G1 X96.888 Y120.696 E15.84397
G1 X96.763 Y120.699 E15.8498
G1 X95.49 Y120.809 E15.90929
G1 X94.835 Y120.838 E15.93982
G1 X94.67 Y120.84 E15.94751
G1 X75.632 Y120.84 E16.834
G1 X74.934 Y120.831 E16.8665
G1 X74.252 Y120.782 E16.89834
G1 X73.581 Y120.654 E16.93015
G1 X72.93 Y120.448 E16.96194
G1 X72.306 Y120.168 E16.99379
G1 X71.72 Y119.817 E17.0256
G1 X71.179 Y119.4 E17.0574
G1 X70.69 Y118.922 E17.08924
G1 X70.261 Y118.391 E17.12103
G1 X69.896 Y117.813 E17.15286
G1 X69.602 Y117.197 E17.18464
G1 X69.381 Y116.55 E17.21648
G1 X69.237 Y115.882 E17.2483
G1 X69.171 Y115.149 E17.28257
G1 X69.16 Y114.658 E17.30544
G1 X69.161 Y95.586 E18.19351
G1 X69.171 Y94.921 E18.22448
G1 X69.221 Y94.24 E18.25627
G1 X69.35 Y93.569 E18.28809
G1 X69.557 Y92.918 E18.3199
G1 X69.839 Y92.295 E18.35174
G1 X70.191 Y91.71 E18.38353
G1 X70.609 Y91.17 E18.41533
G1 X71.088 Y90.682 E18.44717
G1 X71.62 Y90.254 E18.47897
M204 S3000
M205 X10 Y10
G0 F3000 X71.633 Y90.95
M204 S1800
M205 X8 Y8
G1 F2400 X72.157 Y90.566 E18.50922
G1 X72.724 Y90.25 E18.53944
G1 X73.326 Y90.005 E18.56971
G1 X73.953 Y89.836 E18.59994
G1 X74.862 Y89.731 E18.64255
G1 X75.33 Y89.72 E18.66435
G1 X94.293 Y89.72 E19.54735
G1 X95.093 Y89.732 E19.5846
G1 X95.462 Y89.75 E19.6018
G1 X98.266 Y89.99 E19.73285
G1 X100.954 Y90.141 E19.85821
G1 X103.626 Y90.217 E19.98268
G1 X106.297 Y90.217 E20.10705
G1 X108.967 Y90.141 E20.23143
G1 X111.675 Y89.988 E20.35773
G1 X113.16 Y89.862 E20.42712
G1 X113.263 Y89.86 E20.43192
G1 X114.558 Y89.748 E20.49245
G1 X115.181 Y89.722 E20.52148
G1 X115.33 Y89.72 E20.52842
G1 X134.361 Y89.72 E21.41458
G1 X135.059 Y89.729 E21.44709
G1 X135.707 Y89.778 E21.47735
G1 X136.344 Y89.905 E21.50759
G1 X136.96 Y90.11 E21.53782
G1 X137.547 Y90.389 E21.56808
G1 X138.095 Y90.738 E21.59834
G1 X138.596 Y91.151 E21.62857
G1 X139.043 Y91.623 E21.65884
G1 X139.428 Y92.146 E21.68908
G1 X139.746 Y92.713 E21.71935
G1 X139.992 Y93.314 E21.74959
G1 X140.162 Y93.941 E21.77984
G1 X140.269 Y94.861 E21.82297
G1 X140.28 Y95.33 E21.84481
G1 X140.28 Y114.329 E22.72949
G1 X140.271 Y115.056 E22.76334
G1 X140.223 Y115.704 E22.7936
G1 X140.095 Y116.341 E22.82385
G1 X139.891 Y116.958 E22.85411
G1 X139.612 Y117.545 E22.88437
G1 X139.264 Y118.093 E22.9146
G1 X138.851 Y118.594 E22.94484
G1 X138.379 Y119.041 E22.97511
G1 X137.856 Y119.426 E23.00535
G1 X137.29 Y119.744 E23.03558
G1 X136.688 Y119.991 E23.06587
G1 X136.062 Y120.161 E23.09608
G1 X135.139 Y120.269 E23.13935
G1 X134.67 Y120.28 E23.1612
G1 X115.626 Y120.279 E24.04796
G1 X114.906 Y120.268 E24.08149
G1 X114.536 Y120.25 E24.09874
G1 X111.731 Y120.01 E24.22983
G1 X109.046 Y119.859 E24.35506
G1 X106.374 Y119.783 E24.47953
G1 X103.703 Y119.783 E24.6039
G1 X101.033 Y119.859 E24.72828
G1 X98.325 Y120.012 E24.85457
G1 X96.84 Y120.138 E24.92397
G1 X96.737 Y120.14 E24.92877
G1 X95.442 Y120.252 E24.98929
G1 X94.819 Y120.278 E25.01833
G1 X94.67 Y120.28 E25.02526
G1 X75.639 Y120.28 E25.91143
G1 X74.941 Y120.271 E25.94393
G1 X74.293 Y120.222 E25.97419
G1 X73.656 Y120.095 E26.00444
G1 X73.04 Y119.89 E26.03467
G1 X72.453 Y119.611 E26.06493
G1 X71.905 Y119.262 E26.09518
G1 X71.404 Y118.849 E26.12542
G1 X70.957 Y118.377 E26.15569
G1 X70.572 Y117.854 E26.18593
G1 X70.254 Y117.287 E26.2162
G1 X70.008 Y116.686 E26.24644
G1 X69.838 Y116.059 E26.27669
G1 X69.731 Y115.134 E26.32005
G1 X69.72 Y114.658 E26.34222
G1 X69.721 Y95.595 E27.22987
G1 X69.731 Y94.93 E27.26084
G1 X69.78 Y94.282 E27.2911
G1 X69.909 Y93.645 E27.32136
G1 X70.115 Y93.029 E27.35161
G1 X70.395 Y92.443 E27.38185
G1 X70.745 Y91.896 E27.41209
G1 X71.16 Y91.396 E27.44234
G1 X71.633 Y90.95 E27.47261
M204 S3000
M205 X10 Y10
G1 F2400 E26.47261
;MESH:xyzCalibration_cube.stl
G0 F3000 X75.854 Y94.335
G0 X75.854 Y95.854
G0 X93.6 Y113.6
M204 S1800
M205 X8 Y8
;TYPE:WALL-INNER
G1 F2400 E27.47261
G1 F1200 X76.4 Y113.6 E28.27352
G1 X76.4 Y96.4 E29.07442
G1 X93.6 Y96.4 E29.87533
G1 X93.6 Y113.6 E30.67623
M204 S3000
M205 X10 Y10
G0 F3000 X94.16 Y114.16
M204 S1800
M205 X8 Y8
G1 F1200 X75.84 Y114.16 E31.52929
G1 X75.84 Y95.84 E32.38234
G1 X94.16 Y95.84 E33.2354
G1 X94.16 Y114.16 E34.08845
M204 S3000
M205 X10 Y10
G0 F3000 X94.72 Y114.72
M204 S1800
M205 X8 Y8
;TYPE:WALL-OUTER
G1 F1200 X75.28 Y114.72 E34.99366
G1 X75.28 Y95.28 E35.89887
G1 X94.72 Y95.28 E36.80408
G1 X94.72 Y114.72 E37.70929
M204 S3000
M205 X10 Y10
G0 F3000 X94.52 Y114.72
G0 X94.09 Y114.09
G0 X93.05 Y113.05
M204 S1800
M205 X8 Y8
;TYPE:SKIN
G1 F1200 X76.95 Y113.05 E38.45897
G1 X76.95 Y96.95 E39.20865
G1 X93.05 Y96.95 E39.95834
G1 X93.05 Y113.05 E40.70802
M204 S3000
M205 X10 Y10
G0 F3000 X92.49 Y112.49
M204 S1800
M205 X8 Y8
G1 F1200 X77.51 Y112.49 E41.40555
G1 X77.51 Y97.51 E42.10308
G1 X92.49 Y97.51 E42.80061
G1 X92.49 Y112.49 E43.49815
M204 S3000
M205 X10 Y10
G0 F3000 X91.93 Y111.93
M204 S1800
M205 X8 Y8
G1 F1200 X78.07 Y111.93 E44.14353
G1 X78.07 Y98.07 E44.78891
G1 X91.93 Y98.07 E45.43428
G1 X91.93 Y111.93 E46.07966
M204 S3000
M205 X10 Y10
G0 F3000 X91.67 Y98.797
M204 S1800
M205 X8 Y8
G1 F1200 X91.201 Y98.329 E46.11052
M204 S3000
M205 X10 Y10
G0 F3000 X90.409 Y98.329
M204 S1800
M205 X8 Y8
G1 F1200 X91.67 Y99.589 E46.19352
M204 S3000
M205 X10 Y10
G0 F3000 X91.67 Y100.381
M204 S1800
M205 X8 Y8
G1 F1200 X89.618 Y98.329 E46.32865
M204 S3000
M205 X10 Y10
G0 F3000 X88.826 Y98.329
M204 S1800
M205 X8 Y8
G1 F1200 X91.67 Y101.173 E46.51593
M204 S3000
M205 X10 Y10
G0 F3000 X91.67 Y101.965
M204 S1800
M205 X8 Y8
G1 F1200 X88.034 Y98.329 E46.75537
M204 S3000
M205 X10 Y10
G0 F3000 X87.242 Y98.329
M204 S1800
M205 X8 Y8
G1 F1200 X91.67 Y102.757 E47.04696
M204 S3000
M205 X10 Y10
G0 F3000 X91.67 Y103.549
M204 S1800
M205 X8 Y8
G1 F1200 X86.45 Y98.329 E47.39071
M204 S3000
M205 X10 Y10
G0 F3000 X85.658 Y98.329
M204 S1800
M205 X8 Y8
G1 F1200 X91.67 Y104.341 E47.78661
M204 S3000
M205 X10 Y10
G0 F3000 X91.67 Y105.133
M204 S1800
M205 X8 Y8
G1 F1200 X84.866 Y98.329 E48.23466
M204 S3000
M205 X10 Y10
G0 F3000 X84.074 Y98.329
M204 S1800
M205 X8 Y8
G1 F1200 X91.67 Y105.925 E48.73487
M204 S3000
M205 X10 Y10
G0 F3000 X91.67 Y106.717
M204 S1800
M205 X8 Y8
G1 F1200 X83.282 Y98.329 E49.28724
M204 S3000
M205 X10 Y10
G0 F3000 X82.49 Y98.329
M204 S1800
M205 X8 Y8
G1 F1200 X91.67 Y107.509 E49.89175
M204 S3000
M205 X10 Y10
G0 F3000 X91.67 Y108.301
M204 S1800
M205 X8 Y8
G1 F1200 X81.698 Y98.329 E50.54843
M204 S3000
M205 X10 Y10
G0 F3000 X80.906 Y98.329
M204 S1800
M205 X8 Y8
G1 F1200 X91.67 Y109.093 E51.25726
M204 S3000
M205 X10 Y10
G0 F3000 X91.67 Y109.885
M204 S1800
M205 X8 Y8
G1 F1200 X80.114 Y98.329 E52.01824
M204 S3000
M205 X10 Y10
G0 F3000 X79.322 Y98.329
M204 S1800
M205 X8 Y8
G1 F1200 X91.67 Y110.677 E52.83137
M204 S3000
M205 X10 Y10
G0 F3000 X91.67 Y111.469
M204 S1800
M205 X8 Y8
G1 F1200 X78.53 Y98.329 E53.69667
M204 S3000
M205 X10 Y10
G0 F3000 X78.329 Y98.92
M204 S1800
M205 X8 Y8
G1 F1200 X91.078 Y111.669 E54.53621
M204 S3000
M205 X10 Y10
G0 F3000 X90.286 Y111.669
M204 S1800
M205 X8 Y8
G1 F1200 X78.329 Y99.712 E55.3236
M204 S3000
M205 X10 Y10
G0 F3000 X78.329 Y100.504
M204 S1800
M205 X8 Y8
G1 F1200 X89.494 Y111.669 E56.05883
M204 S3000
M205 X10 Y10
G0 F3000 X88.702 Y111.669
M204 S1800
M205 X8 Y8
G1 F1200 X78.329 Y101.296 E56.74191
M204 S3000
M205 X10 Y10
G0 F3000 X78.329 Y102.088
M204 S1800
M205 X8 Y8
G1 F1200 X87.91 Y111.669 E57.37284
M204 S3000
M205 X10 Y10
G0 F3000 X87.118 Y111.669
M204 S1800
M205 X8 Y8
G1 F1200 X78.329 Y102.88 E57.95161
M204 S3000
M205 X10 Y10
G0 F3000 X78.329 Y103.672
M204 S1800
M205 X8 Y8
G1 F1200 X86.326 Y111.669 E58.47822
M204 S3000
M205 X10 Y10
G0 F3000 X85.534 Y111.669
M204 S1800
M205 X8 Y8
G1 F1200 X78.329 Y104.464 E58.95269
M204 S3000
M205 X10 Y10
G0 F3000 X78.329 Y105.256
M204 S1800
M205 X8 Y8
G1 F1200 X84.742 Y111.669 E59.37499
M204 S3000
M205 X10 Y10
G0 F3000 X83.95 Y111.669
M204 S1800
M205 X8 Y8
G1 F1200 X78.329 Y106.048 E59.74515
M204 S3000
M205 X10 Y10
G0 F3000 X78.329 Y106.84
M204 S1800
M205 X8 Y8
G1 F1200 X83.158 Y111.669 E60.06314
M204 S3000
M205 X10 Y10
G0 F3000 X82.366 Y111.669
M204 S1800
M205 X8 Y8
G1 F1200 X78.329 Y107.632 E60.32899
M204 S3000
M205 X10 Y10
G0 F3000 X78.329 Y108.424
M204 S1800
M205 X8 Y8
G1 F1200 X81.574 Y111.669 E60.54268
M204 S3000
M205 X10 Y10
G0 F3000 X80.782 Y111.669
M204 S1800
M205 X8 Y8
G1 F1200 X78.329 Y109.216 E60.70421
M204 S3000
M205 X10 Y10
G0 F3000 X78.329 Y110.008
M204 S1800
M205 X8 Y8
G1 F1200 X79.99 Y111.669 E60.81359
M204 S3000
M205 X10 Y10
G0 F3000 X79.198 Y111.669
M204 S1800
M205 X8 Y8
G1 F1200 X78.329 Y110.8 E60.87081
G1 X78.259 Y110.73
M204 S3000
M205 X10 Y10
G1 F2400 E59.87081
;MESH:xyzCalibration_cube.stl(1)
G0 F3000 X94.14 Y113.6
G0 X95.665 Y113.6
G0 X114.335 Y113.6
G0 X115.86 Y113.6
G0 X133.6 Y113.6
M204 S1800
M205 X8 Y8
;TYPE:WALL-INNER
G1 F2400 E60.87081
G1 F1200 X116.4 Y113.6 E61.67172
G1 X116.4 Y96.4 E62.47262
G1 X133.6 Y96.4 E63.27353
G1 X133.6 Y113.6 E64.07443
M204 S3000
M205 X10 Y10
G0 F3000 X134.16 Y114.16
M204 S1800
M205 X8 Y8
G1 F1200 X115.84 Y114.16 E64.92749
G1 X115.84 Y95.84 E65.78054
G1 X134.16 Y95.84 E66.6336
G1 X134.16 Y114.16 E67.48665
M204 S3000
M205 X10 Y10
G0 F3000 X134.72 Y114.72
M204 S1800
M205 X8 Y8
;TYPE:WALL-OUTER
G1 F1200 X115.28 Y114.72 E68.39186
G1 X115.28 Y95.28 E69.29707
G1 X134.72 Y95.28 E70.20228
G1 X134.72 Y114.72 E71.10749
M204 S3000
M205 X10 Y10
G0 F3000 X134.52 Y114.72
G0 X134.09 Y114.09
G0 X133.05 Y113.05
M204 S1800
M205 X8 Y8
;TYPE:SKIN
G1 F1200 X116.95 Y113.05 E71.85717
G1 X116.95 Y96.95 E72.60685
G1 X133.05 Y96.95 E73.35654
G1 X133.05 Y113.05 E74.10622
M204 S3000
M205 X10 Y10
G0 F3000 X132.49 Y112.49
M204 S1800
M205 X8 Y8
G1 F1200 X117.51 Y112.49 E74.80375
G1 X117.51 Y97.51 E75.50128
G1 X132.49 Y97.51 E76.19881
G1 X132.49 Y112.49 E76.89635
M204 S3000
M205 X10 Y10
G0 F3000 X131.93 Y111.93
M204 S1800
M205 X8 Y8
G1 F1200 X118.07 Y111.93 E77.54173
G1 X118.07 Y98.07 E78.1871
G1 X131.93 Y98.07 E78.83248
G1 X131.93 Y111.93 E79.47786
M204 S3000
M205 X10 Y10
G0 F3000 X131.669 Y99.199
M204 S1800
M205 X8 Y8
G1 F1200 X130.8 Y98.33 E79.53509
M204 S3000
M205 X10 Y10
G0 F3000 X130.008 Y98.33
M204 S1800
M205 X8 Y8
G1 F1200 X131.669 Y99.991 E79.64447
M204 S3000
M205 X10 Y10
G0 F3000 X131.669 Y100.783
M204 S1800
M205 X8 Y8
G1 F1200 X129.216 Y98.33 E79.806
M204 S3000
M205 X10 Y10
G0 F3000 X128.424 Y98.33
M204 S1800
M205 X8 Y8
G1 F1200 X131.669 Y101.575 E80.01969
M204 S3000
M205 X10 Y10
G0 F3000 X131.669 Y102.367
M204 S1800
M205 X8 Y8
G1 F1200 X127.632 Y98.33 E80.28554
M204 S3000
M205 X10 Y10
G0 F3000 X126.84 Y98.33
M204 S1800
M205 X8 Y8
G1 F1200 X131.669 Y103.159 E80.60353
M204 S3000
M205 X10 Y10
G0 F3000 X131.669 Y103.951
M204 S1800
M205 X8 Y8
G1 F1200 X126.048 Y98.33 E80.97369
M204 S3000
M205 X10 Y10
G0 F3000 X125.256 Y98.33
M204 S1800
M205 X8 Y8
G1 F1200 X131.669 Y104.743 E81.39599
M204 S3000
M205 X10 Y10
G0 F3000 X131.669 Y105.534
M204 S1800
M205 X8 Y8
