;FLAVOR:Marlin
;TIME:11986
;Filament used: 5.48185m
;Layer height: 0.1
;Generated with Cura_SteamEngine 3.6.0
M140 S60
M105
M190 S60
M104 S200
M105
M109 S200
M82 ;absolute extrusion mode
G21 ;metric values
G90 ;absolute positioning
M82 ;set extruder to absolute mode
M107 ;start with the fan off
G28 X0 Y0 ;move X/Y to min endstops
G28 Z0 ;move Z to min endstops
G1 Z15.0 F100 ;move the platform down 15mm
G92 E0 ;zero the extruded length
G1 F200 E3 ;extrude 3mm of feed stock
G92 E0 ;zero the extruded length again
G1 F100
M117 Printing...
G5
G92 E0
G1 F2400 E-6
;LAYER_COUNT:185
;LAYER:0
M106 S255
M204 S3000
M205 X10 Y10
G0 F3000 X56.761 Y80.017 Z0.2
M204 S1800
M205 X8 Y8
;TYPE:SKIRT
G1 F2400 E0
G1 X57.343 Y79.602 E0.03328
G1 X57.968 Y79.253 E0.06662
G1 X58.628 Y78.977 E0.09993
G1 X59.314 Y78.776 E0.13321
G1 X60.019 Y78.653 E0.16654
G1 X60.766 Y78.609 E0.20138
G1 X100.049 Y78.6 E2.03056
G1 X100.137 Y78.601 E2.03466
G1 X106.312 Y78.685 E2.32222
G1 X149.222 Y78.609 E4.32029
G1 X149.936 Y78.648 E4.35359
G1 X150.641 Y78.766 E4.38687
G1 X151.329 Y78.962 E4.42019
G1 X151.991 Y79.234 E4.45351
G1 X152.618 Y79.577 E4.48679
G1 X153.203 Y79.989 E4.52011
G1 X153.738 Y80.463 E4.55339
G1 X154.217 Y80.995 E4.58672
G1 X154.634 Y81.576 E4.62002
G1 X154.984 Y82.2 E4.65334
G1 X155.261 Y82.859 E4.68663
G1 X155.463 Y83.545 E4.71992
G1 X155.588 Y84.25 E4.75326
G1 X155.633 Y85.009 E4.78867
G1 X155.633 Y124.991 E6.6504
G1 X155.593 Y125.705 E6.6837
G1 X155.474 Y126.41 E6.71699
G1 X155.276 Y127.098 E6.75033
G1 X155.003 Y127.759 E6.78363
G1 X154.659 Y128.386 E6.81693
G1 X154.246 Y128.97 E6.85023
G1 X153.771 Y129.504 E6.88351
G1 X153.239 Y129.983 E6.91685
G1 X152.657 Y130.398 E6.95013
G1 X152.032 Y130.747 E6.98346
G1 X151.372 Y131.023 E7.01678
G1 X150.686 Y131.224 E7.05006
G1 X149.981 Y131.347 E7.08338
G1 X149.234 Y131.391 E7.11823
G1 X109.95 Y131.4 E8.94746
G1 X109.79 Y131.398 E8.95491
G1 X106.483 Y131.316 E9.10894
G1 X100.516 Y131.399 E9.38682
G1 X100.426 Y131.4 E9.39101
G1 X60.766 Y131.391 E11.23774
G1 X60.051 Y131.351 E11.27109
G1 X59.346 Y131.231 E11.30439
G1 X58.659 Y131.034 E11.33767
G1 X57.998 Y130.761 E11.37097
G1 X57.371 Y130.416 E11.40429
G1 X56.787 Y130.003 E11.4376
G1 X56.253 Y129.528 E11.47088
G1 X55.775 Y128.995 E11.50422
G1 X55.359 Y128.413 E11.53753
G1 X55.011 Y127.789 E11.5708
G1 X54.735 Y127.129 E11.60411
G1 X54.534 Y126.442 E11.63744
G1 X54.411 Y125.738 E11.67072
G1 X54.367 Y124.991 E11.70556
G1 X54.367 Y85.009 E13.56729
G1 X54.407 Y84.295 E13.60059
G1 X54.526 Y83.59 E13.63388
G1 X54.724 Y82.902 E13.66722
G1 X54.997 Y82.241 E13.70052
G1 X55.341 Y81.614 E13.73382
G1 X55.754 Y81.03 E13.76712
G1 X56.229 Y80.496 E13.8004
G1 X56.761 Y80.017 E13.83374
M204 S3000
M205 X10 Y10
G0 F3000 X57.306 Y80.305
M204 S1800
M205 X8 Y8
G1 F2400 X57.879 Y79.933 E13.86555
G1 X58.492 Y79.63 E13.89739
G1 X59.135 Y79.402 E13.92916
G1 X59.801 Y79.249 E13.96098
G1 X60.766 Y79.169 E14.00606
G1 X100.049 Y79.16 E15.83525
G1 X100.129 Y79.161 E15.83897
G1 X106.305 Y79.245 E16.12658
G1 X149.223 Y79.169 E18.12502
G1 X149.905 Y79.208 E18.15683
G1 X150.578 Y79.326 E18.18865
G1 X151.232 Y79.522 E18.22044
G1 X151.859 Y79.793 E18.25224
G1 X152.451 Y80.135 E18.28408
G1 X152.998 Y80.544 E18.31588
G1 X153.493 Y81.015 E18.3477
G1 X153.931 Y81.54 E18.37954
G1 X154.304 Y82.112 E18.41133
G1 X154.607 Y82.724 E18.44313
G1 X154.838 Y83.367 E18.47495
G1 X154.991 Y84.033 E18.50677
G1 X155.073 Y85.009 E18.55237
G1 X155.073 Y124.991 E20.4141
G1 X155.033 Y125.673 E20.44591
G1 X154.914 Y126.346 E20.47774
G1 X154.717 Y127 E20.50954
G1 X154.444 Y127.627 E20.54139
G1 X154.101 Y128.217 E20.57316
G1 X153.691 Y128.764 E20.60499
G1 X153.22 Y129.259 E20.63681
G1 X152.694 Y129.695 E20.66862
G1 X152.121 Y130.067 E20.70043
G1 X151.508 Y130.37 E20.73228
G1 X150.865 Y130.598 E20.76404
G1 X150.199 Y130.751 E20.79586
G1 X149.234 Y130.831 E20.84095
G1 X109.95 Y130.84 E22.67018
G1 X109.804 Y130.838 E22.67698
G1 X106.489 Y130.756 E22.83138
G1 X100.508 Y130.839 E23.10991
G1 X100.426 Y130.84 E23.11373
G1 X60.766 Y130.831 E24.96047
G1 X60.084 Y130.791 E24.99228
G1 X59.411 Y130.671 E25.02411
G1 X58.757 Y130.474 E25.05591
G1 X58.13 Y130.202 E25.08774
G1 X57.54 Y129.858 E25.11954
G1 X56.993 Y129.448 E25.15137
G1 X56.499 Y128.977 E25.18315
G1 X56.062 Y128.451 E25.215
G1 X55.69 Y127.878 E25.24681
G1 X55.388 Y127.265 E25.27863
G1 X55.159 Y126.621 E25.31045
G1 X55.007 Y125.955 E25.34226
G1 X54.927 Y124.991 E25.38731
G1 X54.927 Y85.009 E27.24904
G1 X54.967 Y84.327 E27.28085
G1 X55.086 Y83.654 E27.31267
G1 X55.283 Y83 E27.34448
G1 X55.556 Y82.373 E27.37632
G1 X55.899 Y81.783 E27.4081
G1 X56.309 Y81.236 E27.43993
G1 X56.78 Y80.741 E27.47174
G1 X57.306 Y80.305 E27.50356
M204 S3000
M205 X10 Y10
G0 F3000 X57.329 Y81.001
M204 S1800
M205 X8 Y8
G1 F2400 X57.847 Y80.61 E27.53378
G1 X58.41 Y80.284 E27.56407
G1 X59.008 Y80.031 E27.59431
G1 X59.632 Y79.852 E27.62453
G1 X60.274 Y79.752 E27.65479
G1 X60.766 Y79.729 E27.67772
G1 X100.049 Y79.72 E29.5069
G1 X100.122 Y79.72 E29.5103
G1 X106.364 Y79.805 E29.80098
G1 X149.224 Y79.729 E31.79673
G1 X149.872 Y79.768 E31.82696
G1 X150.511 Y79.886 E31.85721
G1 X151.13 Y80.082 E31.88745
G1 X151.721 Y80.352 E31.9177
G1 X152.274 Y80.693 E31.94795
G1 X152.781 Y81.099 E31.9782
G1 X153.234 Y81.564 E32.00843
G1 X153.627 Y82.082 E32.0387
G1 X153.953 Y82.643 E32.06892
G1 X154.208 Y83.241 E32.09919
G1 X154.388 Y83.865 E32.12943
G1 X154.489 Y84.507 E32.15969
G1 X154.513 Y85.009 E32.18309
G1 X154.513 Y124.991 E34.04482
G1 X154.473 Y125.639 E34.07505
G1 X154.354 Y126.278 E34.10532
G1 X154.157 Y126.897 E34.13557
G1 X153.886 Y127.487 E34.1658
G1 X153.544 Y128.04 E34.19608
G1 X153.137 Y128.546 E34.22631
G1 X152.671 Y128.999 E34.25658
G1 X152.153 Y129.39 E34.2868
G1 X151.59 Y129.716 E34.31709
G1 X150.992 Y129.969 E34.34732
G1 X150.368 Y130.148 E34.37755
G1 X149.726 Y130.248 E34.40781
G1 X149.234 Y130.271 E34.43074
G1 X109.95 Y130.28 E36.25997
G1 X109.818 Y130.278 E36.26612
G1 X106.495 Y130.195 E36.4209
G1 X100.501 Y130.279 E36.70003
G1 X100.426 Y130.28 E36.70352
G1 X60.766 Y130.271 E38.55026
G1 X60.117 Y130.231 E38.58054
G1 X59.479 Y130.111 E38.61077
G1 X58.86 Y129.915 E38.641
G1 X58.27 Y129.643 E38.67125
G1 X57.717 Y129.301 E38.70153
G1 X57.211 Y128.894 E38.73176
G1 X56.759 Y128.428 E38.76199
G1 X56.367 Y127.91 E38.79224
G1 X56.042 Y127.347 E38.82251
G1 X55.788 Y126.749 E38.85277
G1 X55.61 Y126.124 E38.88303
G1 X55.51 Y125.483 E38.91323
G1 X55.487 Y124.991 E38.93617
G1 X55.487 Y85.009 E40.7979
G1 X55.527 Y84.361 E40.82813
G1 X55.646 Y83.722 E40.8584
G1 X55.843 Y83.103 E40.88864
G1 X56.114 Y82.513 E40.91888
G1 X56.456 Y81.96 E40.94915
G1 X56.863 Y81.454 E40.97939
G1 X57.329 Y81.001 E41.00965
M204 S3000
M205 X10 Y10
G1 F2400 E35.00965
;MESH:Hinged_Box.stl
G0 F3000 X61.612 Y84.335
G0 X61.612 Y85.854
G0 X99.357 Y123.6
M204 S1800
M205 X8 Y8
;TYPE:WALL-INNER
G1 F2400 E41.00965
G1 F1500 X62.158 Y123.6 E42.74179
G1 X62.158 Y86.4 E44.47398
G1 X99.357 Y86.4 E46.20612
G1 X99.357 Y123.6 E47.93831
M204 S3000
M205 X10 Y10
G0 F3000 X99.917 Y124.16
M204 S1800
M205 X8 Y8
G1 F1500 X61.598 Y124.16 E49.7226
G1 X61.598 Y85.84 E51.50694
G1 X99.917 Y85.84 E53.29124
G1 X99.917 Y124.16 E55.07558
M204 S3000
M205 X10 Y10
G0 F3000 X100.477 Y124.72
M204 S1800
M205 X8 Y8
;TYPE:WALL-OUTER
G1 F1500 X61.038 Y124.72 E56.91202
G1 X61.038 Y85.28 E58.74851
G1 X100.477 Y85.28 E60.58496
G1 X100.477 Y124.72 E62.42145
M204 S3000
M205 X10 Y10
G0 F3000 X100.277 Y124.72
G0 X99.847 Y124.09
G0 X98.807 Y123.05
M204 S1800
M205 X8 Y8
;TYPE:SKIN
G1 F1500 X62.708 Y123.05 E64.10237
G1 X62.708 Y86.95 E65.78334
G1 X98.807 Y86.95 E67.46426
G1 X98.807 Y123.05 E69.14522
M204 S3000
M205 X10 Y10
G0 F3000 X63.392 Y122.789
M204 S1800
M205 X8 Y8
G1 F1500 X62.967 Y122.364 E69.17321
M204 S3000
M205 X10 Y10
G0 F3000 X62.967 Y121.572
M204 S1800
M205 X8 Y8
G1 F1500 X64.184 Y122.789 E69.25335
M204 S3000
M205 X10 Y10
G0 F3000 X64.976 Y122.789
M204 S1800
M205 X8 Y8
G1 F1500 X62.967 Y120.78 E69.38565
M204 S3000
M205 X10 Y10
G0 F3000 X62.967 Y119.988
M204 S1800
M205 X8 Y8
G1 F1500 X65.768 Y122.789 E69.5701
M204 S3000
M205 X10 Y10
G0 F3000 X66.559 Y122.789
M204 S1800
M205 X8 Y8
G1 F1500 X62.967 Y119.196 E69.80667
M204 S3000
M205 X10 Y10
G0 F3000 X62.967 Y118.405
M204 S1800
M205 X8 Y8
G1 F1500 X67.351 Y122.789 E70.09537
M204 S3000
M205 X10 Y10
G0 F3000 X68.143 Y122.789
M204 S1800
M205 X8 Y8
G1 F1500 X62.967 Y117.613 E70.43621
M204 S3000
M205 X10 Y10
G0 F3000 X62.967 Y116.821
M204 S1800
M205 X8 Y8
G1 F1500 X68.935 Y122.789 E70.82922
M204 S3000
M205 X10 Y10
G0 F3000 X69.727 Y122.789
M204 S1800
M205 X8 Y8
G1 F1500 X62.967 Y116.029 E71.27437
M204 S3000
M205 X10 Y10
G0 F3000 X62.967 Y115.237
M204 S1800
M205 X8 Y8
G1 F1500 X70.519 Y122.789 E71.77169
M204 S3000
M205 X10 Y10
G0 F3000 X71.311 Y122.789
M204 S1800
M205 X8 Y8
G1 F1500 X62.967 Y114.445 E72.32115
M204 S3000
M205 X10 Y10
G0 F3000 X62.967 Y113.653
M204 S1800
M205 X8 Y8
G1 F1500 X72.103 Y122.789 E72.92277
M204 S3000
M205 X10 Y10
G0 F3000 X72.895 Y122.789
M204 S1800
M205 X8 Y8
G1 F1500 X62.967 Y112.861 E73.57655
M204 S3000
M205 X10 Y10
G0 F3000 X62.967 Y112.069
M204 S1800
M205 X8 Y8
G1 F1500 X73.687 Y122.789 E74.28248
M204 S3000
M205 X10 Y10
G0 F3000 X74.479 Y122.789
M204 S1800
M205 X8 Y8
G1 F1500 X62.967 Y111.277 E75.04057
M204 S3000
M205 X10 Y10
G0 F3000 X62.967 Y110.485
M204 S1800
M205 X8 Y8
G1 F1500 X75.271 Y122.789 E75.85081
M204 S3000
M205 X10 Y10
G0 F3000 X76.063 Y122.789
M204 S1800
M205 X8 Y8
G1 F1500 X62.967 Y109.693 E76.7132
M204 S3000
M205 X10 Y10
G0 F3000 X62.967 Y108.901
M204 S1800
M205 X8 Y8
G1 F1500 X76.855 Y122.789 E77.62775
M204 S3000
M205 X10 Y10
G0 F3000 X77.647 Y122.789
M204 S1800
M205 X8 Y8
G1 F1500 X62.967 Y108.109 E78.59445
M204 S3000
M205 X10 Y10
G0 F3000 X62.967 Y107.317
M204 S1800
M205 X8 Y8
G1 F1500 X78.439 Y122.789 E79.61331
M204 S3000
M205 X10 Y10
G0 F3000 X79.231 Y122.789
M204 S1800
M205 X8 Y8
G1 F1500 X62.967 Y106.525 E80.68432
M204 S3000
M205 X10 Y10
G0 F3000 X62.967 Y105.733
M204 S1800
M205 X8 Y8
G1 F1500 X80.023 Y122.789 E81.80749
M204 S3000
M205 X10 Y10
G0 F3000 X80.815 Y122.789
M204 S1800
M205 X8 Y8
G1 F1500 X62.967 Y104.941 E82.98281
M204 S3000
M205 X10 Y10
G0 F3000 X62.967 Y104.149
M204 S1800
M205 X8 Y8
G1 F1500 X81.607 Y122.789 E84.21028
M204 S3000
M205 X10 Y10
G0 F3000 X82.399 Y122.789
M204 S1800
M205 X8 Y8
G1 F1500 X62.967 Y103.357 E85.48991
M204 S3000
M205 X10 Y10
G0 F3000 X62.967 Y102.565
M204 S1800
M205 X8 Y8
G1 F1500 X83.191 Y122.789 E86.8217
M204 S3000
M205 X10 Y10
G0 F3000 X83.983 Y122.789
M204 S1800
M205 X8 Y8
G1 F1500 X62.967 Y101.773 E88.20564
M204 S3000
M205 X10 Y10
G0 F3000 X62.967 Y100.981
M204 S1800
M205 X8 Y8
G1 F1500 X84.775 Y122.789 E89.64173
M204 S3000
M205 X10 Y10
G0 F3000 X85.566 Y122.789
M204 S1800
M205 X8 Y8
G1 F1500 X62.967 Y100.189 E91.12995
M204 S3000
M205 X10 Y10
G0 F3000 X62.967 Y99.398
M204 S1800
M205 X8 Y8
G1 F1500 X86.358 Y122.789 E92.67029
M204 S3000
M205 X10 Y10
G0 F3000 X87.15 Y122.789
M204 S1800
M205 X8 Y8
G1 F1500 X62.967 Y98.606 E94.26278
M204 S3000
M205 X10 Y10
G0 F3000 X62.967 Y97.814
M204 S1800
M205 X8 Y8
G1 F1500 X87.942 Y122.789 E95.90742
M204 S3000
M205 X10 Y10
G0 F3000 X88.734 Y122.789
M204 S1800
M205 X8 Y8
G1 F1500 X62.967 Y97.022 E97.60423
M204 S3000
M205 X10 Y10
G0 F3000 X62.967 Y96.23
M204 S1800
M205 X8 Y8
G1 F1500 X89.526 Y122.789 E99.35318
M204 S3000
M205 X10 Y10
G0 F3000 X90.318 Y122.789
M204 S1800
M205 X8 Y8
G1 F1500 X62.967 Y95.438 E101.15429
M204 S3000
M205 X10 Y10
G0 F3000 X62.967 Y94.646
M204 S1800
M205 X8 Y8
G1 F1500 X91.11 Y122.789 E103.00756
M204 S3000
M205 X10 Y10
G0 F3000 X91.902 Y122.789
M204 S1800
M205 X8 Y8
G1 F1500 X62.967 Y93.854 E104.91297
M204 S3000
M205 X10 Y10
G0 F3000 X62.967 Y93.062
M204 S1800
M205 X8 Y8
G1 F1500 X92.694 Y122.789 E106.87055
M204 S3000
M205 X10 Y10
G0 F3000 X93.486 Y122.789
M204 S1800
M205 X8 Y8
G1 F1500 X62.967 Y92.27 E108.88028
M204 S3000
M205 X10 Y10
G0 F3000 X62.967 Y91.478
M204 S1800
M205 X8 Y8
G1 F1500 X94.278 Y122.789 E110.94216
M204 S3000
M205 X10 Y10
G0 F3000 X95.07 Y122.789
M204 S1800
M205 X8 Y8
G1 F1500 X62.967 Y90.686 E113.0562
M204 S3000
M205 X10 Y10
G0 F3000 X62.967 Y89.894
M204 S1800
M205 X8 Y8
G1 F1500 X95.862 Y122.789 E115.22239
M204 S3000
M205 X10 Y10
G0 F3000 X96.654 Y122.789
M204 S1800
M205 X8 Y8
G1 F1500 X62.967 Y89.102 E117.44074
M204 S3000
M205 X10 Y10
G0 F3000 X62.967 Y88.31
M204 S1800
M205 X8 Y8
G1 F1500 X97.446 Y122.789 E119.71124
M204 S3000
M205 X10 Y10
G0 F3000 X98.238 Y122.789
M204 S1800
M205 X8 Y8
G1 F1500 X62.967 Y87.518 E122.03389
M204 S3000
M205 X10 Y10
G0 F3000 X63.45 Y87.209
M204 S1800
M205 X8 Y8
G1 F1500 X98.546 Y122.305 E124.34502
M204 S3000
M205 X10 Y10
G0 F3000 X98.546 Y121.513
M204 S1800
M205 X8 Y8
G1 F1500 X64.242 Y87.209 E126.604
M204 S3000
M205 X10 Y10
G0 F3000 X65.034 Y87.209
M204 S1800
M205 X8 Y8
G1 F1500 X98.546 Y120.721 E128.81082
M204 S3000
M205 X10 Y10
G0 F3000 X98.546 Y119.929
M204 S1800
M205 X8 Y8
G1 F1500 X65.826 Y87.209 E130.96549
M204 S3000
M205 X10 Y10
G0 F3000 X66.618 Y87.209
M204 S1800
M205 X8 Y8
G1 F1500 X98.546 Y119.137 E133.068
M204 S3000
M205 X10 Y10
G0 F3000 X98.546 Y118.345
M204 S1800
M205 X8 Y8
G1 F1500 X67.41 Y87.209 E135.11836
M204 S3000
M205 X10 Y10
G0 F3000 X68.202 Y87.209
M204 S1800
M205 X8 Y8
G1 F1500 X98.546 Y117.553 E137.11657
M204 S3000
M205 X10 Y10
G0 F3000 X98.546 Y116.761
M204 S1800
M205 X8 Y8
G1 F1500 X68.994 Y87.209 E139.06262
M204 S3000
M205 X10 Y10
G0 F3000 X69.786 Y87.209
M204 S1800
M205 X8 Y8
G1 F1500 X98.546 Y115.969 E140.95651
M204 S3000
M205 X10 Y10
G0 F3000 X98.546 Y115.177
M204 S1800
M205 X8 Y8
G1 F1500 X70.578 Y87.209 E142.79825
M204 S3000
M205 X10 Y10
G0 F3000 X71.37 Y87.209
M204 S1800
M205 X8 Y8
G1 F1500 X98.546 Y114.385 E144.58784
M204 S3000
M205 X10 Y10
G0 F3000 X98.546 Y113.593
M204 S1800
M205 X8 Y8
G1 F1500 X72.162 Y87.209 E146.32527
M204 S3000
M205 X10 Y10
G0 F3000 X72.954 Y87.209
M204 S1800
M205 X8 Y8
G1 F1500 X98.546 Y112.801 E148.01055
M204 S3000
M205 X10 Y10
G0 F3000 X98.546 Y112.009
M204 S1800
M205 X8 Y8
G1 F1500 X73.746 Y87.209 E149.64367
M204 S3000
M205 X10 Y10
G0 F3000 X74.538 Y87.209
M204 S1800
M205 X8 Y8
G1 F1500 X98.546 Y111.217 E151.22464
M204 S3000
M205 X10 Y10
G0 F3000 X98.546 Y110.426
M204 S1800
M205 X8 Y8
G1 F1500 X75.33 Y87.209 E152.75348
M204 S3000
M205 X10 Y10
G0 F3000 X76.122 Y87.209
M204 S1800
M205 X8 Y8
G1 F1500 X98.546 Y109.634 E154.23017
M204 S3000
M205 X10 Y10
G0 F3000 X98.546 Y108.842
M204 S1800
M205 X8 Y8
G1 F1500 X76.914 Y87.209 E155.65471
M204 S3000
M205 X10 Y10
G0 F3000 X77.706 Y87.209
M204 S1800
M205 X8 Y8
G1 F1500 X98.546 Y108.05 E157.02709
M204 S3000
M205 X10 Y10
G0 F3000 X98.546 Y107.258
M204 S1800
M205 X8 Y8
G1 F1500 X78.498 Y87.209 E158.34732
M204 S3000
M205 X10 Y10
G0 F3000 X79.29 Y87.209
M204 S1800
M205 X8 Y8
G1 F1500 X98.546 Y106.466 E159.6154
M204 S3000
M205 X10 Y10
G0 F3000 X98.546 Y105.674
M204 S1800
M205 X8 Y8
G1 F1500 X80.081 Y87.209 E160.83135
M204 S3000
M205 X10 Y10
G0 F3000 X80.874 Y87.21
M204 S1800
M205 X8 Y8
G1 F1500 X98.546 Y104.882 E161.99508
M204 S3000
M205 X10 Y10
G0 F3000 X98.546 Y104.09
M204 S1800
M205 X8 Y8
G1 F1500 X81.666 Y87.21 E163.10666
M204 S3000
M205 X10 Y10
G0 F3000 X82.458 Y87.21
M204 S1800
M205 X8 Y8
G1 F1500 X98.546 Y103.298 E164.16608
M204 S3000
M205 X10 Y10
G0 F3000 X98.546 Y102.506
M204 S1800
M205 X8 Y8
G1 F1500 X83.25 Y87.21 E165.17335
M204 S3000
M205 X10 Y10
G0 F3000 X84.042 Y87.21
M204 S1800
M205 X8 Y8
