;FLAVOR:Marlin
;TIME:8112
;Filament used: 7.45625m
;Layer height: 0.2
;MINX:69.245
;MINY:73.785
;MINZ:0.2
;MAXX:140.755
;MAXY:136.215
;MAXZ:32.8
;Generated with Cura_SteamEngine 4.6.1
M140 S60
M105
M190 S60
M104 S200
M105
M109 S200
M82 ;absolute extrusion mode
G21 ;metric values
G90 ;absolute positioning
M82 ;set extruder to absolute mode
M107 ;start with the fan off
G28
G29
M501
M420 S1
G92 E0 ;zero the extruded length
G1 F200 E3 ;extrude 3mm of feed stock
G92 E0 ;zero the extruded length again
G1 F120
G0 Y20 F120
M117 Printing...
G5
G92 E0
G92 E0
G1 F2400 E-6
;LAYER_COUNT:164
;LAYER:0
M106 S255
M204 S5000
M205 X30 Y30
G1 F600 Z0.275
G0 F3600 X134.422 Y75.526 Z0.275
M204 S1800
M205 X8 Y8
;TYPE:SKIRT
G1 F600 Z0.2
G1 F2400 E0
G1 F1500 X135.069 Y75.575 E0.03021
G1 X135.706 Y75.703 E0.06047
G1 X136.322 Y75.909 E0.09071
G1 X136.909 Y76.189 E0.121
G1 X137.456 Y76.538 E0.15121
G1 X137.957 Y76.952 E0.18147
G1 X138.402 Y77.425 E0.21171
G1 X138.787 Y77.949 E0.24199
G1 X139.104 Y78.516 E0.27224
G1 X139.349 Y79.117 E0.30246
G1 X139.518 Y79.744 E0.3327
G1 X139.624 Y80.657 E0.3755
G1 X139.635 Y128.534 E2.60485
G1 X139.626 Y129.261 E2.6387
G1 X139.578 Y129.909 E2.66896
G1 X139.45 Y130.546 E2.69921
G1 X139.246 Y131.163 E2.72947
G1 X138.967 Y131.75 E2.75974
G1 X138.619 Y132.298 E2.78997
G1 X138.206 Y132.799 E2.8202
G1 X137.734 Y133.246 E2.85047
G1 X137.211 Y133.631 E2.88071
G1 X136.645 Y133.949 E2.91094
G1 X136.043 Y134.196 E2.94124
G1 X135.417 Y134.366 E2.97144
G1 X134.494 Y134.474 E3.01472
G1 X76.284 Y134.485 E5.72522
G1 X75.586 Y134.476 E5.75772
G1 X74.938 Y134.427 E5.78798
G1 X74.301 Y134.3 E5.81823
G1 X73.685 Y134.095 E5.84846
G1 X73.098 Y133.816 E5.87872
G1 X72.55 Y133.467 E5.90897
G1 X72.049 Y133.054 E5.93921
G1 X71.602 Y132.582 E5.96948
G1 X71.217 Y132.059 E5.99972
G1 X70.899 Y131.492 E6.02999
G1 X70.653 Y130.891 E6.06023
G1 X70.483 Y130.264 E6.09047
G1 X70.376 Y129.339 E6.13383
G1 X70.365 Y81.398 E8.36617
G1 X70.374 Y80.733 E8.39714
G1 X70.423 Y80.085 E8.4274
G1 X70.551 Y79.448 E8.45765
G1 X70.756 Y78.831 E8.48792
G1 X71.036 Y78.245 E8.51817
G1 X71.385 Y77.697 E8.54842
G1 X71.799 Y77.196 E8.57868
G1 X72.271 Y76.75 E8.60892
G1 X72.794 Y76.366 E8.63913
G1 X73.361 Y76.048 E8.6694
G1 X73.962 Y75.802 E8.69964
G1 X74.589 Y75.632 E8.72989
G1 X75.506 Y75.526 E8.77287
G1 X133.648 Y75.515 E11.48021
G1 X134.422 Y75.526 E11.51625
M204 S5000
M205 X30 Y30
G0 F3600 X134.43 Y74.966
M204 S1800
M205 X8 Y8
G1 F1500 X135.111 Y75.015 E11.54805
G1 X135.782 Y75.144 E11.57986
G1 X136.433 Y75.351 E11.61167
G1 X137.056 Y75.632 E11.6435
G1 X137.642 Y75.984 E11.67533
G1 X138.182 Y76.402 E11.70712
G1 X138.67 Y76.88 E11.73893
G1 X139.099 Y77.412 E11.77076
G1 X139.463 Y77.99 E11.80256
G1 X139.757 Y78.607 E11.83439
G1 X139.976 Y79.254 E11.86619
G1 X140.119 Y79.922 E11.898
G1 X140.184 Y80.641 E11.93162
G1 X140.195 Y128.541 E14.16204
G1 X140.186 Y129.268 E14.1959
G1 X140.137 Y129.95 E14.22774
G1 X140.009 Y130.621 E14.25955
G1 X139.804 Y131.273 E14.29137
G1 X139.524 Y131.896 E14.32317
G1 X139.174 Y132.482 E14.35496
G1 X138.757 Y133.024 E14.3868
G1 X138.28 Y133.513 E14.41861
G1 X137.749 Y133.942 E14.4504
G1 X137.171 Y134.307 E14.48223
G1 X136.555 Y134.602 E14.51403
G1 X135.908 Y134.823 E14.54587
G1 X135.24 Y134.967 E14.57769
G1 X134.51 Y135.034 E14.61182
G1 X76.277 Y135.045 E17.32339
G1 X75.579 Y135.036 E17.3559
G1 X74.897 Y134.987 E17.38774
G1 X74.226 Y134.859 E17.41954
G1 X73.575 Y134.653 E17.45134
G1 X72.951 Y134.373 E17.48319
G1 X72.365 Y134.022 E17.51499
G1 X71.824 Y133.605 E17.5468
G1 X71.335 Y133.127 E17.57864
G1 X70.906 Y132.596 E17.61043
G1 X70.541 Y132.018 E17.64226
G1 X70.247 Y131.402 E17.67404
G1 X70.026 Y130.755 E17.70588
G1 X69.882 Y130.087 E17.7377
G1 X69.816 Y129.354 E17.77197
G1 X69.805 Y81.469 E20.00169
G1 X69.815 Y80.725 E20.03634
G1 X69.864 Y80.044 E20.06813
G1 X69.992 Y79.372 E20.09999
G1 X70.198 Y78.721 E20.13178
G1 X70.479 Y78.098 E20.1636
G1 X70.83 Y77.512 E20.19541
G1 X71.248 Y76.971 E20.22725
G1 X71.725 Y76.483 E20.25902
G1 X72.257 Y76.054 E20.29084
G1 X72.835 Y75.689 E20.32268
G1 X73.452 Y75.395 E20.3545
G1 X74.098 Y75.175 E20.38628
G1 X74.766 Y75.032 E20.41809
G1 X75.49 Y74.966 E20.45194
G1 X133.648 Y74.955 E23.16002
G1 X134.43 Y74.966 E23.19644
M204 S5000
M205 X30 Y30
G0 F3600 X134.438 Y74.406
M204 S1800
M205 X8 Y8
G1 F1500 X135.151 Y74.456 E23.22972
G1 X135.855 Y74.585 E23.26305
G1 X136.539 Y74.793 E23.29634
G1 X137.196 Y75.075 E23.32963
G1 X137.818 Y75.429 E23.36295
G1 X138.396 Y75.85 E23.39625
G1 X138.924 Y76.333 E23.42957
G1 X139.394 Y76.871 E23.46283
G1 X139.802 Y77.459 E23.49616
G1 X140.141 Y78.089 E23.52947
G1 X140.408 Y78.752 E23.56275
G1 X140.599 Y79.442 E23.59609
G1 X140.712 Y80.148 E23.62938
G1 X140.752 Y80.945 E23.66654
G1 X140.755 Y128.548 E25.88314
G1 X140.746 Y129.275 E25.91699
G1 X140.697 Y129.989 E25.95032
G1 X140.569 Y130.693 E25.98364
G1 X140.363 Y131.378 E26.01694
G1 X140.082 Y132.035 E26.05022
G1 X139.729 Y132.658 E26.08356
G1 X139.309 Y133.237 E26.11687
G1 X138.827 Y133.765 E26.15016
G1 X138.29 Y134.237 E26.18345
G1 X137.702 Y134.645 E26.21677
G1 X137.073 Y134.986 E26.25009
G1 X136.41 Y135.254 E26.28339
G1 X135.721 Y135.446 E26.31669
G1 X135.015 Y135.561 E26.35
G1 X134.204 Y135.602 E26.38781
G1 X76.352 Y135.605 E29.08164
G1 X75.571 Y135.595 E29.11801
G1 X74.858 Y135.546 E29.15129
G1 X74.154 Y135.418 E29.18461
G1 X73.469 Y135.212 E29.21792
G1 X72.812 Y134.93 E29.25121
G1 X72.19 Y134.577 E29.28451
G1 X71.611 Y134.157 E29.31782
G1 X71.082 Y133.675 E29.35114
G1 X70.611 Y133.137 E29.38444
G1 X70.203 Y132.55 E29.41773
G1 X69.863 Y131.92 E29.45106
G1 X69.595 Y131.257 E29.48436
G1 X69.403 Y130.568 E29.51766
G1 X69.289 Y129.862 E29.55096
G1 X69.247 Y129.036 E29.58948
G1 X69.245 Y81.469 E31.8044
G1 X69.255 Y80.717 E31.83941
G1 X69.304 Y80.004 E31.87269
G1 X69.433 Y79.3 E31.90602
G1 X69.64 Y78.616 E31.9393
G1 X69.922 Y77.958 E31.97263
G1 X70.275 Y77.336 E32.00593
G1 X70.695 Y76.758 E32.0392
G1 X71.178 Y76.23 E32.07252
G1 X71.716 Y75.759 E32.10582
G1 X72.304 Y75.351 E32.13914
G1 X72.933 Y75.011 E32.17244
G1 X73.597 Y74.744 E32.20576
G1 X74.286 Y74.552 E32.23907
G1 X74.992 Y74.438 E32.27237
G1 X75.796 Y74.398 E32.30985
G1 X133.648 Y74.395 E35.00368
G1 X134.438 Y74.406 E35.04047
M204 S5000
M205 X30 Y30
G1 F2400 E29.04047
;MESH:Base.stl
G0 F3600 X133.501 Y80.13
G0 X133.501 Y81.649
G0 X127.099 Y89.88
G0 X126.773 Y91.095
G0 X127.049 Y92.345
G0 X127.135 Y92.295
M204 S1800
M205 X8 Y8
;TYPE:WALL-INNER
G1 F2400 E35.04047
G1 F1500 X127.526 Y92.796 E35.07007
G1 X128.023 Y93.174 E35.09914
G1 X128.602 Y93.407 E35.1282
G1 X129.221 Y93.486 E35.15726
G1 X129.84 Y93.4 E35.18636
G1 X130.412 Y93.159 E35.21526
G1 X130.896 Y92.786 E35.24371
G1 X131.277 Y92.292 E35.27276
G1 X131.516 Y91.714 E35.30189
G1 X131.597 Y91.095 E35.33096
G1 X131.516 Y90.476 E35.36003
G1 X131.275 Y89.896 E35.38927
G1 X130.884 Y89.395 E35.41886
G1 X130.387 Y89.016 E35.44797
G1 X129.808 Y88.783 E35.47703
G1 X129.189 Y88.704 E35.50609
G1 X128.571 Y88.79 E35.53514
G1 X127.999 Y89.031 E35.56404
G1 X127.514 Y89.404 E35.59253
G1 X127.133 Y89.9 E35.62166
G1 X126.894 Y90.476 E35.65069
G1 X126.813 Y91.095 E35.67976
G1 X126.894 Y91.714 E35.70883
G1 X127.135 Y92.295 E35.73812
M204 S5000
M205 X30 Y30
G0 F3600 X127.049 Y92.345
G0 X131.698 Y118.909
G0 X131.598 Y118.909
M204 S1800
M205 X8 Y8
G1 F1500 X131.515 Y118.286 E35.76739
G1 X131.275 Y117.705 E35.79666
G1 X130.884 Y117.204 E35.82625
G1 X130.387 Y116.826 E35.85533
G1 X129.808 Y116.593 E35.88439
G1 X129.189 Y116.514 E35.91344
G1 X128.571 Y116.6 E35.9425
G1 X127.999 Y116.841 E35.9714
G1 X127.514 Y117.213 E35.99986
G1 X127.133 Y117.708 E36.02895
G1 X126.894 Y118.286 E36.05807
G1 X126.813 Y118.905 E36.08714
G1 X126.894 Y119.524 E36.11621
G1 X127.135 Y120.104 E36.14546
G1 X127.526 Y120.605 E36.17505
G1 X128.023 Y120.984 E36.20415
G1 X128.602 Y121.217 E36.23321
G1 X129.221 Y121.296 E36.26227
G1 X129.84 Y121.21 E36.29137
G1 X130.412 Y120.969 E36.32027
G1 X130.897 Y120.595 E36.34879
G1 X131.278 Y120.1 E36.37788
G1 X131.509 Y119.537 E36.40622
G1 X131.598 Y118.909 E36.43575
M204 S5000
M205 X30 Y30
G0 F3600 X131.698 Y118.909
G0 X131.312 Y120.119
G0 X130.432 Y121.003
G0 X129.221 Y121.336
G0 X80.385 Y121.3
G0 X79.477 Y120.922
G0 X78.754 Y120.333
G0 X78.835 Y120.276
M204 S1800
M205 X8 Y8
G1 F1500 X79.268 Y120.744 E36.46544
G1 X79.796 Y121.077 E36.49451
G1 X80.391 Y121.261 E36.52351
G1 X81.014 Y121.285 E36.55254
G1 X81.624 Y121.148 E36.58165
G1 X82.174 Y120.858 E36.6106
G1 X82.625 Y120.446 E36.63904
G1 X82.962 Y119.919 E36.66817
G1 X83.15 Y119.324 E36.69723
G1 X83.178 Y118.701 E36.72627
G1 X83.045 Y118.091 E36.75534
G1 X82.755 Y117.534 E36.78458
G1 X82.322 Y117.066 E36.81427
G1 X81.794 Y116.733 E36.84334
G1 X81.199 Y116.549 E36.87234
G1 X80.576 Y116.525 E36.90137
G1 X79.966 Y116.662 E36.93048
G1 X79.416 Y116.952 E36.95943
G1 X78.965 Y117.364 E36.98787
G1 X78.628 Y117.891 E37.017
G1 X78.44 Y118.486 E37.04606
G1 X78.412 Y119.109 E37.0751
G1 X78.545 Y119.719 E37.10417
G1 X78.835 Y120.276 E37.13341
M204 S5000
M205 X30 Y30
G0 F3600 X78.754 Y120.333
G0 X76.555 Y128.295
G0 X76.485 Y128.365
M204 S1800
M205 X8 Y8
G1 F1500 X76.485 Y81.635 E39.30935
G1 X133.515 Y81.635 E41.96491
G1 X133.515 Y128.365 E44.14085
G1 X76.485 Y128.365 E46.79641
M204 S5000
M205 X30 Y30
G0 F3600 X76.555 Y128.295
G0 X78.639 Y92.345
G0 X78.725 Y92.295
M204 S1800
M205 X8 Y8
G1 F1500 X79.116 Y92.796 E46.826
G1 X79.613 Y93.174 E46.85508
G1 X80.192 Y93.407 E46.88414
G1 X80.811 Y93.486 E46.9132
G1 X81.429 Y93.4 E46.94225
G1 X82.001 Y93.159 E46.97115
G1 X82.486 Y92.787 E46.99961
G1 X82.867 Y92.292 E47.0287
G1 X83.106 Y91.714 E47.05782
G1 X83.187 Y91.095 E47.08689
G1 X83.106 Y90.476 E47.11596
G1 X82.865 Y89.896 E47.14521
G1 X82.474 Y89.395 E47.1748
G1 X81.977 Y89.016 E47.2039
G1 X81.398 Y88.783 E47.23297
G1 X80.779 Y88.704 E47.26202
G1 X80.16 Y88.79 E47.29112
G1 X79.588 Y89.031 E47.32003
G1 X79.103 Y89.405 E47.34854
G1 X78.723 Y89.899 E47.37756
G1 X78.484 Y90.476 E47.40665
G1 X78.403 Y91.095 E47.43572
G1 X78.484 Y91.714 E47.46478
G1 X78.725 Y92.295 E47.49407
M204 S5000
M205 X30 Y30
G0 F3600 X79.213 Y92.01
M204 S1800
M205 X8 Y8
;TYPE:WALL-OUTER
G1 F1500 X79.513 Y92.394 E47.51676
G1 X79.892 Y92.683 E47.53896
G1 X80.334 Y92.861 E47.56114
G1 X80.807 Y92.921 E47.58335
G1 X81.279 Y92.855 E47.60554
G1 X81.717 Y92.671 E47.62766
G1 X82.087 Y92.387 E47.64938
G1 X82.378 Y92.009 E47.67159
G1 X82.56 Y91.568 E47.69381
G1 X82.622 Y91.095 E47.71602
G1 X82.56 Y90.622 E47.73823
G1 X82.377 Y90.181 E47.76047
G1 X82.077 Y89.796 E47.78319
G1 X81.698 Y89.507 E47.80539
G1 X81.256 Y89.329 E47.82757
G1 X80.783 Y89.269 E47.84977
G1 X80.31 Y89.335 E47.87201
G1 X79.872 Y89.519 E47.89413
G1 X79.503 Y89.804 E47.91584
G1 X79.212 Y90.182 E47.93806
G1 X79.03 Y90.622 E47.96023
G1 X78.968 Y91.095 E47.98244
G1 X79.03 Y91.568 E48.00466
G1 X79.213 Y92.01 E48.02693
M204 S5000
M205 X30 Y30
G0 F3600 X79.336 Y92.167
G0 X78.816 Y92.572
G0 X78.373 Y119.112
G0 X79.076 Y119.527
M204 S1800
M205 X8 Y8
G1 F1500 X79.297 Y119.951 E48.0492
G1 X79.629 Y120.31 E48.07196
G1 X80.032 Y120.564 E48.09415
G1 X80.486 Y120.704 E48.11627
G1 X80.963 Y120.723 E48.1385
G1 X81.428 Y120.618 E48.1607
G1 X81.849 Y120.396 E48.18286
G1 X82.193 Y120.082 E48.20454
G1 X82.45 Y119.68 E48.22676
G1 X82.594 Y119.225 E48.24898
G1 X82.615 Y118.749 E48.27117
G1 X82.514 Y118.283 E48.29337
G1 X82.293 Y117.859 E48.31564
G1 X81.961 Y117.5 E48.33841
G1 X81.558 Y117.246 E48.36059
G1 X81.104 Y117.106 E48.38271
G1 X80.627 Y117.087 E48.40494
G1 X80.162 Y117.192 E48.42714
G1 X79.741 Y117.414 E48.4493
G1 X79.397 Y117.728 E48.47099
G1 X79.14 Y118.13 E48.4932
G1 X78.996 Y118.585 E48.51543
G1 X78.975 Y119.061 E48.53761
G1 X79.076 Y119.527 E48.55982
M204 S5000
M205 X30 Y30
G0 F3600 X79.168 Y119.704
G0 X78.583 Y120.008
G0 X76.555 Y128.295
G0 X75.925 Y128.925
M204 S1800
M205 X8 Y8
G1 F1500 X75.925 Y81.075 E50.78791
G1 X134.075 Y81.075 E53.49562
G1 X134.075 Y128.925 E55.72372
G1 X75.925 Y128.925 E58.43142
M204 S5000
M205 X30 Y30
G0 F3600 X75.925 Y128.725
G0 X76.555 Y128.295
G0 X129.85 Y121.248
G0 X130.925 Y120.623
G0 X131.378 Y119.958
G0 X131.686 Y118.999
G0 X131.033 Y118.906
M204 S1800
M205 X8 Y8
G1 F1500 X130.97 Y118.432 E58.45369
G1 X130.787 Y117.99 E58.47596
G1 X130.487 Y117.606 E58.49865
G1 X130.108 Y117.317 E58.52085
G1 X129.666 Y117.139 E58.54304
G1 X129.193 Y117.079 E58.56524
G1 X128.721 Y117.145 E58.58743
G1 X128.283 Y117.329 E58.60955
G1 X127.913 Y117.613 E58.63127
G1 X127.622 Y117.991 E58.65348
G1 X127.44 Y118.432 E58.6757
G1 X127.378 Y118.905 E58.69791
G1 X127.44 Y119.378 E58.72012
G1 X127.623 Y119.819 E58.74236
G1 X127.923 Y120.204 E58.76508
G1 X128.302 Y120.493 E58.78728
G1 X128.744 Y120.671 E58.80946
G1 X129.217 Y120.731 E58.83167
G1 X129.69 Y120.665 E58.8539
G1 X130.128 Y120.481 E58.87603
G1 X130.497 Y120.196 E58.89774
G1 X130.788 Y119.818 E58.91995
G1 X130.964 Y119.389 E58.94154
G1 X131.033 Y118.906 E58.96426
M204 S5000
M205 X30 Y30
G0 F3600 X131.007 Y118.708
G0 X131.661 Y118.622
G0 X127.103 Y92.415
G0 X127.623 Y92.01
M204 S1800
M205 X8 Y8
G1 F1500 X127.923 Y92.394 E58.98695
G1 X128.302 Y92.683 E59.00914
G1 X128.744 Y92.861 E59.03133
G1 X129.217 Y92.921 E59.05353
G1 X129.69 Y92.855 E59.07577
G1 X130.128 Y92.671 E59.09789
G1 X130.497 Y92.387 E59.11957
G1 X130.788 Y92.009 E59.14179
G1 X130.97 Y91.568 E59.164
G1 X131.032 Y91.095 E59.18622
G1 X130.97 Y90.622 E59.20843
G1 X130.787 Y90.181 E59.23066
G1 X130.487 Y89.796 E59.25339
G1 X130.108 Y89.507 E59.27558
G1 X129.666 Y89.329 E59.29777
G1 X129.193 Y89.269 E59.31997
G1 X128.721 Y89.335 E59.34216
G1 X128.283 Y89.519 E59.36428
G1 X127.913 Y89.803 E59.386
G1 X127.622 Y90.182 E59.40825
G1 X127.44 Y90.622 E59.43042
G1 X127.378 Y91.095 E59.45264
G1 X127.44 Y91.568 E59.47485
G1 X127.623 Y92.01 E59.49713
M204 S5000
M205 X30 Y30
G0 F3600 X127.746 Y92.167
G0 X127.226 Y92.572
G0 X126.656 Y92.574
M204 S1800
M205 X8 Y8
;TYPE:SKIN
G1 F1500 X127.137 Y93.191 E59.53356
G1 X127.75 Y93.657 E59.56941
G1 X128.463 Y93.943 E59.60518
G1 X129.225 Y94.04 E59.64095
G1 X129.987 Y93.935 E59.67677
G1 X130.691 Y93.638 E59.71235
G1 X131.289 Y93.178 E59.74748
G1 X131.757 Y92.569 E59.78324
G1 X132.052 Y91.857 E59.81913
G1 X132.151 Y91.095 E59.85491
G1 X132.052 Y90.333 E59.89069
G1 X131.754 Y89.617 E59.9268
G1 X131.275 Y89.001 E59.96314
G1 X130.662 Y88.533 E59.99905
G1 X129.947 Y88.247 E60.03491
G1 X129.185 Y88.15 E60.07067
G1 X128.424 Y88.255 E60.10644
G1 X127.72 Y88.552 E60.14202
G1 X127.121 Y89.012 E60.17719
G1 X126.653 Y89.623 E60.21303
G1 X126.358 Y90.332 E60.24879
G1 X126.259 Y91.095 E60.28461
G1 X126.358 Y91.857 E60.32039
G1 X126.656 Y92.574 E60.35655
M204 S5000
M205 X30 Y30
G0 F3600 X126.856 Y90.466
G0 X132.965 Y82.185
M204 S1800
M205 X8 Y8
G1 F1500 X132.965 Y127.815 E62.48127
G1 X77.035 Y127.815 E65.08561
G1 X77.035 Y82.185 E67.21033
G1 X132.965 Y82.185 E69.81467
M204 S5000
M205 X30 Y30
G0 F3600 X129.185 Y115.96
M204 S1800
M205 X8 Y8
G1 F1500 X128.424 Y116.065 E69.85044
G1 X127.72 Y116.362 E69.88602
G1 X127.122 Y116.82 E69.92109
G1 X126.652 Y117.431 E69.95698
G1 X126.358 Y118.143 E69.99285
G1 X126.259 Y118.905 E70.02863
G1 X126.358 Y119.667 E70.06441
G1 X126.656 Y120.383 E70.10053
G1 X127.135 Y120.999 E70.13686
G1 X127.748 Y121.467 E70.17277
G1 X128.463 Y121.753 E70.20863
G1 X129.225 Y121.85 E70.2444
G1 X129.987 Y121.745 E70.28022
G1 X130.691 Y121.448 E70.3158
G1 X131.29 Y120.987 E70.35099
G1 X131.759 Y120.377 E70.38682
G1 X132.044 Y119.682 E70.4218
G1 X132.154 Y118.911 E70.45806
G1 X132.051 Y118.142 E70.49419
G1 X131.754 Y117.426 E70.53028
G1 X131.273 Y116.809 E70.56671
G1 X130.66 Y116.343 E70.60257
G1 X129.947 Y116.057 E70.63834
G1 X129.185 Y115.96 E70.67411
M204 S5000
M205 X30 Y30
G0 F3600 X83.209 Y117.214
M204 S1800
M205 X8 Y8
G1 F1500 X82.677 Y116.64 E70.71055
G1 X82.026 Y116.229 E70.7464
G1 X81.293 Y116.003 E70.78212
G1 X80.525 Y115.973 E70.81791
G1 X79.774 Y116.141 E70.85374
G1 X79.097 Y116.498 E70.88938
G1 X78.541 Y117.007 E70.92448
G1 X78.125 Y117.656 E70.96037
G1 X77.894 Y118.39 E70.9962
G1 X77.86 Y119.156 E71.03191
G1 X78.023 Y119.908 E71.06774
G1 X78.381 Y120.596 E71.10385
G1 X78.913 Y121.17 E71.14029
