;FLAVOR:Marlin
;TIME:908
;Filament used: 0.933513m
;Layer height: 0.2
;MINX:83.6
;MINY:83.6
;MINZ:0.2
;MAXX:126.4
;MAXY:126.4
;MAXZ:12
;Generated with Cura_SteamEngine 4.10.0
M140 S60
M105
M190 S60
M104 S195
M105
M109 S195
M82 ;absolute extrusion mode
G21 ;metric values
G90 ;absolute positionin
M82 ;absolute extrusion mode
G28
G29
M501
G92 E0 ;zero the extruded length
G1 F200 E5 ;extrude 3mm of feed stock
G92 E0 ;zero the extruded length again
G1 F100
G0 Y20 F100
M117 Printing...
G5
G92 E0
G92 E0
G1 F2400 E-1
;LAYER_COUNT:60
;LAYER:0
M107
M204 S3000
M205 X10 Y10
G1 F600 Z0.275
G0 F3000 X85.533 Y85.435 Z0.275
M204 S1800
M205 X8 Y8
;TYPE:SKIRT
G1 F600 Z0.2
G1 F2400 E0
G1 X86.071 Y84.964 E0.03484
G1 X86.659 Y84.556 E0.06972
G1 X87.288 Y84.216 E0.10456
G1 X87.952 Y83.949 E0.13943
G1 X88.641 Y83.757 E0.17429
G1 X89.347 Y83.643 E0.20914
G1 X90.151 Y83.603 E0.24836
G1 X90.33 Y83.6 E0.25709
G1 X119.293 Y83.6 E1.66844
G1 X120.083 Y83.611 E1.70694
G1 X120.796 Y83.661 E1.74177
G1 X121.5 Y83.79 E1.77664
G1 X122.184 Y83.998 E1.81148
G1 X122.841 Y84.28 E1.84632
G1 X123.463 Y84.634 E1.8812
G1 X124.041 Y85.055 E1.91604
G1 X124.569 Y85.538 E1.95091
G1 X125.039 Y86.076 E1.98572
G1 X125.447 Y86.664 E2.0206
G1 X125.786 Y87.294 E2.05546
G1 X126.053 Y87.957 E2.09029
G1 X126.244 Y88.647 E2.12518
G1 X126.357 Y89.353 E2.16002
G1 X126.397 Y90.15 E2.1989
G1 X126.4 Y90.33 E2.20768
G1 X126.4 Y119.343 E3.62146
G1 X126.391 Y120.07 E3.65689
G1 X126.342 Y120.784 E3.69177
G1 X126.214 Y121.488 E3.72664
G1 X126.008 Y122.173 E3.76149
G1 X125.727 Y122.83 E3.79631
G1 X125.374 Y123.453 E3.83121
G1 X124.954 Y124.032 E3.86606
G1 X124.472 Y124.56 E3.9009
G1 X123.935 Y125.032 E3.93574
G1 X123.347 Y125.44 E3.97061
G1 X122.718 Y125.781 E4.00548
G1 X122.055 Y126.049 E4.04033
G1 X121.366 Y126.241 E4.07518
G1 X120.66 Y126.356 E4.11004
G1 X119.849 Y126.397 E4.14961
G1 X119.67 Y126.4 E4.15833
G1 X90.624 Y126.399 E5.57372
G1 X89.926 Y126.39 E5.60774
G1 X89.213 Y126.341 E5.64257
G1 X88.509 Y126.213 E5.67743
G1 X87.824 Y126.007 E5.71229
G1 X87.167 Y125.725 E5.74713
G1 X86.545 Y125.372 E5.78198
G1 X85.966 Y124.952 E5.81684
G1 X85.437 Y124.47 E5.85171
G1 X84.966 Y123.932 E5.88655
G1 X84.558 Y123.345 E5.92139
G1 X84.218 Y122.715 E5.95627
G1 X83.95 Y122.052 E5.99112
G1 X83.758 Y121.363 E6.02597
G1 X83.644 Y120.657 E6.06082
G1 X83.602 Y119.831 E6.10113
G1 X83.6 Y119.658 E6.10956
G1 X83.601 Y90.587 E7.52617
G1 X83.61 Y89.922 E7.55858
G1 X83.659 Y89.209 E7.5934
G1 X83.788 Y88.505 E7.62828
G1 X83.995 Y87.821 E7.6631
G1 X84.277 Y87.163 E7.69799
G1 X84.63 Y86.541 E7.73284
G1 X85.05 Y85.963 E7.76766
G1 X85.533 Y85.435 E7.80253
M204 S3000
M205 X10 Y10
G0 F3000 X86.08 Y85.688
M204 S1800
M205 X8 Y8
G1 F2400 X86.612 Y85.259 E7.83583
G1 X87.19 Y84.894 E7.86914
G1 X87.807 Y84.6 E7.90245
G1 X88.453 Y84.38 E7.9357
G1 X89.121 Y84.237 E7.96899
G1 X89.845 Y84.171 E8.00441
G1 X90.33 Y84.16 E8.02805
G1 X119.293 Y84.16 E9.43941
G1 X120.075 Y84.171 E9.47752
G1 X120.756 Y84.22 E9.51079
G1 X121.427 Y84.349 E9.54408
G1 X122.078 Y84.556 E9.57737
G1 X122.701 Y84.837 E9.61067
G1 X123.287 Y85.189 E9.64398
G1 X123.827 Y85.607 E9.67726
G1 X124.315 Y86.085 E9.71055
G1 X124.744 Y86.617 E9.74385
G1 X125.108 Y87.195 E9.77714
G1 X125.402 Y87.812 E9.81044
G1 X125.621 Y88.459 E9.84373
G1 X125.764 Y89.127 E9.87702
G1 X125.829 Y89.846 E9.91219
G1 X125.84 Y90.33 E9.93579
G1 X125.84 Y119.336 E11.34923
G1 X125.831 Y120.063 E11.38466
G1 X125.782 Y120.745 E11.41798
G1 X125.654 Y121.416 E11.45127
G1 X125.449 Y122.068 E11.48457
G1 X125.169 Y122.691 E11.51786
G1 X124.819 Y123.277 E11.55112
G1 X124.402 Y123.819 E11.58444
G1 X123.925 Y124.308 E11.61773
G1 X123.394 Y124.737 E11.65099
G1 X122.816 Y125.102 E11.6843
G1 X122.2 Y125.397 E11.71759
G1 X121.553 Y125.618 E11.7509
G1 X120.885 Y125.762 E11.7842
G1 X120.155 Y125.829 E11.81992
G1 X119.67 Y125.84 E11.84356
G1 X90.632 Y125.84 E13.25857
G1 X89.934 Y125.831 E13.29258
G1 X89.252 Y125.782 E13.3259
G1 X88.581 Y125.654 E13.35919
G1 X87.93 Y125.448 E13.39246
G1 X87.306 Y125.168 E13.42579
G1 X86.72 Y124.817 E13.45908
G1 X86.179 Y124.4 E13.49236
G1 X85.69 Y123.922 E13.52568
G1 X85.261 Y123.391 E13.55895
G1 X84.896 Y122.813 E13.59226
G1 X84.602 Y122.197 E13.62552
G1 X84.381 Y121.55 E13.65884
G1 X84.237 Y120.882 E13.69214
G1 X84.171 Y120.149 E13.728
G1 X84.16 Y119.658 E13.75193
G1 X84.161 Y90.595 E15.16816
G1 X84.17 Y89.93 E15.20056
G1 X84.219 Y89.249 E15.23383
G1 X84.347 Y88.577 E15.26717
G1 X84.553 Y87.926 E15.30044
G1 X84.834 Y87.303 E15.33375
G1 X85.185 Y86.717 E15.36703
G1 X85.603 Y86.176 E15.40035
G1 X86.08 Y85.688 E15.4336
M204 S3000
M205 X10 Y10
G0 F3000 X86.154 Y86.401
M204 S1800
M205 X8 Y8
G1 F2400 X86.626 Y85.955 E15.46524
G1 X87.149 Y85.571 E15.49686
G1 X87.716 Y85.253 E15.52854
G1 X88.317 Y85.007 E15.56018
G1 X88.944 Y84.837 E15.59184
G1 X89.861 Y84.731 E15.63682
G1 X90.33 Y84.72 E15.65968
G1 X119.293 Y84.72 E17.07103
G1 X120.067 Y84.731 E17.10875
G1 X120.714 Y84.78 E17.14037
G1 X121.351 Y84.908 E17.17203
G1 X121.967 Y85.114 E17.20369
G1 X122.554 Y85.394 E17.23538
G1 X123.101 Y85.743 E17.267
G1 X123.602 Y86.157 E17.29867
G1 X124.047 Y86.63 E17.33031
G1 X124.432 Y87.154 E17.362
G1 X124.749 Y87.721 E17.39365
G1 X124.994 Y88.322 E17.42528
G1 X125.163 Y88.949 E17.45692
G1 X125.269 Y89.862 E17.50171
G1 X125.28 Y90.33 E17.52452
G1 X125.28 Y119.329 E18.93763
G1 X125.271 Y120.056 E18.97306
G1 X125.223 Y120.704 E19.00472
G1 X125.095 Y121.341 E19.03638
G1 X124.891 Y121.958 E19.06805
G1 X124.612 Y122.545 E19.09972
G1 X124.264 Y123.093 E19.13135
G1 X123.851 Y123.594 E19.16299
G1 X123.379 Y124.041 E19.19467
G1 X122.856 Y124.426 E19.22631
G1 X122.29 Y124.744 E19.25795
G1 X121.688 Y124.991 E19.28966
G1 X121.062 Y125.161 E19.32127
G1 X120.139 Y125.269 E19.36655
G1 X119.67 Y125.28 E19.38941
G1 X90.639 Y125.28 E20.80408
G1 X89.941 Y125.271 E20.83809
G1 X89.293 Y125.222 E20.86976
G1 X88.656 Y125.095 E20.90141
G1 X88.04 Y124.89 E20.93305
G1 X87.453 Y124.611 E20.96472
G1 X86.905 Y124.262 E20.99638
G1 X86.404 Y123.849 E21.02802
G1 X85.957 Y123.377 E21.05969
G1 X85.572 Y122.854 E21.09134
G1 X85.254 Y122.287 E21.12302
G1 X85.008 Y121.686 E21.15466
G1 X84.838 Y121.059 E21.18632
G1 X84.731 Y120.134 E21.23169
G1 X84.72 Y119.658 E21.2549
G1 X84.72 Y90.603 E22.67073
G1 X84.729 Y89.938 E22.70314
G1 X84.778 Y89.29 E22.7348
G1 X84.906 Y88.653 E22.76646
G1 X85.111 Y88.036 E22.79815
G1 X85.391 Y87.45 E22.82979
G1 X85.74 Y86.902 E22.86145
G1 X86.154 Y86.401 E22.89312
M204 S3000
M205 X10 Y10
G1 F2400 E21.89312
;MESH:30 mm cube.stl
G0 F3000 X89.335 Y90.854
G0 X90.854 Y90.854
G0 X119.09 Y119.09
G0 X119.16 Y119.16
M204 S1800
M205 X8 Y8
;TYPE:WALL-INNER
G1 F2400 E22.89312
G1 F1500 X90.84 Y119.16 E24.27314
G1 X90.84 Y90.84 E25.65316
G1 X119.16 Y90.84 E27.03318
G1 X119.16 Y119.16 E28.41319
M204 S3000
M205 X10 Y10
G0 F3000 X119.72 Y119.72
M204 S1800
M205 X8 Y8
;TYPE:WALL-OUTER
G1 F1500 X90.28 Y119.72 E29.84779
G1 X90.28 Y90.28 E31.28238
G1 X119.72 Y90.28 E32.71698
G1 X119.72 Y119.72 E34.15157
M204 S3000
M205 X10 Y10
G0 F3000 X119.52 Y119.72
G0 X119.09 Y119.09
G0 X118.61 Y118.61
M204 S1800
M205 X8 Y8
;TYPE:SKIN
G1 F1500 X91.39 Y118.61 E35.47799
G1 X91.39 Y91.39 E36.8044
G1 X118.61 Y91.39 E38.13082
G1 X118.61 Y118.61 E39.45723
M204 S3000
M205 X10 Y10
G0 F3000 X118.05 Y118.05
M204 S1800
M205 X8 Y8
G1 F1500 X91.95 Y118.05 E40.72907
G1 X91.95 Y91.95 E42.00091
G1 X118.05 Y91.95 E43.27274
G1 X118.05 Y118.05 E44.54458
M204 S3000
M205 X10 Y10
G0 F3000 X117.49 Y117.49
M204 S1800
M205 X8 Y8
G1 F1500 X92.51 Y117.49 E45.76184
G1 X92.51 Y92.51 E46.9791
G1 X117.49 Y92.51 E48.19636
G1 X117.49 Y117.49 E49.41363
M204 S3000
M205 X10 Y10
G0 F3000 X117.229 Y93.471
M204 S1800
M205 X8 Y8
G1 F1500 X116.529 Y92.77 E49.4619
M204 S3000
M205 X10 Y10
G0 F3000 X115.737 Y92.77
M204 S1800
M205 X8 Y8
G1 F1500 X117.229 Y94.262 E49.56472
M204 S3000
M205 X10 Y10
G0 F3000 X117.229 Y95.054
M204 S1800
M205 X8 Y8
G1 F1500 X114.945 Y92.77 E49.72212
M204 S3000
M205 X10 Y10
G0 F3000 X114.153 Y92.77
M204 S1800
M205 X8 Y8
G1 F1500 X117.229 Y95.846 E49.9341
M204 S3000
M205 X10 Y10
G0 F3000 X117.229 Y96.638
M204 S1800
M205 X8 Y8
G1 F1500 X113.361 Y92.77 E50.20066
M204 S3000
M205 X10 Y10
G0 F3000 X112.569 Y92.77
M204 S1800
M205 X8 Y8
G1 F1500 X117.229 Y97.43 E50.52179
M204 S3000
M205 X10 Y10
G0 F3000 X117.229 Y98.222
M204 S1800
M205 X8 Y8
G1 F1500 X111.777 Y92.77 E50.89751
M204 S3000
M205 X10 Y10
G0 F3000 X110.985 Y92.77
M204 S1800
M205 X8 Y8
G1 F1500 X117.229 Y99.014 E51.32781
M204 S3000
M205 X10 Y10
G0 F3000 X117.229 Y99.806
M204 S1800
M205 X8 Y8
G1 F1500 X110.193 Y92.77 E51.81269
M204 S3000
M205 X10 Y10
G0 F3000 X109.401 Y92.77
M204 S1800
M205 X8 Y8
G1 F1500 X117.229 Y100.598 E52.35215
M204 S3000
M205 X10 Y10
G0 F3000 X117.229 Y101.39
M204 S1800
M205 X8 Y8
G1 F1500 X108.609 Y92.77 E52.94618
M204 S3000
M205 X10 Y10
G0 F3000 X107.817 Y92.77
M204 S1800
M205 X8 Y8
G1 F1500 X117.229 Y102.182 E53.5948
M204 S3000
M205 X10 Y10
G0 F3000 X117.229 Y102.974
M204 S1800
M205 X8 Y8
G1 F1500 X107.025 Y92.77 E54.298
M204 S3000
M205 X10 Y10
G0 F3000 X106.233 Y92.77
M204 S1800
M205 X8 Y8
G1 F1500 X117.229 Y103.766 E55.05577
M204 S3000
M205 X10 Y10
G0 F3000 X117.229 Y104.558
M204 S1800
M205 X8 Y8
G1 F1500 X105.441 Y92.77 E55.86813
M204 S3000
M205 X10 Y10
G0 F3000 X104.649 Y92.77
M204 S1800
M205 X8 Y8
G1 F1500 X117.229 Y105.35 E56.73506
M204 S3000
M205 X10 Y10
G0 F3000 X117.229 Y106.142
M204 S1800
M205 X8 Y8
G1 F1500 X103.857 Y92.77 E57.65658
M204 S3000
M205 X10 Y10
G0 F3000 X103.065 Y92.77
M204 S1800
M205 X8 Y8
G1 F1500 X117.229 Y106.934 E58.63267
M204 S3000
M205 X10 Y10
G0 F3000 X117.229 Y107.726
M204 S1800
M205 X8 Y8
G1 F1500 X102.273 Y92.77 E59.66335
M204 S3000
M205 X10 Y10
G0 F3000 X101.481 Y92.77
M204 S1800
M205 X8 Y8
G1 F1500 X117.229 Y108.518 E60.7486
M204 S3000
M205 X10 Y10
G0 F3000 X117.229 Y109.31
M204 S1800
M205 X8 Y8
G1 F1500 X100.689 Y92.77 E61.88844
M204 S3000
M205 X10 Y10
G0 F3000 X99.897 Y92.77
M204 S1800
M205 X8 Y8
G1 F1500 X117.229 Y110.102 E63.08285
M204 S3000
M205 X10 Y10
G0 F3000 X117.229 Y110.894
M204 S1800
M205 X8 Y8
G1 F1500 X99.105 Y92.77 E64.33185
M204 S3000
M205 X10 Y10
G0 F3000 X98.314 Y92.77
M204 S1800
M205 X8 Y8
G1 F1500 X117.229 Y111.686 E65.63539
M204 S3000
M205 X10 Y10
G0 F3000 X117.229 Y112.478
M204 S1800
M205 X8 Y8
G1 F1500 X97.522 Y92.77 E66.9935
M204 S3000
M205 X10 Y10
G0 F3000 X96.73 Y92.77
M204 S1800
M205 X8 Y8
G1 F1500 X117.229 Y113.27 E68.4062
M204 S3000
M205 X10 Y10
G0 F3000 X117.229 Y114.061
M204 S1800
M205 X8 Y8
G1 F1500 X95.938 Y92.77 E69.87345
M204 S3000
M205 X10 Y10
G0 F3000 X95.146 Y92.77
M204 S1800
M205 X8 Y8
G1 F1500 X117.229 Y114.853 E71.39527
M204 S3000
M205 X10 Y10
G0 F3000 X117.229 Y115.645
M204 S1800
M205 X8 Y8
G1 F1500 X94.354 Y92.77 E72.97167
M204 S3000
M205 X10 Y10
G0 F3000 X93.562 Y92.77
M204 S1800
M205 X8 Y8
G1 F1500 X117.229 Y116.437 E74.60266
M204 S3000
M205 X10 Y10
G0 F3000 X117.229 Y117.229
M204 S1800
M205 X8 Y8
G1 F1500 X92.769 Y92.769 E76.28829
M204 S3000
M205 X10 Y10
G0 F3000 X92.769 Y93.561
M204 S1800
M205 X8 Y8
G1 F1500 X116.437 Y117.229 E77.91934
M204 S3000
M205 X10 Y10
G0 F3000 X115.645 Y117.229
M204 S1800
M205 X8 Y8
G1 F1500 X92.769 Y94.353 E79.49581
M204 S3000
M205 X10 Y10
G0 F3000 X92.769 Y95.145
M204 S1800
M205 X8 Y8
G1 F1500 X114.853 Y117.229 E81.01771
M204 S3000
M205 X10 Y10
G0 F3000 X114.061 Y117.229
M204 S1800
M205 X8 Y8
G1 F1500 X92.769 Y95.937 E82.48502
M204 S3000
M205 X10 Y10
G0 F3000 X92.769 Y96.729
M204 S1800
M205 X8 Y8
G1 F1500 X113.269 Y117.229 E83.89775
M204 S3000
M205 X10 Y10
G0 F3000 X112.477 Y117.229
M204 S1800
M205 X8 Y8
G1 F1500 X92.769 Y97.521 E85.25591
M204 S3000
M205 X10 Y10
G0 F3000 X92.769 Y98.313
M204 S1800
M205 X8 Y8
G1 F1500 X111.685 Y117.229 E86.55948
M204 S3000
M205 X10 Y10
G0 F3000 X110.893 Y117.229
M204 S1800
M205 X8 Y8
G1 F1500 X92.769 Y99.105 E87.80847
M204 S3000
M205 X10 Y10
G0 F3000 X92.769 Y99.897
M204 S1800
M205 X8 Y8
G1 F1500 X110.101 Y117.229 E89.00289
M204 S3000
M205 X10 Y10
G0 F3000 X109.309 Y117.229
M204 S1800
M205 X8 Y8
G1 F1500 X92.769 Y100.689 E90.14272
M204 S3000
M205 X10 Y10
G0 F3000 X92.769 Y101.481
M204 S1800
M205 X8 Y8
G1 F1500 X108.517 Y117.229 E91.22798
M204 S3000
M205 X10 Y10
G0 F3000 X107.725 Y117.229
M204 S1800
M205 X8 Y8
G1 F1500 X92.769 Y102.273 E92.25865
M204 S3000
M205 X10 Y10
G0 F3000 X92.769 Y103.065
M204 S1800
M205 X8 Y8
G1 F1500 X106.933 Y117.229 E93.23475
M204 S3000
M205 X10 Y10
G0 F3000 X106.141 Y117.229
M204 S1800
M205 X8 Y8
G1 F1500 X92.769 Y103.857 E94.15626
M204 S3000
M205 X10 Y10
G0 F3000 X92.769 Y104.648
M204 S1800
M205 X8 Y8
G1 F1500 X105.349 Y117.229 E95.02323
M204 S3000
M205 X10 Y10
G0 F3000 X104.557 Y117.229
M204 S1800
M205 X8 Y8
G1 F1500 X92.769 Y105.44 E95.83562
M204 S3000
M205 X10 Y10
G0 F3000 X92.769 Y106.232
M204 S1800
M205 X8 Y8
G1 F1500 X103.765 Y117.229 E96.59343
M204 S3000
M205 X10 Y10
G0 F3000 X102.973 Y117.229
M204 S1800
M205 X8 Y8
G1 F1500 X92.769 Y107.024 E97.29667
M204 S3000
M205 X10 Y10
G0 F3000 X92.769 Y107.816
M204 S1800
M205 X8 Y8
G1 F1500 X102.181 Y117.229 E97.94532
M204 S3000
M205 X10 Y10
G0 F3000 X101.389 Y117.229
M204 S1800
M205 X8 Y8
G1 F1500 X92.769 Y108.608 E98.53939
M204 S3000
M205 X10 Y10
G0 F3000 X92.769 Y109.4
M204 S1800
M205 X8 Y8
G1 F1500 X100.597 Y117.229 E99.07888
M204 S3000
M205 X10 Y10
G0 F3000 X99.806 Y117.229
M204 S1800
M205 X8 Y8
G1 F1500 X92.769 Y110.192 E99.56383
M204 S3000
M205 X10 Y10
G0 F3000 X92.769 Y110.984
M204 S1800
M205 X8 Y8
G1 F1500 X99.014 Y117.229 E99.99419
M204 S3000
M205 X10 Y10
G0 F3000 X98.222 Y117.229
M204 S1800
M205 X8 Y8
G1 F1500 X92.769 Y111.776 E100.36998
M204 S3000
M205 X10 Y10
G0 F3000 X92.769 Y112.568
M204 S1800
M205 X8 Y8
G1 F1500 X97.43 Y117.229 E100.69119
M204 S3000
M205 X10 Y10
G0 F3000 X96.638 Y117.229
M204 S1800
M205 X8 Y8
G1 F1500 X92.769 Y113.36 E100.95782
M204 S3000
M205 X10 Y10
G0 F3000 X92.769 Y114.152
M204 S1800
M205 X8 Y8
G1 F1500 X95.846 Y117.229 E101.16986
M204 S3000
M205 X10 Y10
G0 F3000 X95.054 Y117.229
M204 S1800
M205 X8 Y8
G1 F1500 X92.769 Y114.944 E101.32733
M204 S3000
M205 X10 Y10
G0 F3000 X92.769 Y115.736
M204 S1800
M205 X8 Y8
G1 F1500 X94.262 Y117.229 E101.43022
M204 S3000
M205 X10 Y10
G0 F3000 X93.47 Y117.229
M204 S1800
M205 X8 Y8
G1 F1500 X92.769 Y116.528 E101.47853
M204 S3000
M205 X10 Y10
;MESH:NONMESH
G0 F600 X92.769 Y116.528 Z0.4
G0 F3000 X119.09 Y119.09
G0 X119.4 Y119.4
;TIME_ELAPSED:84.852102
;LAYER:1
M106 S127.5
M204 S1800
M205 X8 Y8
;TYPE:WALL-INNER
;MESH:30 mm cube.stl
G1 F2250 X90.6 Y119.4 E102.48096
G1 X90.6 Y90.6 E103.4834
G1 X119.4 Y90.6 E104.48583
G1 X119.4 Y119.4 E105.48826
M204 S3000
M205 X10 Y10
G0 F4500 X119.8 Y119.8
M204 S1800
M205 X8 Y8
;TYPE:WALL-OUTER
G1 F2250 X90.2 Y119.8 E106.51854
G1 X90.2 Y90.2 E107.54882
G1 X119.8 Y90.2 E108.5791
G1 X119.8 Y119.8 E109.60938
M204 S3000
M205 X10 Y10
G0 F4500 X119.6 Y119.8
G0 X119.01 Y119.01
M204 S1800
M205 X8 Y8
;TYPE:SKIN
G1 F1350 X90.99 Y119.01 E110.58466
G1 X90.99 Y90.99 E111.55995
G1 X119.01 Y90.99 E112.53523
G1 X119.01 Y119.01 E113.51052
M204 S3000
M205 X10 Y10
G0 F4500 X118.61 Y118.61
M204 S1800
M205 X8 Y8
G1 F1350 X91.39 Y118.61 E114.45796
G1 X91.39 Y91.39 E115.4054
G1 X118.61 Y91.39 E116.35284
G1 X118.61 Y118.61 E117.30028
M204 S3000
M205 X10 Y10
G0 F4500 X118.21 Y118.21
M204 S1800
M205 X8 Y8
G1 F1350 X91.79 Y118.21 E118.21987
G1 X91.79 Y91.79 E119.13946
G1 X118.21 Y91.79 E120.05906
G1 X118.21 Y118.21 E120.97865
M204 S3000
M205 X10 Y10
G0 F4500 X117.861 Y118.029
M204 S1800
M205 X8 Y8
G1 F1350 X118.029 Y117.861 E120.98692
M204 S3000
M205 X10 Y10
G0 F4500 X118.029 Y117.295
M204 S1800
M205 X8 Y8
G1 F1350 X117.295 Y118.029 E121.02305
M204 S3000
M205 X10 Y10
G0 F4500 X116.729 Y118.029
M204 S1800
M205 X8 Y8
G1 F1350 X118.029 Y116.729 E121.08704
M204 S3000
M205 X10 Y10
G0 F4500 X118.029 Y116.164
M204 S1800
M205 X8 Y8
G1 F1350 X116.164 Y118.029 E121.17885
M204 S3000
M205 X10 Y10
G0 F4500 X115.598 Y118.029
M204 S1800
M205 X8 Y8
G1 F1350 X118.029 Y115.598 E121.29851
M204 S3000
M205 X10 Y10
G0 F4500 X118.029 Y115.032
M204 S1800
M205 X8 Y8
G1 F1350 X115.032 Y118.029 E121.44603
M204 S3000
M205 X10 Y10
G0 F4500 X114.467 Y118.029
M204 S1800
M205 X8 Y8
