;FLAVOR:Marlin
;TIME:1841
;Filament used: 0.697276m
;Layer height: 0.1
;MINX:64.891
;MINY:85.946
;MINZ:0.2
;MAXX:120.98
;MAXY:124.132
;MAXZ:20.2
;Generated with Cura_SteamEngine 4.3.0
M140 S60
M105
M190 S60
M104 S190
M105
M109 S190
M82 ;absolute extrusion mode
G21 ;metric values
G90 ;absolute positioning
M82 ;set extruder to absolute mode
M107 ;start with the fan off
G28 X0 Y0 ;move X/Y to min endstops
G28 Z0 ;move Z to min endstops
G1 Z15.0 F100 ;move the platform down 15mm
G92 E0 ;zero the extruded length
G1 F200 E3 ;extrude 3mm of feed stock
G92 E0 ;zero the extruded length again
G1 F100
M117 Printing...
G5
G92 E0
G92 E0
G1 F2400 E-6
;LAYER_COUNT:201
;LAYER:0
M106 S255
M204 S3000
M205 X10 Y10
G1 F600 Z0.275
G0 F1714.3 X67.733 Y91.718 Z0.275
M204 S1800
M205 X8 Y8
;TYPE:SKIRT
G1 F600 Z0.2
G1 F2400 E0
G1 F1800 X68.309 Y91.293 E0.03333
G1 X69.021 Y90.888 E0.07147
G1 X69.274 Y90.765 E0.08457
G1 X69.459 Y90.679 E0.09407
G1 X71.515 Y89.759 E0.19896
G1 X73.926 Y88.6 E0.32352
G1 X76.299 Y87.373 E0.44791
G1 X76.577 Y87.222 E0.46265
G1 X76.674 Y87.171 E0.46775
G1 X77.01 Y86.996 E0.48539
G1 X77.661 Y86.701 E0.51867
G1 X78.385 Y86.47 E0.55406
G1 X78.836 Y86.355 E0.57573
G1 X79.538 Y86.218 E0.60903
G1 X80.25 Y86.159 E0.6423
G1 X80.712 Y86.164 E0.66381
G1 X80.909 Y86.173 E0.673
G1 X83.659 Y86.263 E0.80112
G1 X86.266 Y86.275 E0.92251
G1 X89.861 Y86.175 E1.08997
G1 X89.909 Y86.174 E1.09221
G1 X90.654 Y86.159 E1.12691
G1 X93.338 Y86.072 E1.25195
G1 X94.094 Y86.025 E1.28722
G1 X94.172 Y86.021 E1.29086
G1 X95.563 Y85.951 E1.35571
G1 X96.095 Y85.946 E1.38048
G1 X97.283 Y85.985 E1.43583
G1 X97.367 Y85.989 E1.43975
G1 X97.921 Y86.014 E1.46557
G1 X100.551 Y86.06 E1.58805
G1 X104.548 Y85.989 E1.7742
G1 X105.434 Y85.955 E1.81549
G1 X106.149 Y85.967 E1.84878
G1 X106.858 Y86.06 E1.88208
G1 X107.266 Y86.15 E1.90154
G1 X107.719 Y86.266 E1.92331
G1 X108.401 Y86.482 E1.95662
G1 X109.204 Y86.852 E1.99779
G1 X111.39 Y88.049 E2.11384
G1 X113.755 Y89.261 E2.23758
G1 X115.352 Y90.013 E2.31978
G1 X115.415 Y90.043 E2.32303
G1 X116.726 Y90.678 E2.39086
G1 X117.351 Y91.025 E2.42415
G1 X117.934 Y91.44 E2.45747
G1 X118.367 Y91.82 E2.48429
G1 X118.738 Y92.176 E2.50824
G1 X119.226 Y92.699 E2.54154
G1 X119.627 Y93.237 E2.57279
G1 X119.855 Y93.578 E2.59189
G1 X120.219 Y94.194 E2.62521
G1 X120.512 Y94.846 E2.65849
G1 X120.73 Y95.527 E2.69179
G1 X120.872 Y96.24 E2.72564
G1 X120.92 Y96.58 E2.74163
G1 X120.98 Y97.293 E2.77494
G1 X120.961 Y98.008 E2.80825
G1 X120.816 Y98.926 E2.85153
G1 X120.762 Y99.158 E2.86262
G1 X120.698 Y99.41 E2.87472
G1 X120.6 Y99.765 E2.89187
G1 X120.372 Y100.443 E2.92518
G1 X120.229 Y100.771 E2.94184
G1 X119.723 Y101.854 E2.9975
G1 X119.554 Y102.191 E3.01506
G1 X119.297 Y102.666 E3.04021
G1 X119.195 Y102.847 E3.04988
G1 X118.76 Y103.592 E3.09005
G1 X118.673 Y103.737 E3.09793
G1 X117.633 Y105.415 E3.18985
G1 X117.595 Y105.475 E3.19316
G1 X116.959 Y106.476 E3.24838
G1 X116.933 Y106.516 E3.2506
G1 X116.047 Y107.888 E3.32665
G1 X116.034 Y107.908 E3.32776
G1 X111.254 Y115.249 E3.73567
G1 X111.21 Y115.316 E3.7394
G1 X110.049 Y117.051 E3.83661
G1 X109.969 Y117.168 E3.84321
G1 X109.416 Y117.956 E3.88803
G1 X109.329 Y118.077 E3.89497
G1 X108.819 Y118.769 E3.935
G1 X108.703 Y118.922 E3.94394
G1 X108.168 Y119.604 E3.9843
G1 X108.028 Y119.776 E3.99463
G1 X107.591 Y120.295 E4.02622
G1 X107.469 Y120.436 E4.03491
G1 X107.302 Y120.623 E4.04658
G1 X107.176 Y120.759 E4.05521
G1 X106.717 Y121.244 E4.08631
G1 X106.565 Y121.399 E4.09642
G1 X106.329 Y121.632 E4.11186
G1 X106.112 Y121.837 E4.12576
G1 X105.914 Y122.015 E4.13816
G1 X105.742 Y122.164 E4.14875
G1 X105.454 Y122.405 E4.16624
G1 X104.713 Y122.94 E4.2088
G1 X104.333 Y123.175 E4.2296
G1 X103.705 Y123.517 E4.2629
G1 X103.042 Y123.786 E4.29621
G1 X102.354 Y123.98 E4.3295
G1 X101.648 Y124.096 E4.36281
G1 X100.933 Y124.132 E4.39615
G1 X100.565 Y124.119 E4.4133
G1 X99.358 Y124.043 E4.46961
G1 X99.168 Y124.029 E4.47848
G1 X98.427 Y123.96 E4.51314
G1 X95.844 Y123.792 E4.63366
G1 X93.166 Y123.693 E4.75845
G1 X90.524 Y123.671 E4.88148
G1 X87.863 Y123.723 E5.00541
G1 X86.399 Y123.784 E5.07364
G1 X86.399 Y123.783 E5.07368
G1 X85.686 Y123.818 E5.10692
G1 X84.971 Y123.813 E5.14022
G1 X84.261 Y123.728 E5.17351
G1 X83.665 Y123.593 E5.20197
G1 X83.29 Y123.489 E5.22009
G1 X82.612 Y123.26 E5.25341
G1 X81.964 Y122.956 E5.28674
G1 X81.392 Y122.608 E5.31792
G1 X81.162 Y122.451 E5.33088
G1 X80.967 Y122.313 E5.34201
G1 X80.611 Y122.05 E5.36262
G1 X79.949 Y121.487 E5.40308
G1 X79.111 Y120.671 E5.45755
G1 X78.918 Y120.474 E5.47039
G1 X78.658 Y120.198 E5.48805
G1 X78.457 Y119.976 E5.50199
G1 X77.964 Y119.401 E5.53726
G1 X77.833 Y119.243 E5.54682
G1 X77.421 Y118.73 E5.57745
G1 X77.313 Y118.592 E5.58561
G1 X76.727 Y117.82 E5.63074
G1 X76.656 Y117.723 E5.63634
G1 X76.383 Y117.349 E5.6579
G1 X76.341 Y117.292 E5.6612
G1 X75.931 Y116.717 E5.69408
G1 X75.902 Y116.676 E5.69642
G1 X75.282 Y115.792 E5.7467
G1 X75.251 Y115.748 E5.74921
G1 X74.795 Y115.086 E5.78664
G1 X74.774 Y115.054 E5.78842
G1 X72.406 Y111.572 E5.9845
G1 X72.383 Y111.538 E5.98641
G1 X71.644 Y110.436 E6.04819
G1 X70.033 Y108.051 E6.18221
G1 X69.998 Y107.998 E6.18517
G1 X68.518 Y105.759 E6.31014
G1 X68.47 Y105.686 E6.31421
G1 X67.65 Y104.408 E6.38491
G1 X67.574 Y104.285 E6.39165
G1 X67.045 Y103.418 E6.43894
G1 X66.965 Y103.284 E6.44621
G1 X66.493 Y102.466 E6.49018
G1 X66.377 Y102.256 E6.50135
G1 X66.143 Y101.813 E6.52468
G1 X66.051 Y101.631 E6.53418
G1 X65.846 Y101.211 E6.55594
G1 X65.694 Y100.877 E6.57303
G1 X65.503 Y100.421 E6.59605
G1 X65.19 Y99.472 E6.64258
G1 X65.074 Y98.999 E6.66526
G1 X64.943 Y98.296 E6.69855
G1 X64.891 Y97.583 E6.73184
G1 X64.917 Y96.89 E6.76413
G1 X64.947 Y96.563 E6.77943
G1 X65.052 Y95.856 E6.81271
G1 X65.235 Y95.164 E6.84604
G1 X65.494 Y94.498 E6.87931
G1 X65.827 Y93.864 E6.91266
G1 X66.143 Y93.385 E6.93938
G1 X66.308 Y93.158 E6.95245
G1 X66.76 Y92.604 E6.98574
G1 X67.399 Y91.995 E7.02684
G1 X67.733 Y91.718 E7.04705
M204 S3000
M205 X10 Y10
G0 F1714.3 X68.091 Y92.149
M204 S1800
M205 X8 Y8
G1 F1800 X68.641 Y91.744 E7.07885
G1 X69.266 Y91.392 E7.11225
G1 X69.519 Y91.269 E7.12535
G1 X69.688 Y91.19 E7.13404
G1 X71.766 Y90.261 E7.24003
G1 X74.176 Y89.102 E7.36455
G1 X76.534 Y87.882 E7.48817
G1 X76.844 Y87.714 E7.50459
G1 X76.932 Y87.667 E7.50924
G1 X77.268 Y87.492 E7.52688
G1 X77.892 Y87.213 E7.55871
G1 X78.523 Y87.013 E7.58953
G1 X78.974 Y86.898 E7.6112
G1 X79.645 Y86.768 E7.64303
G1 X80.326 Y86.718 E7.67482
G1 X80.686 Y86.723 E7.69159
G1 X80.933 Y86.734 E7.7031
G1 X83.639 Y86.823 E7.82917
G1 X86.279 Y86.836 E7.9521
G1 X89.877 Y86.735 E8.11971
G1 X89.92 Y86.734 E8.12171
G1 X90.684 Y86.718 E8.15729
G1 X93.358 Y86.632 E8.28187
G1 X94.129 Y86.584 E8.31784
G1 X94.2 Y86.58 E8.32115
G1 X95.591 Y86.51 E8.386
G1 X96.077 Y86.506 E8.40863
G1 X97.265 Y86.545 E8.46398
G1 X97.341 Y86.548 E8.46752
G1 X97.92 Y86.575 E8.49451
G1 X100.551 Y86.62 E8.61704
G1 X104.529 Y86.549 E8.8023
G1 X105.455 Y86.514 E8.84545
G1 X106.138 Y86.528 E8.87726
G1 X107.127 Y86.693 E8.92395
G1 X107.58 Y86.809 E8.94573
G1 X108.231 Y87.016 E8.97753
G1 X108.936 Y87.343 E9.01372
G1 X111.16 Y88.561 E9.13179
G1 X113.511 Y89.766 E9.25481
G1 X115.113 Y90.52 E9.33725
G1 X115.171 Y90.547 E9.34023
G1 X116.482 Y91.182 E9.40806
G1 X117.078 Y91.515 E9.43985
G1 X117.632 Y91.916 E9.4717
G1 X117.979 Y92.224 E9.4933
G1 X118.35 Y92.58 E9.51724
G1 X118.815 Y93.081 E9.54907
G1 X119.162 Y93.548 E9.57616
G1 X119.39 Y93.889 E9.59527
G1 X119.736 Y94.478 E9.62707
G1 X120.01 Y95.104 E9.65889
G1 X120.21 Y95.757 E9.69069
G1 X120.318 Y96.319 E9.71734
G1 X120.366 Y96.659 E9.73333
G1 X120.421 Y97.34 E9.76514
G1 X120.397 Y98.022 E9.79692
G1 X120.271 Y98.799 E9.83357
G1 X120.217 Y99.031 E9.84466
G1 X120.158 Y99.261 E9.85572
G1 X120.06 Y99.616 E9.87287
G1 X119.722 Y100.534 E9.91842
G1 X119.216 Y101.617 E9.97408
G1 X119.061 Y101.924 E9.9901
G1 X118.804 Y102.399 E10.01524
G1 X118.711 Y102.565 E10.0241
G1 X118.276 Y103.31 E10.06428
G1 X118.197 Y103.442 E10.07144
G1 X117.157 Y105.12 E10.16336
G1 X117.122 Y105.175 E10.1664
G1 X116.486 Y106.176 E10.22162
G1 X116.463 Y106.212 E10.22361
G1 X115.577 Y107.584 E10.29966
G1 X115.565 Y107.603 E10.30071
G1 X110.785 Y114.944 E10.70861
G1 X110.745 Y115.005 E10.71201
G1 X109.584 Y116.74 E10.80922
G1 X109.51 Y116.847 E10.81527
G1 X108.957 Y117.635 E10.8601
G1 X108.878 Y117.745 E10.86641
G1 X108.368 Y118.437 E10.90644
G1 X108.262 Y118.577 E10.91461
G1 X107.727 Y119.259 E10.95497
G1 X107.599 Y119.415 E10.96437
G1 X107.162 Y119.934 E10.99596
G1 X107.051 Y120.063 E11.00389
G1 X106.884 Y120.25 E11.01556
G1 X106.77 Y120.374 E11.0234
G1 X106.311 Y120.859 E11.0545
G1 X106.172 Y121.001 E11.06375
G1 X105.936 Y121.234 E11.07919
G1 X105.737 Y121.421 E11.09191
G1 X105.539 Y121.599 E11.10431
G1 X105.383 Y121.735 E11.11394
G1 X105.095 Y121.976 E11.13143
G1 X104.419 Y122.464 E11.17025
G1 X104.039 Y122.699 E11.19106
G1 X103.438 Y123.024 E11.22287
G1 X102.803 Y123.276 E11.25468
G1 X102.143 Y123.452 E11.28649
G1 X101.466 Y123.551 E11.31835
G1 X100.6 Y123.56 E11.35868
G1 X99.393 Y123.484 E11.41499
G1 X99.219 Y123.471 E11.42312
G1 X98.513 Y123.405 E11.45613
G1 X95.83 Y123.23 E11.58133
G1 X93.191 Y123.133 E11.7043
G1 X90.518 Y123.111 E11.82877
G1 X87.829 Y123.164 E11.954
G1 X86.389 Y123.223 E12.02111
G1 X85.659 Y123.259 E12.05514
G1 X84.976 Y123.252 E12.08695
G1 X84.298 Y123.166 E12.11877
G1 X83.814 Y123.054 E12.1419
G1 X83.439 Y122.95 E12.16003
G1 X82.793 Y122.729 E12.19182
G1 X82.176 Y122.434 E12.22366
G1 X81.708 Y122.145 E12.24927
G1 X81.478 Y121.988 E12.26224
G1 X81.3 Y121.862 E12.2724
G1 X80.944 Y121.599 E12.29301
G1 X80.34 Y121.086 E12.32991
G1 X79.502 Y120.27 E12.38437
G1 X79.325 Y120.09 E12.39613
G1 X79.065 Y119.814 E12.41378
G1 X78.882 Y119.611 E12.42651
G1 X78.389 Y119.036 E12.46178
G1 X78.27 Y118.892 E12.47047
G1 X77.858 Y118.379 E12.50111
G1 X77.759 Y118.253 E12.50857
G1 X77.173 Y117.481 E12.5537
G1 X77.108 Y117.393 E12.5588
G1 X76.835 Y117.019 E12.58036
G1 X76.797 Y116.967 E12.58336
G1 X76.387 Y116.392 E12.61624
G1 X76.361 Y116.354 E12.61839
G1 X75.741 Y115.47 E12.66866
G1 X75.713 Y115.43 E12.67094
G1 X75.257 Y114.768 E12.70837
G1 X75.237 Y114.739 E12.71001
G1 X72.869 Y111.257 E12.90609
G1 X72.848 Y111.226 E12.90783
G1 X72.109 Y110.124 E12.96961
G1 X70.497 Y107.737 E13.10373
G1 X70.465 Y107.689 E13.10642
G1 X68.985 Y105.45 E13.2314
G1 X68.942 Y105.384 E13.23506
G1 X68.122 Y104.106 E13.30577
G1 X68.052 Y103.994 E13.31192
G1 X67.523 Y103.127 E13.35921
G1 X67.45 Y103.004 E13.36587
G1 X66.978 Y102.186 E13.40985
G1 X66.872 Y101.995 E13.42002
G1 X66.638 Y101.552 E13.44335
G1 X66.554 Y101.386 E13.45201
G1 X66.349 Y100.966 E13.47377
G1 X66.21 Y100.66 E13.48942
G1 X66.019 Y100.204 E13.51244
G1 X65.734 Y99.339 E13.55485
G1 X65.618 Y98.866 E13.57753
G1 X65.494 Y98.194 E13.60935
G1 X65.45 Y97.512 E13.64117
G1 X65.474 Y96.941 E13.66778
G1 X65.504 Y96.614 E13.68307
G1 X65.607 Y95.939 E13.71487
G1 X65.787 Y95.28 E13.74668
G1 X66.043 Y94.646 E13.77851
G1 X66.371 Y94.047 E13.81031
G1 X66.596 Y93.714 E13.82903
G1 X66.761 Y93.487 E13.8421
G1 X67.194 Y92.959 E13.87389
G1 X67.757 Y92.426 E13.90999
G1 X68.091 Y92.149 E13.9302
M204 S3000
M205 X10 Y10
G0 F1714.3 X68.448 Y92.58
M204 S1800
M205 X8 Y8
G1 F1800 X68.973 Y92.197 E13.96046
G1 X69.51 Y91.895 E13.98914
G1 X69.763 Y91.772 E14.00224
G1 X69.917 Y91.701 E14.01014
G1 X72.003 Y90.768 E14.11655
G1 X74.426 Y89.603 E14.24173
G1 X76.787 Y88.382 E14.3655
G1 X77.111 Y88.206 E14.38267
G1 X77.191 Y88.164 E14.38688
G1 X77.527 Y87.989 E14.40452
G1 X78.121 Y87.725 E14.43479
G1 X78.661 Y87.556 E14.46114
G1 X79.112 Y87.441 E14.48281
G1 X79.751 Y87.319 E14.5131
G1 X80.66 Y87.283 E14.55546
G1 X80.887 Y87.293 E14.56604
G1 X83.618 Y87.383 E14.69328
G1 X86.293 Y87.396 E14.81784
G1 X89.893 Y87.295 E14.98553
G1 X89.932 Y87.294 E14.98735
G1 X90.712 Y87.278 E15.02368
G1 X93.378 Y87.192 E15.14788
G1 X94.164 Y87.143 E15.18455
G1 X94.229 Y87.14 E15.18758
G1 X95.62 Y87.07 E15.25244
G1 X96.058 Y87.066 E15.27283
G1 X97.246 Y87.105 E15.32818
G1 X97.315 Y87.108 E15.3314
G1 X97.885 Y87.134 E15.35797
G1 X100.551 Y87.18 E15.48212
G1 X104.562 Y87.109 E15.66892
G1 X105.477 Y87.074 E15.71156
G1 X106.126 Y87.089 E15.74179
G1 X106.988 Y87.235 E15.7825
G1 X107.441 Y87.351 E15.80427
G1 X108.059 Y87.551 E15.83452
G1 X108.667 Y87.835 E15.86577
G1 X110.872 Y89.042 E15.98282
G1 X113.244 Y90.258 E16.10693
G1 X114.875 Y91.026 E16.19088
G1 X114.927 Y91.051 E16.19357
G1 X116.238 Y91.686 E16.26139
G1 X116.804 Y92.005 E16.29165
G1 X117.326 Y92.39 E16.32185
G1 X117.592 Y92.628 E16.33847
G1 X117.963 Y92.984 E16.36241
G1 X118.403 Y93.462 E16.39266
G1 X118.696 Y93.859 E16.41564
G1 X118.924 Y94.2 E16.43474
G1 X119.251 Y94.761 E16.46498
G1 X119.507 Y95.359 E16.49527
G1 X119.688 Y95.983 E16.52552
G1 X119.763 Y96.397 E16.54511
G1 X119.811 Y96.737 E16.5611
G1 X119.862 Y97.385 E16.59137
G1 X119.833 Y98.033 E16.62157
G1 X119.726 Y98.672 E16.65174
G1 X119.672 Y98.904 E16.66283
G1 X119.619 Y99.112 E16.67283
G1 X119.521 Y99.467 E16.68998
G1 X119.215 Y100.297 E16.73117
G1 X118.709 Y101.38 E16.78683
G1 X118.569 Y101.658 E16.80132
G1 X118.312 Y102.133 E16.82647
G1 X118.228 Y102.282 E16.83443
G1 X117.793 Y103.027 E16.87461
G1 X117.721 Y103.147 E16.88112
G1 X116.681 Y104.825 E16.97305
G1 X116.65 Y104.875 E16.97579
G1 X116.014 Y105.876 E17.03101
G1 X115.993 Y105.908 E17.03279
G1 X115.107 Y107.28 E17.10884
G1 X115.096 Y107.297 E17.10978
G1 X110.316 Y114.638 E17.51769
G1 X110.279 Y114.693 E17.52078
G1 X109.118 Y116.428 E17.61798
G1 X109.052 Y116.525 E17.62345
G1 X108.499 Y117.313 E17.66827
G1 X108.427 Y117.413 E17.67401
G1 X107.917 Y118.105 E17.71404
G1 X107.821 Y118.231 E17.72141
G1 X107.286 Y118.913 E17.76178
G1 X107.171 Y119.055 E17.77029
G1 X106.734 Y119.574 E17.80188
G1 X106.633 Y119.69 E17.80904
G1 X106.466 Y119.877 E17.82071
G1 X106.363 Y119.989 E17.8278
G1 X105.904 Y120.474 E17.85889
G1 X105.779 Y120.602 E17.86722
G1 X105.543 Y120.835 E17.88267
G1 X105.363 Y121.005 E17.8942
G1 X105.165 Y121.183 E17.90659
G1 X105.023 Y121.305 E17.91531
G1 X104.735 Y121.546 E17.9328
G1 X104.124 Y121.988 E17.96791
G1 X103.744 Y122.223 E17.98872
G1 X103.172 Y122.53 E18.01894
G1 X102.566 Y122.764 E18.04919
G1 X101.936 Y122.922 E18.07944
G1 X101.291 Y123.002 E18.1097
G1 X100.635 Y123.002 E18.14025
G1 X99.428 Y122.926 E18.19656
G1 X99.271 Y122.913 E18.2039
G1 X98.567 Y122.848 E18.23682
G1 X95.85 Y122.67 E18.3636
G1 X93.217 Y122.574 E18.48629
G1 X90.512 Y122.551 E18.61225
G1 X87.795 Y122.604 E18.73879
G1 X86.392 Y122.662 E18.80417
G1 X86.392 Y122.663 E18.80422
G1 X85.632 Y122.7 E18.83965
G1 X84.982 Y122.691 E18.86992
G1 X84.339 Y122.603 E18.90014
G1 X83.964 Y122.514 E18.91809
G1 X83.589 Y122.41 E18.93621
G1 X82.975 Y122.198 E18.96645
G1 X82.391 Y121.913 E18.99671
G1 X82.023 Y121.683 E19.01692
G1 X81.793 Y121.526 E19.02989
G1 X81.633 Y121.412 E19.03904
G1 X81.277 Y121.149 E19.05964
G1 X80.73 Y120.685 E19.09304
G1 X79.892 Y119.869 E19.14751
G1 X79.733 Y119.706 E19.15811
G1 X79.473 Y119.43 E19.17577
G1 X79.308 Y119.247 E19.18724
G1 X78.815 Y118.672 E19.22251
G1 X78.706 Y118.541 E19.23045
G1 X78.294 Y118.028 E19.26108
G1 X78.205 Y117.914 E19.26782
G1 X77.619 Y117.142 E19.31295
G1 X77.56 Y117.063 E19.31754
G1 X77.287 Y116.689 E19.3391
G1 X77.253 Y116.641 E19.34184
G1 X76.843 Y116.066 E19.37472
G1 X76.819 Y116.033 E19.37662
G1 X76.199 Y115.149 E19.4269
G1 X76.174 Y115.112 E19.42898
G1 X75.718 Y114.45 E19.46641
G1 X75.7 Y114.424 E19.46788
G1 X73.332 Y110.942 E19.66396
G1 X73.313 Y110.914 E19.66554
G1 X72.574 Y109.812 E19.72732
G1 X70.961 Y107.424 E19.86151
G1 X70.932 Y107.381 E19.86392
