;FLAVOR:Marlin
;TIME:6092
;Filament used: 6.49397m
;Layer height: 0.2
;MINX:45.82
;MINY:46.129
;MINZ:0.24
;MAXX:164.256
;MAXY:164.428
;MAXZ:56.002
;Generated with Cura_SteamEngine 4.6.1
M140 S60
M105
M190 S60
M104 S200
M105
M109 S200
M82 ;absolute extrusion mode
G28
G29
M501
G92 E0 ;zero the extruded length
G1 F200 E3 ;extrude 3mm of feed stock
G92 E0 ;zero the extruded length again
G1 F100
M117 Printing...
G5
G92 E0
G92 E0
G1 F2400 E-6
;LAYER_COUNT:274
;LAYER:-6
M107
M204 S3000
M205 X10 Y10
G0 F6000 X61.622 Y65.119 Z0.24
M204 S1800
M205 X8 Y8
;TYPE:SUPPORT-INTERFACE
G1 F2400 E0
G1 F1125 X62.623 Y64.193 E0.10885
G1 X63.719 Y63.293 E0.22206
G1 X64.822 Y62.485 E0.3312
G1 X66.27 Y61.556 E0.46853
G1 X66.901 Y61.182 E0.52708
G1 X68.121 Y60.505 E0.63845
G1 X68.9 Y60.118 E0.70789
G1 X70.517 Y59.264 E0.85386
G1 X71.098 Y58.93 E0.90735
G1 X71.642 Y58.519 E0.96178
G1 X72.102 Y58.072 E1.01298
G1 X73.06 Y57.025 E1.12626
G1 X74.048 Y56.061 E1.23645
G1 X75.093 Y55.15 E1.34711
G1 X76.192 Y54.296 E1.45821
G1 X77.341 Y53.504 E1.56961
G1 X78.532 Y52.778 E1.68095
G1 X79.103 Y52.471 E1.7327
G1 X79.681 Y52.109 E1.78714
G1 X80.023 Y51.866 E1.82063
G1 X81.2 Y51.117 E1.93199
G1 X82.4 Y50.445 E2.04178
G1 X83.649 Y49.835 E2.15274
G1 X84.954 Y49.288 E2.26569
G1 X86.228 Y48.834 E2.37365
G1 X87.548 Y48.447 E2.48345
G1 X88.056 Y48.285 E2.52601
G1 X88.646 Y48.068 E2.5762
G1 X89.983 Y47.655 E2.6879
G1 X91.308 Y47.325 E2.79689
G1 X92.249 Y47.137 E2.87349
G1 X93.022 Y46.999 E2.93617
G1 X93.57 Y46.883 E2.98089
G1 X94.941 Y46.628 E3.0922
G1 X96.309 Y46.452 E3.2023
G1 X97.549 Y46.359 E3.30156
G1 X97.724 Y46.351 E3.31555
G1 X99.101 Y46.331 E3.42548
G1 X100.476 Y46.389 E3.53533
G1 X101.857 Y46.524 E3.64609
G1 X103.207 Y46.733 E3.75514
G1 X104.6 Y47.032 E3.86887
G1 X105.959 Y47.407 E3.9814
G1 X106.526 Y47.595 E4.02909
G1 X107.037 Y47.737 E4.07142
G1 X107.595 Y47.864 E4.11711
G1 X108.256 Y47.971 E4.17056
G1 X108.959 Y47.993 E4.2267
G1 X109.703 Y47.987 E4.28609
G1 X111.142 Y48.018 E4.40099
G1 X111.418 Y48.038 E4.42307
G1 X111.804 Y48.053 E4.45391
G1 X111.989 Y48.053 E4.46868
G1 X112.74 Y47.998 E4.52879
G1 X112.889 Y47.981 E4.54076
G1 X114.276 Y47.868 E4.65184
G1 X115.659 Y47.835 E4.76227
G1 X117.064 Y47.88 E4.87448
G1 X118.725 Y48.03 E5.00761
G1 X120.11 Y48.167 E5.1187
G1 X121.484 Y48.381 E5.2297
G1 X122.44 Y48.58 E5.30765
G1 X123.28 Y48.725 E5.3757
G1 X124.622 Y49.035 E5.48564
G1 X125.942 Y49.418 E5.59536
G1 X127.185 Y49.853 E5.70048
G1 X127.879 Y50.118 E5.75978
G1 X129.198 Y50.668 E5.87385
G1 X130.466 Y51.282 E5.98631
G1 X131.216 Y51.696 E6.05469
G1 X131.551 Y51.865 E6.08465
G1 X131.999 Y52.076 E6.12418
G1 X133.238 Y52.735 E6.2362
G1 X134.433 Y53.461 E6.34781
G1 X135.567 Y54.242 E6.45772
G1 X136.65 Y55.079 E6.56698
G1 X137.711 Y56 E6.67913
G1 X138.702 Y56.965 E6.78955
G1 X139.457 Y57.782 E6.87835
G1 X139.912 Y58.218 E6.92865
G1 X139.993 Y58.287 E6.93715
G1 X140.15 Y58.428 E6.95399
G1 X141.008 Y59.243 E7.04845
G1 X141.151 Y59.386 E7.0646
G1 X142.088 Y60.388 E7.1741
G1 X142.95 Y61.419 E7.28138
G1 X143.075 Y61.586 E7.29803
G1 X143.47 Y62.063 E7.34746
G1 X144.091 Y62.852 E7.42761
G1 X144.538 Y63.351 E7.48109
G1 X145.052 Y63.799 E7.53552
G1 X145.615 Y64.175 E7.58956
G1 X146.788 Y64.933 E7.70104
G1 X147.904 Y65.75 E7.81145
G1 X148.967 Y66.623 E7.92125
G1 X149.908 Y67.484 E8.02306
G1 X150.034 Y67.609 E8.03723
G1 X150.297 Y67.857 E8.06608
G1 X150.604 Y68.13 E8.09888
G1 X151.349 Y68.819 E8.17988
G1 X152.353 Y69.829 E8.29356
G1 X153.294 Y70.888 E8.40665
G1 X154.148 Y71.968 E8.51655
G1 X154.861 Y72.974 E8.61498
G1 X154.948 Y73.107 E8.62766
G1 X155.99 Y74.785 E8.78533
G1 X156.208 Y75.106 E8.81631
G1 X156.929 Y76.284 E8.92656
G1 X157.59 Y77.512 E9.03788
G1 X158.176 Y78.767 E9.14844
G1 X158.692 Y80.062 E9.25972
G1 X158.824 Y80.452 E9.29258
G1 X158.946 Y80.775 E9.32015
G1 X159.082 Y81.113 E9.34923
G1 X159.537 Y82.412 E9.4591
G1 X159.807 Y83.347 E9.53678
G1 X159.968 Y83.817 E9.57644
G1 X160.392 Y84.893 E9.66876
G1 X160.836 Y86.237 E9.78175
G1 X161.197 Y87.586 E9.89322
G1 X161.454 Y88.803 E9.99251
G1 X161.482 Y88.96 E10.00524
G1 X161.687 Y90.319 E10.11494
G1 X161.814 Y91.686 E10.22453
G1 X161.862 Y92.941 E10.32479
G1 X161.865 Y93.186 E10.34435
G1 X161.884 Y93.57 E10.37504
G1 X161.929 Y94.121 E10.41917
G1 X162.004 Y95.511 E10.53028
G1 X162 Y96.929 E10.64347
G1 X161.953 Y97.767 E10.71047
G1 X161.958 Y98.438 E10.76404
G1 X162.051 Y99.119 E10.8189
G1 X162.322 Y100.451 E10.9274
G1 X162.389 Y100.856 E10.96017
G1 X162.584 Y101.646 E11.02513
G1 X163.033 Y103.01 E11.13975
G1 X163.391 Y104.342 E11.24985
G1 X163.652 Y105.58 E11.35085
G1 X163.682 Y105.751 E11.36471
G1 X163.885 Y107.116 E11.47487
G1 X164 Y108.338 E11.57284
G1 X164.011 Y108.514 E11.58692
G1 X164.056 Y109.719 E11.68317
G1 X164.057 Y109.885 E11.69642
G1 X163.996 Y111.823 E11.8512
G1 X163.958 Y112.361 E11.89425
G1 X163.939 Y112.538 E11.90846
G1 X163.839 Y113.654 E11.9979
G1 X163.69 Y114.753 E12.08643
G1 X163.53 Y116.008 E12.18742
G1 X163.506 Y116.156 E12.19939
G1 X163.283 Y117.357 E12.2969
G1 X163.248 Y117.518 E12.31005
G1 X162.918 Y118.849 E12.41952
G1 X162.508 Y120.182 E12.53084
G1 X162.024 Y121.485 E12.6418
G1 X161.73 Y122.161 E12.70064
G1 X161.531 Y122.695 E12.74613
G1 X161.426 Y123.027 E12.77392
G1 X160.933 Y124.335 E12.8855
G1 X160.364 Y125.617 E12.99747
G1 X159.733 Y126.851 E13.1081
G1 X159.444 Y127.348 E13.15399
G1 X159.225 Y127.762 E13.19138
G1 X158.592 Y128.973 E13.30046
G1 X157.88 Y130.165 E13.41129
G1 X157.107 Y131.309 E13.5215
G1 X156.267 Y132.412 E13.63217
G1 X155.356 Y133.476 E13.74398
G1 X154.393 Y134.481 E13.85509
G1 X153.828 Y135.011 E13.91693
G1 X153.369 Y135.499 E13.97041
G1 X153.256 Y135.656 E13.98585
G1 X153.239 Y135.646 E13.98742
G1 X152.914 Y136.132 E14.03409
G1 X152.195 Y137.137 E14.13273
G1 X151.962 Y137.434 E14.16286
G1 X151.576 Y137.982 E14.21637
G1 X151.245 Y138.612 E14.27318
G1 X150.793 Y139.634 E14.36238
G1 X150.197 Y140.878 E14.47249
G1 X149.516 Y142.195 E14.59084
G1 X148.818 Y143.378 E14.70049
G1 X148.053 Y144.522 E14.81034
G1 X147.294 Y145.531 E14.91113
G1 X147.189 Y145.662 E14.92453
G1 X146.291 Y146.721 E15.03536
G1 X145.926 Y147.108 E15.07783
G1 X145.516 Y147.598 E15.12883
G1 X145.403 Y147.752 E15.14408
G1 X144.538 Y148.851 E15.25572
G1 X143.633 Y149.877 E15.36492
G1 X142.633 Y150.889 E15.47849
G1 X141.603 Y151.819 E15.58927
G1 X140.493 Y152.711 E15.70294
G1 X139.384 Y153.503 E15.81172
G1 X138.219 Y154.24 E15.92176
G1 X136.988 Y154.927 E16.03429
G1 X136.723 Y155.056 E16.05782
G1 X136.719 Y155.047 E16.0586
G1 X136.167 Y155.354 E16.10902
G1 X134.931 Y155.989 E16.21995
G1 X133.68 Y156.544 E16.32919
G1 X132.398 Y157.031 E16.43866
G1 X131.04 Y157.458 E16.5523
G1 X130.327 Y157.641 E16.61105
G1 X129.981 Y157.743 E16.63985
G1 X129.216 Y157.992 E16.70407
G1 X127.879 Y158.349 E16.81453
G1 X127.324 Y158.465 E16.85979
G1 X126.857 Y158.586 E16.8983
G1 X126.697 Y158.636 E16.91168
G1 X126.584 Y158.666 E16.92101
G1 X125.212 Y158.999 E17.03371
G1 X123.863 Y159.246 E17.14319
G1 X122.179 Y159.463 E17.27872
G1 X122.179 Y159.479 E17.28
G1 X121.918 Y159.524 E17.30114
G1 X121.021 Y159.823 E17.37662
G1 X119.91 Y160.304 E17.47326
G1 X118.587 Y160.792 E17.58582
G1 X118.051 Y160.957 E17.63059
G1 X117.67 Y161.113 E17.66345
G1 X117.656 Y161.085 E17.66595
G1 X115.976 Y161.883 E17.81441
G1 X114.371 Y162.527 E17.95246
G1 X113.665 Y162.78 E18.01233
G1 X112.307 Y163.224 E18.12637
G1 X110.986 Y163.574 E18.23546
G1 X109.634 Y163.853 E18.34566
G1 X108.237 Y164.059 E18.45838
G1 X106.842 Y164.183 E18.57017
G1 X105.46 Y164.229 E18.68055
G1 X104.599 Y164.219 E18.74928
G1 X103.876 Y164.198 E18.80702
G1 X102.422 Y164.111 E18.92329
G1 X101.39 Y163.994 E19.0062
G1 X100.826 Y163.955 E19.05133
G1 X99.437 Y163.827 E19.16267
G1 X98.048 Y163.619 E19.27479
G1 X96.696 Y163.338 E19.38501
G1 X95.333 Y162.974 E19.49763
G1 X94.764 Y162.788 E19.54541
G1 X94.334 Y162.666 E19.58109
G1 X92.995 Y162.293 E19.69205
G1 X91.689 Y161.849 E19.80216
G1 X90.385 Y161.321 E19.91446
G1 X89.129 Y160.726 E20.0254
G1 X88.666 Y160.476 E20.0674
G1 X88.208 Y160.257 E20.10792
G1 X87.454 Y159.936 E20.17334
G1 X86.207 Y159.324 E20.28422
G1 X85.069 Y158.686 E20.38836
G1 X84.687 Y158.478 E20.42308
G1 X84.269 Y158.268 E20.46042
G1 X83.173 Y157.653 E20.56074
G1 X82.572 Y157.364 E20.61398
G1 X82.108 Y157.201 E20.65323
G1 X80.549 Y156.731 E20.78321
G1 X80.549 Y156.745 E20.78433
G1 X79.861 Y156.562 E20.84116
G1 X78.525 Y156.131 E20.95322
G1 X77.562 Y155.761 E21.03557
G1 X76.955 Y155.569 E21.08639
G1 X75.625 Y155.174 E21.19714
G1 X74.286 Y154.691 E21.31076
G1 X73.009 Y154.146 E21.42159
G1 X71.753 Y153.525 E21.53344
G1 X70.571 Y152.855 E21.64189
G1 X69.401 Y152.103 E21.75291
G1 X68.248 Y151.263 E21.86679
G1 X67.185 Y150.393 E21.97644
G1 X66.734 Y149.983 E22.02509
G1 X66.348 Y149.664 E22.06506
G1 X65.688 Y149.168 E22.13097
G1 X64.582 Y148.236 E22.24642
G1 X63.589 Y147.296 E22.35557
G1 X62.63 Y146.282 E22.46697
G1 X61.733 Y145.219 E22.578
G1 X60.974 Y144.215 E22.67847
G1 X60.891 Y144.096 E22.69005
G1 X60.124 Y142.944 E22.80052
G1 X59.415 Y141.737 E22.91226
G1 X58.985 Y140.903 E22.98717
G1 X58.743 Y140.483 E23.02586
G1 X58.397 Y139.935 E23.07759
G1 X57.565 Y138.424 E23.21528
G1 X57.259 Y137.818 E23.26947
G1 X56.647 Y136.512 E23.3846
G1 X56.293 Y135.634 E23.46017
G1 X56.047 Y135.111 E23.50631
G1 X55.952 Y134.933 E23.52241
G1 X55.344 Y133.697 E23.63237
G1 X54.794 Y132.399 E23.7449
G1 X54.19 Y130.729 E23.88665
G1 X54.172 Y130.738 E23.88826
G1 X54.1 Y130.562 E23.90344
G1 X53.763 Y129.968 E23.95795
G1 X53.393 Y129.47 E24.00748
G1 X52.938 Y128.918 E24.06458
G1 X52.119 Y127.811 E24.1745
G1 X51.355 Y126.649 E24.28551
G1 X50.652 Y125.432 E24.3977
G1 X50.043 Y124.227 E24.50547
G1 X49.483 Y122.948 E24.61693
G1 X48.993 Y121.623 E24.72969
G1 X48.57 Y120.244 E24.84483
G1 X48.482 Y119.926 E24.87117
G1 X48.465 Y119.926 E24.87253
G1 X48.337 Y119.54 E24.90499
G1 X48.103 Y118.963 E24.95469
G1 X47.626 Y117.596 E25.07027
G1 X47.343 Y116.835 E25.13508
G1 X46.932 Y115.514 E25.24551
G1 X46.602 Y114.199 E25.35373
G1 X46.339 Y112.831 E25.46493
G1 X46.167 Y111.568 E25.56668
G1 X46.152 Y111.42 E25.57856
G1 X46.048 Y110.044 E25.68871
G1 X46.022 Y108.654 E25.79968
G1 X46.073 Y107.255 E25.91143
G1 X46.193 Y105.951 E26.01596
G1 X46.212 Y105.652 E26.03988
G1 X46.257 Y104.377 E26.14172
G1 X46.385 Y103 E26.25211
G1 X46.595 Y101.605 E26.36472
G1 X46.876 Y100.256 E26.47471
G1 X47.24 Y98.898 E26.58694
G1 X47.67 Y97.592 E26.6967
G1 X48.174 Y96.306 E26.80695
G1 X48.808 Y94.91 E26.92934
G1 X49.05 Y94.291 E26.9824
G1 X49.149 Y93.938 E27.01166
G1 X49.41 Y92.872 E27.09927
G1 X49.527 Y92.215 E27.15254
G1 X49.527 Y92.208 E27.1531
G1 X49.536 Y92.208 E27.15381
G1 X49.621 Y90.509 E27.28961
G1 X49.635 Y90.343 E27.3029
G1 X49.782 Y89.007 E27.41019
G1 X49.988 Y87.751 E27.51179
G1 X50.059 Y87.091 E27.56478
G1 X50.217 Y85.824 E27.6667
G1 X50.239 Y85.69 E27.67754
G1 X50.606 Y83.805 E27.83083
G1 X50.76 Y83.149 E27.88462
G1 X51.136 Y81.75 E28.00026
G1 X51.575 Y80.422 E28.11191
G1 X52.088 Y79.116 E28.22391
G1 X52.143 Y78.995 E28.23452
G1 X52.374 Y78.393 E28.28599
G1 X52.517 Y77.946 E28.32346
G1 X53.009 Y76.646 E28.43441
G1 X53.563 Y75.394 E28.5437
G1 X54.2 Y74.151 E28.65519
G1 X54.924 Y72.921 E28.76912
G1 X55.677 Y71.79 E28.87758
G1 X56.53 Y70.656 E28.99085
G1 X57.415 Y69.608 E29.10034
G1 X58.263 Y68.706 E29.19917
G1 X58.395 Y68.574 E29.21407
G1 X59.083 Y67.921 E29.28979
G1 X59.31 Y67.668 E29.31692
G1 X59.324 Y67.682 E29.3185
G1 X59.727 Y67.192 E29.36915
G1 X60.632 Y66.141 E29.47986
G1 X61.622 Y65.119 E29.59344
M204 S3000
M205 X10 Y10
G0 F6000 X62.4 Y64.399
M204 S1800
M205 X8 Y8
G1 F1125 X62.4 Y146.009 E36.1079
M204 S3000
M205 X10 Y10
G0 F6000 X64 Y147.685
M204 S1800
M205 X8 Y8
G1 F1125 X64 Y63.087 E42.86088
M204 S3000
M205 X10 Y10
G0 F6000 X65.6 Y61.985
M204 S1800
M205 X8 Y8
G1 F1125 X65.6 Y149.093 E49.81422
M204 S3000
M205 X10 Y10
G0 F6000 X67.2 Y150.405
M204 S1800
M205 X8 Y8
G1 F1125 X67.2 Y61.016 E56.94963
M204 S3000
M205 X10 Y10
G0 F6000 X68.8 Y60.167
M204 S1800
M205 X8 Y8
G1 F1125 X68.8 Y151.665 E64.2534
M204 S3000
M205 X10 Y10
G0 F6000 X70.4 Y152.745
M204 S1800
M205 X8 Y8
G1 F1125 X70.4 Y59.325 E71.71059
M204 S3000
M205 X10 Y10
G0 F6000 X72 Y58.171
M204 S1800
M205 X8 Y8
G1 F1125 X72 Y153.647 E79.33189
M204 S3000
M205 X10 Y10
G0 F6000 X73.6 Y154.398
M204 S1800
M205 X8 Y8
G1 F1125 X73.6 Y56.498 E87.1467
M204 S3000
M205 X10 Y10
G0 F6000 X75.2 Y55.066
M204 S1800
M205 X8 Y8
G1 F1125 X75.2 Y155.02 E95.12546
M204 S3000
M205 X10 Y10
G0 F6000 X76.8 Y155.522
M204 S1800
M205 X8 Y8
G1 F1125 X76.8 Y53.876 E103.23928
M204 S3000
M205 X10 Y10
G0 F6000 X78.4 Y52.858
M204 S1800
M205 X8 Y8
G1 F1125 X78.4 Y156.082 E111.47907
M204 S3000
M205 X10 Y10
G0 F6000 X80 Y156.598
M204 S1800
M205 X8 Y8
G1 F1125 X80 Y51.882 E119.83795
M204 S3000
M205 X10 Y10
G0 F6000 X81.6 Y50.893
M204 S1800
M205 X8 Y8
G1 F1125 X81.6 Y157.047 E128.31162
M204 S3000
M205 X10 Y10
G0 F6000 X83.2 Y157.668
M204 S1800
M205 X8 Y8
G1 F1125 X83.2 Y50.054 E136.90184
M204 S3000
M205 X10 Y10
G0 F6000 X84.8 Y49.352
M204 S1800
M205 X8 Y8
G1 F1125 X84.8 Y158.539 E145.61761
M204 S3000
M205 X10 Y10
G0 F6000 X86.4 Y159.418
M204 S1800
M205 X8 Y8
G1 F1125 X86.4 Y48.783 E154.44898
M204 S3000
M205 X10 Y10
G0 F6000 X88 Y48.302
M204 S1800
M205 X8 Y8
G1 F1125 X88 Y160.168 E163.37861
M204 S3000
M205 X10 Y10
G0 F6000 X89.6 Y160.949
M204 S1800
M205 X8 Y8
G1 F1125 X89.6 Y47.773 E172.4128
M204 S3000
M205 X10 Y10
G0 F6000 X91.2 Y47.351
M204 S1800
M205 X8 Y8
G1 F1125 X91.2 Y161.651 E181.53672
M204 S3000
M205 X10 Y10
G0 F6000 X92.8 Y162.226
M204 S1800
M205 X8 Y8
G1 F1125 X92.8 Y47.038 E190.73153
M204 S3000
M205 X10 Y10
G0 F6000 X94.4 Y46.728
M204 S1800
M205 X8 Y8
G1 F1125 X94.4 Y162.684 E199.98764
M204 S3000
M205 X10 Y10
G0 F6000 X96 Y163.152
M204 S1800
M205 X8 Y8
G1 F1125 X96 Y46.491 E209.30002
M204 S3000
M205 X10 Y10
G0 F6000 X97.6 Y46.356
M204 S1800
M205 X8 Y8
G1 F1125 X97.6 Y163.525 E218.65296
M204 S3000
M205 X10 Y10
G0 F6000 X99.2 Y163.791
M204 S1800
M205 X8 Y8
G1 F1125 X99.2 Y46.336 E228.02873
M204 S3000
M205 X10 Y10
G0 F6000 X100.8 Y46.421
M204 S1800
M205 X8 Y8
G1 F1125 X100.8 Y163.952 E237.41056
M204 S3000
M205 X10 Y10
G0 F6000 X102.4 Y164.108
M204 S1800
M205 X8 Y8
G1 F1125 X102.4 Y46.609 E246.78984
M204 S3000
M205 X10 Y10
G0 F6000 X104 Y46.904
M204 S1800
M205 X8 Y8
G1 F1125 X104 Y164.201 E256.15299
M204 S3000
M205 X10 Y10
G0 F6000 X105.6 Y164.225
M204 S1800
M205 X8 Y8
G1 F1125 X105.6 Y47.308 E265.48581
M204 S3000
M205 X10 Y10
G0 F6000 X107.2 Y47.775
M204 S1800
M205 X8 Y8
G1 F1125 X107.2 Y164.152 E274.77553
M204 S3000
M205 X10 Y10
G0 F6000 X108.8 Y163.976
M204 S1800
M205 X8 Y8
G1 F1125 X108.8 Y47.989 E284.03411
M204 S3000
M205 X10 Y10
G0 F6000 X110.4 Y48.003
M204 S1800
M205 X8 Y8
G1 F1125 X110.4 Y163.695 E293.26915
M204 S3000
M205 X10 Y10
G0 F6000 X112 Y163.306
M204 S1800
M205 X8 Y8
G1 F1125 X112 Y48.052 E302.46922
M204 S3000
M205 X10 Y10
G0 F6000 X113.6 Y47.923
M204 S1800
M205 X8 Y8
G1 F1125 X113.6 Y162.802 E311.63936
M204 S3000
M205 X10 Y10
G0 F6000 X115.2 Y162.195
M204 S1800
M205 X8 Y8
G1 F1125 X115.2 Y47.845 E320.76727
M204 S3000
M205 X10 Y10
G0 F6000 X116.8 Y47.872
M204 S1800
M205 X8 Y8
G1 F1125 X116.8 Y161.492 E329.83691
M204 S3000
M205 X10 Y10
G0 F6000 X118.4 Y160.85
M204 S1800
M205 X8 Y8
G1 F1125 X118.4 Y48.001 E338.845
M204 S3000
M205 X10 Y10
G0 F6000 X120 Y48.157
M204 S1800
M205 X8 Y8
G1 F1125 X120 Y160.266 E347.79403
M204 S3000
M205 X10 Y10
G0 F6000 X121.6 Y159.63
M204 S1800
M205 X8 Y8
G1 F1125 X121.6 Y48.406 E356.67241
M204 S3000
M205 X10 Y10
G0 F6000 X123.2 Y48.712
M204 S1800
M205 X8 Y8
G1 F1125 X123.2 Y159.332 E365.50258
M204 S3000
M205 X10 Y10
G0 F6000 X124.8 Y159.075
M204 S1800
M205 X8 Y8
G1 F1125 X124.8 Y49.087 E374.28229
M204 S3000
M205 X10 Y10
G0 F6000 X126.4 Y49.579
M204 S1800
M205 X8 Y8
G1 F1125 X126.4 Y158.711 E382.99368
M204 S3000
M205 X10 Y10
G0 F6000 X128 Y158.317
M204 S1800
M205 X8 Y8
G1 F1125 X128 Y50.169 E391.62652
M204 S3000
M205 X10 Y10
G0 F6000 X129.6 Y50.863
M204 S1800
M205 X8 Y8
G1 F1125 X129.6 Y157.868 E400.16812
M204 S3000
M205 X10 Y10
G0 F6000 X131.2 Y157.408
M204 S1800
M205 X8 Y8
G1 F1125 X131.2 Y51.688 E408.60715
M204 S3000
M205 X10 Y10
