;FLAVOR:Marlin
;TIME:6338
;Filament used: 10.8451m
;Layer height: 0.2
;MINX:46.045
;MINY:65.54
;MINZ:0.2
;MAXX:163.954
;MAXY:144.476
;MAXZ:70.6
;Generated with Cura_SteamEngine 4.10.0
M140 S60
M105
M190 S60
M104 S215
M105
M109 S215
M82 ;absolute extrusion mode
G21 ;metric values
G90 ;absolute positionin
M82 ;absolute extrusion mode
G28
G29
M501
G92 E0 ;zero the extruded length
G1 F200 E3 ;extrude 3mm of feed stock
G92 E0 ;zero the extruded length again
G1 F100
G0 Y20 F100
M117 Printing...
G5
G92 E0
G92 E0
G1 F2400 E-6
;LAYER_COUNT:353
;LAYER:0
M107
M204 S3000
M205 X10 Y10
G1 F600 Z0.275
G0 F3000 X53.059 Y69.175 Z0.275
M204 S1800
M205 X8 Y8
;TYPE:SKIRT
G1 F600 Z0.2
G1 F2400 E0
G1 X53.606 Y68.762 E0.06383
G1 X54.177 Y68.375 E0.12807
G1 X54.7 Y68.056 E0.18512
G1 X54.959 Y67.907 E0.21295
G1 X55.453 Y67.631 E0.26565
G1 X56.06 Y67.325 E0.32895
G1 X56.859 Y66.966 E0.41053
G1 X57.419 Y66.731 E0.46709
G1 X57.926 Y66.542 E0.51748
G1 X58.254 Y66.437 E0.54955
G1 X58.94 Y66.23 E0.61628
G1 X59.556 Y66.06 E0.67579
G1 X60.251 Y65.907 E0.74207
G1 X61.13 Y65.755 E0.82514
G1 X61.841 Y65.652 E0.89205
G1 X62.523 Y65.588 E0.95584
G1 X63.263 Y65.551 E1.02484
G1 X63.905 Y65.54 E1.08464
G1 X65.171 Y65.559 E1.20255
G1 X134.326 Y67.969 E7.64675
G1 X135.178 Y68.009 E7.72619
G1 X135.42 Y68.024 E7.74877
G1 X136.215 Y68.087 E7.82304
G1 X136.423 Y68.107 E7.8425
G1 X137.148 Y68.184 E7.91039
G1 X137.76 Y68.273 E7.96799
G1 X138.472 Y68.408 E8.03548
G1 X138.783 Y68.472 E8.06505
G1 X139.48 Y68.625 E8.1315
G1 X140.101 Y68.789 E8.19132
G1 X140.864 Y69.024 E8.26567
G1 X141.113 Y69.106 E8.29008
G1 X141.709 Y69.308 E8.34869
G1 X142.369 Y69.564 E8.41461
G1 X142.973 Y69.827 E8.47597
G1 X143.149 Y69.906 E8.49393
G1 X143.968 Y70.287 E8.57805
G1 X144.541 Y70.583 E8.63811
G1 X145.172 Y70.943 E8.70577
G1 X145.487 Y71.131 E8.73993
G1 X146.108 Y71.511 E8.80773
G1 X146.632 Y71.861 E8.86642
G1 X147.156 Y72.243 E8.92681
G1 X147.319 Y72.365 E8.94577
G1 X147.992 Y72.883 E9.02486
G1 X148.447 Y73.26 E9.07989
G1 X148.637 Y73.43 E9.10363
G1 X149.266 Y74.012 E9.18344
G1 X149.773 Y74.498 E9.24884
G1 X150.24 Y74.986 E9.31175
G1 X150.753 Y75.571 E9.38421
G1 X150.893 Y75.736 E9.40436
G1 X151.373 Y76.315 E9.4744
G1 X151.757 Y76.819 E9.53341
G1 X152.175 Y77.418 E9.60143
G1 X152.365 Y77.699 E9.63302
G1 X152.744 Y78.274 E9.69716
G1 X153.074 Y78.824 E9.75689
G1 X153.443 Y79.5 E9.82861
G1 X153.588 Y79.774 E9.85748
G1 X153.929 Y80.446 E9.92766
G1 X154.198 Y81.037 E9.98813
G1 X154.486 Y81.745 E10.05931
G1 X154.565 Y81.946 E10.07943
G1 X154.803 Y82.581 E10.14258
G1 X155.006 Y83.194 E10.20272
G1 X155.16 Y83.726 E10.2543
G1 X155.371 Y84.499 E10.32892
G1 X155.525 Y85.101 E10.38679
G1 X155.574 Y85.303 E10.40614
G1 X155.757 Y86.114 E10.48357
G1 X163.398 Y122.043 E13.90441
G1 X163.555 Y122.841 E13.98015
G1 X163.602 Y123.102 E14.00485
G1 X163.773 Y124.16 E14.10466
G1 X163.843 Y124.659 E14.15158
G1 X163.905 Y125.377 E14.2187
G1 X163.945 Y126.374 E14.31162
G1 X163.951 Y126.644 E14.33677
G1 X163.954 Y127.192 E14.38781
G1 X163.929 Y127.854 E14.4495
G1 X163.876 Y128.437 E14.50402
G1 X163.798 Y129.081 E14.56443
G1 X163.659 Y129.948 E14.64621
G1 X163.481 Y130.745 E14.72226
G1 X163.305 Y131.441 E14.78912
G1 X163.099 Y132.119 E14.85511
G1 X162.77 Y133.046 E14.94671
G1 X162.531 Y133.664 E15.00842
G1 X162.255 Y134.284 E15.07162
G1 X162.027 Y134.737 E15.11885
G1 X161.859 Y135.052 E15.1521
G1 X161.564 Y135.586 E15.20891
G1 X161.197 Y136.185 E15.27433
G1 X160.676 Y136.955 E15.36092
G1 X160.496 Y137.21 E15.38998
G1 X160.177 Y137.643 E15.44007
G1 X159.774 Y138.145 E15.50002
G1 X159.297 Y138.678 E15.56663
G1 X158.772 Y139.23 E15.63758
G1 X158.279 Y139.703 E15.7012
G1 X157.665 Y140.243 E15.77735
G1 X157.46 Y140.418 E15.80246
G1 X157.049 Y140.755 E15.85195
G1 X156.516 Y141.155 E15.91401
G1 X155.905 Y141.563 E15.98244
G1 X155.742 Y141.666 E16.00039
G1 X155.144 Y142.036 E16.06588
G1 X154.605 Y142.34 E16.12351
G1 X154.054 Y142.619 E16.18103
G1 X153.78 Y142.748 E16.20923
G1 X153.22 Y143.003 E16.26654
G1 X152.582 Y143.26 E16.33059
G1 X151.771 Y143.546 E16.41068
G1 X151.178 Y143.737 E16.4687
G1 X150.514 Y143.913 E16.53267
G1 X149.567 Y144.12 E16.62294
G1 X148.823 Y144.26 E16.69345
G1 X148.173 Y144.35 E16.75456
G1 X147.477 Y144.408 E16.8196
G1 X146.73 Y144.447 E16.88926
G1 X146.478 Y144.456 E16.91274
G1 X145.27 Y144.476 E17.02526
G1 X69.119 Y144.475 E24.11708
G1 X68.335 Y144.464 E24.1901
G1 X68.122 Y144.458 E24.20994
G1 X67.485 Y144.431 E24.26932
G1 X67.099 Y144.409 E24.30532
G1 X66.361 Y144.358 E24.37422
G1 X65.715 Y144.287 E24.43474
G1 X65.051 Y144.185 E24.4973
G1 X64.843 Y144.15 E24.51695
G1 X64.104 Y144.016 E24.58689
G1 X63.462 Y143.871 E24.64818
G1 X62.734 Y143.674 E24.71842
G1 X62.388 Y143.573 E24.75199
G1 X61.712 Y143.369 E24.81775
G1 X61.013 Y143.126 E24.88666
G1 X60.436 Y142.897 E24.94448
G1 X60.062 Y142.743 E24.98214
G1 X59.432 Y142.475 E25.0459
G1 X58.834 Y142.19 E25.10759
G1 X58.177 Y141.842 E25.17683
G1 X57.99 Y141.74 E25.19667
G1 X57.307 Y141.354 E25.26973
G1 X56.685 Y140.967 E25.33796
G1 X56.172 Y140.618 E25.39574
G1 X55.882 Y140.414 E25.42876
G1 X55.334 Y140.02 E25.49161
G1 X54.803 Y139.603 E25.55449
G1 X54.213 Y139.096 E25.62694
G1 X54.059 Y138.96 E25.64607
G1 X53.494 Y138.448 E25.71708
G1 X53.033 Y137.998 E25.77707
G1 X52.609 Y137.546 E25.83479
G1 X52.105 Y136.993 E25.90447
G1 X51.747 Y136.581 E25.9553
G1 X51.254 Y135.958 E26.02929
G1 X50.826 Y135.37 E26.09702
G1 X50.357 Y134.701 E26.1731
G1 X50.027 Y134.191 E26.22968
G1 X49.648 Y133.543 E26.29959
G1 X49.467 Y133.221 E26.33399
G1 X49.133 Y132.609 E26.39892
G1 X48.829 Y131.992 E26.46297
G1 X48.55 Y131.361 E26.52722
G1 X48.412 Y131.037 E26.56002
G1 X48.171 Y130.453 E26.61886
G1 X47.933 Y129.799 E26.68367
G1 X47.711 Y129.101 E26.75188
G1 X47.611 Y128.769 E26.78417
G1 X47.417 Y128.096 E26.8494
G1 X47.288 Y127.584 E26.89857
G1 X47.169 Y127.016 E26.95262
G1 X47.068 Y126.46 E27.00525
G1 X46.952 Y125.766 E27.07077
G1 X46.855 Y125.003 E27.1424
G1 X46.803 Y124.397 E27.19905
G1 X46.754 Y123.644 E27.26932
G1 X46.743 Y123.412 E27.29095
G1 X46.709 Y122.406 E27.38469
G1 X46.045 Y84.158 E30.9472
G1 X46.046 Y83.448 E31.01332
G1 X46.075 Y82.475 E31.10398
G1 X46.113 Y81.79 E31.16787
G1 X46.189 Y81.083 E31.23409
G1 X46.318 Y80.239 E31.3136
G1 X46.417 Y79.689 E31.36565
G1 X46.576 Y79.014 E31.43023
G1 X46.839 Y78.087 E31.51996
G1 X46.997 Y77.577 E31.56969
G1 X47.253 Y76.886 E31.63831
G1 X47.626 Y76.009 E31.72707
G1 X47.869 Y75.476 E31.78162
G1 X48.198 Y74.844 E31.84797
G1 X48.6 Y74.151 E31.92258
G1 X48.737 Y73.923 E31.94736
G1 X49.029 Y73.457 E31.99857
G1 X49.392 Y72.929 E32.05824
G1 X49.822 Y72.365 E32.12429
G1 X50.311 Y71.766 E32.1963
G1 X50.785 Y71.237 E32.26245
G1 X51.351 Y70.66 E32.33772
G1 X51.828 Y70.198 E32.39957
G1 X52.357 Y69.735 E32.46503
G1 X53.059 Y69.175 E32.54866
M204 S3000
M205 X10 Y10
G0 F3000 X53.757 Y70.051
M204 S1800
M205 X8 Y8
G1 F2400 X54.276 Y69.66 E32.60918
G1 X54.764 Y69.328 E32.66415
G1 X55.262 Y69.025 E32.71843
G1 X55.505 Y68.884 E32.7446
G1 X55.999 Y68.608 E32.7973
G1 X56.519 Y68.347 E32.85148
G1 X57.318 Y67.988 E32.93306
G1 X57.846 Y67.767 E32.98636
G1 X58.395 Y67.567 E33.04078
G1 X58.577 Y67.509 E33.05857
G1 X59.263 Y67.302 E33.1253
G1 X59.846 Y67.142 E33.1816
G1 X60.442 Y67.011 E33.23843
G1 X61.321 Y66.859 E33.3215
G1 X61.995 Y66.761 E33.38493
G1 X62.579 Y66.706 E33.43956
G1 X63.319 Y66.669 E33.50856
G1 X63.888 Y66.66 E33.56156
G1 X65.287 Y66.682 E33.69186
G1 X134.374 Y69.092 E40.12973
G1 X135.124 Y69.128 E40.19966
G1 X135.332 Y69.141 E40.21907
G1 X136.127 Y69.204 E40.29334
G1 X136.304 Y69.22 E40.30989
G1 X137.029 Y69.297 E40.37779
G1 X137.554 Y69.374 E40.4272
G1 X138.247 Y69.505 E40.49288
G1 X138.543 Y69.566 E40.52103
G1 X139.24 Y69.719 E40.58748
G1 X139.772 Y69.859 E40.63871
G1 X140.518 Y70.089 E40.71141
G1 X140.753 Y70.166 E40.73444
G1 X141.349 Y70.368 E40.79305
G1 X141.922 Y70.59 E40.85028
G1 X142.526 Y70.853 E40.91163
G1 X142.677 Y70.921 E40.92705
G1 X143.496 Y71.302 E41.01117
G1 X143.986 Y71.556 E41.06257
G1 X144.602 Y71.908 E41.12864
G1 X144.903 Y72.086 E41.16121
G1 X145.524 Y72.466 E41.22901
G1 X145.972 Y72.766 E41.27922
G1 X146.496 Y73.148 E41.33961
G1 X146.635 Y73.252 E41.35578
G1 X147.308 Y73.77 E41.43487
G1 X147.715 Y74.107 E41.48408
G1 X147.877 Y74.253 E41.50439
G1 X148.491 Y74.821 E41.58229
G1 X148.998 Y75.307 E41.64769
G1 X149.397 Y75.725 E41.70151
G1 X149.91 Y76.31 E41.77397
G1 X150.031 Y76.451 E41.79127
G1 X150.511 Y77.03 E41.86131
G1 X150.84 Y77.462 E41.91188
G1 X151.247 Y78.045 E41.9781
G1 X151.429 Y78.316 E42.0085
G1 X151.808 Y78.891 E42.07263
G1 X152.092 Y79.361 E42.12378
G1 X152.455 Y80.026 E42.19433
G1 X152.589 Y80.281 E42.22116
G1 X152.93 Y80.953 E42.29134
G1 X153.161 Y81.459 E42.34314
G1 X153.449 Y82.167 E42.41432
G1 X153.516 Y82.34 E42.4316
G1 X153.754 Y82.975 E42.49475
G1 X153.936 Y83.525 E42.5487
G1 X154.106 Y84.113 E42.6057
G1 X154.286 Y84.776 E42.66968
G1 X154.44 Y85.378 E42.72755
G1 X154.662 Y86.347 E42.82013
G1 X162.299 Y122.259 E46.23935
G1 X162.456 Y123.057 E46.31509
G1 X162.496 Y123.281 E46.33628
G1 X162.667 Y124.339 E46.43609
G1 X162.732 Y124.807 E46.48009
G1 X162.786 Y125.422 E46.53758
G1 X162.826 Y126.419 E46.63051
G1 X162.831 Y126.65 E46.65202
G1 X162.834 Y127.198 E46.70306
G1 X162.813 Y127.765 E46.7559
G1 X162.765 Y128.302 E46.80611
G1 X162.687 Y128.946 E46.86652
G1 X162.562 Y129.719 E46.93944
G1 X162.391 Y130.489 E47.0129
G1 X162.22 Y131.164 E47.07775
G1 X162.043 Y131.744 E47.13422
G1 X161.714 Y132.671 E47.22583
G1 X161.489 Y133.254 E47.28402
G1 X161.253 Y133.784 E47.33805
G1 X160.94 Y134.397 E47.40215
G1 X160.584 Y135.044 E47.47093
G1 X160.27 Y135.557 E47.52694
G1 X159.749 Y136.327 E47.61352
G1 X159.594 Y136.546 E47.63851
G1 X159.275 Y136.979 E47.68859
G1 X158.93 Y137.409 E47.73994
G1 X158.474 Y137.919 E47.80365
G1 X157.961 Y138.457 E47.87288
G1 X157.54 Y138.862 E47.92728
G1 X156.926 Y139.402 E48.00343
G1 X156.75 Y139.552 E48.02497
G1 X156.339 Y139.889 E48.07446
G1 X155.882 Y140.231 E48.12762
G1 X155.292 Y140.625 E48.19369
G1 X155.153 Y140.714 E48.20906
G1 X154.555 Y141.084 E48.27455
G1 X154.093 Y141.344 E48.32392
G1 X153.575 Y141.607 E48.37803
G1 X153.316 Y141.728 E48.40465
G1 X152.756 Y141.983 E48.46195
G1 X152.21 Y142.204 E48.51681
G1 X151.399 Y142.49 E48.59689
G1 X150.844 Y142.668 E48.65117
G1 X150.274 Y142.819 E48.70609
G1 X149.327 Y143.026 E48.79636
G1 X148.623 Y143.158 E48.86307
G1 X148.067 Y143.235 E48.91534
G1 X147.397 Y143.291 E48.97795
G1 X147.253 Y143.3 E48.99139
G1 X146.674 Y143.329 E49.04538
G1 X146.459 Y143.336 E49.06541
G1 X145.27 Y143.356 E49.17616
G1 X69.134 Y143.355 E56.26658
G1 X68.35 Y143.344 E56.3396
G1 X68.169 Y143.339 E56.35646
G1 X67.546 Y143.313 E56.41453
G1 X67.176 Y143.292 E56.44905
G1 X66.438 Y143.241 E56.51794
G1 X65.885 Y143.18 E56.56975
G1 X65.221 Y143.078 E56.63231
G1 X65.043 Y143.048 E56.64912
G1 X64.304 Y142.914 E56.71907
G1 X63.754 Y142.79 E56.77157
G1 X63.043 Y142.597 E56.84018
G1 X62.711 Y142.501 E56.87237
G1 X62.035 Y142.297 E56.93813
G1 X61.424 Y142.084 E56.99839
G1 X60.862 Y141.861 E57.0547
G1 X60.5 Y141.712 E57.09115
G1 X59.87 Y141.444 E57.15491
G1 X59.358 Y141.2 E57.20773
G1 X58.701 Y140.852 E57.27697
G1 X58.541 Y140.765 E57.29393
G1 X57.858 Y140.379 E57.36699
G1 X57.314 Y140.041 E57.42664
G1 X56.894 Y139.756 E57.47391
G1 X56.535 Y139.505 E57.5147
G1 X55.987 Y139.111 E57.57756
G1 X55.533 Y138.753 E57.6314
G1 X54.943 Y138.246 E57.70385
G1 X54.811 Y138.13 E57.72021
G1 X54.246 Y137.618 E57.79122
G1 X53.831 Y137.211 E57.84535
G1 X53.482 Y136.841 E57.89272
G1 X52.933 Y136.239 E57.96859
G1 X52.596 Y135.851 E58.01646
G1 X52.143 Y135.277 E58.08455
G1 X51.735 Y134.715 E58.14923
G1 X51.274 Y134.059 E58.2239
G1 X50.984 Y133.608 E58.27383
G1 X50.674 Y133.08 E58.33085
G1 X50.45 Y132.684 E58.37322
G1 X50.116 Y132.072 E58.43815
G1 X49.852 Y131.537 E58.49371
G1 X49.579 Y130.921 E58.55646
G1 X49.447 Y130.61 E58.58792
G1 X49.206 Y130.026 E58.64676
G1 X49 Y129.46 E58.70285
G1 X48.783 Y128.775 E58.76977
G1 X48.687 Y128.459 E58.80053
G1 X48.493 Y127.786 E58.86576
G1 X48.311 Y127.015 E58.93953
G1 X48.191 Y126.384 E58.99935
G1 X48.056 Y125.581 E59.07518
G1 X47.968 Y124.879 E59.14107
G1 X47.92 Y124.309 E59.19434
G1 X47.872 Y123.573 E59.26303
G1 X47.862 Y123.374 E59.28158
G1 X47.829 Y122.386 E59.37364
G1 X47.165 Y84.153 E62.93476
G1 X47.166 Y83.481 E62.99734
G1 X47.195 Y82.508 E63.08799
G1 X47.231 Y81.857 E63.14871
G1 X47.296 Y81.252 E63.20538
G1 X47.425 Y80.408 E63.28489
G1 X47.517 Y79.897 E63.33325
G1 X47.654 Y79.32 E63.38848
G1 X47.917 Y78.393 E63.47821
G1 X48.065 Y77.916 E63.52473
G1 X48.284 Y77.325 E63.58342
G1 X48.657 Y76.448 E63.67218
G1 X48.885 Y75.947 E63.72344
G1 X49.167 Y75.406 E63.78025
G1 X49.569 Y74.713 E63.85486
G1 X49.686 Y74.518 E63.87604
G1 X49.978 Y74.052 E63.92726
G1 X50.289 Y73.6 E63.97835
G1 X50.689 Y73.074 E64.03989
G1 X51.178 Y72.475 E64.1119
G1 X51.584 Y72.021 E64.16862
G1 X52.15 Y71.444 E64.2439
G1 X52.603 Y71.007 E64.30251
G1 X53.055 Y70.611 E64.35848
G1 X53.757 Y70.051 E64.44211
M204 S3000
M205 X10 Y10
G0 F3000 X54.456 Y70.927
M204 S1800
M205 X8 Y8
G1 F2400 X54.945 Y70.558 E64.49916
G1 X55.696 Y70.07 E64.58257
G1 X56.051 Y69.862 E64.62088
G1 X56.545 Y69.586 E64.67358
G1 X56.978 Y69.368 E64.71873
G1 X57.777 Y69.009 E64.8003
G1 X58.273 Y68.802 E64.85036
G1 X58.749 Y68.629 E64.89752
G1 X58.901 Y68.581 E64.91237
G1 X59.587 Y68.374 E64.9791
G1 X60.137 Y68.224 E65.03219
G1 X60.633 Y68.114 E65.0795
G1 X61.512 Y67.962 E65.16258
G1 X62.149 Y67.871 E65.2225
G1 X62.635 Y67.825 E65.26797
G1 X63.375 Y67.788 E65.33697
G1 X63.871 Y67.78 E65.38317
G1 X65.248 Y67.801 E65.51142
G1 X134.321 Y70.21 E71.94799
G1 X135.071 Y70.246 E72.01791
G1 X135.243 Y70.257 E72.03396
G1 X136.038 Y70.32 E72.10823
G1 X136.186 Y70.334 E72.12208
G1 X136.911 Y70.411 E72.18997
G1 X137.348 Y70.475 E72.23111
G1 X138.022 Y70.602 E72.29498
G1 X138.303 Y70.66 E72.3217
G1 X139 Y70.813 E72.38816
G1 X139.443 Y70.93 E72.43083
G1 X140.172 Y71.155 E72.50188
G1 X140.394 Y71.227 E72.52361
G1 X140.99 Y71.429 E72.58222
G1 X141.475 Y71.617 E72.63066
G1 X142.079 Y71.88 E72.69201
G1 X143.023 Y72.318 E72.78893
G1 X143.432 Y72.529 E72.83178
G1 X144.033 Y72.872 E72.89623
G1 X144.318 Y73.041 E72.92709
G1 X144.939 Y73.421 E72.99489
G1 X145.312 Y73.671 E73.0367
G1 X145.836 Y74.053 E73.09709
G1 X145.952 Y74.14 E73.1106
G1 X146.625 Y74.658 E73.18969
G1 X147.117 Y75.075 E73.24975
G1 X147.716 Y75.629 E73.32574
G1 X148.223 Y76.115 E73.39114
G1 X148.555 Y76.463 E73.43593
G1 X149.068 Y77.048 E73.50839
G1 X149.168 Y77.165 E73.52273
G1 X149.648 Y77.744 E73.59277
G1 X149.922 Y78.104 E73.6349
G1 X150.318 Y78.671 E73.69931
G1 X150.494 Y78.932 E73.72862
G1 X150.873 Y79.507 E73.79276
G1 X151.109 Y79.899 E73.83537
G1 X151.466 Y80.552 E73.90468
G1 X151.59 Y80.788 E73.92951
G1 X151.931 Y81.46 E73.99968
G1 X152.123 Y81.881 E74.04278
G1 X152.411 Y82.589 E74.11396
G1 X152.467 Y82.733 E74.12835
G1 X152.705 Y83.368 E74.1915
G1 X152.866 Y83.856 E74.23936
G1 X153.007 Y84.342 E74.28648
G1 X153.201 Y85.054 E74.35521
G1 X153.355 Y85.656 E74.41308
G1 X153.549 Y86.503 E74.494
G1 X161.183 Y122.392 E77.91106
G1 X161.357 Y123.274 E77.99478
G1 X161.391 Y123.46 E78.01239
G1 X161.562 Y124.518 E78.1122
G1 X161.622 Y124.955 E78.15328
G1 X161.667 Y125.467 E78.20114
G1 X161.707 Y126.464 E78.29407
G1 X161.711 Y126.657 E78.31204
G1 X161.714 Y127.205 E78.36308
G1 X161.675 Y127.94 E78.43163
G1 X161.653 Y128.168 E78.45296
G1 X161.575 Y128.812 E78.51337
G1 X161.466 Y129.491 E78.57741
G1 X161.3 Y130.234 E78.64831
G1 X161.135 Y130.886 E78.71095
G1 X160.988 Y131.37 E78.75806
G1 X160.659 Y132.297 E78.84966
G1 X160.447 Y132.843 E78.90421
G1 X160.104 Y133.578 E78.97974
G1 X159.899 Y133.969 E79.02086
G1 X159.604 Y134.503 E79.07767
G1 X159.342 Y134.93 E79.12433
G1 X158.821 Y135.7 E79.21091
G1 X158.692 Y135.882 E79.23168
G1 X158.373 Y136.315 E79.28177
G1 X157.908 Y136.876 E79.34963
G1 X157.587 Y137.227 E79.39393
G1 X157.151 Y137.684 E79.45275
G1 X156.8 Y138.021 E79.49806
G1 X156.186 Y138.561 E79.57421
G1 X156.039 Y138.685 E79.59212
G1 X155.628 Y139.022 E79.64162
G1 X155.061 Y139.437 E79.70706
G1 X154.563 Y139.761 E79.76239
