;FLAVOR:Marlin
;TIME:7260
;Filament used: 8.0677m
;Layer height: 0.25
;Generated with Cura_SteamEngine 3.6.0
M140 S60
M105
M190 S60
M104 S200
M105
M109 S200
M82 ;absolute extrusion mode
G21 ;metric values
G90 ;absolute positioning
M82 ;set extruder to absolute mode
M107 ;start with the fan off
G28 X0 Y0 ;move X/Y to min endstops
G28 Z0 ;move Z to min endstops
G1 Z15.0 F100 ;move the platform down 15mm
G92 E0 ;zero the extruded length
G1 F200 E3 ;extrude 3mm of feed stock
G92 E0 ;zero the extruded length again
G1 F100
M117 Printing...
G5
G92 E0
G1 F2400 E-6
;LAYER_COUNT:33
;LAYER:0
M106 S255
M204 S3000
M205 X10 Y10
G0 F3000 X36.21 Y69.253 Z0.2
M204 S1800
M205 X8 Y8
;TYPE:SKIRT
G1 F2400 E0
G1 X36.87 Y68.977 E0.03331
G1 X37.556 Y68.776 E0.0666
G1 X38.261 Y68.653 E0.09992
G1 X39.009 Y68.609 E0.13481
G1 X124.991 Y68.61 E4.13849
G1 X125.705 Y68.65 E4.17179
G1 X126.41 Y68.769 E4.20508
G1 X127.098 Y68.967 E4.23842
G1 X127.759 Y69.24 E4.27172
G1 X128.386 Y69.585 E4.30505
G1 X128.97 Y69.997 E4.33832
G1 X129.504 Y70.472 E4.3716
G1 X129.983 Y71.004 E4.40494
G1 X130.398 Y71.586 E4.43822
G1 X130.747 Y72.211 E4.47155
G1 X131.023 Y72.871 E4.50487
G1 X131.224 Y73.557 E4.53815
G1 X131.347 Y74.262 E4.57148
G1 X131.391 Y75.01 E4.60637
G1 X131.391 Y134.991 E7.39933
G1 X131.351 Y135.705 E7.43263
G1 X131.232 Y136.41 E7.46592
G1 X131.034 Y137.098 E7.49926
G1 X130.761 Y137.759 E7.53256
G1 X130.417 Y138.386 E7.56586
G1 X130.004 Y138.97 E7.59917
G1 X129.529 Y139.504 E7.63245
G1 X128.997 Y139.983 E7.66578
G1 X128.415 Y140.398 E7.69907
G1 X127.79 Y140.747 E7.7324
G1 X127.13 Y141.023 E7.76571
G1 X126.444 Y141.224 E7.79899
G1 X125.739 Y141.347 E7.83232
G1 X124.991 Y141.391 E7.86721
G1 X39.009 Y141.39 E11.87089
G1 X38.295 Y141.35 E11.90419
G1 X37.59 Y141.231 E11.93748
G1 X36.902 Y141.033 E11.97082
G1 X36.241 Y140.76 E12.00412
G1 X35.614 Y140.415 E12.03744
G1 X35.03 Y140.003 E12.07072
G1 X34.496 Y139.528 E12.104
G1 X34.017 Y138.996 E12.13733
G1 X33.602 Y138.414 E12.17062
G1 X33.253 Y137.789 E12.20395
G1 X32.977 Y137.129 E12.23726
G1 X32.776 Y136.443 E12.27055
G1 X32.653 Y135.738 E12.30387
G1 X32.609 Y134.99 E12.33876
G1 X32.609 Y75.009 E15.13173
G1 X32.649 Y74.295 E15.16503
G1 X32.768 Y73.59 E15.19832
G1 X32.966 Y72.902 E15.23166
G1 X33.239 Y72.241 E15.26496
G1 X33.583 Y71.614 E15.29826
G1 X33.996 Y71.03 E15.33157
G1 X34.471 Y70.496 E15.36484
G1 X35.003 Y70.017 E15.39818
G1 X35.585 Y69.602 E15.43146
G1 X36.21 Y69.253 E15.4648
M204 S3000
M205 X10 Y10
G0 F3000 X36.734 Y69.63
M204 S1800
M205 X8 Y8
G1 F2400 X37.377 Y69.402 E15.49656
G1 X38.043 Y69.249 E15.52838
G1 X39.009 Y69.169 E15.57352
G1 X124.991 Y69.17 E19.5772
G1 X125.673 Y69.21 E19.60901
G1 X126.346 Y69.329 E19.64083
G1 X127 Y69.526 E19.67264
G1 X127.627 Y69.799 E19.70448
G1 X128.217 Y70.142 E19.73626
G1 X128.764 Y70.552 E19.76809
G1 X129.259 Y71.023 E19.79991
G1 X129.695 Y71.549 E19.83172
G1 X130.067 Y72.122 E19.86353
G1 X130.37 Y72.735 E19.89537
G1 X130.598 Y73.378 E19.92714
G1 X130.751 Y74.044 E19.95896
G1 X130.831 Y75.01 E20.00409
G1 X130.831 Y134.991 E22.79706
G1 X130.791 Y135.673 E22.82887
G1 X130.672 Y136.346 E22.8607
G1 X130.475 Y137 E22.8925
G1 X130.202 Y137.627 E22.92434
G1 X129.859 Y138.217 E22.95612
G1 X129.449 Y138.764 E22.98795
G1 X128.978 Y139.259 E23.01977
G1 X128.452 Y139.695 E23.05158
G1 X127.879 Y140.067 E23.08339
G1 X127.266 Y140.37 E23.11523
G1 X126.623 Y140.598 E23.147
G1 X125.957 Y140.751 E23.17882
G1 X124.991 Y140.831 E23.22396
G1 X39.009 Y140.83 E27.22764
G1 X38.327 Y140.79 E27.25945
G1 X37.654 Y140.671 E27.29127
G1 X37 Y140.474 E27.32308
G1 X36.373 Y140.201 E27.35492
G1 X35.783 Y139.858 E27.3867
G1 X35.236 Y139.448 E27.41853
G1 X34.741 Y138.977 E27.45035
G1 X34.305 Y138.451 E27.48216
G1 X33.933 Y137.878 E27.51397
G1 X33.63 Y137.265 E27.54581
G1 X33.402 Y136.622 E27.57758
G1 X33.249 Y135.956 E27.6094
G1 X33.169 Y134.99 E27.65453
G1 X33.169 Y75.009 E30.4475
G1 X33.209 Y74.327 E30.47931
G1 X33.328 Y73.654 E30.51113
G1 X33.525 Y73 E30.54294
G1 X33.798 Y72.373 E30.57478
G1 X34.141 Y71.783 E30.60656
G1 X34.551 Y71.236 E30.63839
G1 X35.022 Y70.741 E30.67021
G1 X35.548 Y70.305 E30.70202
G1 X36.121 Y69.933 E30.73383
G1 X36.734 Y69.63 E30.76567
M204 S3000
M205 X10 Y10
G0 F3000 X36.652 Y70.284
M204 S1800
M205 X8 Y8
G1 F2400 X37.25 Y70.031 E30.79591
G1 X37.874 Y69.852 E30.82613
G1 X38.516 Y69.752 E30.85639
G1 X39.009 Y69.729 E30.87937
G1 X124.991 Y69.73 E34.88305
G1 X125.639 Y69.77 E34.91328
G1 X126.278 Y69.889 E34.94355
G1 X126.897 Y70.086 E34.9738
G1 X127.487 Y70.357 E35.00403
G1 X128.04 Y70.699 E35.03431
G1 X128.546 Y71.106 E35.06454
G1 X128.999 Y71.572 E35.09481
G1 X129.39 Y72.09 E35.12503
G1 X129.716 Y72.653 E35.15532
G1 X129.969 Y73.251 E35.18555
G1 X130.148 Y73.875 E35.21578
G1 X130.248 Y74.517 E35.24604
G1 X130.271 Y75.01 E35.26902
G1 X130.271 Y134.991 E38.06198
G1 X130.231 Y135.639 E38.09222
G1 X130.112 Y136.278 E38.12248
G1 X129.915 Y136.897 E38.15273
G1 X129.644 Y137.487 E38.18296
G1 X129.302 Y138.04 E38.21324
G1 X128.895 Y138.546 E38.24348
G1 X128.429 Y138.999 E38.27374
G1 X127.911 Y139.39 E38.30396
G1 X127.348 Y139.716 E38.33425
G1 X126.75 Y139.969 E38.36449
G1 X126.126 Y140.148 E38.39471
G1 X125.484 Y140.248 E38.42497
G1 X124.991 Y140.271 E38.44795
G1 X39.009 Y140.27 E42.45163
G1 X38.361 Y140.23 E42.48186
G1 X37.722 Y140.111 E42.51213
G1 X37.103 Y139.914 E42.54238
G1 X36.513 Y139.643 E42.57261
G1 X35.96 Y139.301 E42.60289
G1 X35.454 Y138.894 E42.63312
G1 X35.001 Y138.428 E42.66338
G1 X34.61 Y137.91 E42.69361
G1 X34.284 Y137.347 E42.7239
G1 X34.031 Y136.749 E42.75413
G1 X33.852 Y136.125 E42.78436
G1 X33.752 Y135.483 E42.81462
G1 X33.729 Y134.99 E42.8376
G1 X33.729 Y75.009 E45.63056
G1 X33.769 Y74.361 E45.66079
G1 X33.888 Y73.722 E45.69106
G1 X34.085 Y73.103 E45.72131
G1 X34.356 Y72.513 E45.75154
G1 X34.698 Y71.96 E45.78182
G1 X35.105 Y71.454 E45.81206
G1 X35.571 Y71.001 E45.84232
G1 X36.089 Y70.61 E45.87254
G1 X36.652 Y70.284 E45.90283
M204 S3000
M205 X10 Y10
G1 F2400 E39.90283
;MESH:LazerFoot.stl(1)
G0 F3000 X39.854 Y74.335
G0 X39.854 Y75.854
G0 X67.485 Y100.864
M204 S1800
M205 X8 Y8
;TYPE:WALL-INNER
G1 F2400 E45.90283
G1 F1500 X66.79 Y101.191 E45.9386
G1 X66.162 Y101.632 E45.97433
G1 X65.62 Y102.175 E46.01005
G1 X65.181 Y102.806 E46.04585
G1 X64.857 Y103.502 E46.08159
G1 X64.66 Y104.246 E46.11743
G1 X64.596 Y105.012 E46.15322
G1 X64.665 Y105.774 E46.18885
G1 X64.864 Y106.515 E46.22458
G1 X65.191 Y107.21 E46.26034
G1 X65.632 Y107.838 E46.29608
G1 X66.175 Y108.38 E46.3318
G1 X66.806 Y108.819 E46.36759
G1 X67.502 Y109.143 E46.40334
G1 X68.246 Y109.34 E46.43918
G1 X69.012 Y109.404 E46.47497
G1 X69.774 Y109.335 E46.5106
G1 X70.515 Y109.136 E46.54633
G1 X71.21 Y108.809 E46.58209
G1 X71.838 Y108.368 E46.61782
G1 X72.38 Y107.825 E46.65355
G1 X72.819 Y107.194 E46.68934
G1 X73.143 Y106.498 E46.72509
G1 X73.34 Y105.754 E46.76093
G1 X73.404 Y104.988 E46.79672
G1 X73.335 Y104.226 E46.83235
G1 X73.136 Y103.485 E46.86807
G1 X72.809 Y102.79 E46.90384
G1 X72.368 Y102.162 E46.93957
G1 X71.825 Y101.62 E46.97529
G1 X71.194 Y101.181 E47.01109
G1 X70.498 Y100.857 E47.04684
G1 X69.754 Y100.66 E47.08267
G1 X68.988 Y100.596 E47.11847
G1 X68.226 Y100.665 E47.15409
G1 X67.485 Y100.864 E47.18982
M204 S3000
M205 X10 Y10
G0 F3000 X66.021 Y102.511
G0 X65.634 Y103.067
G0 X65.349 Y103.68
G0 X65.175 Y104.336
G0 X65.118 Y105.01
G0 X67.485 Y121.864
M204 S1800
M205 X8 Y8
G1 F1500 X66.79 Y122.191 E47.22559
G1 X66.162 Y122.632 E47.26132
G1 X65.62 Y123.175 E47.29704
G1 X65.181 Y123.806 E47.33284
G1 X64.857 Y124.502 E47.36858
G1 X64.66 Y125.246 E47.40442
G1 X64.596 Y126.012 E47.44021
G1 X64.665 Y126.774 E47.47584
G1 X64.864 Y127.515 E47.51157
G1 X65.191 Y128.21 E47.54733
G1 X65.632 Y128.838 E47.58307
G1 X66.175 Y129.38 E47.61879
G1 X66.806 Y129.819 E47.65458
G1 X67.502 Y130.143 E47.69033
G1 X68.246 Y130.34 E47.72617
G1 X69.012 Y130.404 E47.76196
G1 X69.774 Y130.335 E47.79759
G1 X70.515 Y130.136 E47.83332
G1 X71.21 Y129.809 E47.86908
G1 X71.838 Y129.368 E47.90481
G1 X72.38 Y128.825 E47.94054
G1 X72.819 Y128.194 E47.97633
G1 X73.143 Y127.498 E48.01208
G1 X73.34 Y126.754 E48.04792
G1 X73.404 Y125.988 E48.08371
G1 X73.335 Y125.226 E48.11934
G1 X73.136 Y124.485 E48.15506
G1 X72.809 Y123.79 E48.19083
G1 X72.368 Y123.162 E48.22656
G1 X71.825 Y122.62 E48.26228
G1 X71.194 Y122.181 E48.29808
G1 X70.498 Y121.857 E48.33383
G1 X69.754 Y121.66 E48.36966
G1 X68.988 Y121.596 E48.40546
G1 X68.226 Y121.665 E48.44108
G1 X67.485 Y121.864 E48.47681
M204 S3000
M205 X10 Y10
G0 F3000 X69.664 Y122.175
G0 X70.32 Y122.349
G0 X70.933 Y122.634
G0 X71.489 Y123.021
G0 X71.968 Y123.499
G0 X72.188 Y123.811
G0 X77.6 Y133.6
M204 S1800
M205 X8 Y8
G1 F1500 X40.4 Y133.6 E50.209
G1 X40.4 Y76.4 E52.87247
G1 X77.6 Y76.4 E54.60466
G1 X77.6 Y133.6 E57.26813
M204 S3000
M205 X10 Y10
G0 F3000 X78.16 Y134.16
M204 S1800
M205 X8 Y8
G1 F1500 X39.84 Y134.16 E59.05247
G1 X39.84 Y75.84 E61.76809
G1 X78.16 Y75.84 E63.55243
G1 X78.16 Y134.16 E66.26806
M204 S3000
M205 X10 Y10
G0 F3000 X78.09 Y134.09
G0 X72.357 Y124.052
G0 X71.968 Y123.499
G0 X71.489 Y123.021
G0 X70.933 Y122.634
G0 X70.32 Y122.349
G0 X69.664 Y122.175
G0 X69.058 Y122.124
G0 X67.644 Y122.299
G0 X67.678 Y122.392
M204 S1800
M205 X8 Y8
G1 F1500 X67.072 Y122.677 E66.29924
G1 X66.524 Y123.062 E66.33042
G1 X66.051 Y123.536 E66.3616
G1 X65.668 Y124.086 E66.39281
G1 X65.386 Y124.693 E66.42398
G1 X65.214 Y125.342 E66.45524
G1 X65.158 Y126.01 E66.48646
G1 X65.218 Y126.675 E66.51755
G1 X65.392 Y127.322 E66.54874
G1 X65.677 Y127.928 E66.57993
G1 X66.062 Y128.476 E66.61111
G1 X66.536 Y128.949 E66.64229
G1 X67.086 Y129.332 E66.6735
G1 X67.693 Y129.614 E66.70467
G1 X68.342 Y129.786 E66.73593
G1 X69.01 Y129.842 E66.76714
G1 X69.675 Y129.782 E66.79823
G1 X70.322 Y129.608 E66.82943
G1 X70.928 Y129.323 E66.86061
G1 X71.476 Y128.938 E66.8918
G1 X71.949 Y128.464 E66.92298
G1 X72.332 Y127.914 E66.95419
G1 X72.614 Y127.307 E66.98535
G1 X72.786 Y126.658 E67.01662
G1 X72.842 Y125.99 E67.04783
G1 X72.782 Y125.325 E67.07892
G1 X72.608 Y124.678 E67.11012
G1 X72.323 Y124.072 E67.1413
G1 X71.938 Y123.524 E67.17249
G1 X71.464 Y123.051 E67.20367
G1 X70.914 Y122.668 E67.23488
G1 X70.307 Y122.386 E67.26604
G1 X69.658 Y122.214 E67.29731
G1 X68.99 Y122.158 E67.32852
G1 X68.325 Y122.218 E67.35961
G1 X67.678 Y122.392 E67.39081
M204 S3000
M205 X10 Y10
G0 F3000 X67.644 Y122.299
G0 X65.118 Y105.01
G0 X65.175 Y104.336
G0 X65.349 Y103.68
G0 X65.634 Y103.067
G0 X66.021 Y102.511
G0 X66.451 Y102.08
G0 X67.644 Y101.299
G0 X67.678 Y101.392
M204 S1800
M205 X8 Y8
G1 F1500 X67.072 Y101.677 E67.42199
G1 X66.524 Y102.062 E67.45318
G1 X66.051 Y102.536 E67.48436
G1 X65.668 Y103.086 E67.51557
G1 X65.386 Y103.693 E67.54673
G1 X65.214 Y104.342 E67.57799
G1 X65.158 Y105.01 E67.60921
G1 X65.218 Y105.675 E67.6403
G1 X65.392 Y106.322 E67.6715
G1 X65.677 Y106.928 E67.70268
G1 X66.062 Y107.476 E67.73386
G1 X66.536 Y107.949 E67.76505
G1 X67.086 Y108.332 E67.79625
G1 X67.693 Y108.614 E67.82742
G1 X68.342 Y108.786 E67.85868
G1 X69.01 Y108.842 E67.8899
G1 X69.675 Y108.782 E67.92099
G1 X70.322 Y108.608 E67.95219
G1 X70.928 Y108.323 E67.98337
G1 X71.476 Y107.938 E68.01455
G1 X71.949 Y107.464 E68.04573
G1 X72.332 Y106.914 E68.07694
G1 X72.614 Y106.307 E68.10811
G1 X72.786 Y105.658 E68.13937
G1 X72.842 Y104.99 E68.17059
G1 X72.782 Y104.325 E68.20168
G1 X72.608 Y103.678 E68.23287
G1 X72.323 Y103.072 E68.26406
G1 X71.938 Y102.524 E68.29524
G1 X71.464 Y102.051 E68.32642
G1 X70.914 Y101.668 E68.35763
G1 X70.307 Y101.386 E68.3888
G1 X69.658 Y101.214 E68.42006
G1 X68.99 Y101.158 E68.45127
G1 X68.325 Y101.218 E68.48236
G1 X67.678 Y101.392 E68.51356
M204 S3000
M205 X10 Y10
G0 F3000 X67.871 Y101.92
M204 S1800
M205 X8 Y8
;TYPE:WALL-OUTER
G1 F1500 X67.354 Y102.163 E68.54016
G1 X66.886 Y102.492 E68.5668
G1 X66.482 Y102.897 E68.59344
G1 X66.155 Y103.366 E68.62006
G1 X65.915 Y103.884 E68.64664
G1 X65.768 Y104.438 E68.67333
G1 X65.72 Y105.008 E68.69997
G1 X65.771 Y105.576 E68.72652
G1 X65.92 Y106.129 E68.75319
G1 X66.163 Y106.646 E68.77979
G1 X66.492 Y107.114 E68.80643
G1 X66.897 Y107.518 E68.83307
G1 X67.366 Y107.845 E68.85969
G1 X67.884 Y108.085 E68.88627
G1 X68.438 Y108.232 E68.91296
G1 X69.008 Y108.28 E68.9396
G1 X69.576 Y108.229 E68.96615
G1 X70.129 Y108.08 E68.99282
G1 X70.646 Y107.837 E69.01942
G1 X71.114 Y107.508 E69.04606
G1 X71.518 Y107.103 E69.0727
G1 X71.845 Y106.634 E69.09932
G1 X72.085 Y106.116 E69.1259
G1 X72.232 Y105.562 E69.15259
G1 X72.28 Y104.992 E69.17923
G1 X72.229 Y104.424 E69.20578
G1 X72.08 Y103.871 E69.23245
G1 X71.837 Y103.354 E69.25905
G1 X71.508 Y102.886 E69.28569
G1 X71.103 Y102.482 E69.31233
G1 X70.634 Y102.155 E69.33895
G1 X70.116 Y101.915 E69.36553
G1 X69.562 Y101.768 E69.39222
G1 X68.992 Y101.72 E69.41886
G1 X68.424 Y101.771 E69.44541
G1 X67.871 Y101.92 E69.47208
M204 S3000
M205 X10 Y10
G0 F3000 X67.69 Y102.005
G0 X67.41 Y101.408
G0 X66.499 Y102.032
G0 X66.021 Y102.511
G0 X65.634 Y103.067
G0 X65.349 Y103.68
G0 X65.175 Y104.336
G0 X65.118 Y105.01
G0 X67.591 Y122.323
G0 X67.871 Y122.92
M204 S1800
M205 X8 Y8
G1 F1500 X67.354 Y123.163 E69.49868
G1 X66.886 Y123.492 E69.52532
G1 X66.482 Y123.897 E69.55196
G1 X66.155 Y124.366 E69.57858
G1 X65.915 Y124.884 E69.60516
G1 X65.768 Y125.438 E69.63185
G1 X65.72 Y126.008 E69.65849
G1 X65.771 Y126.576 E69.68504
G1 X65.92 Y127.129 E69.71171
G1 X66.163 Y127.646 E69.73831
G1 X66.492 Y128.114 E69.76495
G1 X66.897 Y128.518 E69.79158
G1 X67.366 Y128.845 E69.81821
G1 X67.884 Y129.085 E69.84479
G1 X68.438 Y129.232 E69.87148
G1 X69.008 Y129.28 E69.89812
G1 X69.576 Y129.229 E69.92467
G1 X70.129 Y129.08 E69.95134
G1 X70.646 Y128.837 E69.97794
G1 X71.114 Y128.508 E70.00458
G1 X71.518 Y128.103 E70.03121
G1 X71.845 Y127.634 E70.05784
G1 X72.085 Y127.116 E70.08442
G1 X72.232 Y126.562 E70.11111
G1 X72.28 Y125.992 E70.13774
G1 X72.229 Y125.424 E70.1643
G1 X72.08 Y124.871 E70.19097
G1 X71.837 Y124.354 E70.21757
G1 X71.508 Y123.886 E70.24421
G1 X71.103 Y123.482 E70.27084
G1 X70.634 Y123.155 E70.29747
G1 X70.116 Y122.915 E70.32405
G1 X69.562 Y122.768 E70.35074
G1 X68.992 Y122.72 E70.37737
G1 X68.424 Y122.771 E70.40393
G1 X67.871 Y122.92 E70.4306
M204 S3000
M205 X10 Y10
G0 F3000 X67.69 Y123.005
G0 X67.41 Y122.408
G0 X68.318 Y122.179
G0 X68.99 Y122.118
G0 X69.664 Y122.175
G0 X70.32 Y122.349
G0 X70.933 Y122.634
G0 X71.489 Y123.021
G0 X71.968 Y123.499
G0 X72.188 Y123.811
G0 X78.09 Y134.09
G0 X78.72 Y134.72
M204 S1800
M205 X8 Y8
G1 F1500 X39.28 Y134.72 E72.26709
G1 X39.28 Y75.28 E75.03486
G1 X78.72 Y75.28 E76.87136
G1 X78.72 Y134.72 E79.63913
M204 S3000
M205 X10 Y10
G0 F3000 X78.52 Y134.72
G0 X78.09 Y134.09
G0 X77.05 Y133.05
M204 S1800
M205 X8 Y8
;TYPE:SKIN
G1 F1500 X40.95 Y133.05 E81.3201
G1 X40.95 Y76.95 E83.93235
G1 X77.05 Y76.95 E85.61332
G1 X77.05 Y133.05 E88.22557
M204 S3000
M205 X10 Y10
G0 F3000 X72.804 Y129.179
M204 S1800
M205 X8 Y8
G1 F1500 X73.298 Y128.469 E88.26584
G1 X73.662 Y127.686 E88.30605
G1 X73.884 Y126.848 E88.34642
G1 X73.956 Y125.986 E88.3867
G1 X73.879 Y125.129 E88.42676
G1 X73.655 Y124.295 E88.46697
G1 X73.286 Y123.513 E88.50724
G1 X72.79 Y122.807 E88.54741
G1 X72.179 Y122.196 E88.58765
G1 X71.469 Y121.702 E88.62792
G1 X70.686 Y121.338 E88.66813
G1 X69.848 Y121.116 E88.7085
G1 X68.986 Y121.044 E88.74878
G1 X68.129 Y121.121 E88.78884
G1 X67.295 Y121.345 E88.82905
G1 X66.513 Y121.714 E88.86932
G1 X65.807 Y122.21 E88.90949
G1 X65.196 Y122.821 E88.94973
G1 X64.702 Y123.531 E88.99
G1 X64.338 Y124.314 E89.03021
G1 X64.116 Y125.152 E89.07058
G1 X64.044 Y126.014 E89.11085
G1 X64.121 Y126.871 E89.15092
