;FLAVOR:Marlin
;TIME:908
;Filament used: 0.974368m
;Layer height: 0.2
;MINX:83.6
;MINY:83.6
;MINZ:0.2
;MAXX:126.4
;MAXY:126.4
;MAXZ:12
;Generated with Cura_SteamEngine 4.10.0
M140 S60
M105
M190 S60
M104 S195
M105
M109 S195
M82 ;absolute extrusion mode
G21 ;metric values
G90 ;absolute positionin
M82 ;absolute extrusion mode
G28
G29
M501
G92 E0 ;zero the extruded length
G1 F200 E5 ;extrude 3mm of feed stock
G92 E0 ;zero the extruded length again
G1 F100
G0 Y20 F100
M117 Printing...
G5
G92 E0
G92 E0
G1 F2400 E-1
;LAYER_COUNT:60
;LAYER:0
M107
M204 S3000
M205 X10 Y10
G1 F600 Z0.275
G0 F3000 X85.533 Y85.435 Z0.275
M204 S1800
M205 X8 Y8
;TYPE:SKIRT
G1 F600 Z0.2
G1 F2400 E0
G1 X86.071 Y84.964 E0.03637
G1 X86.659 Y84.556 E0.07277
G1 X87.288 Y84.216 E0.10914
G1 X87.952 Y83.949 E0.14554
G1 X88.641 Y83.757 E0.18192
G1 X89.347 Y83.643 E0.21829
G1 X90.151 Y83.603 E0.25923
G1 X90.33 Y83.6 E0.26834
G1 X119.293 Y83.6 E1.74146
G1 X120.083 Y83.611 E1.78164
G1 X120.796 Y83.661 E1.818
G1 X121.5 Y83.79 E1.8544
G1 X122.184 Y83.998 E1.89076
G1 X122.841 Y84.28 E1.92713
G1 X123.463 Y84.634 E1.96353
G1 X124.041 Y85.055 E1.9999
G1 X124.569 Y85.538 E2.03629
G1 X125.039 Y86.076 E2.07263
G1 X125.447 Y86.664 E2.10903
G1 X125.786 Y87.294 E2.14542
G1 X126.053 Y87.957 E2.18177
G1 X126.244 Y88.647 E2.21819
G1 X126.357 Y89.353 E2.25455
G1 X126.397 Y90.15 E2.29514
G1 X126.4 Y90.33 E2.3043
G1 X126.4 Y119.343 E3.77996
G1 X126.391 Y120.07 E3.81694
G1 X126.342 Y120.784 E3.85334
G1 X126.214 Y121.488 E3.88973
G1 X126.008 Y122.173 E3.92611
G1 X125.727 Y122.83 E3.96246
G1 X125.374 Y123.453 E3.99888
G1 X124.954 Y124.032 E4.03526
G1 X124.472 Y124.56 E4.07162
G1 X123.935 Y125.032 E4.10798
G1 X123.347 Y125.44 E4.14439
G1 X122.718 Y125.781 E4.18078
G1 X122.055 Y126.049 E4.21715
G1 X121.366 Y126.241 E4.25353
G1 X120.66 Y126.356 E4.28991
G1 X119.849 Y126.397 E4.33121
G1 X119.67 Y126.4 E4.34032
G1 X90.624 Y126.399 E5.81766
G1 X89.926 Y126.39 E5.85316
G1 X89.213 Y126.341 E5.88951
G1 X88.509 Y126.213 E5.92591
G1 X87.824 Y126.007 E5.96229
G1 X87.167 Y125.725 E5.99865
G1 X86.545 Y125.372 E6.03503
G1 X85.966 Y124.952 E6.07141
G1 X85.437 Y124.47 E6.10781
G1 X84.966 Y123.932 E6.14418
G1 X84.558 Y123.345 E6.18054
G1 X84.218 Y122.715 E6.21695
G1 X83.95 Y122.052 E6.25332
G1 X83.758 Y121.363 E6.2897
G1 X83.644 Y120.657 E6.32607
G1 X83.602 Y119.831 E6.36814
G1 X83.6 Y119.658 E6.37694
G1 X83.601 Y90.587 E7.85555
G1 X83.61 Y89.922 E7.88938
G1 X83.659 Y89.209 E7.92573
G1 X83.788 Y88.505 E7.96213
G1 X83.995 Y87.821 E7.99848
G1 X84.277 Y87.163 E8.03489
G1 X84.63 Y86.541 E8.07127
G1 X85.05 Y85.963 E8.10761
G1 X85.533 Y85.435 E8.144
M204 S3000
M205 X10 Y10
G0 F3000 X86.08 Y85.688
M204 S1800
M205 X8 Y8
G1 F2400 X86.612 Y85.259 E8.17876
G1 X87.19 Y84.894 E8.21353
G1 X87.807 Y84.6 E8.2483
G1 X88.453 Y84.38 E8.28301
G1 X89.121 Y84.237 E8.31775
G1 X89.845 Y84.171 E8.35473
G1 X90.33 Y84.16 E8.3794
G1 X119.293 Y84.16 E9.85252
G1 X120.075 Y84.171 E9.8923
G1 X120.756 Y84.22 E9.92702
G1 X121.427 Y84.349 E9.96178
G1 X122.078 Y84.556 E9.99652
G1 X122.701 Y84.837 E10.03128
G1 X123.287 Y85.189 E10.06605
G1 X123.827 Y85.607 E10.10079
G1 X124.315 Y86.085 E10.13553
G1 X124.744 Y86.617 E10.17029
G1 X125.108 Y87.195 E10.20503
G1 X125.402 Y87.812 E10.23979
G1 X125.621 Y88.459 E10.27454
G1 X125.764 Y89.127 E10.30928
G1 X125.829 Y89.846 E10.346
G1 X125.84 Y90.33 E10.37062
G1 X125.84 Y119.336 E11.84593
G1 X125.831 Y120.063 E11.88291
G1 X125.782 Y120.745 E11.91769
G1 X125.654 Y121.416 E11.95243
G1 X125.449 Y122.068 E11.98719
G1 X125.169 Y122.691 E12.02193
G1 X124.819 Y123.277 E12.05665
G1 X124.402 Y123.819 E12.09143
G1 X123.925 Y124.308 E12.12618
G1 X123.394 Y124.737 E12.1609
G1 X122.816 Y125.102 E12.19567
G1 X122.2 Y125.397 E12.23041
G1 X121.553 Y125.618 E12.26518
G1 X120.885 Y125.762 E12.29994
G1 X120.155 Y125.829 E12.33722
G1 X119.67 Y125.84 E12.3619
G1 X90.632 Y125.84 E13.83883
G1 X89.934 Y125.831 E13.87433
G1 X89.252 Y125.782 E13.90911
G1 X88.581 Y125.654 E13.94385
G1 X87.93 Y125.448 E13.97858
G1 X87.306 Y125.168 E14.01337
G1 X86.72 Y124.817 E14.04811
G1 X86.179 Y124.4 E14.08286
G1 X85.69 Y123.922 E14.11764
G1 X85.261 Y123.391 E14.15236
G1 X84.896 Y122.813 E14.18713
G1 X84.602 Y122.197 E14.22184
G1 X84.381 Y121.55 E14.25662
G1 X84.237 Y120.882 E14.29137
G1 X84.171 Y120.149 E14.32881
G1 X84.16 Y119.658 E14.35379
G1 X84.161 Y90.595 E15.83199
G1 X84.17 Y89.93 E15.86582
G1 X84.219 Y89.249 E15.90054
G1 X84.347 Y88.577 E15.93534
G1 X84.553 Y87.926 E15.97007
G1 X84.834 Y87.303 E16.00483
G1 X85.185 Y86.717 E16.03957
G1 X85.603 Y86.176 E16.07434
G1 X86.08 Y85.688 E16.10905
M204 S3000
M205 X10 Y10
G0 F3000 X86.154 Y86.401
M204 S1800
M205 X8 Y8
G1 F2400 X86.626 Y85.955 E16.14208
G1 X87.149 Y85.571 E16.17508
G1 X87.716 Y85.253 E16.20815
G1 X88.317 Y85.007 E16.24118
G1 X88.944 Y84.837 E16.27422
G1 X89.861 Y84.731 E16.32117
G1 X90.33 Y84.72 E16.34503
G1 X119.293 Y84.72 E17.81815
G1 X120.067 Y84.731 E17.85752
G1 X120.714 Y84.78 E17.89052
G1 X121.351 Y84.908 E17.92357
G1 X121.967 Y85.114 E17.9566
G1 X122.554 Y85.394 E17.98968
G1 X123.101 Y85.743 E18.02268
G1 X123.602 Y86.157 E18.05574
G1 X124.047 Y86.63 E18.08877
G1 X124.432 Y87.154 E18.12184
G1 X124.749 Y87.721 E18.15488
G1 X124.994 Y88.322 E18.18789
G1 X125.163 Y88.949 E18.22092
G1 X125.269 Y89.862 E18.26767
G1 X125.28 Y90.33 E18.29148
G1 X125.28 Y119.329 E19.76643
G1 X125.271 Y120.056 E19.80341
G1 X125.223 Y120.704 E19.83646
G1 X125.095 Y121.341 E19.86951
G1 X124.891 Y121.958 E19.90256
G1 X124.612 Y122.545 E19.93562
G1 X124.264 Y123.093 E19.96863
G1 X123.851 Y123.594 E20.00166
G1 X123.379 Y124.041 E20.03472
G1 X122.856 Y124.426 E20.06775
G1 X122.29 Y124.744 E20.10077
G1 X121.688 Y124.991 E20.13387
G1 X121.062 Y125.161 E20.16686
G1 X120.139 Y125.269 E20.21413
G1 X119.67 Y125.28 E20.23799
G1 X90.639 Y125.28 E21.71456
G1 X89.941 Y125.271 E21.75007
G1 X89.293 Y125.222 E21.78312
G1 X88.656 Y125.095 E21.81616
G1 X88.04 Y124.89 E21.84918
G1 X87.453 Y124.611 E21.88224
G1 X86.905 Y124.262 E21.91528
G1 X86.404 Y123.849 E21.94831
G1 X85.957 Y123.377 E21.98137
G1 X85.572 Y122.854 E22.0144
G1 X85.254 Y122.287 E22.04746
G1 X85.008 Y121.686 E22.08049
G1 X84.838 Y121.059 E22.11354
G1 X84.731 Y120.134 E22.1609
G1 X84.72 Y119.658 E22.18511
G1 X84.72 Y90.603 E23.66291
G1 X84.729 Y89.938 E23.69674
G1 X84.778 Y89.29 E23.72979
G1 X84.906 Y88.653 E23.76284
G1 X85.111 Y88.036 E23.79591
G1 X85.391 Y87.45 E23.82894
G1 X85.74 Y86.902 E23.86198
G1 X86.154 Y86.401 E23.89504
M204 S3000
M205 X10 Y10
G1 F2400 E22.89504
;MESH:30 mm cube.stl
G0 F3000 X89.335 Y90.854
G0 X90.854 Y90.854
G0 X119.09 Y119.09
G0 X119.16 Y119.16
M204 S1800
M205 X8 Y8
;TYPE:WALL-INNER
G1 F2400 E23.89504
G1 F1500 X90.84 Y119.16 E25.33545
G1 X90.84 Y90.84 E26.77587
G1 X119.16 Y90.84 E28.21628
G1 X119.16 Y119.16 E29.65669
M204 S3000
M205 X10 Y10
G0 F3000 X119.72 Y119.72
M204 S1800
M205 X8 Y8
;TYPE:WALL-OUTER
G1 F1500 X90.28 Y119.72 E31.15407
G1 X90.28 Y90.28 E32.65145
G1 X119.72 Y90.28 E34.14883
G1 X119.72 Y119.72 E35.64621
M204 S3000
M205 X10 Y10
G0 F3000 X119.52 Y119.72
G0 X119.09 Y119.09
G0 X118.61 Y118.61
M204 S1800
M205 X8 Y8
;TYPE:SKIN
G1 F1500 X91.39 Y118.61 E37.03068
G1 X91.39 Y91.39 E38.41514
G1 X118.61 Y91.39 E39.79961
G1 X118.61 Y118.61 E41.18407
M204 S3000
M205 X10 Y10
G0 F3000 X118.05 Y118.05
M204 S1800
M205 X8 Y8
G1 F1500 X91.95 Y118.05 E42.51157
G1 X91.95 Y91.95 E43.83907
G1 X118.05 Y91.95 E45.16657
G1 X118.05 Y118.05 E46.49407
M204 S3000
M205 X10 Y10
G0 F3000 X117.49 Y117.49
M204 S1800
M205 X8 Y8
G1 F1500 X92.51 Y117.49 E47.76461
G1 X92.51 Y92.51 E49.03514
G1 X117.49 Y92.51 E50.30568
G1 X117.49 Y117.49 E51.57621
M204 S3000
M205 X10 Y10
G0 F3000 X117.229 Y93.471
M204 S1800
M205 X8 Y8
G1 F1500 X116.529 Y92.77 E51.6266
M204 S3000
M205 X10 Y10
G0 F3000 X115.737 Y92.77
M204 S1800
M205 X8 Y8
G1 F1500 X117.229 Y94.262 E51.73392
M204 S3000
M205 X10 Y10
G0 F3000 X117.229 Y95.054
M204 S1800
M205 X8 Y8
G1 F1500 X114.945 Y92.77 E51.8982
M204 S3000
M205 X10 Y10
G0 F3000 X114.153 Y92.77
M204 S1800
M205 X8 Y8
G1 F1500 X117.229 Y95.846 E52.11946
M204 S3000
M205 X10 Y10
G0 F3000 X117.229 Y96.638
M204 S1800
M205 X8 Y8
G1 F1500 X113.361 Y92.77 E52.39768
M204 S3000
M205 X10 Y10
G0 F3000 X112.569 Y92.77
M204 S1800
M205 X8 Y8
G1 F1500 X117.229 Y97.43 E52.73288
M204 S3000
M205 X10 Y10
G0 F3000 X117.229 Y98.222
M204 S1800
M205 X8 Y8
G1 F1500 X111.777 Y92.77 E53.12504
M204 S3000
M205 X10 Y10
G0 F3000 X110.985 Y92.77
M204 S1800
M205 X8 Y8
G1 F1500 X117.229 Y99.014 E53.57417
M204 S3000
M205 X10 Y10
G0 F3000 X117.229 Y99.806
M204 S1800
M205 X8 Y8
G1 F1500 X110.193 Y92.77 E54.08027
M204 S3000
M205 X10 Y10
G0 F3000 X109.401 Y92.77
M204 S1800
M205 X8 Y8
G1 F1500 X117.229 Y100.598 E54.64333
M204 S3000
M205 X10 Y10
G0 F3000 X117.229 Y101.39
M204 S1800
M205 X8 Y8
G1 F1500 X108.609 Y92.77 E55.26337
M204 S3000
M205 X10 Y10
G0 F3000 X107.817 Y92.77
M204 S1800
M205 X8 Y8
G1 F1500 X117.229 Y102.182 E55.94037
M204 S3000
M205 X10 Y10
G0 F3000 X117.229 Y102.974
M204 S1800
M205 X8 Y8
G1 F1500 X107.025 Y92.77 E56.67434
M204 S3000
M205 X10 Y10
G0 F3000 X106.233 Y92.77
M204 S1800
M205 X8 Y8
G1 F1500 X117.229 Y103.766 E57.46528
M204 S3000
M205 X10 Y10
G0 F3000 X117.229 Y104.558
M204 S1800
M205 X8 Y8
G1 F1500 X105.441 Y92.77 E58.31319
M204 S3000
M205 X10 Y10
G0 F3000 X104.649 Y92.77
M204 S1800
M205 X8 Y8
G1 F1500 X117.229 Y105.35 E59.21807
M204 S3000
M205 X10 Y10
G0 F3000 X117.229 Y106.142
M204 S1800
M205 X8 Y8
G1 F1500 X103.857 Y92.77 E60.17992
M204 S3000
M205 X10 Y10
G0 F3000 X103.065 Y92.77
M204 S1800
M205 X8 Y8
G1 F1500 X117.229 Y106.934 E61.19873
M204 S3000
M205 X10 Y10
G0 F3000 X117.229 Y107.726
M204 S1800
M205 X8 Y8
G1 F1500 X102.273 Y92.77 E62.27451
M204 S3000
M205 X10 Y10
G0 F3000 X101.481 Y92.77
M204 S1800
M205 X8 Y8
G1 F1500 X117.229 Y108.518 E63.40726
M204 S3000
M205 X10 Y10
G0 F3000 X117.229 Y109.31
M204 S1800
M205 X8 Y8
G1 F1500 X100.689 Y92.77 E64.59698
M204 S3000
M205 X10 Y10
G0 F3000 X99.897 Y92.77
M204 S1800
M205 X8 Y8
G1 F1500 X117.229 Y110.102 E65.84367
M204 S3000
M205 X10 Y10
G0 F3000 X117.229 Y110.894
M204 S1800
M205 X8 Y8
G1 F1500 X99.105 Y92.77 E67.14733
M204 S3000
M205 X10 Y10
G0 F3000 X98.314 Y92.77
M204 S1800
M205 X8 Y8
G1 F1500 X117.229 Y111.686 E68.50791
M204 S3000
M205 X10 Y10
G0 F3000 X117.229 Y112.478
M204 S1800
M205 X8 Y8
G1 F1500 X97.522 Y92.77 E69.92547
M204 S3000
M205 X10 Y10
G0 F3000 X96.73 Y92.77
M204 S1800
M205 X8 Y8
G1 F1500 X117.229 Y113.27 E71.4
M204 S3000
M205 X10 Y10
G0 F3000 X117.229 Y114.061
M204 S1800
M205 X8 Y8
G1 F1500 X95.938 Y92.77 E72.93145
M204 S3000
M205 X10 Y10
G0 F3000 X95.146 Y92.77
M204 S1800
M205 X8 Y8
G1 F1500 X117.229 Y114.853 E74.51988
M204 S3000
M205 X10 Y10
G0 F3000 X117.229 Y115.645
M204 S1800
M205 X8 Y8
G1 F1500 X94.354 Y92.77 E76.16528
M204 S3000
M205 X10 Y10
G0 F3000 X93.562 Y92.77
M204 S1800
M205 X8 Y8
G1 F1500 X117.229 Y116.437 E77.86764
M204 S3000
M205 X10 Y10
G0 F3000 X117.229 Y117.229
M204 S1800
M205 X8 Y8
G1 F1500 X92.769 Y92.769 E79.62704
M204 S3000
M205 X10 Y10
G0 F3000 X92.769 Y93.561
M204 S1800
M205 X8 Y8
G1 F1500 X116.437 Y117.229 E81.32948
M204 S3000
M205 X10 Y10
G0 F3000 X115.645 Y117.229
M204 S1800
M205 X8 Y8
G1 F1500 X92.769 Y94.353 E82.97494
M204 S3000
M205 X10 Y10
G0 F3000 X92.769 Y95.145
M204 S1800
M205 X8 Y8
G1 F1500 X114.853 Y117.229 E84.56344
M204 S3000
M205 X10 Y10
G0 F3000 X114.061 Y117.229
M204 S1800
M205 X8 Y8
G1 F1500 X92.769 Y95.937 E86.09497
M204 S3000
M205 X10 Y10
G0 F3000 X92.769 Y96.729
M204 S1800
M205 X8 Y8
G1 F1500 X113.269 Y117.229 E87.56953
M204 S3000
M205 X10 Y10
G0 F3000 X112.477 Y117.229
M204 S1800
M205 X8 Y8
G1 F1500 X92.769 Y97.521 E88.98713
M204 S3000
M205 X10 Y10
G0 F3000 X92.769 Y98.313
M204 S1800
M205 X8 Y8
G1 F1500 X111.685 Y117.229 E90.34775
M204 S3000
M205 X10 Y10
G0 F3000 X110.893 Y117.229
M204 S1800
M205 X8 Y8
G1 F1500 X92.769 Y99.105 E91.65141
M204 S3000
M205 X10 Y10
G0 F3000 X92.769 Y99.897
M204 S1800
M205 X8 Y8
G1 F1500 X110.101 Y117.229 E92.89809
M204 S3000
M205 X10 Y10
G0 F3000 X109.309 Y117.229
M204 S1800
M205 X8 Y8
G1 F1500 X92.769 Y100.689 E94.08781
M204 S3000
M205 X10 Y10
G0 F3000 X92.769 Y101.481
M204 S1800
M205 X8 Y8
G1 F1500 X108.517 Y117.229 E95.22056
M204 S3000
M205 X10 Y10
G0 F3000 X107.725 Y117.229
M204 S1800
M205 X8 Y8
G1 F1500 X92.769 Y102.273 E96.29635
M204 S3000
M205 X10 Y10
G0 F3000 X92.769 Y103.065
M204 S1800
M205 X8 Y8
G1 F1500 X106.933 Y117.229 E97.31516
M204 S3000
M205 X10 Y10
G0 F3000 X106.141 Y117.229
M204 S1800
M205 X8 Y8
G1 F1500 X92.769 Y103.857 E98.27701
M204 S3000
M205 X10 Y10
G0 F3000 X92.769 Y104.648
M204 S1800
M205 X8 Y8
G1 F1500 X105.349 Y117.229 E99.18192
M204 S3000
M205 X10 Y10
G0 F3000 X104.557 Y117.229
M204 S1800
M205 X8 Y8
G1 F1500 X92.769 Y105.44 E100.02986
M204 S3000
M205 X10 Y10
G0 F3000 X92.769 Y106.232
M204 S1800
M205 X8 Y8
G1 F1500 X103.765 Y117.229 E100.82084
M204 S3000
M205 X10 Y10
G0 F3000 X102.973 Y117.229
M204 S1800
M205 X8 Y8
G1 F1500 X92.769 Y107.024 E101.55485
M204 S3000
M205 X10 Y10
G0 F3000 X92.769 Y107.816
M204 S1800
M205 X8 Y8
G1 F1500 X102.181 Y117.229 E102.23189
M204 S3000
M205 X10 Y10
G0 F3000 X101.389 Y117.229
M204 S1800
M205 X8 Y8
G1 F1500 X92.769 Y108.608 E102.85196
M204 S3000
M205 X10 Y10
G0 F3000 X92.769 Y109.4
M204 S1800
M205 X8 Y8
G1 F1500 X100.597 Y117.229 E103.41506
M204 S3000
M205 X10 Y10
G0 F3000 X99.806 Y117.229
M204 S1800
M205 X8 Y8
G1 F1500 X92.769 Y110.192 E103.92123
M204 S3000
M205 X10 Y10
G0 F3000 X92.769 Y110.984
M204 S1800
M205 X8 Y8
G1 F1500 X99.014 Y117.229 E104.37043
M204 S3000
M205 X10 Y10
G0 F3000 X98.222 Y117.229
M204 S1800
M205 X8 Y8
G1 F1500 X92.769 Y111.776 E104.76267
M204 S3000
M205 X10 Y10
G0 F3000 X92.769 Y112.568
M204 S1800
M205 X8 Y8
G1 F1500 X97.43 Y117.229 E105.09793
M204 S3000
M205 X10 Y10
G0 F3000 X96.638 Y117.229
M204 S1800
M205 X8 Y8
G1 F1500 X92.769 Y113.36 E105.37623
M204 S3000
M205 X10 Y10
G0 F3000 X92.769 Y114.152
M204 S1800
M205 X8 Y8
G1 F1500 X95.846 Y117.229 E105.59755
M204 S3000
M205 X10 Y10
G0 F3000 X95.054 Y117.229
M204 S1800
M205 X8 Y8
G1 F1500 X92.769 Y114.944 E105.76191
M204 S3000
M205 X10 Y10
G0 F3000 X92.769 Y115.736
M204 S1800
M205 X8 Y8
G1 F1500 X94.262 Y117.229 E105.86931
M204 S3000
M205 X10 Y10
G0 F3000 X93.47 Y117.229
M204 S1800
M205 X8 Y8
G1 F1500 X92.769 Y116.528 E105.91973
M204 S3000
M205 X10 Y10
;MESH:NONMESH
G0 F600 X92.769 Y116.528 Z0.4
G0 F3000 X119.09 Y119.09
G0 X119.4 Y119.4
;TIME_ELAPSED:84.852105
;LAYER:1
M106 S127.5
M204 S1800
M205 X8 Y8
;TYPE:WALL-INNER
;MESH:30 mm cube.stl
G1 F2250 X90.6 Y119.4 E106.96603
G1 X90.6 Y90.6 E108.01234
G1 X119.4 Y90.6 E109.05864
G1 X119.4 Y119.4 E110.10495
M204 S3000
M205 X10 Y10
G0 F4500 X119.8 Y119.8
M204 S1800
M205 X8 Y8
;TYPE:WALL-OUTER
G1 F2250 X90.2 Y119.8 E111.18032
G1 X90.2 Y90.2 E112.25569
G1 X119.8 Y90.2 E113.33106
G1 X119.8 Y119.8 E114.40643
M204 S3000
M205 X10 Y10
G0 F4500 X119.6 Y119.8
G0 X119.01 Y119.01
M204 S1800
M205 X8 Y8
;TYPE:SKIN
G1 F1350 X90.99 Y119.01 E115.4244
G1 X90.99 Y90.99 E116.44236
G1 X119.01 Y90.99 E117.46033
G1 X119.01 Y119.01 E118.4783
M204 S3000
M205 X10 Y10
G0 F4500 X118.61 Y118.61
M204 S1800
M205 X8 Y8
G1 F1350 X91.39 Y118.61 E119.4672
G1 X91.39 Y91.39 E120.45611
G1 X118.61 Y91.39 E121.44501
G1 X118.61 Y118.61 E122.43391
M204 S3000
M205 X10 Y10
G0 F4500 X118.21 Y118.21
M204 S1800
M205 X8 Y8
G1 F1350 X91.79 Y118.21 E123.39375
G1 X91.79 Y91.79 E124.35359
G1 X118.21 Y91.79 E125.31343
G1 X118.21 Y118.21 E126.27327
M204 S3000
M205 X10 Y10
G0 F4500 X117.861 Y118.029
M204 S1800
M205 X8 Y8
G1 F1350 X118.029 Y117.861 E126.2819
M204 S3000
M205 X10 Y10
G0 F4500 X118.029 Y117.295
M204 S1800
M205 X8 Y8
G1 F1350 X117.295 Y118.029 E126.31962
M204 S3000
M205 X10 Y10
G0 F4500 X116.729 Y118.029
M204 S1800
M205 X8 Y8
G1 F1350 X118.029 Y116.729 E126.38641
M204 S3000
M205 X10 Y10
G0 F4500 X118.029 Y116.164
M204 S1800
M205 X8 Y8
G1 F1350 X116.164 Y118.029 E126.48223
M204 S3000
M205 X10 Y10
G0 F4500 X115.598 Y118.029
M204 S1800
M205 X8 Y8
G1 F1350 X118.029 Y115.598 E126.60713
M204 S3000
M205 X10 Y10
G0 F4500 X118.029 Y115.032
M204 S1800
M205 X8 Y8
G1 F1350 X115.032 Y118.029 E126.76111
M204 S3000
M205 X10 Y10
G0 F4500 X114.467 Y118.029
M204 S1800
