;FLAVOR:Marlin
;TIME:2549
;Filament used: 2.31m
;Layer height: 0.2
;MINX:61.446
;MINY:91.198
;MINZ:0.24
;MAXX:128.8
;MAXY:149.722
;MAXZ:9.65
;Generated with Cura_SteamEngine 4.6.1
M140 S60
M105
M190 S60
M104 S200
M105
M109 S200
M82 ;absolute extrusion mode
G28
G29
M501
G92 E0 ;zero the extruded length
G1 F200 E3 ;extrude 3mm of feed stock
G92 E0 ;zero the extruded length again
G1 F120
M117 Printing...
G5
G92 E0
G92 E0
G1 F2400 E-6
;LAYER_COUNT:43
;LAYER:-6
M107
M204 S5000
M205 X30 Y30
G0 F7200 X68.493 Y95.189 Z0.24
M204 S1800
M205 X8 Y8
;TYPE:SUPPORT-INTERFACE
G1 F2400 E0
G1 F1125 X69.232 Y94.656 E0.07273
G1 X69.482 Y94.489 E0.09673
G1 X70.195 Y94.045 E0.16378
G1 X70.506 Y93.867 E0.19238
G1 X71.278 Y93.459 E0.26208
G1 X71.547 Y93.329 E0.28593
G1 X72.352 Y92.97 E0.35629
G1 X72.643 Y92.852 E0.38136
G1 X73.481 Y92.547 E0.45254
G1 X73.795 Y92.447 E0.47885
G1 X74.612 Y92.211 E0.54673
G1 X74.904 Y92.136 E0.5708
G1 X75.762 Y91.952 E0.64084
G1 X76.122 Y91.889 E0.67002
G1 X76.957 Y91.768 E0.73737
G1 X77.251 Y91.735 E0.76098
G1 X78.11 Y91.669 E0.82975
G1 X78.451 Y91.656 E0.85699
G1 X79.339 Y91.65 E0.92788
G1 X79.65 Y91.66 E0.95272
G1 X80.506 Y91.713 E1.02118
G1 X80.838 Y91.745 E1.0478
G1 X81.687 Y91.856 E1.11615
G1 X81.987 Y91.906 E1.14043
G1 X82.838 Y92.076 E1.2097
G1 X83.154 Y92.152 E1.23564
G1 X84.025 Y92.391 E1.30774
G1 X84.301 Y92.477 E1.33082
G1 X85.107 Y92.757 E1.39893
G1 X85.417 Y92.877 E1.42546
G1 X86.226 Y93.222 E1.49567
G1 X86.509 Y93.355 E1.52063
G1 X87.302 Y93.762 E1.59178
G1 X87.601 Y93.931 E1.6192
G1 X88.335 Y94.373 E1.68759
G1 X88.925 Y94.688 E1.74098
G1 X89.564 Y94.931 E1.79555
G1 X90.228 Y95.091 E1.85007
G1 X90.906 Y95.165 E1.90451
G1 X91.589 Y95.155 E1.95904
G1 X92.265 Y95.057 E2.01356
G1 X92.923 Y94.876 E2.06804
G1 X93.559 Y94.61 E2.12307
G1 X94.373 Y94.111 E2.19928
G1 X94.706 Y93.871 E2.23205
G1 X95.212 Y93.531 E2.28071
G1 X95.499 Y93.354 E2.30763
G1 X96.003 Y93.062 E2.35412
G1 X96.337 Y92.886 E2.38426
G1 X96.907 Y92.611 E2.43478
G1 X97.206 Y92.481 E2.4608
G1 X97.763 Y92.258 E2.5087
G1 X98.081 Y92.144 E2.53566
G1 X98.681 Y91.952 E2.58595
G1 X98.97 Y91.87 E2.60993
G1 X99.547 Y91.727 E2.65738
G1 X99.91 Y91.652 E2.68697
G1 X100.501 Y91.548 E2.73487
G1 X100.853 Y91.501 E2.76322
G1 X101.434 Y91.44 E2.80985
G1 X101.763 Y91.418 E2.83617
G1 X102.383 Y91.397 E2.88569
G1 X102.71 Y91.398 E2.91179
G1 X103.322 Y91.42 E2.96068
G1 X103.709 Y91.45 E2.99166
G1 X104.275 Y91.51 E3.0371
G1 X104.596 Y91.555 E3.06297
G1 X105.222 Y91.666 E3.11372
G1 X105.566 Y91.741 E3.14182
G1 X106.136 Y91.885 E3.18875
G1 X106.457 Y91.977 E3.21541
G1 X107.075 Y92.18 E3.26733
G1 X107.385 Y92.295 E3.29373
G1 X107.935 Y92.519 E3.34113
G1 X108.263 Y92.666 E3.36982
G1 X108.78 Y92.92 E3.4158
G1 X109.112 Y93.099 E3.44591
G1 X109.639 Y93.406 E3.4946
G1 X109.86 Y93.544 E3.5154
G1 X110.394 Y93.903 E3.56676
G1 X110.684 Y94.114 E3.59539
G1 X111.175 Y94.501 E3.64529
G1 X111.4 Y94.69 E3.66875
G1 X111.883 Y95.125 E3.72063
G1 X112.125 Y95.36 E3.74756
G1 X112.542 Y95.793 E3.79555
G1 X112.772 Y96.05 E3.82308
G1 X113.19 Y96.552 E3.87522
G1 X113.381 Y96.8 E3.90021
G1 X113.72 Y97.27 E3.94647
G1 X113.918 Y97.566 E3.9749
G1 X114.245 Y98.09 E4.0242
G1 X114.405 Y98.369 E4.04987
G1 X114.694 Y98.915 E4.09919
G1 X114.837 Y99.212 E4.1255
G1 X115.084 Y99.769 E4.17414
G1 X115.213 Y100.09 E4.20175
G1 X115.419 Y100.658 E4.24998
G1 X115.512 Y100.944 E4.27399
G1 X115.685 Y101.548 E4.32414
G1 X115.762 Y101.856 E4.34948
G1 X115.902 Y102.517 E4.40342
G1 X115.959 Y102.85 E4.43039
G1 X116.045 Y103.483 E4.48138
G1 X116.07 Y103.723 E4.50064
G1 X116.11 Y104.268 E4.54426
G1 X116.143 Y104.862 E4.59175
G1 X116.16 Y104.86 E4.59312
G1 X116.282 Y105.496 E4.64481
G1 X116.495 Y106.145 E4.69934
G1 X116.787 Y106.762 E4.75382
G1 X117.155 Y107.337 E4.80832
G1 X117.593 Y107.861 E4.86283
G1 X118.093 Y108.325 E4.91728
G1 X118.649 Y108.724 E4.97191
G1 X119.246 Y109.046 E5.02606
G1 X119.677 Y109.223 E5.06325
G1 X119.823 Y109.276 E5.07565
G1 X120.418 Y109.518 E5.12692
G1 X120.722 Y109.656 E5.15357
G1 X121.26 Y109.919 E5.20137
G1 X121.565 Y110.083 E5.22902
G1 X122.092 Y110.388 E5.27762
G1 X122.397 Y110.581 E5.30643
G1 X122.873 Y110.903 E5.35231
G1 X123.157 Y111.109 E5.38031
G1 X123.636 Y111.485 E5.42892
G1 X123.895 Y111.704 E5.456
G1 X124.596 Y112.353 E5.53225
G1 X125.025 Y112.799 E5.58165
G1 X125.242 Y113.042 E5.60766
G1 X125.627 Y113.502 E5.65554
G1 X125.823 Y113.755 E5.68109
G1 X126.193 Y114.266 E5.73145
G1 X126.391 Y114.562 E5.75987
G1 X126.72 Y115.088 E5.8094
G1 X126.874 Y115.358 E5.83421
G1 X127.183 Y115.943 E5.88702
G1 X127.323 Y116.235 E5.91287
G1 X127.563 Y116.776 E5.96011
G1 X127.684 Y117.076 E5.98594
G1 X127.894 Y117.658 E6.03532
G1 X127.986 Y117.939 E6.05893
G1 X128.166 Y118.571 E6.11138
G1 X128.24 Y118.867 E6.13574
G1 X128.365 Y119.456 E6.1838
G1 X128.423 Y119.782 E6.21023
G1 X128.513 Y120.425 E6.26206
G1 X128.549 Y120.784 E6.29086
G1 X128.59 Y121.367 E6.33751
G1 X128.601 Y121.69 E6.36331
G1 X128.601 Y122.289 E6.41113
G1 X128.586 Y122.68 E6.44236
G1 X128.541 Y123.295 E6.49158
G1 X128.506 Y123.623 E6.51791
G1 X128.427 Y124.182 E6.56298
G1 X128.372 Y124.499 E6.58866
G1 X128.235 Y125.145 E6.64138
G1 X128.147 Y125.492 E6.66995
G1 X127.993 Y126.032 E6.71478
G1 X127.874 Y126.392 E6.74504
G1 X127.658 Y126.981 E6.79512
G1 X127.554 Y127.24 E6.8174
G1 X127.275 Y127.862 E6.87182
G1 X127.158 Y128.1 E6.89299
G1 X126.875 Y128.635 E6.9413
G1 X126.673 Y128.982 E6.97335
G1 X126.373 Y129.461 E7.01846
G1 X126.191 Y129.731 E7.04446
G1 X125.845 Y130.209 E7.09156
G1 X125.578 Y130.548 E7.12601
G1 X125.195 Y131.002 E7.17342
G1 X124.965 Y131.254 E7.20065
G1 X124.549 Y131.684 E7.24841
G1 X124.328 Y131.899 E7.27302
G1 X123.834 Y132.342 E7.32599
G1 X123.597 Y132.539 E7.35059
G1 X123.099 Y132.927 E7.40098
G1 X122.837 Y133.116 E7.42677
G1 X122.311 Y133.468 E7.47729
G1 X122.02 Y133.647 E7.50457
G1 X121.508 Y133.942 E7.55173
G1 X121.219 Y134.095 E7.57784
G1 X120.667 Y134.364 E7.62685
G1 X120.312 Y134.518 E7.65774
G1 X119.781 Y134.731 E7.70341
G1 X119.436 Y134.855 E7.73268
G1 X118.855 Y135.041 E7.78137
G1 X118.547 Y135.128 E7.80692
G1 X117.981 Y135.268 E7.85346
G1 X117.658 Y135.337 E7.87983
G1 X117.015 Y135.449 E7.93193
G1 X116.687 Y135.494 E7.95836
G1 X116.093 Y135.556 E8.00603
G1 X115.764 Y135.578 E8.03235
G1 X115.144 Y135.599 E8.08187
G1 X114.827 Y135.598 E8.10717
G1 X114.391 Y135.583 E8.142
G1 X113.721 Y135.601 E8.1955
G1 X113.046 Y135.706 E8.25003
G1 X112.39 Y135.895 E8.30452
G1 X111.762 Y136.165 E8.35909
G1 X111.175 Y136.512 E8.41352
G1 X110.635 Y136.93 E8.46803
G1 X110.153 Y137.414 E8.52256
G1 X109.735 Y137.954 E8.57707
G1 X109.392 Y138.538 E8.63113
G1 X109.047 Y139.307 E8.69841
G1 X108.684 Y140.065 E8.7655
G1 X108.522 Y140.374 E8.79335
G1 X108.096 Y141.123 E8.86213
G1 X107.932 Y141.389 E8.88707
G1 X107.456 Y142.109 E8.95597
G1 X107.259 Y142.382 E8.98285
G1 X106.743 Y143.059 E9.05079
G1 X106.533 Y143.316 E9.07729
G1 X105.95 Y143.975 E9.14752
G1 X105.764 Y144.172 E9.16915
G1 X105.152 Y144.782 E9.23812
G1 X104.881 Y145.032 E9.26756
G1 X104.213 Y145.607 E9.33791
G1 X103.957 Y145.811 E9.36404
G1 X103.281 Y146.318 E9.43149
G1 X103.008 Y146.507 E9.458
G1 X102.255 Y146.992 E9.52949
G1 X101.994 Y147.148 E9.55377
G1 X101.234 Y147.568 E9.62308
G1 X100.945 Y147.715 E9.64896
G1 X100.182 Y148.071 E9.71617
G1 X99.9 Y148.192 E9.74067
G1 X99.09 Y148.506 E9.81001
G1 X98.769 Y148.617 E9.83713
G1 X97.934 Y148.875 E9.90689
G1 X97.575 Y148.97 E9.93653
G1 X96.749 Y149.163 E10.00424
G1 X96.457 Y149.221 E10.02801
G1 X95.615 Y149.36 E10.09613
G1 X95.256 Y149.404 E10.125
G1 X94.415 Y149.484 E10.19243
G1 X94.032 Y149.504 E10.22305
G1 X93.185 Y149.524 E10.29068
G1 X92.893 Y149.52 E10.31399
G1 X92.038 Y149.483 E10.3823
G1 X91.678 Y149.453 E10.41114
G1 X90.845 Y149.359 E10.47806
G1 X90.554 Y149.317 E10.50153
G1 X89.651 Y149.15 E10.57483
G1 X89.357 Y149.085 E10.59886
G1 X88.527 Y148.875 E10.66721
G1 X88.213 Y148.783 E10.69332
G1 X87.381 Y148.507 E10.7633
G1 X87.041 Y148.381 E10.79224
G1 X86.257 Y148.06 E10.85987
G1 X85.965 Y147.929 E10.88541
G1 X85.195 Y147.552 E10.95385
G1 X84.893 Y147.389 E10.98124
G1 X84.174 Y146.973 E11.04755
G1 X83.85 Y146.768 E11.07816
G1 X83.139 Y146.288 E11.14663
G1 X82.892 Y146.107 E11.17108
G1 X82.253 Y145.61 E11.2357
G1 X81.981 Y145.384 E11.26393
G1 X81.315 Y144.786 E11.33538
G1 X81.084 Y144.563 E11.36101
G1 X80.462 Y143.923 E11.43225
G1 X80.275 Y143.714 E11.45463
G1 X79.69 Y143.023 E11.5269
G1 X79.51 Y142.793 E11.55022
G1 X79.004 Y142.109 E11.61813
G1 X78.794 Y141.798 E11.64809
G1 X78.34 Y141.083 E11.7157
G1 X78.161 Y140.776 E11.74406
G1 X77.764 Y140.044 E11.81053
G1 X77.614 Y139.738 E11.83774
G1 X77.261 Y138.962 E11.90579
G1 X77.143 Y138.679 E11.93026
G1 X76.845 Y137.89 E11.99759
G1 X76.734 Y137.56 E12.02538
G1 X76.476 Y136.695 E12.09744
G1 X76.394 Y136.378 E12.12357
G1 X76.204 Y135.523 E12.19349
G1 X76.15 Y135.233 E12.21703
G1 X76.015 Y134.356 E12.28786
G1 X75.981 Y134.07 E12.31085
G1 X75.909 Y133.231 E12.37807
G1 X75.892 Y132.85 E12.40852
G1 X75.878 Y131.987 E12.47741
G1 X75.884 Y131.686 E12.50145
G1 X75.931 Y130.791 E12.57299
G1 X75.95 Y130.589 E12.58918
G1 X75.965 Y129.918 E12.64276
G1 X75.896 Y129.239 E12.69724
G1 X75.741 Y128.575 E12.75167
G1 X75.504 Y127.934 E12.80622
G1 X75.188 Y127.329 E12.8607
G1 X74.797 Y126.769 E12.91522
G1 X74.34 Y126.262 E12.96971
G1 X73.821 Y125.817 E13.02428
G1 X73.25 Y125.441 E13.07886
G1 X72.613 Y125.13 E13.13544
G1 X72.041 Y124.897 E13.18474
G1 X71.717 Y124.75 E13.21314
G1 X70.929 Y124.362 E13.28326
G1 X70.665 Y124.219 E13.30722
G1 X69.916 Y123.785 E13.37632
G1 X69.66 Y123.624 E13.40046
G1 X68.902 Y123.112 E13.47348
G1 X68.652 Y122.928 E13.49826
G1 X68.003 Y122.423 E13.5639
G1 X67.76 Y122.221 E13.58912
G1 X67.091 Y121.623 E13.66075
G1 X66.851 Y121.39 E13.68745
G1 X66.23 Y120.75 E13.75864
G1 X66.027 Y120.523 E13.78295
G1 X65.48 Y119.878 E13.85045
G1 X65.264 Y119.603 E13.87837
G1 X64.742 Y118.892 E13.94878
G1 X64.568 Y118.637 E13.97342
G1 X64.12 Y117.932 E14.0401
G1 X63.949 Y117.64 E14.06711
G1 X63.519 Y116.845 E14.13926
G1 X63.391 Y116.586 E14.16232
G1 X63.016 Y115.76 E14.23473
G1 X62.912 Y115.508 E14.25649
G1 X62.61 Y114.705 E14.32497
G1 X62.51 Y114.411 E14.34976
G1 X62.245 Y113.524 E14.42366
G1 X62.163 Y113.206 E14.44987
G1 X61.973 Y112.354 E14.51955
G1 X61.915 Y112.036 E14.54536
G1 X61.784 Y111.186 E14.61401
G1 X61.751 Y110.908 E14.63636
G1 X61.678 Y110.06 E14.7043
G1 X61.661 Y109.679 E14.73474
G1 X61.647 Y108.816 E14.80364
G1 X61.653 Y108.515 E14.82767
G1 X61.701 Y107.612 E14.89985
G1 X61.733 Y107.268 E14.92743
G1 X61.838 Y106.421 E14.99556
G1 X61.891 Y106.1 E15.02153
G1 X62.043 Y105.304 E15.08622
G1 X62.13 Y104.932 E15.11671
G1 X62.339 Y104.141 E15.18202
G1 X62.439 Y103.812 E15.20947
G1 X62.732 Y102.957 E15.28162
G1 X62.815 Y102.734 E15.30061
G1 X63.166 Y101.893 E15.37336
G1 X63.309 Y101.587 E15.40032
G1 X63.689 Y100.829 E15.468
G1 X63.865 Y100.512 E15.49694
G1 X64.293 Y99.787 E15.56415
G1 X64.468 Y99.513 E15.5901
G1 X64.954 Y98.807 E15.65852
G1 X65.166 Y98.524 E15.68675
G1 X65.686 Y97.869 E15.7535
G1 X65.907 Y97.61 E15.78068
G1 X66.466 Y96.996 E15.84696
G1 X66.701 Y96.755 E15.87383
G1 X67.302 Y96.18 E15.94023
G1 X67.603 Y95.915 E15.97224
G1 X68.248 Y95.378 E16.03924
G1 X68.493 Y95.189 E16.06394
M204 S5000
M205 X30 Y30
G0 F7200 X68.8 Y94.967
M204 S1800
M205 X8 Y8
G1 F1125 X68.8 Y123.036 E18.30452
M204 S5000
M205 X30 Y30
G0 F7200 X70.4 Y124.065
M204 S1800
M205 X8 Y8
G1 F1125 X70.4 Y93.927 E20.71027
M204 S5000
M205 X30 Y30
G0 F7200 X72 Y93.126
M204 S1800
M205 X8 Y8
G1 F1125 X72 Y124.878 E23.24485
M204 S5000
M205 X30 Y30
G0 F7200 X73.6 Y125.671
M204 S1800
M205 X8 Y8
G1 F1125 X73.6 Y92.509 E25.89199
M204 S5000
M205 X30 Y30
G0 F7200 X75.2 Y92.072
M204 S1800
M205 X8 Y8
G1 F1125 X75.2 Y127.351 E28.70811
M204 S5000
M205 X30 Y30
G0 F7200 X67.2 Y121.72
M204 S1800
M205 X8 Y8
G1 F1125 X67.2 Y96.277 E30.73908
M204 S5000
M205 X30 Y30
G0 F7200 X65.6 Y97.977
M204 S1800
M205 X8 Y8
G1 F1125 X65.6 Y120.019 E32.49857
M204 S5000
M205 X30 Y30
G0 F7200 X64 Y117.727
M204 S1800
M205 X8 Y8
G1 F1125 X64 Y100.283 E33.89102
M204 S5000
M205 X30 Y30
G0 F7200 X62.4 Y103.94
M204 S1800
M205 X8 Y8
G1 F1125 X62.4 Y114.042 E34.69741
M204 S5000
M205 X30 Y30
G0 F7200 X76.8 Y91.79
M204 S1800
M205 X8 Y8
G1 F1125 X76.8 Y137.756 E38.36661
M204 S5000
M205 X30 Y30
G0 F7200 X78.4 Y141.177
M204 S1800
M205 X8 Y8
G1 F1125 X78.4 Y91.657 E42.31951
M204 S5000
M205 X30 Y30
G0 F7200 X80 Y91.682
M204 S1800
M205 X8 Y8
G1 F1125 X80 Y143.389 E46.44699
M204 S5000
M205 X30 Y30
G0 F7200 X81.6 Y145.041
M204 S1800
M205 X8 Y8
G1 F1125 X81.6 Y91.845 E50.69332
M204 S5000
M205 X30 Y30
G0 F7200 X83.2 Y92.165
M204 S1800
M205 X8 Y8
G1 F1125 X83.2 Y146.329 E55.01693
M204 S5000
M205 X30 Y30
G0 F7200 X84.8 Y147.335
M204 S1800
M205 X8 Y8
G1 F1125 X84.8 Y92.651 E59.38204
M204 S5000
M205 X30 Y30
G0 F7200 X86.4 Y93.304
M204 S1800
M205 X8 Y8
G1 F1125 X86.4 Y148.118 E63.75753
M204 S5000
M205 X30 Y30
G0 F7200 X88 Y148.712
M204 S1800
M205 X8 Y8
G1 F1125 X88 Y94.172 E68.11115
M204 S5000
M205 X30 Y30
G0 F7200 X89.6 Y94.94
M204 S1800
M205 X8 Y8
G1 F1125 X89.6 Y149.138 E72.43747
M204 S5000
M205 X30 Y30
G0 F7200 X91.2 Y149.399
M204 S1800
M205 X8 Y8
G1 F1125 X91.2 Y95.16 E76.76706
M204 S5000
M205 X30 Y30
G0 F7200 X92.8 Y94.909
M204 S1800
M205 X8 Y8
G1 F1125 X92.8 Y149.515 E81.12595
M204 S5000
M205 X30 Y30
G0 F7200 X94.4 Y149.485
M204 S1800
M205 X8 Y8
G1 F1125 X94.4 Y94.091 E85.54774
M204 S5000
M205 X30 Y30
G0 F7200 X96 Y93.063
M204 S1800
M205 X8 Y8
G1 F1125 X96 Y149.297 E90.03658
M204 S5000
M205 X30 Y30
G0 F7200 X97.6 Y148.964
M204 S1800
M205 X8 Y8
G1 F1125 X97.6 Y92.323 E94.55791
M204 S5000
M205 X30 Y30
G0 F7200 X99.2 Y91.812
M204 S1800
M205 X8 Y8
G1 F1125 X99.2 Y148.464 E99.08011
M204 S5000
M205 X30 Y30
G0 F7200 X100.8 Y147.783
M204 S1800
M205 X8 Y8
G1 F1125 X100.8 Y91.508 E103.57223
M204 S5000
M205 X30 Y30
G0 F7200 X102.4 Y91.398
M204 S1800
M205 X8 Y8
G1 F1125 X102.4 Y146.899 E108.00256
M204 S5000
M205 X30 Y30
G0 F7200 X104 Y145.777
M204 S1800
M205 X8 Y8
G1 F1125 X104 Y91.481 E112.3367
M204 S5000
M205 X30 Y30
G0 F7200 X105.6 Y91.75
M204 S1800
M205 X8 Y8
G1 F1125 X105.6 Y144.336 E116.53434
M204 S5000
M205 X30 Y30
G0 F7200 X107.2 Y142.46
M204 S1800
M205 X8 Y8
G1 F1125 X107.2 Y92.227 E120.54416
M204 S5000
M205 X30 Y30
G0 F7200 X108.8 Y92.931
M204 S1800
M205 X8 Y8
G1 F1125 X108.8 Y139.823 E124.28728
M204 S5000
M205 X30 Y30
G0 F7200 X110.4 Y137.166
M204 S1800
M205 X8 Y8
G1 F1125 X110.4 Y93.908 E127.74032
M204 S5000
M205 X30 Y30
G0 F7200 X112 Y95.239
M204 S1800
M205 X8 Y8
G1 F1125 X112 Y136.063 E130.99907
M204 S5000
M205 X30 Y30
G0 F7200 X113.6 Y135.62
M204 S1800
M205 X8 Y8
G1 F1125 X113.6 Y97.104 E134.07358
M204 S5000
M205 X30 Y30
G0 F7200 X115.2 Y100.058
M204 S1800
M205 X8 Y8
G1 F1125 X115.2 Y135.598 E136.91054
M204 S5000
M205 X30 Y30
G0 F7200 X116.8 Y135.479
M204 S1800
M205 X8 Y8
G1 F1125 X116.8 Y106.783 E139.20118
M204 S5000
M205 X30 Y30
G0 F7200 X118.4 Y108.546
M204 S1800
M205 X8 Y8
G1 F1125 X118.4 Y135.165 E141.32602
M204 S5000
M205 X30 Y30
G0 F7200 X120 Y134.644
M204 S1800
M205 X8 Y8
G1 F1125 X120 Y109.348 E143.34526
M204 S5000
M205 X30 Y30
G0 F7200 X121.6 Y110.104
M204 S1800
M205 X8 Y8
G1 F1125 X121.6 Y133.889 E145.24388
M204 S5000
M205 X30 Y30
G0 F7200 X123.2 Y132.849
M204 S1800
M205 X8 Y8
G1 F1125 X123.2 Y111.143 E146.97655
M204 S5000
M205 X30 Y30
G0 F7200 X124.8 Y112.566
M204 S1800
M205 X8 Y8
G1 F1125 X124.8 Y131.425 E148.48195
M204 S5000
M205 X30 Y30
G0 F7200 X126.4 Y129.418
M204 S1800
M205 X8 Y8
G1 F1125 X126.4 Y114.577 E149.66663
M204 S5000
M205 X30 Y30
G0 F7200 X128 Y117.989
M204 S1800
M205 X8 Y8
G1 F1125 X128 Y126.008 E150.30674
M204 S5000
M205 X30 Y30
G0 F600 X128 Y126.008 Z0.54
G0 F7200 X128.426 Y124.183
;TIME_ELAPSED:105.779665
;LAYER:-5
M140 S60
M204 S1800
M205 X8 Y8
;TYPE:SUPPORT
G1 F1125 X96.871 Y92.628 E154.75949
G1 X96.336 Y92.885 E154.81871
G1 X96.002 Y93.062 E154.85643
G1 X95.931 Y93.103 E154.86461
G1 X128.181 Y125.353 E159.41543
G1 X128.146 Y125.491 E159.42964
G1 X127.991 Y126.031 E159.48569
G1 X127.873 Y126.392 E159.52359
G1 X127.855 Y126.441 E159.5288
G1 X95.052 Y93.638 E164.15766
G1 X94.705 Y93.871 E164.19936
