;FLAVOR:Marlin
;TIME:908
;Filament used: 1.15715m
;Layer height: 0.2
;MINX:83.6
;MINY:83.6
;MINZ:0.2
;MAXX:126.4
;MAXY:126.4
;MAXZ:12
;Generated with Cura_SteamEngine 4.10.0
M140 S60
M105
M190 S60
M104 S195
M105
M109 S195
M82 ;absolute extrusion mode
G21 ;metric values
G90 ;absolute positionin
M82 ;absolute extrusion mode
G28
G29
M501
G92 E0 ;zero the extruded length
G1 F200 E5 ;extrude 3mm of feed stock
G92 E0 ;zero the extruded length again
G1 F100
G0 Y20 F100
M117 Printing...
G5
G92 E0
G92 E0
G1 F2400 E-1
;LAYER_COUNT:60
;LAYER:0
M107
M204 S3000
M205 X10 Y10
G1 F600 Z0.275
G0 F3000 X85.533 Y85.435 Z0.275
M204 S1800
M205 X8 Y8
;TYPE:SKIRT
G1 F600 Z0.2
G1 F2400 E0
G1 X86.071 Y84.964 E0.04319
G1 X86.659 Y84.556 E0.08642
G1 X87.288 Y84.216 E0.12961
G1 X87.952 Y83.949 E0.17284
G1 X88.641 Y83.757 E0.21604
G1 X89.347 Y83.643 E0.25924
G1 X90.151 Y83.603 E0.30786
G1 X90.33 Y83.6 E0.31868
G1 X119.293 Y83.6 E2.06813
G1 X120.083 Y83.611 E2.11585
G1 X120.796 Y83.661 E2.15903
G1 X121.5 Y83.79 E2.20226
G1 X122.184 Y83.998 E2.24544
G1 X122.841 Y84.28 E2.28863
G1 X123.463 Y84.634 E2.33186
G1 X124.041 Y85.055 E2.37505
G1 X124.569 Y85.538 E2.41827
G1 X125.039 Y86.076 E2.46142
G1 X125.447 Y86.664 E2.50465
G1 X125.786 Y87.294 E2.54787
G1 X126.053 Y87.957 E2.59104
G1 X126.244 Y88.647 E2.63429
G1 X126.357 Y89.353 E2.67747
G1 X126.397 Y90.15 E2.72567
G1 X126.4 Y90.33 E2.73655
G1 X126.4 Y119.343 E4.48902
G1 X126.391 Y120.07 E4.53294
G1 X126.342 Y120.784 E4.57617
G1 X126.214 Y121.488 E4.61939
G1 X126.008 Y122.173 E4.6626
G1 X125.727 Y122.83 E4.70576
G1 X125.374 Y123.453 E4.74901
G1 X124.954 Y124.032 E4.79222
G1 X124.472 Y124.56 E4.8354
G1 X123.935 Y125.032 E4.87858
G1 X123.347 Y125.44 E4.92181
G1 X122.718 Y125.781 E4.96503
G1 X122.055 Y126.049 E5.00823
G1 X121.366 Y126.241 E5.05143
G1 X120.66 Y126.356 E5.09464
G1 X119.849 Y126.397 E5.14369
G1 X119.67 Y126.4 E5.1545
G1 X90.624 Y126.399 E6.90897
G1 X89.926 Y126.39 E6.95113
G1 X89.213 Y126.341 E6.9943
G1 X88.509 Y126.213 E7.03752
G1 X87.824 Y126.007 E7.08073
G1 X87.167 Y125.725 E7.12392
G1 X86.545 Y125.372 E7.16711
G1 X85.966 Y124.952 E7.21032
G1 X85.437 Y124.47 E7.25355
G1 X84.966 Y123.932 E7.29674
G1 X84.558 Y123.345 E7.33992
G1 X84.218 Y122.715 E7.38316
G1 X83.95 Y122.052 E7.42636
G1 X83.758 Y121.363 E7.46956
G1 X83.644 Y120.657 E7.51276
G1 X83.602 Y119.831 E7.56271
G1 X83.6 Y119.658 E7.57316
G1 X83.601 Y90.587 E9.32914
G1 X83.61 Y89.922 E9.36931
G1 X83.659 Y89.209 E9.41248
G1 X83.788 Y88.505 E9.45571
G1 X83.995 Y87.821 E9.49888
G1 X84.277 Y87.163 E9.54212
G1 X84.63 Y86.541 E9.58532
G1 X85.05 Y85.963 E9.62848
G1 X85.533 Y85.435 E9.6717
M204 S3000
M205 X10 Y10
G0 F3000 X86.08 Y85.688
M204 S1800
M205 X8 Y8
G1 F2400 X86.612 Y85.259 E9.71298
G1 X87.19 Y84.894 E9.75428
G1 X87.807 Y84.6 E9.79556
G1 X88.453 Y84.38 E9.83678
G1 X89.121 Y84.237 E9.87804
G1 X89.845 Y84.171 E9.92196
G1 X90.33 Y84.16 E9.95126
G1 X119.293 Y84.16 E11.70071
G1 X120.075 Y84.171 E11.74795
G1 X120.756 Y84.22 E11.78919
G1 X121.427 Y84.349 E11.83047
G1 X122.078 Y84.556 E11.87173
G1 X122.701 Y84.837 E11.91301
G1 X123.287 Y85.189 E11.9543
G1 X123.827 Y85.607 E11.99555
G1 X124.315 Y86.085 E12.03681
G1 X124.744 Y86.617 E12.07809
G1 X125.108 Y87.195 E12.11935
G1 X125.402 Y87.812 E12.16063
G1 X125.621 Y88.459 E12.20189
G1 X125.764 Y89.127 E12.24316
G1 X125.829 Y89.846 E12.28676
G1 X125.84 Y90.33 E12.31601
G1 X125.84 Y119.336 E14.06806
G1 X125.831 Y120.063 E14.11197
G1 X125.782 Y120.745 E14.15328
G1 X125.654 Y121.416 E14.19454
G1 X125.449 Y122.068 E14.23582
G1 X125.169 Y122.691 E14.27708
G1 X124.819 Y123.277 E14.31831
G1 X124.402 Y123.819 E14.35961
G1 X123.925 Y124.308 E14.40088
G1 X123.394 Y124.737 E14.44211
G1 X122.816 Y125.102 E14.4834
G1 X122.2 Y125.397 E14.52466
G1 X121.553 Y125.618 E14.56595
G1 X120.885 Y125.762 E14.60723
G1 X120.155 Y125.829 E14.65151
G1 X119.67 Y125.84 E14.68081
G1 X90.632 Y125.84 E16.4348
G1 X89.934 Y125.831 E16.47696
G1 X89.252 Y125.782 E16.51826
G1 X88.581 Y125.654 E16.55952
G1 X87.93 Y125.448 E16.60077
G1 X87.306 Y125.168 E16.64208
G1 X86.72 Y124.817 E16.68334
G1 X86.179 Y124.4 E16.7246
G1 X85.69 Y123.922 E16.7659
G1 X85.261 Y123.391 E16.80714
G1 X84.896 Y122.813 E16.84843
G1 X84.602 Y122.197 E16.88966
G1 X84.381 Y121.55 E16.93096
G1 X84.237 Y120.882 E16.97223
G1 X84.171 Y120.149 E17.01669
G1 X84.16 Y119.658 E17.04635
G1 X84.161 Y90.595 E18.80185
G1 X84.17 Y89.93 E18.84202
G1 X84.219 Y89.249 E18.88326
G1 X84.347 Y88.577 E18.92458
G1 X84.553 Y87.926 E18.96582
G1 X84.834 Y87.303 E19.00711
G1 X85.185 Y86.717 E19.04837
G1 X85.603 Y86.176 E19.08966
G1 X86.08 Y85.688 E19.13088
M204 S3000
M205 X10 Y10
G0 F3000 X86.154 Y86.401
M204 S1800
M205 X8 Y8
G1 F2400 X86.626 Y85.955 E19.17011
G1 X87.149 Y85.571 E19.2093
G1 X87.716 Y85.253 E19.24856
G1 X88.317 Y85.007 E19.28779
G1 X88.944 Y84.837 E19.32703
G1 X89.861 Y84.731 E19.38279
G1 X90.33 Y84.72 E19.41112
G1 X119.293 Y84.72 E21.16058
G1 X120.067 Y84.731 E21.20734
G1 X120.714 Y84.78 E21.24653
G1 X121.351 Y84.908 E21.28577
G1 X121.967 Y85.114 E21.32501
G1 X122.554 Y85.394 E21.36429
G1 X123.101 Y85.743 E21.40348
G1 X123.602 Y86.157 E21.44274
G1 X124.047 Y86.63 E21.48197
G1 X124.432 Y87.154 E21.52124
G1 X124.749 Y87.721 E21.56048
G1 X124.994 Y88.322 E21.59969
G1 X125.163 Y88.949 E21.63891
G1 X125.269 Y89.862 E21.69443
G1 X125.28 Y90.33 E21.7227
G1 X125.28 Y119.329 E23.47433
G1 X125.271 Y120.056 E23.51825
G1 X125.223 Y120.704 E23.5575
G1 X125.095 Y121.341 E23.59674
G1 X124.891 Y121.958 E23.636
G1 X124.612 Y122.545 E23.67525
G1 X124.264 Y123.093 E23.71447
G1 X123.851 Y123.594 E23.75368
G1 X123.379 Y124.041 E23.79295
G1 X122.856 Y124.426 E23.83218
G1 X122.29 Y124.744 E23.87139
G1 X121.688 Y124.991 E23.9107
G1 X121.062 Y125.161 E23.94988
G1 X120.139 Y125.269 E24.00601
G1 X119.67 Y125.28 E24.03435
G1 X90.639 Y125.28 E25.78791
G1 X89.941 Y125.271 E25.83007
G1 X89.293 Y125.222 E25.86933
G1 X88.656 Y125.095 E25.90856
G1 X88.04 Y124.89 E25.94778
G1 X87.453 Y124.611 E25.98703
G1 X86.905 Y124.262 E26.02628
G1 X86.404 Y123.849 E26.0655
G1 X85.957 Y123.377 E26.10476
G1 X85.572 Y122.854 E26.14399
G1 X85.254 Y122.287 E26.18326
G1 X85.008 Y121.686 E26.22248
G1 X84.838 Y121.059 E26.26172
G1 X84.731 Y120.134 E26.31797
G1 X84.72 Y119.658 E26.34673
G1 X84.72 Y90.603 E28.10174
G1 X84.729 Y89.938 E28.14191
G1 X84.778 Y89.29 E28.18116
G1 X84.906 Y88.653 E28.22041
G1 X85.111 Y88.036 E28.25968
G1 X85.391 Y87.45 E28.29891
G1 X85.74 Y86.902 E28.33815
G1 X86.154 Y86.401 E28.37741
M204 S3000
M205 X10 Y10
G1 F2400 E27.37741
;MESH:30 mm cube.stl
G0 F3000 X89.335 Y90.854
G0 X90.854 Y90.854
G0 X119.09 Y119.09
G0 X119.16 Y119.16
M204 S1800
M205 X8 Y8
;TYPE:WALL-INNER
G1 F2400 E28.37741
G1 F1500 X90.84 Y119.16 E30.08803
G1 X90.84 Y90.84 E31.79864
G1 X119.16 Y90.84 E33.50926
G1 X119.16 Y119.16 E35.21987
M204 S3000
M205 X10 Y10
G0 F3000 X119.72 Y119.72
M204 S1800
M205 X8 Y8
;TYPE:WALL-OUTER
G1 F1500 X90.28 Y119.72 E36.99814
G1 X90.28 Y90.28 E38.7764
G1 X119.72 Y90.28 E40.55467
G1 X119.72 Y119.72 E42.33294
M204 S3000
M205 X10 Y10
G0 F3000 X119.52 Y119.72
G0 X119.09 Y119.09
G0 X118.61 Y118.61
M204 S1800
M205 X8 Y8
;TYPE:SKIN
G1 F1500 X91.39 Y118.61 E43.97711
G1 X91.39 Y91.39 E45.62128
G1 X118.61 Y91.39 E47.26545
G1 X118.61 Y118.61 E48.90962
M204 S3000
M205 X10 Y10
G0 F3000 X118.05 Y118.05
M204 S1800
M205 X8 Y8
G1 F1500 X91.95 Y118.05 E50.48614
G1 X91.95 Y91.95 E52.06266
G1 X118.05 Y91.95 E53.63918
G1 X118.05 Y118.05 E55.2157
M204 S3000
M205 X10 Y10
G0 F3000 X117.49 Y117.49
M204 S1800
M205 X8 Y8
G1 F1500 X92.51 Y117.49 E56.72457
G1 X92.51 Y92.51 E58.23344
G1 X117.49 Y92.51 E59.74231
G1 X117.49 Y117.49 E61.25118
M204 S3000
M205 X10 Y10
G0 F3000 X117.229 Y93.471
M204 S1800
M205 X8 Y8
G1 F1500 X116.529 Y92.77 E61.31101
M204 S3000
M205 X10 Y10
G0 F3000 X115.737 Y92.77
M204 S1800
M205 X8 Y8
G1 F1500 X117.229 Y94.262 E61.43847
M204 S3000
M205 X10 Y10
G0 F3000 X117.229 Y95.054
M204 S1800
M205 X8 Y8
G1 F1500 X114.945 Y92.77 E61.63357
M204 S3000
M205 X10 Y10
G0 F3000 X114.153 Y92.77
M204 S1800
M205 X8 Y8
G1 F1500 X117.229 Y95.846 E61.89633
M204 S3000
M205 X10 Y10
G0 F3000 X117.229 Y96.638
M204 S1800
M205 X8 Y8
G1 F1500 X113.361 Y92.77 E62.22675
M204 S3000
M205 X10 Y10
G0 F3000 X112.569 Y92.77
M204 S1800
M205 X8 Y8
G1 F1500 X117.229 Y97.43 E62.62482
M204 S3000
M205 X10 Y10
G0 F3000 X117.229 Y98.222
M204 S1800
M205 X8 Y8
G1 F1500 X111.777 Y92.77 E63.09054
M204 S3000
M205 X10 Y10
G0 F3000 X110.985 Y92.77
M204 S1800
M205 X8 Y8
G1 F1500 X117.229 Y99.014 E63.62392
M204 S3000
M205 X10 Y10
G0 F3000 X117.229 Y99.806
M204 S1800
M205 X8 Y8
G1 F1500 X110.193 Y92.77 E64.22496
M204 S3000
M205 X10 Y10
G0 F3000 X109.401 Y92.77
M204 S1800
M205 X8 Y8
G1 F1500 X117.229 Y100.598 E64.89365
M204 S3000
M205 X10 Y10
G0 F3000 X117.229 Y101.39
M204 S1800
M205 X8 Y8
G1 F1500 X108.609 Y92.77 E65.62999
M204 S3000
M205 X10 Y10
G0 F3000 X107.817 Y92.77
M204 S1800
M205 X8 Y8
G1 F1500 X117.229 Y102.182 E66.43399
M204 S3000
M205 X10 Y10
G0 F3000 X117.229 Y102.974
M204 S1800
M205 X8 Y8
G1 F1500 X107.025 Y92.77 E67.30565
M204 S3000
M205 X10 Y10
G0 F3000 X106.233 Y92.77
M204 S1800
M205 X8 Y8
G1 F1500 X117.229 Y103.766 E68.24496
M204 S3000
M205 X10 Y10
G0 F3000 X117.229 Y104.558
M204 S1800
M205 X8 Y8
G1 F1500 X105.441 Y92.77 E69.25192
M204 S3000
M205 X10 Y10
G0 F3000 X104.649 Y92.77
M204 S1800
M205 X8 Y8
G1 F1500 X117.229 Y105.35 E70.32654
M204 S3000
M205 X10 Y10
G0 F3000 X117.229 Y106.142
M204 S1800
M205 X8 Y8
G1 F1500 X103.857 Y92.77 E71.46881
M204 S3000
M205 X10 Y10
G0 F3000 X103.065 Y92.77
M204 S1800
M205 X8 Y8
G1 F1500 X117.229 Y106.934 E72.67874
M204 S3000
M205 X10 Y10
G0 F3000 X117.229 Y107.726
M204 S1800
M205 X8 Y8
G1 F1500 X102.273 Y92.77 E73.95633
M204 S3000
M205 X10 Y10
G0 F3000 X101.481 Y92.77
M204 S1800
M205 X8 Y8
G1 F1500 X117.229 Y108.518 E75.30157
M204 S3000
M205 X10 Y10
G0 F3000 X117.229 Y109.31
M204 S1800
M205 X8 Y8
G1 F1500 X100.689 Y92.77 E76.71446
M204 S3000
M205 X10 Y10
G0 F3000 X99.897 Y92.77
M204 S1800
M205 X8 Y8
G1 F1500 X117.229 Y110.102 E78.19501
M204 S3000
M205 X10 Y10
G0 F3000 X117.229 Y110.894
M204 S1800
M205 X8 Y8
G1 F1500 X99.105 Y92.77 E79.74321
M204 S3000
M205 X10 Y10
G0 F3000 X98.314 Y92.77
M204 S1800
M205 X8 Y8
G1 F1500 X117.229 Y111.686 E81.35903
M204 S3000
M205 X10 Y10
G0 F3000 X117.229 Y112.478
M204 S1800
M205 X8 Y8
G1 F1500 X97.522 Y92.77 E83.0425
M204 S3000
M205 X10 Y10
G0 F3000 X96.73 Y92.77
M204 S1800
M205 X8 Y8
G1 F1500 X117.229 Y113.27 E84.79362
M204 S3000
M205 X10 Y10
G0 F3000 X117.229 Y114.061
M204 S1800
M205 X8 Y8
G1 F1500 X95.938 Y92.77 E86.61236
M204 S3000
M205 X10 Y10
G0 F3000 X95.146 Y92.77
M204 S1800
M205 X8 Y8
G1 F1500 X117.229 Y114.853 E88.49875
M204 S3000
M205 X10 Y10
G0 F3000 X117.229 Y115.645
M204 S1800
M205 X8 Y8
G1 F1500 X94.354 Y92.77 E90.4528
M204 S3000
M205 X10 Y10
G0 F3000 X93.562 Y92.77
M204 S1800
M205 X8 Y8
G1 F1500 X117.229 Y116.437 E92.4745
M204 S3000
M205 X10 Y10
G0 F3000 X117.229 Y117.229
M204 S1800
M205 X8 Y8
G1 F1500 X92.769 Y92.769 E94.56395
M204 S3000
M205 X10 Y10
G0 F3000 X92.769 Y93.561
M204 S1800
M205 X8 Y8
G1 F1500 X116.437 Y117.229 E96.58573
M204 S3000
M205 X10 Y10
G0 F3000 X115.645 Y117.229
M204 S1800
M205 X8 Y8
G1 F1500 X92.769 Y94.353 E98.53987
M204 S3000
M205 X10 Y10
G0 F3000 X92.769 Y95.145
M204 S1800
M205 X8 Y8
G1 F1500 X114.853 Y117.229 E100.42634
M204 S3000
M205 X10 Y10
G0 F3000 X114.061 Y117.229
M204 S1800
M205 X8 Y8
G1 F1500 X92.769 Y95.937 E102.24517
M204 S3000
M205 X10 Y10
G0 F3000 X92.769 Y96.729
M204 S1800
M205 X8 Y8
G1 F1500 X113.269 Y117.229 E103.99634
M204 S3000
M205 X10 Y10
G0 F3000 X112.477 Y117.229
M204 S1800
M205 X8 Y8
G1 F1500 X92.769 Y97.521 E105.67985
M204 S3000
M205 X10 Y10
G0 F3000 X92.769 Y98.313
M204 S1800
M205 X8 Y8
G1 F1500 X111.685 Y117.229 E107.29571
M204 S3000
M205 X10 Y10
G0 F3000 X110.893 Y117.229
M204 S1800
M205 X8 Y8
G1 F1500 X92.769 Y99.105 E108.84391
M204 S3000
M205 X10 Y10
G0 F3000 X92.769 Y99.897
M204 S1800
M205 X8 Y8
G1 F1500 X110.101 Y117.229 E110.32446
M204 S3000
M205 X10 Y10
G0 F3000 X109.309 Y117.229
M204 S1800
M205 X8 Y8
G1 F1500 X92.769 Y100.689 E111.73735
M204 S3000
M205 X10 Y10
G0 F3000 X92.769 Y101.481
M204 S1800
M205 X8 Y8
G1 F1500 X108.517 Y117.229 E113.08259
M204 S3000
M205 X10 Y10
G0 F3000 X107.725 Y117.229
M204 S1800
M205 X8 Y8
G1 F1500 X92.769 Y102.273 E114.36018
M204 S3000
M205 X10 Y10
G0 F3000 X92.769 Y103.065
M204 S1800
M205 X8 Y8
G1 F1500 X106.933 Y117.229 E115.5701
M204 S3000
M205 X10 Y10
G0 F3000 X106.141 Y117.229
M204 S1800
M205 X8 Y8
G1 F1500 X92.769 Y103.857 E116.71238
M204 S3000
M205 X10 Y10
G0 F3000 X92.769 Y104.648
M204 S1800
M205 X8 Y8
G1 F1500 X105.349 Y117.229 E117.78704
M204 S3000
M205 X10 Y10
G0 F3000 X104.557 Y117.229
M204 S1800
M205 X8 Y8
G1 F1500 X92.769 Y105.44 E118.79405
M204 S3000
M205 X10 Y10
G0 F3000 X92.769 Y106.232
M204 S1800
M205 X8 Y8
G1 F1500 X103.765 Y117.229 E119.7334
M204 S3000
M205 X10 Y10
G0 F3000 X102.973 Y117.229
M204 S1800
M205 X8 Y8
G1 F1500 X92.769 Y107.024 E120.6051
M204 S3000
M205 X10 Y10
G0 F3000 X92.769 Y107.816
M204 S1800
M205 X8 Y8
G1 F1500 X102.181 Y117.229 E121.40914
M204 S3000
M205 X10 Y10
G0 F3000 X101.389 Y117.229
M204 S1800
M205 X8 Y8
G1 F1500 X92.769 Y108.608 E122.14553
M204 S3000
M205 X10 Y10
G0 F3000 X92.769 Y109.4
M204 S1800
M205 X8 Y8
G1 F1500 X100.597 Y117.229 E122.81426
M204 S3000
M205 X10 Y10
G0 F3000 X99.806 Y117.229
M204 S1800
M205 X8 Y8
G1 F1500 X92.769 Y110.192 E123.41538
M204 S3000
M205 X10 Y10
G0 F3000 X92.769 Y110.984
M204 S1800
M205 X8 Y8
G1 F1500 X99.014 Y117.229 E123.94885
M204 S3000
M205 X10 Y10
G0 F3000 X98.222 Y117.229
M204 S1800
M205 X8 Y8
G1 F1500 X92.769 Y111.776 E124.41466
M204 S3000
M205 X10 Y10
G0 F3000 X92.769 Y112.568
M204 S1800
M205 X8 Y8
G1 F1500 X97.43 Y117.229 E124.81281
M204 S3000
M205 X10 Y10
G0 F3000 X96.638 Y117.229
M204 S1800
M205 X8 Y8
G1 F1500 X92.769 Y113.36 E125.14331
M204 S3000
M205 X10 Y10
G0 F3000 X92.769 Y114.152
M204 S1800
M205 X8 Y8
G1 F1500 X95.846 Y117.229 E125.40616
M204 S3000
M205 X10 Y10
G0 F3000 X95.054 Y117.229
M204 S1800
M205 X8 Y8
G1 F1500 X92.769 Y114.944 E125.60135
M204 S3000
M205 X10 Y10
G0 F3000 X92.769 Y115.736
M204 S1800
M205 X8 Y8
G1 F1500 X94.262 Y117.229 E125.72889
M204 S3000
M205 X10 Y10
G0 F3000 X93.47 Y117.229
M204 S1800
M205 X8 Y8
G1 F1500 X92.769 Y116.528 E125.78877
M204 S3000
M205 X10 Y10
;MESH:NONMESH
G0 F600 X92.769 Y116.528 Z0.4
G0 F3000 X119.09 Y119.09
G0 X119.4 Y119.4
;TIME_ELAPSED:84.852116
;LAYER:1
M106 S127.5
M204 S1800
M205 X8 Y8
;TYPE:WALL-INNER
;MESH:30 mm cube.stl
G1 F2250 X90.6 Y119.4 E127.03135
G1 X90.6 Y90.6 E128.27392
G1 X119.4 Y90.6 E129.5165
G1 X119.4 Y119.4 E130.75908
M204 S3000
M205 X10 Y10
G0 F4500 X119.8 Y119.8
M204 S1800
M205 X8 Y8
;TYPE:WALL-OUTER
G1 F2250 X90.2 Y119.8 E132.03617
G1 X90.2 Y90.2 E133.31326
G1 X119.8 Y90.2 E134.59036
G1 X119.8 Y119.8 E135.86745
M204 S3000
M205 X10 Y10
G0 F4500 X119.6 Y119.8
G0 X119.01 Y119.01
M204 S1800
M205 X8 Y8
;TYPE:SKIN
G1 F1350 X90.99 Y119.01 E137.07638
G1 X90.99 Y90.99 E138.2853
G1 X119.01 Y90.99 E139.49422
G1 X119.01 Y119.01 E140.70315
M204 S3000
M205 X10 Y10
G0 F4500 X118.61 Y118.61
M204 S1800
M205 X8 Y8
G1 F1350 X91.39 Y118.61 E141.87756
G1 X91.39 Y91.39 E143.05196
G1 X118.61 Y91.39 E144.22637
G1 X118.61 Y118.61 E145.40078
M204 S3000
M205 X10 Y10
G0 F4500 X118.21 Y118.21
M204 S1800
M205 X8 Y8
G1 F1350 X91.79 Y118.21 E146.54067
G1 X91.79 Y91.79 E147.68057
G1 X118.21 Y91.79 E148.82046
G1 X118.21 Y118.21 E149.96035
M204 S3000
M205 X10 Y10
G0 F4500 X117.861 Y118.029
M204 S1800
M205 X8 Y8
G1 F1350 X118.029 Y117.861 E149.9706
M204 S3000
M205 X10 Y10
G0 F4500 X118.029 Y117.295
M204 S1800
M205 X8 Y8
G1 F1350 X117.295 Y118.029 E150.01539
M204 S3000
M205 X10 Y10
G0 F4500 X116.729 Y118.029
M204 S1800
M205 X8 Y8
G1 F1350 X118.029 Y116.729 E150.09471
M204 S3000
M205 X10 Y10
G0 F4500 X118.029 Y116.164
M204 S1800
M205 X8 Y8
G1 F1350 X116.164 Y118.029 E150.2085
M204 S3000
M205 X10 Y10
G0 F4500 X115.598 Y118.029
M204 S1800
M205 X8 Y8
G1 F1350 X118.029 Y115.598 E150.35683
M204 S3000
M205 X10 Y10
G0 F4500 X118.029 Y115.032
M204 S1800
M205 X8 Y8
G1 F1350 X115.032 Y118.029 E150.5397
M204 S3000
M205 X10 Y10
