;FLAVOR:Marlin
;TIME:2529
;Filament used: 2.29308m
;Layer height: 0.2
;MINX:57.446
;MINY:86.904
;MINZ:0.24
;MAXX:119.235
;MAXY:142.457
;MAXZ:9.6
;Generated with Cura_SteamEngine 4.6.1
M140 S60
M105
M190 S60
M104 S200
M105
M109 S200
M82 ;absolute extrusion mode
G28
G29
M501
G92 E0 ;zero the extruded length
G1 F200 E3 ;extrude 3mm of feed stock
G92 E0 ;zero the extruded length again
G1 F120
M117 Printing...
G5
G92 E0
G92 E0
G1 F2400 E-6
;LAYER_COUNT:43
;LAYER:-5
M107
M204 S5000
M205 X30 Y30
G0 F7200 X65.232 Y90.656 Z0.24
M204 S1800
M205 X8 Y8
;TYPE:SUPPORT-INTERFACE
G1 F2400 E0
G1 F1125 X65.491 Y90.484 E0.02482
G1 X66.195 Y90.045 E0.09105
G1 X66.501 Y89.87 E0.11918
G1 X67.278 Y89.459 E0.18935
G1 X67.551 Y89.326 E0.21359
G1 X68.332 Y88.978 E0.28184
G1 X68.65 Y88.85 E0.30921
G1 X69.481 Y88.547 E0.37981
G1 X69.795 Y88.447 E0.40612
G1 X70.612 Y88.211 E0.474
G1 X70.904 Y88.136 E0.49806
G1 X71.762 Y87.952 E0.56811
G1 X72.122 Y87.889 E0.59728
G1 X72.957 Y87.768 E0.66463
G1 X73.251 Y87.735 E0.68825
G1 X74.11 Y87.669 E0.75702
G1 X74.451 Y87.656 E0.78426
G1 X75.339 Y87.65 E0.85515
G1 X75.65 Y87.66 E0.87998
G1 X76.506 Y87.713 E0.94845
G1 X76.838 Y87.745 E0.97507
G1 X77.687 Y87.856 E1.04342
G1 X77.987 Y87.906 E1.0677
G1 X78.838 Y88.076 E1.13697
G1 X79.154 Y88.152 E1.16291
G1 X80.025 Y88.391 E1.23501
G1 X80.301 Y88.477 E1.25808
G1 X81.107 Y88.757 E1.32619
G1 X81.417 Y88.877 E1.35273
G1 X82.226 Y89.222 E1.42293
G1 X82.509 Y89.355 E1.4479
G1 X83.302 Y89.762 E1.51905
G1 X83.601 Y89.931 E1.54646
G1 X84.325 Y90.367 E1.61393
G1 X84.566 Y90.524 E1.63689
G1 X84.893 Y90.751 E1.66866
G1 X85.467 Y91.097 E1.72216
G1 X86.091 Y91.374 E1.77666
G1 X86.746 Y91.57 E1.83123
G1 X87.42 Y91.681 E1.88576
G1 X88.101 Y91.706 E1.94016
G1 X88.782 Y91.645 E1.99474
G1 X89.448 Y91.499 E2.04916
G1 X90.092 Y91.27 E2.10372
G1 X90.699 Y90.963 E2.15802
G1 X91.13 Y90.68 E2.19918
G1 X91.889 Y90.13 E2.274
G1 X92.138 Y89.962 E2.29798
G1 X92.901 Y89.488 E2.36968
G1 X93.168 Y89.336 E2.3942
G1 X93.935 Y88.929 E2.46351
G1 X94.263 Y88.77 E2.49261
G1 X95.018 Y88.434 E2.55858
G1 X95.336 Y88.305 E2.58597
G1 X96.16 Y88.005 E2.65597
G1 X96.458 Y87.908 E2.68098
G1 X97.258 Y87.676 E2.74747
G1 X97.602 Y87.59 E2.77578
G1 X98.448 Y87.407 E2.84487
G1 X98.804 Y87.345 E2.87372
G1 X99.647 Y87.224 E2.9417
G1 X99.93 Y87.193 E2.96442
G1 X100.785 Y87.126 E3.03288
G1 X101.125 Y87.112 E3.06005
G1 X102.03 Y87.107 E3.13229
G1 X102.311 Y87.115 E3.15473
G1 X103.416 Y87.189 E3.24313
G1 X103.518 Y87.201 E3.25133
G1 X104.406 Y87.319 E3.32284
G1 X104.69 Y87.367 E3.34583
G1 X105.563 Y87.544 E3.41693
G1 X105.878 Y87.621 E3.44282
G1 X106.687 Y87.842 E3.50976
G1 X106.989 Y87.936 E3.53501
G1 X107.81 Y88.222 E3.60441
G1 X108.131 Y88.346 E3.63188
G1 X108.941 Y88.694 E3.70225
G1 X109.205 Y88.819 E3.72557
G1 X109.976 Y89.214 E3.79472
G1 X110.261 Y89.374 E3.82081
G1 X111.013 Y89.826 E3.89084
G1 X111.304 Y90.018 E3.91867
G1 X112.025 Y90.524 E3.98899
G1 X112.236 Y90.681 E4.00998
G1 X112.939 Y91.253 E4.08233
G1 X113.201 Y91.482 E4.1101
G1 X113.796 Y92.032 E4.17478
G1 X114.06 Y92.299 E4.20475
G1 X114.623 Y92.898 E4.27037
G1 X114.819 Y93.12 E4.29401
G1 X115.401 Y93.832 E4.36742
G1 X115.585 Y94.075 E4.39175
G1 X116.077 Y94.766 E4.45946
G1 X116.252 Y95.029 E4.48468
G1 X116.71 Y95.777 E4.55469
G1 X116.858 Y96.039 E4.57871
G1 X117.257 Y96.803 E4.64751
G1 X117.405 Y97.111 E4.67479
G1 X117.771 Y97.953 E4.74808
G1 X117.89 Y98.262 E4.77451
G1 X118.175 Y99.062 E4.8423
G1 X118.27 Y99.357 E4.86704
G1 X118.496 Y100.162 E4.93378
G1 X118.586 Y100.536 E4.96449
G1 X118.746 Y101.303 E5.02703
G1 X118.806 Y101.638 E5.0542
G1 X118.924 Y102.492 E5.12302
G1 X118.96 Y102.844 E5.15126
G1 X119.026 Y103.858 E5.23237
G1 X119.035 Y104.532 E5.28618
G1 X119.03 Y104.756 E5.30406
G1 X118.988 Y105.745 E5.38308
G1 X118.975 Y105.883 E5.39415
G1 X118.883 Y106.749 E5.46366
G1 X118.837 Y107.067 E5.48931
G1 X118.693 Y107.882 E5.55538
G1 X118.633 Y108.172 E5.57902
G1 X118.428 Y109.01 E5.64788
G1 X118.341 Y109.321 E5.67366
G1 X118.073 Y110.157 E5.74374
G1 X117.971 Y110.444 E5.76805
G1 X117.622 Y111.315 E5.84295
G1 X117.501 Y111.589 E5.86686
G1 X117.169 Y112.283 E5.92827
G1 X116.974 Y112.66 E5.96215
G1 X116.573 Y113.369 E6.02717
G1 X116.376 Y113.69 E6.05724
G1 X115.927 Y114.37 E6.12228
G1 X115.737 Y114.637 E6.14844
G1 X115.214 Y115.323 E6.2173
G1 X114.976 Y115.611 E6.24712
G1 X114.4 Y116.264 E6.31663
G1 X114.216 Y116.458 E6.33797
G1 X113.604 Y117.068 E6.40695
G1 X113.322 Y117.328 E6.43757
G1 X112.66 Y117.896 E6.5072
G1 X112.409 Y118.097 E6.53286
G1 X111.71 Y118.62 E6.60255
G1 X111.423 Y118.817 E6.63034
G1 X110.985 Y119.102 E6.67205
G1 X110.446 Y119.502 E6.72563
G1 X109.954 Y119.975 E6.78011
G1 X109.526 Y120.506 E6.83455
G1 X109.167 Y121.088 E6.88914
G1 X108.885 Y121.71 E6.94365
G1 X108.684 Y122.362 E6.99811
G1 X108.567 Y123.035 E7.05264
G1 X108.535 Y123.72 E7.10738
G1 X108.569 Y124.074 E7.13577
G1 X108.538 Y124.074 E7.13824
G1 X108.631 Y124.648 E7.18466
G1 X108.719 Y125.285 E7.23599
G1 X108.747 Y125.548 E7.2571
G1 X108.794 Y126.24 E7.31247
G1 X108.802 Y126.507 E7.33379
G1 X108.801 Y127.155 E7.38552
G1 X108.791 Y127.443 E7.40852
G1 X108.747 Y128.08 E7.45949
G1 X108.715 Y128.395 E7.48476
G1 X108.629 Y129.005 E7.53394
G1 X108.564 Y129.372 E7.56369
G1 X108.426 Y130.009 E7.61572
G1 X108.354 Y130.295 E7.63926
G1 X108.192 Y130.858 E7.68602
G1 X108.063 Y131.247 E7.71874
G1 X107.74 Y132.096 E7.79125
G1 X107.477 Y132.684 E7.84267
G1 X107.354 Y132.934 E7.86491
G1 X107.053 Y133.499 E7.91601
G1 X106.863 Y133.821 E7.94585
G1 X106.55 Y134.321 E7.99294
G1 X106.38 Y134.572 E8.01714
G1 X105.993 Y135.101 E8.06946
G1 X105.781 Y135.369 E8.09674
G1 X105.397 Y135.824 E8.14426
G1 X105.167 Y136.076 E8.1715
G1 X104.751 Y136.506 E8.21926
G1 X104.53 Y136.721 E8.24387
G1 X104.036 Y137.164 E8.29684
G1 X103.799 Y137.361 E8.32144
G1 X103.301 Y137.749 E8.37183
G1 X103.04 Y137.937 E8.39751
G1 X102.513 Y138.29 E8.44814
G1 X102.228 Y138.465 E8.47483
G1 X101.723 Y138.756 E8.52136
G1 X101.416 Y138.92 E8.54914
G1 X100.862 Y139.189 E8.5983
G1 X100.552 Y139.325 E8.62533
G1 X99.993 Y139.55 E8.67343
G1 X99.644 Y139.675 E8.70302
G1 X99.057 Y139.863 E8.75222
G1 X98.749 Y139.95 E8.77777
G1 X98.137 Y140.1 E8.82807
G1 X97.84 Y140.162 E8.85228
G1 X97.203 Y140.273 E8.9039
G1 X96.871 Y140.317 E8.93063
G1 X96.259 Y140.38 E8.97974
G1 X95.963 Y140.401 E9.00343
G1 X95.346 Y140.421 E9.05271
G1 X95.018 Y140.42 E9.07889
G1 X94.406 Y140.398 E9.12777
G1 X94.019 Y140.368 E9.15876
G1 X93.401 Y140.3 E9.20839
G1 X93.113 Y140.259 E9.23161
G1 X92.467 Y140.143 E9.284
G1 X92.163 Y140.077 E9.30883
G1 X91.56 Y139.925 E9.35847
G1 X91.235 Y139.828 E9.38555
G1 X90.663 Y139.641 E9.43358
G1 X90.38 Y139.538 E9.45762
G1 X89.777 Y139.293 E9.50958
G1 X89.487 Y139.162 E9.53498
G1 X89.297 Y139.069 E9.55187
G1 X88.677 Y138.814 E9.60538
G1 X88.018 Y138.636 E9.65987
G1 X87.342 Y138.542 E9.71435
G1 X86.659 Y138.535 E9.76887
G1 X85.981 Y138.614 E9.82336
G1 X85.318 Y138.777 E9.87786
G1 X84.68 Y139.023 E9.93244
G1 X84.102 Y139.335 E9.98487
G1 X84.092 Y139.322 E9.98618
G1 X83.492 Y139.758 E10.04539
G1 X82.939 Y140.129 E10.09854
G1 X82.659 Y140.302 E10.12482
G1 X82.15 Y140.595 E10.1717
G1 X81.82 Y140.769 E10.20148
G1 X81.263 Y141.038 E10.25085
G1 X80.956 Y141.173 E10.27762
G1 X80.412 Y141.39 E10.32438
G1 X80.067 Y141.514 E10.35364
G1 X79.486 Y141.7 E10.40234
G1 X79.178 Y141.787 E10.42788
G1 X78.585 Y141.934 E10.47665
G1 X78.261 Y142 E10.50305
G1 X77.683 Y142.103 E10.54991
G1 X77.285 Y142.157 E10.58197
G1 X76.717 Y142.216 E10.62756
G1 X76.409 Y142.236 E10.6522
G1 X75.775 Y142.258 E10.70283
G1 X75.447 Y142.257 E10.72902
G1 X74.845 Y142.236 E10.7771
G1 X74.512 Y142.213 E10.80375
G1 X73.827 Y142.138 E10.85875
G1 X73.525 Y142.094 E10.88311
G1 X72.709 Y141.942 E10.94937
G1 X72.596 Y141.915 E10.95864
G1 X71.989 Y141.762 E11.00861
G1 X71.664 Y141.665 E11.03569
G1 X71.092 Y141.478 E11.08372
G1 X70.809 Y141.375 E11.10776
G1 X70.197 Y141.126 E11.16051
G1 X69.93 Y141.005 E11.18391
G1 X69.371 Y140.732 E11.23356
G1 X69.066 Y140.568 E11.26121
G1 X68.528 Y140.256 E11.31085
G1 X68.252 Y140.083 E11.33685
G1 X67.762 Y139.751 E11.3841
G1 X67.507 Y139.566 E11.40925
G1 X66.973 Y139.147 E11.46343
G1 X66.737 Y138.947 E11.48812
G1 X66.264 Y138.52 E11.53899
G1 X66.033 Y138.295 E11.56473
G1 X65.613 Y137.859 E11.61305
G1 X65.382 Y137.6 E11.64076
G1 X64.968 Y137.103 E11.69239
G1 X64.777 Y136.855 E11.71738
G1 X64.434 Y136.379 E11.76421
G1 X64.237 Y136.085 E11.79246
G1 X63.913 Y135.565 E11.84137
G1 X63.741 Y135.265 E11.86897
G1 X63.367 Y134.542 E11.93395
G1 X63.31 Y134.419 E11.94477
G1 X63.079 Y133.903 E11.9899
G1 X62.929 Y133.527 E12.02221
G1 X62.729 Y132.968 E12.06961
G1 X62.639 Y132.69 E12.09293
G1 X62.457 Y132.046 E12.14635
G1 X62.385 Y131.754 E12.17036
G1 X62.26 Y131.158 E12.21897
G1 X62.201 Y130.816 E12.24667
G1 X62.117 Y130.215 E12.29511
G1 X62.082 Y129.867 E12.32303
G1 X62.042 Y129.279 E12.37008
G1 X62.03 Y128.961 E12.39548
G1 X62.03 Y128.362 E12.44329
G1 X62.046 Y127.96 E12.47541
G1 X62.087 Y127.373 E12.52238
G1 X62.127 Y127.011 E12.55145
G1 X62.204 Y126.468 E12.59523
G1 X62.269 Y126.101 E12.62498
G1 X62.387 Y125.542 E12.67059
G1 X62.489 Y125.14 E12.70369
G1 X62.638 Y124.619 E12.74695
G1 X62.757 Y124.259 E12.77721
G1 X62.979 Y123.655 E12.82858
G1 X63.083 Y123.398 E12.85071
G1 X63.489 Y122.486 E12.9304
G1 X63.473 Y122.478 E12.93183
G1 X63.561 Y122.255 E12.95096
G1 X63.731 Y121.594 E13.00545
G1 X63.816 Y120.916 E13.05999
G1 X63.814 Y120.234 E13.11443
G1 X63.726 Y119.557 E13.16893
G1 X63.555 Y118.896 E13.22343
G1 X63.3 Y118.262 E13.27798
G1 X62.968 Y117.665 E13.3325
G1 X62.651 Y117.235 E13.37515
G1 X62.672 Y117.221 E13.37716
G1 X62.027 Y116.523 E13.45303
G1 X61.482 Y115.88 E13.52031
G1 X61.261 Y115.598 E13.54891
G1 X60.745 Y114.898 E13.61833
G1 X60.58 Y114.654 E13.64184
G1 X60.12 Y113.932 E13.71018
G1 X59.949 Y113.64 E13.73719
G1 X59.519 Y112.845 E13.80934
G1 X59.391 Y112.586 E13.8324
G1 X59.029 Y111.79 E13.9022
G1 X58.909 Y111.501 E13.92718
G1 X58.614 Y110.719 E13.9939
G1 X58.51 Y110.411 E14.01984
G1 X58.245 Y109.524 E14.09374
G1 X58.163 Y109.207 E14.11988
G1 X57.973 Y108.354 E14.18964
G1 X57.918 Y108.059 E14.21359
G1 X57.784 Y107.185 E14.28417
G1 X57.75 Y106.899 E14.30716
G1 X57.678 Y106.06 E14.37438
G1 X57.661 Y105.679 E14.40483
G1 X57.647 Y104.816 E14.47372
G1 X57.653 Y104.515 E14.49776
G1 X57.701 Y103.615 E14.5697
G1 X57.733 Y103.268 E14.59752
G1 X57.838 Y102.421 E14.66564
G1 X57.891 Y102.1 E14.69161
G1 X58.043 Y101.304 E14.7563
G1 X58.13 Y100.932 E14.7868
G1 X58.339 Y100.141 E14.85211
G1 X58.439 Y99.813 E14.87948
G1 X58.732 Y98.957 E14.9517
G1 X58.815 Y98.734 E14.97069
G1 X59.166 Y97.893 E15.04344
G1 X59.309 Y97.587 E15.0704
G1 X59.693 Y96.822 E15.13873
G1 X59.865 Y96.512 E15.16703
G1 X60.305 Y95.768 E15.23603
G1 X60.452 Y95.536 E15.25795
G1 X60.955 Y94.805 E15.32878
G1 X61.166 Y94.524 E15.35683
G1 X61.686 Y93.869 E15.42359
G1 X61.907 Y93.61 E15.45077
G1 X62.466 Y92.996 E15.51705
G1 X62.701 Y92.755 E15.54392
G1 X63.302 Y92.18 E15.61031
G1 X63.599 Y91.918 E15.64193
G1 X64.248 Y91.378 E15.70932
G1 X64.493 Y91.189 E15.73402
G1 X65.232 Y90.656 E15.80675
M204 S5000
M205 X30 Y30
G0 F7200 X65.6 Y90.416
M204 S1800
M205 X8 Y8
G1 F1125 X65.6 Y137.844 E19.59266
M204 S5000
M205 X30 Y30
G0 F7200 X67.2 Y139.325
M204 S1800
M205 X8 Y8
G1 F1125 X67.2 Y89.5 E23.56991
M204 S5000
M205 X30 Y30
G0 F7200 X68.8 Y88.795
M204 S1800
M205 X8 Y8
G1 F1125 X68.8 Y140.413 E27.69028
M204 S5000
M205 X30 Y30
G0 F7200 X70.4 Y141.208
M204 S1800
M205 X8 Y8
G1 F1125 X70.4 Y88.272 E31.91586
M204 S5000
M205 X30 Y30
G0 F7200 X72 Y87.91
M204 S1800
M205 X8 Y8
G1 F1125 X72 Y141.764 E36.21472
M204 S5000
M205 X30 Y30
G0 F7200 X73.6 Y142.104
M204 S1800
M205 X8 Y8
G1 F1125 X73.6 Y87.708 E40.55684
M204 S5000
M205 X30 Y30
G0 F7200 X75.2 Y87.65
M204 S1800
M205 X8 Y8
G1 F1125 X75.2 Y142.248 E44.91509
M204 S5000
M205 X30 Y30
G0 F7200 X76.8 Y142.208
M204 S1800
M205 X8 Y8
G1 F1125 X76.8 Y87.742 E49.2628
M204 S5000
M205 X30 Y30
G0 F7200 X78.4 Y87.989
M204 S1800
M205 X8 Y8
G1 F1125 X78.4 Y141.972 E53.57196
M204 S5000
M205 X30 Y30
G0 F7200 X80 Y141.536
M204 S1800
M205 X8 Y8
G1 F1125 X80 Y88.385 E57.8147
M204 S5000
M205 X30 Y30
G0 F7200 X81.6 Y88.956
M204 S1800
M205 X8 Y8
G1 F1125 X81.6 Y140.876 E61.95918
M204 S5000
M205 X30 Y30
G0 F7200 X83.2 Y139.954
M204 S1800
M205 X8 Y8
G1 F1125 X83.2 Y89.71 E65.96988
M204 S5000
M205 X30 Y30
G0 F7200 X84.8 Y90.687
M204 S1800
M205 X8 Y8
G1 F1125 X84.8 Y138.977 E69.82459
M204 S5000
M205 X30 Y30
G0 F7200 X86.4 Y138.566
M204 S1800
M205 X8 Y8
G1 F1125 X86.4 Y91.467 E73.58424
M204 S5000
M205 X30 Y30
G0 F7200 X88 Y91.703
M204 S1800
M205 X8 Y8
G1 F1125 X88 Y138.633 E77.33039
M204 S5000
M205 X30 Y30
G0 F7200 X89.6 Y139.213
M204 S1800
M205 X8 Y8
G1 F1125 X89.6 Y91.444 E81.14352
M204 S5000
M205 X30 Y30
G0 F7200 X91.2 Y90.629
M204 S1800
M205 X8 Y8
G1 F1125 X91.2 Y139.816 E85.06984
M204 S5000
M205 X30 Y30
G0 F7200 X92.8 Y140.202
M204 S1800
M205 X8 Y8
G1 F1125 X92.8 Y89.55 E89.1131
M204 S5000
M205 X30 Y30
G0 F7200 X94.4 Y88.709
M204 S1800
M205 X8 Y8
G1 F1125 X94.4 Y140.397 E93.23906
M204 S5000
M205 X30 Y30
G0 F7200 X96 Y140.399
M204 S1800
M205 X8 Y8
G1 F1125 X96 Y88.063 E97.41675
M204 S5000
M205 X30 Y30
G0 F7200 X97.6 Y87.59
M204 S1800
M205 X8 Y8
G1 F1125 X97.6 Y140.204 E101.61662
M204 S5000
M205 X30 Y30
G0 F7200 X99.2 Y139.818
M204 S1800
M205 X8 Y8
G1 F1125 X99.2 Y87.288 E105.8098
M204 S5000
M205 X30 Y30
G0 F7200 X100.8 Y87.125
M204 S1800
M205 X8 Y8
G1 F1125 X100.8 Y139.217 E109.96801
M204 S5000
M205 X30 Y30
G0 F7200 X102.4 Y138.36
M204 S1800
M205 X8 Y8
G1 F1125 X102.4 Y87.121 E114.05812
M204 S5000
M205 X30 Y30
G0 F7200 X104 Y87.266
M204 S1800
M205 X8 Y8
G1 F1125 X104 Y137.194 E118.04359
M204 S5000
M205 X30 Y30
G0 F7200 X105.6 Y135.584
M204 S1800
M205 X8 Y8
G1 F1125 X105.6 Y87.554 E121.87755
M204 S5000
M205 X30 Y30
G0 F7200 X107.2 Y88.01
M204 S1800
M205 X8 Y8
G1 F1125 X107.2 Y133.224 E125.48673
M204 S5000
M205 X30 Y30
G0 F7200 X108.8 Y127.184
M204 S1800
M205 X8 Y8
G1 F1125 X108.8 Y126.441 E125.54604
M204 S5000
M205 X30 Y30
G0 F7200 X108.8 Y121.986
M204 S1800
M205 X8 Y8
G1 F1125 X108.8 Y88.634 E128.20834
M204 S5000
M205 X30 Y30
G0 F7200 X110.4 Y89.458
M204 S1800
M205 X8 Y8
G1 F1125 X110.4 Y119.547 E130.61018
M204 S5000
M205 X30 Y30
G0 F7200 X112 Y118.404
M204 S1800
M205 X8 Y8
G1 F1125 X112 Y90.507 E132.83704
M204 S5000
M205 X30 Y30
G0 F7200 X113.6 Y91.851
M204 S1800
M205 X8 Y8
G1 F1125 X113.6 Y117.072 E134.85028
M204 S5000
M205 X30 Y30
G0 F7200 X115.2 Y115.34
M204 S1800
M205 X8 Y8
G1 F1125 X115.2 Y93.587 E136.5867
M204 S5000
M205 X30 Y30
G0 F7200 X116.8 Y95.937
M204 S1800
M205 X8 Y8
G1 F1125 X116.8 Y112.968 E137.94619
M204 S5000
M205 X30 Y30
G0 F7200 X118.4 Y109.111
M204 S1800
M205 X8 Y8
G1 F1125 X118.4 Y99.821 E138.68776
M204 S5000
M205 X30 Y30
G0 F7200 X64 Y91.584
M204 S1800
M205 X8 Y8
G1 F1125 X64 Y135.704 E142.20961
M204 S5000
M205 X30 Y30
G0 F7200 X62.4 Y131.814
M204 S1800
M205 X8 Y8
G1 F1125 X62.4 Y125.49 E142.71442
M204 S5000
M205 X30 Y30
G0 F7200 X63.279 Y121.501
G0 X63.275 Y119.651
G0 X62.4 Y116.926
M204 S1800
M205 X8 Y8
G1 F1125 X62.4 Y93.068 E144.61887
M204 S5000
M205 X30 Y30
G0 F7200 X60.8 Y95.03
M204 S1800
M205 X8 Y8
G1 F1125 X60.8 Y114.972 E146.21072
M204 S5000
M205 X30 Y30
G0 F7200 X59.2 Y112.166
M204 S1800
M205 X8 Y8
G1 F1125 X59.2 Y97.82 E147.35588
M204 S5000
M205 X30 Y30
G0 F600 X59.2 Y97.82 Z0.54
G0 F7200 X63.353 Y120.263
G0 X64.935 Y137.059
;TIME_ELAPSED:104.267688
;LAYER:-4
M140 S60
M204 S1800
M205 X8 Y8
;TYPE:SUPPORT
G1 F1125 X67.196 Y139.321 E147.675
G1 X66.972 Y139.145 E147.70343
G1 X66.736 Y138.946 E147.73423
G1 X66.264 Y138.519 E147.79774
G1 X66.033 Y138.293 E147.82999
G1 X65.613 Y137.858 E147.89032
G1 X65.381 Y137.598 E147.92509
G1 X64.967 Y137.102 E147.98956
M204 S5000
M205 X30 Y30
G0 F7200 X67.196 Y139.321
M204 S1800
M205 X8 Y8
G1 F1125 X67.506 Y139.565 E148.02892
G1 X67.762 Y139.749 E148.06038
G1 X68.252 Y140.082 E148.11949
G1 X68.527 Y140.255 E148.15191
G1 X69.065 Y140.567 E148.21396
G1 X69.371 Y140.731 E148.24861
G1 X69.93 Y141.004 E148.31068
G1 X70.196 Y141.125 E148.33984
G1 X70.562 Y141.273 E148.37923
G1 X63.003 Y133.714 E149.44589
