;FLAVOR:Marlin
;TIME:1145
;Filament used: 0.604212m
;Layer height: 0.1
;MINX:80.749
;MINY:80.752
;MINZ:0.24
;MAXX:129.25
;MAXY:129.247
;MAXZ:9.79
;Generated with Cura_SteamEngine 4.6.1
M140 S60
M105
M190 S60
M104 S200
M105
M109 S200
M82 ;absolute extrusion mode
G28
G29
M501
G92 E0 ;zero the extruded length
G1 F200 E3 ;extrude 3mm of feed stock
G92 E0 ;zero the extruded length again
G1 F100
M117 Printing...
G5
G92 E0
G92 E0
;LAYER_COUNT:89
;LAYER:-8
M107
M204 S3000
M205 X10 Y10
G0 F6000 X87.974 Y88.012 Z0.24
M204 S1800
M205 X8 Y8
;TYPE:SUPPORT-INTERFACE
G1 F1125 X88.716 Y87.298 E0.0822
G1 X89.211 Y86.857 E0.13512
G1 X89.959 Y86.232 E0.21293
G1 X90.466 Y85.837 E0.26423
G1 X91.319 Y85.217 E0.34841
G1 X91.883 Y84.84 E0.40256
G1 X92.676 Y84.344 E0.47722
G1 X93.291 Y83.991 E0.53383
G1 X94.207 Y83.505 E0.6166
G1 X94.794 Y83.22 E0.66869
G1 X95.709 Y82.814 E0.74859
G1 X96.331 Y82.565 E0.80208
G1 X97.307 Y82.212 E0.88492
G1 X97.874 Y82.028 E0.93251
G1 X98.905 Y81.733 E1.01811
G1 X99.527 Y81.579 E1.06926
G1 X100.503 Y81.371 E1.14892
G1 X101.129 Y81.262 E1.19964
G1 X102.161 Y81.115 E1.28285
G1 X102.848 Y81.045 E1.33797
G1 X103.848 Y80.974 E1.418
G1 X104.508 Y80.953 E1.47071
G1 X105.532 Y80.954 E1.55245
G1 X106.165 Y80.976 E1.60301
G1 X107.182 Y81.047 E1.68439
G1 X107.899 Y81.125 E1.74196
G1 X108.867 Y81.262 E1.82
G1 X109.484 Y81.37 E1.87
G1 X110.553 Y81.599 E1.95727
G1 X111.188 Y81.759 E2.00954
G1 X112.157 Y82.038 E2.09003
G1 X112.793 Y82.247 E2.14347
G1 X113.698 Y82.576 E2.22034
G1 X114.296 Y82.817 E2.2718
G1 X115.281 Y83.257 E2.35792
G1 X115.86 Y83.54 E2.40936
G1 X116.783 Y84.033 E2.49289
G1 X117.354 Y84.365 E2.54561
G1 X118.227 Y84.914 E2.62794
G1 X118.744 Y85.264 E2.67777
G1 X119.555 Y85.853 E2.75778
G1 X120.091 Y86.273 E2.81214
G1 X120.823 Y86.885 E2.8883
G1 X121.333 Y87.344 E2.94307
G1 X122.086 Y88.071 E3.02662
G1 X122.557 Y88.561 E3.08088
G1 X123.233 Y89.313 E3.16159
G1 X123.669 Y89.836 E3.21594
G1 X124.306 Y90.655 E3.29877
G1 X124.658 Y91.141 E3.34667
G1 X125.237 Y92.003 E3.42956
G1 X125.592 Y92.572 E3.48309
G1 X126.091 Y93.437 E3.56281
G1 X126.384 Y93.989 E3.61269
G1 X126.864 Y94.974 E3.70016
G1 X127.109 Y95.527 E3.74844
G1 X127.492 Y96.478 E3.83028
G1 X127.715 Y97.092 E3.88242
G1 X128.042 Y98.102 E3.96716
G1 X128.204 Y98.67 E4.01431
G1 X128.452 Y99.663 E4.09601
G1 X128.586 Y100.288 E4.14704
G1 X128.779 Y101.392 E4.2365
G1 X128.864 Y102.006 E4.28598
G1 X128.969 Y103.004 E4.36608
G1 X129.014 Y103.643 E4.41722
G1 X129.05 Y104.677 E4.49981
G1 X129.049 Y105.342 E4.55289
G1 X129.012 Y106.379 E4.63572
G1 X128.966 Y107.023 E4.68726
G1 X128.855 Y108.07 E4.7713
G1 X128.77 Y108.672 E4.81983
G1 X128.588 Y109.699 E4.90309
G1 X128.453 Y110.332 E4.95476
G1 X128.195 Y111.363 E5.03959
G1 X128.012 Y111.996 E5.09219
G1 X127.718 Y112.901 E5.16815
G1 X127.512 Y113.467 E5.21623
G1 X127.098 Y114.497 E5.30484
G1 X126.814 Y115.131 E5.36029
G1 X126.383 Y116.015 E5.4388
G1 X126.092 Y116.563 E5.48833
G1 X125.551 Y117.498 E5.57456
G1 X125.182 Y118.084 E5.62983
G1 X124.636 Y118.89 E5.70755
G1 X124.242 Y119.431 E5.76097
G1 X123.629 Y120.214 E5.84035
G1 X123.214 Y120.709 E5.89191
G1 X122.518 Y121.482 E5.97494
G1 X122.033 Y121.981 E6.03049
G1 X121.298 Y122.689 E6.11195
G1 X120.816 Y123.12 E6.16356
G1 X120.041 Y123.768 E6.2442
G1 X119.545 Y124.155 E6.29442
G1 X118.681 Y124.782 E6.37964
G1 X118.123 Y125.156 E6.43326
G1 X117.33 Y125.652 E6.50792
G1 X116.713 Y126.007 E6.56474
G1 X115.793 Y126.495 E6.64787
G1 X115.206 Y126.78 E6.69996
G1 X114.291 Y127.186 E6.77987
G1 X113.669 Y127.435 E6.83335
G1 X112.701 Y127.786 E6.91554
G1 X112.126 Y127.972 E6.96378
G1 X111.095 Y128.267 E7.04939
G1 X110.473 Y128.421 E7.10054
G1 X109.497 Y128.628 E7.18018
G1 X108.871 Y128.738 E7.23091
G1 X107.839 Y128.885 E7.31412
G1 X107.152 Y128.955 E7.36925
G1 X106.152 Y129.026 E7.44927
G1 X105.492 Y129.047 E7.50198
G1 X104.468 Y129.046 E7.58372
G1 X103.835 Y129.024 E7.63428
G1 X102.818 Y128.953 E7.71566
G1 X102.101 Y128.875 E7.77323
G1 X101.127 Y128.737 E7.85176
G1 X100.508 Y128.628 E7.90193
G1 X99.447 Y128.401 E7.98854
G1 X98.812 Y128.241 E8.04081
G1 X97.843 Y127.962 E8.1213
G1 X97.207 Y127.753 E8.17474
G1 X96.287 Y127.418 E8.2529
G1 X95.697 Y127.18 E8.30368
G1 X94.719 Y126.743 E8.38919
G1 X94.14 Y126.46 E8.44063
G1 X93.217 Y125.967 E8.52416
G1 X92.646 Y125.635 E8.57689
G1 X91.773 Y125.087 E8.65917
G1 X91.249 Y124.731 E8.70973
G1 X90.44 Y124.144 E8.78952
G1 X89.909 Y123.727 E8.84341
G1 X89.16 Y123.1 E8.92139
G1 X88.665 Y122.654 E8.97457
G1 X87.898 Y121.913 E9.0597
G1 X87.443 Y121.44 E9.11209
G1 X86.767 Y120.687 E9.19287
G1 X86.326 Y120.158 E9.24785
G1 X85.688 Y119.337 E9.33084
G1 X85.333 Y118.846 E9.37921
G1 X84.76 Y117.993 E9.46123
G1 X84.404 Y117.421 E9.51501
G1 X83.905 Y116.555 E9.5948
G1 X83.606 Y115.993 E9.64561
G1 X83.134 Y115.022 E9.73179
G1 X82.891 Y114.472 E9.77979
G1 X82.487 Y113.464 E9.86648
G1 X82.281 Y112.897 E9.91463
G1 X81.958 Y111.897 E9.99852
G1 X81.783 Y111.279 E10.04979
G1 X81.544 Y110.321 E10.1286
G1 X81.411 Y109.696 E10.17961
G1 X81.22 Y108.603 E10.26818
G1 X81.135 Y107.985 E10.31798
G1 X81.031 Y106.996 E10.39736
G1 X80.987 Y106.352 E10.44889
G1 X80.95 Y105.323 E10.53108
G1 X80.951 Y104.658 E10.58416
G1 X80.989 Y103.604 E10.66835
G1 X81.034 Y102.975 E10.71869
G1 X81.145 Y101.931 E10.80249
G1 X81.238 Y101.283 E10.85475
G1 X81.417 Y100.28 E10.93608
G1 X81.555 Y99.635 E10.98873
G1 X81.805 Y98.637 E11.07086
G1 X81.994 Y97.985 E11.12505
G1 X82.283 Y97.097 E11.19959
G1 X82.513 Y96.463 E11.25342
G1 X82.902 Y95.502 E11.33618
G1 X83.187 Y94.867 E11.39174
G1 X83.633 Y93.955 E11.47278
G1 X83.924 Y93.408 E11.52224
G1 X84.459 Y92.486 E11.60733
G1 X84.824 Y91.907 E11.66197
G1 X85.372 Y91.099 E11.7399
G1 X85.763 Y90.563 E11.79286
G1 X86.393 Y89.76 E11.87433
G1 X86.811 Y89.262 E11.92623
G1 X87.482 Y88.518 E12.00621
G1 X87.974 Y88.012 E12.06254
M204 S3000
M205 X10 Y10
G0 F6000 X88 Y87.986
M204 S1800
M205 X8 Y8
G1 F1125 X88 Y122.011 E14.77856
M204 S3000
M205 X10 Y10
G0 F6000 X89.6 Y123.468
M204 S1800
M205 X8 Y8
G1 F1125 X89.6 Y86.531 E17.72704
M204 S3000
M205 X10 Y10
G0 F6000 X91.2 Y85.303
M204 S1800
M205 X8 Y8
G1 F1125 X91.2 Y124.695 E20.87148
M204 S3000
M205 X10 Y10
G0 F6000 X92.8 Y125.724
M204 S1800
M205 X8 Y8
G1 F1125 X92.8 Y84.272 E24.18035
M204 S3000
M205 X10 Y10
G0 F6000 X94.4 Y83.411
M204 S1800
M205 X8 Y8
G1 F1125 X94.4 Y126.587 E27.62685
M204 S3000
M205 X10 Y10
G0 F6000 X96 Y127.302
M204 S1800
M205 X8 Y8
G1 F1125 X96 Y82.697 E31.18741
M204 S3000
M205 X10 Y10
G0 F6000 X97.6 Y82.116
M204 S1800
M205 X8 Y8
G1 F1125 X97.6 Y127.882 E34.84065
M204 S3000
M205 X10 Y10
G0 F6000 X99.2 Y128.338
M204 S1800
M205 X8 Y8
G1 F1125 X99.2 Y81.659 E38.56677
M204 S3000
M205 X10 Y10
G0 F6000 X100.8 Y81.319
M204 S1800
M205 X8 Y8
G1 F1125 X100.8 Y128.679 E42.34725
M204 S3000
M205 X10 Y10
G0 F6000 X102.4 Y128.907
M204 S1800
M205 X8 Y8
G1 F1125 X102.4 Y81.09 E46.16421
M204 S3000
M205 X10 Y10
G0 F6000 X104 Y80.969
M204 S1800
M205 X8 Y8
G1 F1125 X104 Y129.029 E50.00057
M204 S3000
M205 X10 Y10
G0 F6000 X105.6 Y129.044
M204 S1800
M205 X8 Y8
G1 F1125 X105.6 Y80.957 E53.83908
M204 S3000
M205 X10 Y10
G0 F6000 X107.2 Y81.049
M204 S1800
M205 X8 Y8
G1 F1125 X107.2 Y128.951 E57.66283
M204 S3000
M205 X10 Y10
G0 F6000 X108.8 Y128.749
M204 S1800
M205 X8 Y8
G1 F1125 X108.8 Y81.253 E61.45416
M204 S3000
M205 X10 Y10
G0 F6000 X110.4 Y81.567
M204 S1800
M205 X8 Y8
G1 F1125 X110.4 Y128.437 E65.19553
M204 S3000
M205 X10 Y10
G0 F6000 X112 Y128.009
M204 S1800
M205 X8 Y8
G1 F1125 X112 Y81.993 E68.86872
M204 S3000
M205 X10 Y10
G0 F6000 X113.6 Y82.541
M204 S1800
M205 X8 Y8
G1 F1125 X113.6 Y127.461 E72.45443
M204 S3000
M205 X10 Y10
G0 F6000 X115.2 Y126.783
M204 S1800
M205 X8 Y8
G1 F1125 X115.2 Y83.221 E75.93174
M204 S3000
M205 X10 Y10
G0 F6000 X116.8 Y84.043
M204 S1800
M205 X8 Y8
G1 F1125 X116.8 Y125.957 E79.2775
M204 S3000
M205 X10 Y10
G0 F6000 X118.4 Y124.971
M204 S1800
M205 X8 Y8
G1 F1125 X118.4 Y85.032 E82.4656
M204 S3000
M205 X10 Y10
G0 F6000 X120 Y86.202
M204 S1800
M205 X8 Y8
G1 F1125 X120 Y123.8 E85.46684
M204 S3000
M205 X10 Y10
G0 F6000 X121.6 Y122.399
M204 S1800
M205 X8 Y8
G1 F1125 X121.6 Y87.602 E88.24448
M204 S3000
M205 X10 Y10
G0 F6000 X123.2 Y89.277
M204 S1800
M205 X8 Y8
G1 F1125 X123.2 Y120.725 E90.7548
M204 S3000
M205 X10 Y10
G0 F6000 X124.8 Y118.648
M204 S1800
M205 X8 Y8
G1 F1125 X124.8 Y91.353 E92.9336
M204 S3000
M205 X10 Y10
G0 F6000 X126.4 Y94.022
M204 S1800
M205 X8 Y8
G1 F1125 X126.4 Y115.981 E94.68646
M204 S3000
M205 X10 Y10
G0 F6000 X128 Y112.033
M204 S1800
M205 X8 Y8
G1 F1125 X128 Y97.973 E95.80879
M204 S3000
M205 X10 Y10
G0 F6000 X86.4 Y89.751
M204 S1800
M205 X8 Y8
G1 F1125 X86.4 Y120.246 E98.24304
M204 S3000
M205 X10 Y10
G0 F6000 X84.8 Y118.052
M204 S1800
M205 X8 Y8
G1 F1125 X84.8 Y91.945 E100.32701
M204 S3000
M205 X10 Y10
G0 F6000 X83.2 Y94.84
M204 S1800
M205 X8 Y8
G1 F1125 X83.2 Y115.157 E101.9488
M204 S3000
M205 X10 Y10
G0 F6000 X81.6 Y110.545
M204 S1800
M205 X8 Y8
G1 F1125 X81.6 Y99.455 E102.83405
M204 S3000
M205 X10 Y10
G0 F600 X81.6 Y99.455 Z0.39
G0 F6000 X81.411 Y109.695
;TIME_ELAPSED:72.189961
;LAYER:-7
M140 S60
M204 S1800
M205 X8 Y8
;TYPE:SUPPORT
G1 F1125 X81.22 Y108.602 E102.88941
G1 X81.138 Y108.008 E102.91933
G1 X101.988 Y128.858 E104.39041
G1 X102.1 Y128.874 E104.39605
G1 X102.817 Y128.952 E104.43203
G1 X103.547 Y129.003 E104.46854
G1 X80.993 Y106.449 E106.05985
G1 X80.987 Y106.35 E106.0648
G1 X80.949 Y105.322 E106.11612
G1 X80.949 Y104.991 E106.13263
G1 X105.003 Y129.045 E107.82977
G1 X105.492 Y129.046 E107.85417
G1 X106.151 Y129.025 E107.88706
G1 X106.381 Y129.008 E107.89857
G1 X80.987 Y103.615 E109.69022
G1 X80.988 Y103.603 E109.69082
G1 X81.034 Y102.974 E109.72228
G1 X81.103 Y102.316 E109.75529
G1 X107.685 Y128.899 E111.63083
G1 X107.839 Y128.884 E111.63855
G1 X108.87 Y128.737 E111.69051
G1 X108.927 Y128.726 E111.6934
G1 X81.274 Y101.073 E113.64447
G1 X81.416 Y100.279 E113.68471
G1 X81.5 Y99.885 E113.70481
G1 X110.111 Y128.496 E115.72347
G1 X110.472 Y128.42 E115.74188
G1 X111.094 Y128.266 E115.77384
G1 X111.25 Y128.221 E115.78194
G1 X81.776 Y98.746 E117.86153
G1 X81.804 Y98.636 E117.86719
G1 X81.993 Y97.984 E117.90106
G1 X82.1 Y97.656 E117.91827
G1 X112.343 Y127.9 E120.05212
G1 X112.7 Y127.784 E120.07084
G1 X113.392 Y127.534 E120.10755
G1 X82.461 Y96.603 E122.2899
G1 X82.512 Y96.462 E122.29738
G1 X82.864 Y95.592 E122.3442
G1 X114.406 Y127.134 E124.56966
G1 X115.205 Y126.779 E124.61328
G1 X115.38 Y126.693 E124.62301
G1 X83.307 Y94.62 E126.88593
G1 X83.633 Y93.953 E126.92297
G1 X83.778 Y93.678 E126.93848
G1 X116.316 Y126.215 E129.23418
G1 X116.712 Y126.005 E129.25654
G1 X117.225 Y125.71 E129.28606
G1 X84.29 Y92.775 E131.60981
G1 X84.459 Y92.485 E131.62655
G1 X84.823 Y91.906 E131.66067
G1 X84.828 Y91.899 E131.6611
G1 X118.098 Y125.169 E134.00848
G1 X118.122 Y125.155 E134.00987
G1 X118.68 Y124.781 E134.04338
G1 X118.937 Y124.594 E134.05924
G1 X85.4 Y91.057 E136.42545
G1 X85.762 Y90.562 E136.45605
G1 X86.007 Y90.25 E136.47584
G1 X119.749 Y123.992 E138.85652
G1 X120.04 Y123.767 E138.87487
G1 X120.529 Y123.357 E138.90671
G1 X86.638 Y89.466 E141.2979
G1 X86.81 Y89.261 E141.31125
G1 X87.301 Y88.715 E141.34789
G1 X121.285 Y122.699 E143.74564
G1 X121.297 Y122.687 E143.74649
G1 X122.005 Y122.005 E143.79553
G1 X87.993 Y87.993 E146.19526
G1 X88.713 Y87.299 E146.24515
G1 X122.697 Y121.282 E148.64287
G1 X123.213 Y120.708 E148.68138
G1 X123.361 Y120.533 E148.69281
G1 X89.469 Y86.641 E151.08408
G1 X89.958 Y86.231 E151.11591
G1 X90.248 Y86.006 E151.13423
G1 X123.992 Y119.749 E153.51501
G1 X124.24 Y119.431 E153.53513
G1 X124.597 Y118.941 E153.56538
G1 X91.061 Y85.404 E155.93156
G1 X91.317 Y85.216 E155.94741
G1 X91.882 Y84.84 E155.98127
G1 X91.9 Y84.829 E155.98232
G1 X125.171 Y118.1 E158.32977
G1 X125.181 Y118.084 E158.33071
G1 X125.55 Y117.497 E158.3653
G1 X125.709 Y117.224 E158.38106
G1 X92.773 Y84.288 E160.70487
G1 X93.29 Y83.99 E160.73464
G1 X93.683 Y83.783 E160.7568
G1 X126.22 Y116.321 E163.0525
G1 X126.382 Y116.015 E163.06977
G1 X126.693 Y115.379 E163.1051
G1 X94.618 Y83.304 E165.36816
G1 X94.793 Y83.219 E165.37787
G1 X95.593 Y82.865 E165.42151
G1 X127.134 Y114.406 E167.6469
G1 X127.511 Y113.466 E167.69743
G1 X127.537 Y113.395 E167.7012
G1 X96.607 Y82.464 E169.88351
G1 X97.306 Y82.212 E169.92058
G1 X97.655 Y82.099 E169.93889
G1 X127.899 Y112.343 E172.07276
G1 X128.011 Y111.995 E172.091
G1 X128.194 Y111.362 E172.12388
G1 X128.223 Y111.252 E172.12955
G1 X98.748 Y81.778 E174.20914
G1 X98.904 Y81.733 E174.21724
G1 X99.526 Y81.578 E174.24922
G1 X99.887 Y81.502 E174.26762
G1 X128.498 Y110.114 E176.28632
G1 X128.587 Y109.699 E176.30749
G1 X128.724 Y108.925 E176.34671
G1 X101.071 Y81.272 E178.29778
G1 X101.128 Y81.261 E178.30067
G1 X102.159 Y81.115 E178.35262
G1 X102.312 Y81.099 E178.3603
G1 X128.896 Y107.683 E180.23594
G1 X128.965 Y107.022 E180.2691
G1 X129.01 Y106.383 E180.30106
G1 X103.617 Y80.989 E182.09271
G1 X103.847 Y80.973 E182.10421
G1 X104.506 Y80.953 E182.1371
G1 X104.995 Y80.953 E182.1615
G1 X129.049 Y105.007 E183.85864
G1 X129.049 Y104.676 E183.87515
G1 X129.013 Y103.642 E183.92677
G1 X129.007 Y103.551 E183.93132
G1 X106.452 Y80.996 E185.5227
G1 X107.181 Y81.047 E185.55915
G1 X107.898 Y81.124 E185.59513
G1 X108.011 Y81.141 E185.60083
G1 X128.861 Y101.991 E187.07191
G1 X128.778 Y101.392 E187.10208
G1 X128.588 Y100.303 E187.15723
G1 X109.701 Y81.416 E188.48981
G1 X110.551 Y81.598 E188.53318
G1 X111.187 Y81.759 E188.56591
G1 X111.567 Y81.868 E188.58564
G1 X128.137 Y98.439 E189.75477
G1 X128.04 Y98.101 E189.77232
G1 X127.714 Y97.092 E189.82522
G1 X127.491 Y96.477 E189.85786
G1 X127.424 Y96.312 E189.86674
G1 X113.684 Y82.571 E190.83621
G1 X113.697 Y82.575 E190.83689
G1 X114.295 Y82.816 E190.86905
G1 X115.28 Y83.256 E190.92287
G1 X115.859 Y83.54 E190.95505
G1 X116.306 Y83.779 E190.98034
G1 X126.232 Y93.705 E191.68067
G1 X126.089 Y93.437 E191.69582
G1 X125.591 Y92.572 E191.74562
G1 X125.235 Y92.003 E191.77911
G1 X124.657 Y91.14 E191.83093
G1 X124.305 Y90.655 E191.86082
G1 X123.668 Y89.835 E191.91263
G1 X123.232 Y89.312 E191.9466
G1 X123.041 Y89.1 E191.96083
G1 X120.865 Y86.923 E192.1144
G1 X121.331 Y87.343 E192.1457
G1 X122.085 Y88.07 E192.19795
G1 X122.555 Y88.56 E192.23182
M204 S3000
M205 X10 Y10
G0 F6000 X81.411 Y109.695
M204 S1800
M205 X8 Y8
G1 F1125 X100.297 Y128.581 E193.56433
G1 X99.446 Y128.399 E193.60775
G1 X98.811 Y128.24 E193.64041
G1 X98.432 Y128.13 E193.6601
G1 X81.863 Y111.561 E194.82913
G1 X81.957 Y111.896 E194.84649
G1 X82.281 Y112.895 E194.89888
G1 X82.486 Y113.463 E194.92901
G1 X82.577 Y113.69 E194.94121
G1 X96.313 Y127.426 E195.91036
G1 X96.287 Y127.417 E195.91173
G1 X95.697 Y127.178 E195.94349
G1 X94.719 Y126.742 E195.99691
G1 X94.139 Y126.458 E196.02913
G1 X93.693 Y126.219 E196.05438
G1 X83.764 Y116.291 E196.75489
G1 X83.904 Y116.554 E196.76975
G1 X84.403 Y117.42 E196.81962
G1 X84.76 Y117.992 E196.85326
G1 X85.332 Y118.845 E196.90449
G1 X85.687 Y119.336 E196.93472
G1 X86.326 Y120.157 E196.98663
G1 X86.766 Y120.686 E197.02095
G1 X86.954 Y120.895 E197.03498
G1 X89.144 Y123.086 E197.18953
G1 X88.665 Y122.653 E197.22174
G1 X87.897 Y121.912 E197.27499
G1 X87.442 Y121.439 E197.30773
M204 S3000
M205 X10 Y10
G0 F600 X87.442 Y121.439 Z0.49
G0 F6000 X103.491 Y129.2
;TIME_ELAPSED:174.371136
;LAYER:-6
M204 S1800
M205 X8 Y8
;TYPE:SUPPORT-INTERFACE
G1 F1500 X106.515 Y129.2 E197.35802
G1 X106.19 Y129.223 E197.36344
G1 X105.546 Y129.246 E197.37416
G1 X104.512 Y129.247 E197.39135
G1 X103.85 Y129.225 E197.40237
M204 S3000
M205 X10 Y10
G0 F6000 X106.515 Y129.2
M204 S1800
M205 X8 Y8
G1 F1500 X107.25 Y129.148 E197.41462
G1 X107.866 Y129.083 E197.42492
G1 X108.959 Y128.927 E197.44328
G1 X109.599 Y128.811 E197.4541
G1 X109.65 Y128.8 E197.45497
G1 X100.354 Y128.8 E197.60956
G1 X99.527 Y128.625 E197.62362
G1 X98.909 Y128.474 E197.6342
G1 X98.647 Y128.4 E197.63872
G1 X111.356 Y128.4 E197.85008
G1 X112.212 Y128.155 E197.86488
G1 X112.683 Y128 E197.87313
G1 X97.312 Y128 E198.12875
G1 X97.244 Y127.978 E198.12994
G1 X96.258 Y127.621 E198.14738
G1 X96.205 Y127.6 E198.14832
G1 X113.799 Y127.6 E198.44091
G1 X113.821 Y127.592 E198.4413
G1 X114.406 Y127.354 E198.45181
