;FLAVOR:Marlin
;TIME:1693
;Filament used: 0.889613m
;Layer height: 0.15
;Generated with Cura_SteamEngine 3.6.0
M140 S60
M105
M190 S60
M104 S200
M105
M109 S200
M82 ;absolute extrusion mode
G21 ;metric values
G90 ;absolute positioning
M82 ;set extruder to absolute mode
M107 ;start with the fan off
G28 X0 Y0 ;move X/Y to min endstops
G28 Z0 ;move Z to min endstops
G1 Z15.0 F100 ;move the platform down 15mm
G92 E0 ;zero the extruded length
G1 F200 E3 ;extrude 3mm of feed stock
G92 E0 ;zero the extruded length again
G1 F100
M117 Printing...
G5
G92 E0
G1 F2400 E-6
;LAYER_COUNT:155
;LAYER:0
M106 S255
M204 S3000
M205 X10 Y10
G0 F3000 X80.239 Y90.532 Z0.2
M204 S1800
M205 X8 Y8
;TYPE:SKIRT
G1 F2400 E0
G1 X80.701 Y90.183 E0.02696
G1 X81.077 Y89.963 E0.04725
G1 X81.283 Y89.857 E0.05803
G1 X81.815 Y89.629 E0.08498
G1 X82.374 Y89.475 E0.11198
G1 X83.185 Y89.392 E0.14994
G1 X83.598 Y89.39 E0.16918
G1 X84.176 Y89.427 E0.19614
G1 X84.743 Y89.544 E0.2231
G1 X85.122 Y89.669 E0.24169
G1 X85.513 Y89.819 E0.26119
G1 X86.039 Y90.063 E0.28819
G1 X86.65 Y90.474 E0.32247
G1 X87.12 Y90.854 E0.35062
G1 X87.689 Y91.412 E0.38773
G1 X87.946 Y91.717 E0.4063
G1 X89.538 Y90.548 E0.49827
G1 X90.256 Y90.123 E0.53712
G1 X90.935 Y89.808 E0.57197
G1 X91.477 Y89.601 E0.59899
G1 X92.041 Y89.471 E0.62594
G1 X92.596 Y89.419 E0.6519
G1 X93.182 Y89.404 E0.67919
G1 X93.76 Y89.43 E0.70613
G1 X94.33 Y89.534 E0.73311
G1 X94.88 Y89.716 E0.76009
G1 X95.442 Y89.997 E0.78935
G1 X95.921 Y90.283 E0.81532
G1 X96.397 Y90.613 E0.84229
G1 X96.823 Y91.006 E0.86928
G1 X97.154 Y91.404 E0.89339
G1 X97.576 Y91.979 E0.9266
G1 X97.886 Y92.469 E0.9536
G1 X98.036 Y92.776 E0.96951
G1 X98.492 Y93.816 E1.02238
G1 X98.834 Y93.663 E1.03983
G1 X99.39 Y93.501 E1.0668
G1 X99.678 Y93.449 E1.08042
G1 X100.375 Y93.348 E1.11322
G1 X100.952 Y93.305 E1.14016
G1 X101.531 Y93.342 E1.16718
G1 X102.098 Y93.457 E1.19412
G1 X102.434 Y93.566 E1.21056
G1 X102.672 Y93.654 E1.22238
G1 X103.2 Y93.892 E1.24935
G1 X103.69 Y94.2 E1.2763
G1 X104.128 Y94.567 E1.3029
G1 X104.637 Y95.057 E1.3358
G1 X104.738 Y95.169 E1.34283
G1 X104.851 Y95.01 E1.35191
G1 X105.238 Y94.519 E1.38102
G1 X105.628 Y94.09 E1.40802
G1 X106.072 Y93.718 E1.43499
G1 X106.366 Y93.523 E1.45142
G1 X106.853 Y93.229 E1.4779
G1 X107.369 Y92.965 E1.50489
G1 X107.916 Y92.774 E1.53187
G1 X108.484 Y92.66 E1.55885
G1 X109.062 Y92.625 E1.58581
G1 X109.639 Y92.67 E1.61276
G1 X110.348 Y92.775 E1.64614
G1 X110.914 Y92.9 E1.67313
G1 X111.504 Y93.139 E1.70277
G1 X111.825 Y92.41 E1.73986
G1 X112.17 Y91.778 E1.77339
G1 X112.749 Y90.906 E1.82213
G1 X113.102 Y90.446 E1.84912
G1 X113.515 Y90.04 E1.87609
G1 X114.037 Y89.658 E1.90621
G1 X114.523 Y89.357 E1.93283
G1 X115.035 Y89.087 E1.95978
G1 X115.58 Y88.89 E1.98677
G1 X116.146 Y88.769 E2.01372
G1 X116.807 Y88.729 E2.04455
G1 X117.381 Y88.739 E2.07129
G1 X117.958 Y88.789 E2.09825
G1 X118.523 Y88.918 E2.12524
G1 X119.068 Y89.124 E2.15237
G1 X119.742 Y89.435 E2.18693
G1 X120.25 Y89.714 E2.21392
G1 X120.531 Y89.911 E2.2299
G1 X122.031 Y91.056 E2.31777
G1 X122.227 Y90.847 E2.33111
G1 X122.929 Y90.157 E2.37695
G1 X123.369 Y89.78 E2.40393
G1 X123.891 Y89.449 E2.43271
G1 X124.259 Y89.252 E2.45215
G1 X124.787 Y89.015 E2.47909
G1 X125.343 Y88.852 E2.50607
G1 X125.715 Y88.788 E2.52365
G1 X126.127 Y88.736 E2.54299
G1 X126.705 Y88.703 E2.56994
G1 X127.283 Y88.75 E2.59695
G1 X128.074 Y88.951 E2.63495
G1 X128.441 Y89.083 E2.65311
G1 X128.972 Y89.316 E2.68011
G1 X129.465 Y89.62 E2.70708
G1 X129.912 Y89.989 E2.73407
G1 X130.303 Y90.416 E2.76103
G1 X130.632 Y90.892 E2.78797
G1 X130.919 Y91.473 E2.81815
G1 X131.038 Y91.77 E2.83305
G1 X131.216 Y92.321 E2.86001
G1 X131.332 Y93.095 E2.89645
G1 X131.371 Y93.784 E2.92859
G1 X131.363 Y94.371 E2.95592
G1 X131.263 Y95.567 E3.01181
G1 X131.23 Y95.853 E3.02521
G1 X130.84 Y98.398 E3.1451
G1 X130.815 Y98.541 E3.15186
G1 X129.397 Y106.049 E3.50765
G1 X129.374 Y106.163 E3.51306
G1 X127.848 Y113.176 E3.84726
G1 X127.754 Y113.531 E3.86436
G1 X127.257 Y115.128 E3.94224
G1 X127.016 Y115.734 E3.97261
G1 X126.278 Y117.234 E4.05045
G1 X125.987 Y117.735 E4.07743
G1 X125.76 Y118.039 E4.09509
G1 X125.288 Y118.616 E4.12981
G1 X124.891 Y119.038 E4.15678
G1 X124.44 Y119.402 E4.18377
G1 X123.943 Y119.7 E4.21076
G1 X123.662 Y119.83 E4.22517
G1 X123.326 Y119.971 E4.24214
G1 X122.778 Y120.158 E4.2691
G1 X122.209 Y120.267 E4.29608
G1 X121.63 Y120.297 E4.32308
G1 X121.014 Y120.242 E4.35187
G1 X120.67 Y120.185 E4.36811
G1 X120.107 Y120.051 E4.39506
G1 X119.567 Y119.84 E4.42205
G1 X119.174 Y119.629 E4.44282
G1 X118.469 Y119.2 E4.48125
G1 X117.85 Y118.741 E4.51713
G1 X116.73 Y117.738 E4.58714
G1 X116.348 Y117.348 E4.61256
G1 X115.171 Y115.98 E4.69659
G1 X114.977 Y115.736 E4.71111
G1 X114.275 Y114.785 E4.76615
G1 X114.298 Y115.006 E4.7765
G1 X114.467 Y115.832 E4.81576
G1 X114.544 Y116.407 E4.84277
G1 X114.542 Y116.986 E4.86973
G1 X114.459 Y117.559 E4.89669
G1 X114.298 Y118.116 E4.92369
G1 X114.063 Y118.645 E4.95064
G1 X113.606 Y119.333 E4.9891
G1 X113.365 Y119.628 E5.00684
G1 X112.968 Y120.05 E5.03382
G1 X112.517 Y120.414 E5.0608
G1 X112.02 Y120.712 E5.08779
G1 X111.487 Y120.939 E5.11476
G1 X110.928 Y121.091 E5.14174
G1 X110.354 Y121.164 E5.16868
G1 X110.027 Y121.17 E5.18391
G1 X108.94 Y121.148 E5.23454
G1 X108.363 Y121.097 E5.26151
G1 X107.799 Y120.966 E5.28847
G1 X107.688 Y120.924 E5.294
G1 X102.024 Y120.892 E5.55774
G1 X101.747 Y120.981 E5.57129
G1 X101.177 Y121.08 E5.59823
G1 X100.707 Y121.103 E5.62014
G1 X100.335 Y121.1 E5.63746
G1 X99.758 Y121.055 E5.66441
G1 X99.192 Y120.932 E5.69138
G1 X98.648 Y120.731 E5.71838
G1 X98.137 Y120.458 E5.74536
G1 X97.669 Y120.117 E5.77232
G1 X97.252 Y119.715 E5.7993
G1 X97.002 Y119.41 E5.81766
G1 X96.627 Y118.907 E5.84687
G1 X96.313 Y118.42 E5.87385
G1 X96.07 Y117.894 E5.90083
G1 X95.901 Y117.34 E5.92781
G1 X95.81 Y116.768 E5.95477
G1 X95.799 Y116.189 E5.98174
G1 X95.91 Y115.416 E6.0181
G1 X95.963 Y115.195 E6.02869
G1 X95.206 Y116.21 E6.08765
G1 X95.041 Y116.418 E6.10001
G1 X93.833 Y117.84 E6.18689
G1 X93.5 Y118.19 E6.20939
G1 X92.293 Y119.318 E6.28631
G1 X91.864 Y119.668 E6.31209
G1 X91.327 Y120.051 E6.3428
G1 X90.833 Y120.354 E6.36979
G1 X90.338 Y120.574 E6.39501
G1 X89.952 Y120.716 E6.41416
G1 X89.396 Y120.878 E6.44113
G1 X88.823 Y120.962 E6.4681
G1 X88.243 Y120.966 E6.49511
G1 X87.669 Y120.891 E6.52206
G1 X87.309 Y120.801 E6.53934
G1 X87.103 Y120.74 E6.54934
G1 X86.561 Y120.538 E6.57628
G1 X86.051 Y120.263 E6.60326
G1 X85.584 Y119.92 E6.63024
G1 X85.168 Y119.516 E6.65724
G1 X84.916 Y119.206 E6.67584
G1 X84.461 Y118.589 E6.71154
G1 X84.15 Y118.1 E6.73852
G1 X83.943 Y117.66 E6.76117
G1 X83.105 Y115.571 E6.86597
G1 X82.956 Y115.131 E6.88761
G1 X82.217 Y112.47 E7.0162
G1 X82.164 Y112.259 E7.02633
G1 X79.749 Y101.409 E7.54392
G1 X79.722 Y101.276 E7.55024
G1 X78.811 Y96.456 E7.77865
G1 X78.756 Y96.069 E7.79685
G1 X78.654 Y94.985 E7.84755
G1 X78.646 Y94.304 E7.87926
G1 X78.69 Y93.663 E7.90918
G1 X78.769 Y93.09 E7.93611
G1 X78.927 Y92.532 E7.96312
G1 X79.079 Y92.163 E7.9817
G1 X79.198 Y91.91 E7.99472
G1 X79.481 Y91.404 E8.02172
G1 X79.83 Y90.942 E8.04868
G1 X80.239 Y90.532 E8.07564
M204 S3000
M205 X10 Y10
G0 F3000 X80.692 Y90.882
M204 S1800
M205 X8 Y8
G1 F2400 X81.334 Y90.461 E8.11139
G1 X81.54 Y90.355 E8.12218
G1 X82.036 Y90.145 E8.14726
G1 X82.558 Y90.01 E8.17237
G1 X83.187 Y89.952 E8.20178
G1 X83.6 Y89.95 E8.22101
G1 X84.138 Y89.987 E8.24612
G1 X84.665 Y90.104 E8.27126
G1 X84.922 Y90.192 E8.28391
G1 X85.313 Y90.342 E8.30341
G1 X85.801 Y90.571 E8.32851
G1 X86.298 Y90.909 E8.3565
G1 X86.768 Y91.289 E8.38464
G1 X87.261 Y91.773 E8.41681
G1 X87.856 Y92.478 E8.45977
G1 X89.87 Y90.999 E8.57612
G1 X90.492 Y90.631 E8.60977
G1 X91.171 Y90.316 E8.64462
G1 X91.676 Y90.126 E8.66975
G1 X92.203 Y90.013 E8.69484
G1 X92.61 Y89.979 E8.71386
G1 X93.196 Y89.964 E8.74116
G1 X93.734 Y89.99 E8.76624
G1 X94.263 Y90.096 E8.79136
G1 X94.771 Y90.278 E8.81649
G1 X95.155 Y90.478 E8.83665
G1 X95.634 Y90.764 E8.86262
G1 X96.075 Y91.074 E8.88773
G1 X96.466 Y91.445 E8.91282
G1 X96.703 Y91.735 E8.93026
G1 X97.125 Y92.31 E8.96347
G1 X97.523 Y93.001 E9.00061
G1 X98.216 Y94.581 E9.08094
G1 X98.568 Y94.394 E9.0995
G1 X99.062 Y94.176 E9.12465
G1 X99.758 Y94.004 E9.15803
G1 X100.455 Y93.903 E9.19082
G1 X100.993 Y93.865 E9.21594
G1 X101.531 Y93.907 E9.24107
G1 X102.239 Y94.091 E9.27513
G1 X102.477 Y94.179 E9.28694
G1 X102.968 Y94.403 E9.31207
G1 X103.42 Y94.697 E9.33718
G1 X103.739 Y94.971 E9.35676
G1 X104.248 Y95.461 E9.38966
G1 X104.608 Y95.862 E9.41475
G1 X104.811 Y96.181 E9.43236
G1 X104.871 Y96.029 E9.43997
G1 X105.291 Y95.357 E9.47687
G1 X105.678 Y94.866 E9.50598
G1 X106.043 Y94.468 E9.53113
G1 X106.656 Y94.003 E9.56695
G1 X107.143 Y93.709 E9.59344
G1 X107.624 Y93.465 E9.61856
G1 X108.136 Y93.295 E9.64368
G1 X108.667 Y93.203 E9.66877
G1 X109.206 Y93.19 E9.69388
G1 X109.557 Y93.224 E9.7103
G1 X110.266 Y93.329 E9.74367
G1 X110.792 Y93.448 E9.76878
G1 X111.431 Y93.71 E9.80094
G1 X111.782 Y93.895 E9.81942
G1 X112.337 Y92.635 E9.88353
G1 X112.637 Y92.088 E9.91258
G1 X113.216 Y91.216 E9.96132
G1 X113.546 Y90.79 E9.98641
G1 X113.936 Y90.417 E10.01154
G1 X114.331 Y90.134 E10.03416
G1 X114.817 Y89.833 E10.06078
G1 X115.296 Y89.584 E10.08592
G1 X115.805 Y89.408 E10.111
G1 X116.336 Y89.31 E10.13614
G1 X116.797 Y89.289 E10.15763
G1 X117.371 Y89.299 E10.18436
G1 X117.908 Y89.348 E10.20947
G1 X118.432 Y89.476 E10.23459
G1 X118.833 Y89.633 E10.25464
G1 X119.507 Y89.944 E10.2892
G1 X120.191 Y90.356 E10.32639
G1 X122.109 Y91.82 E10.43874
G1 X122.412 Y91.468 E10.46037
G1 X122.619 Y91.246 E10.4745
G1 X123.321 Y90.556 E10.52033
G1 X123.733 Y90.208 E10.54545
G1 X124.155 Y89.943 E10.56865
G1 X124.523 Y89.746 E10.58809
G1 X125.016 Y89.527 E10.61321
G1 X125.785 Y89.344 E10.65001
G1 X126.197 Y89.292 E10.66935
G1 X126.736 Y89.264 E10.69448
G1 X127.272 Y89.316 E10.71956
G1 X127.885 Y89.478 E10.74908
G1 X128.252 Y89.61 E10.76724
G1 X128.744 Y89.829 E10.79232
G1 X129.199 Y90.119 E10.81744
G1 X129.606 Y90.473 E10.84256
G1 X129.956 Y90.883 E10.86766
G1 X130.242 Y91.341 E10.8928
G1 X130.399 Y91.681 E10.91024
G1 X130.518 Y91.978 E10.92514
G1 X130.681 Y92.492 E10.95025
G1 X130.773 Y93.126 E10.98008
G1 X130.812 Y93.815 E11.01221
G1 X130.805 Y94.324 E11.03592
G1 X130.705 Y95.52 E11.0918
G1 X130.676 Y95.768 E11.10343
G1 X130.286 Y98.313 E11.22332
G1 X130.265 Y98.438 E11.22922
G1 X128.847 Y105.946 E11.58501
G1 X128.827 Y106.044 E11.58966
G1 X127.301 Y113.057 E11.92386
G1 X127.22 Y113.365 E11.93869
G1 X126.723 Y114.962 E12.01657
G1 X126.513 Y115.487 E12.0429
G1 X125.775 Y116.987 E12.12074
G1 X125.502 Y117.452 E12.14585
G1 X125.326 Y117.685 E12.15945
G1 X124.854 Y118.262 E12.19416
G1 X124.483 Y118.653 E12.21926
G1 X124.058 Y118.984 E12.24434
G1 X123.446 Y119.313 E12.27669
G1 X123.11 Y119.454 E12.29366
G1 X122.598 Y119.626 E12.31881
G1 X122.067 Y119.72 E12.34392
G1 X121.528 Y119.734 E12.36903
G1 X121.106 Y119.689 E12.38879
G1 X120.762 Y119.632 E12.40503
G1 X120.238 Y119.505 E12.43013
G1 X119.739 Y119.301 E12.45523
G1 X119.465 Y119.151 E12.46978
G1 X118.76 Y118.722 E12.50821
G1 X118.224 Y118.324 E12.53929
G1 X117.104 Y117.321 E12.6093
G1 X116.773 Y116.983 E12.63133
G1 X115.596 Y115.615 E12.71536
G1 X115.427 Y115.404 E12.72795
G1 X113.505 Y112.801 E12.87862
G1 X113.743 Y115.087 E12.98564
G1 X113.919 Y115.945 E13.02642
G1 X113.988 Y116.48 E13.05154
G1 X113.977 Y117.019 E13.07664
G1 X113.886 Y117.55 E13.10173
G1 X113.718 Y118.063 E13.12687
G1 X113.477 Y118.545 E13.15196
G1 X113.172 Y118.979 E13.17666
G1 X112.931 Y119.274 E13.1944
G1 X112.56 Y119.665 E13.21949
G1 X112.135 Y119.997 E13.24461
G1 X111.666 Y120.263 E13.26971
G1 X111.162 Y120.456 E13.29484
G1 X110.636 Y120.573 E13.31994
G1 X110.038 Y120.61 E13.34783
G1 X108.951 Y120.588 E13.39846
G1 X108.414 Y120.537 E13.42358
G1 X107.891 Y120.408 E13.44866
G1 X107.785 Y120.364 E13.454
G1 X101.934 Y120.331 E13.72646
G1 X101.666 Y120.423 E13.73965
G1 X101.136 Y120.521 E13.76475
G1 X100.712 Y120.543 E13.78452
G1 X100.34 Y120.54 E13.80184
G1 X99.802 Y120.496 E13.82697
G1 X99.277 Y120.372 E13.85209
G1 X98.776 Y120.173 E13.87719
G1 X98.31 Y119.902 E13.9023
G1 X97.889 Y119.565 E13.92741
G1 X97.451 Y119.076 E13.95797
G1 X97.076 Y118.573 E13.98719
G1 X96.786 Y118.118 E14.01231
G1 X96.567 Y117.625 E14.03743
G1 X96.424 Y117.105 E14.06255
G1 X96.358 Y116.57 E14.08765
G1 X96.372 Y116.031 E14.11275
G1 X96.455 Y115.547 E14.13562
G1 X96.791 Y114.15 E14.20252
G1 X96.97 Y113.001 E14.25667
G1 X96.984 Y112.833 E14.26452
G1 X96.311 Y113.791 E14.31904
G1 X96.25 Y113.876 E14.32391
G1 X94.758 Y115.876 E14.4401
G1 X94.614 Y116.056 E14.45083
G1 X93.406 Y117.478 E14.53771
G1 X93.117 Y117.78 E14.55717
G1 X91.91 Y118.908 E14.6341
G1 X91.539 Y119.212 E14.65643
G1 X91.002 Y119.595 E14.68715
G1 X90.541 Y119.875 E14.71226
G1 X90.145 Y120.048 E14.73239
G1 X89.759 Y120.19 E14.75154
G1 X89.24 Y120.338 E14.77667
G1 X88.706 Y120.408 E14.80175
G1 X88.166 Y120.398 E14.82689
G1 X87.468 Y120.264 E14.85999
G1 X87.262 Y120.203 E14.86999
G1 X86.758 Y120.012 E14.89509
G1 X86.288 Y119.749 E14.92017
G1 X85.861 Y119.419 E14.9453
G1 X85.366 Y118.873 E14.97961
G1 X84.911 Y118.256 E15.01531
G1 X84.624 Y117.8 E15.0404
G1 X84.463 Y117.451 E15.0583
G1 X83.625 Y115.362 E15.1631
G1 X83.496 Y114.981 E15.18183
G1 X82.757 Y112.32 E15.31043
G1 X82.711 Y112.137 E15.31922
G1 X80.296 Y101.287 E15.8368
G1 X80.272 Y101.172 E15.84227
G1 X79.361 Y96.352 E16.07069
G1 X79.314 Y96.017 E16.08644
G1 X79.212 Y94.933 E16.13714
G1 X79.205 Y94.343 E16.16461
G1 X79.249 Y93.702 E16.19453
G1 X79.325 Y93.168 E16.21965
G1 X79.48 Y92.651 E16.24478
G1 X79.586 Y92.402 E16.25738
G1 X79.705 Y92.149 E16.2704
G1 X79.97 Y91.679 E16.29552
G1 X80.302 Y91.254 E16.32063
G1 X80.692 Y90.882 E16.34573
M204 S3000
M205 X10 Y10
G0 F3000 X81.141 Y91.241
M204 S1800
M205 X8 Y8
G1 F2400 X81.59 Y90.959 E16.37042
G1 X81.796 Y90.853 E16.38121
G1 X82.254 Y90.663 E16.4043
G1 X82.736 Y90.548 E16.42737
G1 X83.19 Y90.512 E16.44858
G1 X83.603 Y90.51 E16.46781
G1 X84.098 Y90.548 E16.49092
G1 X84.721 Y90.714 E16.52095
G1 X85.112 Y90.864 E16.54045
G1 X85.559 Y91.079 E16.56354
G1 X85.945 Y91.345 E16.58537
G1 X86.415 Y91.725 E16.61352
G1 X86.833 Y92.134 E16.64075
G1 X87.765 Y93.239 E16.70806
G1 X90.201 Y91.45 E16.84879
G1 X90.728 Y91.139 E16.87728
G1 X91.407 Y90.824 E16.91214
G1 X91.872 Y90.652 E16.93522
G1 X92.359 Y90.557 E16.95833
G1 X92.624 Y90.539 E16.9707
G1 X93.21 Y90.524 E16.99799
G1 X93.705 Y90.551 E17.02108
G1 X94.19 Y90.658 E17.0442
G1 X94.868 Y90.959 E17.07874
G1 X95.347 Y91.245 E17.10472
G1 X95.751 Y91.532 E17.1278
G1 X96.251 Y92.067 E17.1619
G1 X96.673 Y92.642 E17.19511
G1 X97.01 Y93.226 E17.2265
G1 X97.946 Y95.36 E17.33501
G1 X98.832 Y94.888 E17.38175
G1 X99.287 Y94.691 E17.40484
G1 X99.838 Y94.558 E17.43124
G1 X100.535 Y94.457 E17.46403
G1 X101.03 Y94.425 E17.48713
G1 X101.524 Y94.474 E17.51024
G1 X102.045 Y94.616 E17.53539
G1 X102.283 Y94.704 E17.5472
G1 X102.733 Y94.913 E17.57031
G1 X103.143 Y95.191 E17.59337
G1 X103.351 Y95.374 E17.60627
G1 X103.86 Y95.864 E17.63917
G1 X104.189 Y96.236 E17.6623
G1 X104.457 Y96.663 E17.68577
G1 X104.615 Y96.967 E17.70172
G1 X104.807 Y97.424 E17.72481
G1 X104.924 Y97.906 E17.7479
G1 X104.962 Y98.4 E17.77097
G1 X104.943 Y98.73 E17.78636
G1 X104.872 Y99.363 E17.81602
G1 X104.777 Y99.85 E17.83913
G1 X104.619 Y100.285 E17.86068
G1 X104.234 Y101.14 E17.90434
G1 X104.029 Y101.522 E17.92453
G1 X103.864 Y101.783 E17.93891
G1 X104.331 Y101.74 E17.96074
G1 X104.841 Y101.735 E17.98449
G1 X106.346 Y101.845 E18.05476
G1 X106.628 Y101.889 E18.06805
G1 X105.877 Y100.691 E18.13389
G1 X105.577 Y100.066 E18.16617
