;FLAVOR:Marlin
;TIME:181
;Filament used: 0.0719845m
;Layer height: 0.15
;Generated with Cura_SteamEngine 3.6.0
M140 S60
M105
M190 S60
M104 S200
M105
M109 S200
M82 ;absolute extrusion mode
G21 ;metric values
G90 ;absolute positioning
M82 ;set extruder to absolute mode
M107 ;start with the fan off
G28 X0 Y0 ;move X/Y to min endstops
G28 Z0 ;move Z to min endstops
G1 Z15.0 F100 ;move the platform down 15mm
G92 E0 ;zero the extruded length
G1 F200 E3 ;extrude 3mm of feed stock
G92 E0 ;zero the extruded length again
G1 F100
M117 Printing...
G5
G92 E0
G1 F2400 E-6
;LAYER_COUNT:26
;LAYER:0
M106 S255
M204 S3000
M205 X10 Y10
G0 F3000 X98.191 Y93.145 Z0.2
M204 S1800
M205 X8 Y8
;TYPE:SKIRT
G1 F2400 E0
G1 X98.535 Y92.858 E0.02086
G1 X99.019 Y92.497 E0.04898
G1 X99.506 Y92.184 E0.07593
G1 X100.032 Y91.94 E0.10293
G1 X100.586 Y91.771 E0.1299
G1 X101.043 Y91.692 E0.1515
G1 X101.651 Y91.621 E0.18
G1 X102.23 Y91.594 E0.20699
G1 X102.806 Y91.647 E0.23393
G1 X103.371 Y91.778 E0.26093
G1 X103.805 Y91.938 E0.28247
G1 X104.36 Y92.178 E0.31063
G1 X104.875 Y92.444 E0.33762
G1 X105.086 Y92.593 E0.34965
G1 X105.088 Y92.591 E0.34978
G1 X105.575 Y92.278 E0.37673
G1 X106.1 Y92.034 E0.40369
G1 X106.654 Y91.865 E0.43066
G1 X107.11 Y91.786 E0.45221
G1 X107.715 Y91.715 E0.48058
G1 X108.294 Y91.687 E0.50757
G1 X108.871 Y91.739 E0.53454
G1 X109.435 Y91.87 E0.56151
G1 X109.863 Y92.027 E0.58273
G1 X110.424 Y92.268 E0.61116
G1 X110.939 Y92.533 E0.63813
G1 X111.413 Y92.866 E0.66511
G1 X111.836 Y93.261 E0.69206
G1 X112.137 Y93.622 E0.71394
G1 X112.496 Y94.105 E0.74196
G1 X112.809 Y94.592 E0.76892
G1 X113.051 Y95.118 E0.79588
G1 X113.219 Y95.673 E0.82288
G1 X113.295 Y96.113 E0.84367
G1 X113.367 Y96.717 E0.872
G1 X113.396 Y97.295 E0.89895
G1 X113.345 Y97.873 E0.92597
G1 X113.215 Y98.437 E0.95292
G1 X113.056 Y98.873 E0.97453
G1 X112.814 Y99.436 E1.00306
G1 X112.549 Y99.951 E1.03003
G1 X112.215 Y100.425 E1.05703
G1 X111.82 Y100.848 E1.08398
G1 X111.595 Y101.036 E1.09763
G1 X111.836 Y101.261 E1.11298
G1 X112.137 Y101.622 E1.13487
G1 X112.496 Y102.105 E1.16289
G1 X112.809 Y102.592 E1.18985
G1 X113.051 Y103.118 E1.21681
G1 X113.219 Y103.673 E1.24381
G1 X113.295 Y104.113 E1.2646
G1 X113.367 Y104.717 E1.29293
G1 X113.396 Y105.295 E1.31988
G1 X113.345 Y105.873 E1.34689
G1 X113.215 Y106.437 E1.37384
G1 X113.056 Y106.873 E1.39545
G1 X112.814 Y107.436 E1.42399
G1 X112.549 Y107.951 E1.45096
G1 X112.215 Y108.425 E1.47796
G1 X111.82 Y108.848 E1.50491
G1 X111.46 Y109.148 E1.52673
G1 X110.977 Y109.507 E1.55475
G1 X110.49 Y109.82 E1.58171
G1 X109.964 Y110.062 E1.60867
G1 X109.953 Y110.065 E1.6092
G1 X110.424 Y110.268 E1.63308
G1 X110.939 Y110.533 E1.66005
G1 X111.413 Y110.866 E1.68702
G1 X111.836 Y111.261 E1.71397
G1 X112.137 Y111.622 E1.73586
G1 X112.496 Y112.105 E1.76388
G1 X112.809 Y112.592 E1.79084
G1 X113.051 Y113.118 E1.8178
G1 X113.219 Y113.673 E1.8448
G1 X113.295 Y114.113 E1.86559
G1 X113.367 Y114.717 E1.89392
G1 X113.396 Y115.295 E1.92086
G1 X113.345 Y115.873 E1.94788
G1 X113.215 Y116.437 E1.97483
G1 X113.056 Y116.873 E1.99644
G1 X112.814 Y117.436 E2.02498
G1 X112.549 Y117.951 E2.05195
G1 X112.215 Y118.425 E2.07895
G1 X111.82 Y118.848 E2.1059
G1 X111.46 Y119.148 E2.12772
G1 X110.977 Y119.507 E2.15574
G1 X110.49 Y119.82 E2.1827
G1 X109.964 Y120.062 E2.20966
G1 X109.409 Y120.23 E2.23666
G1 X108.958 Y120.308 E2.25797
G1 X108.349 Y120.379 E2.28652
G1 X107.771 Y120.406 E2.31346
G1 X107.194 Y120.353 E2.34044
G1 X106.63 Y120.222 E2.36741
G1 X106.196 Y120.062 E2.38894
G1 X105.641 Y119.822 E2.4171
G1 X105.126 Y119.556 E2.44409
G1 X104.915 Y119.407 E2.45612
G1 X104.913 Y119.409 E2.45625
G1 X104.426 Y119.722 E2.48321
G1 X103.901 Y119.966 E2.51016
G1 X103.347 Y120.135 E2.53713
G1 X102.891 Y120.214 E2.55868
G1 X102.286 Y120.285 E2.58705
G1 X101.707 Y120.313 E2.61404
G1 X101.13 Y120.261 E2.64102
G1 X100.566 Y120.13 E2.66798
G1 X100.138 Y119.973 E2.68921
G1 X99.577 Y119.732 E2.71764
G1 X99.062 Y119.467 E2.74461
G1 X98.588 Y119.134 E2.77158
G1 X98.165 Y118.739 E2.79853
G1 X97.862 Y118.375 E2.82058
G1 X97.503 Y117.891 E2.84864
G1 X97.19 Y117.403 E2.87564
G1 X96.948 Y116.877 E2.9026
G1 X96.781 Y116.322 E2.92959
G1 X96.705 Y115.885 E2.95024
G1 X96.633 Y115.279 E2.97866
G1 X96.605 Y114.7 E3.00565
G1 X96.656 Y114.123 E3.03262
G1 X96.786 Y113.558 E3.05962
G1 X96.951 Y113.112 E3.08176
G1 X97.193 Y112.554 E3.11008
G1 X97.459 Y112.04 E3.13703
G1 X97.794 Y111.567 E3.16402
G1 X98.191 Y111.145 E3.191
G1 X98.535 Y110.858 E3.21186
G1 X99.019 Y110.497 E3.23998
G1 X99.506 Y110.184 E3.26693
G1 X100.032 Y109.94 E3.29393
G1 X100.049 Y109.935 E3.29476
G1 X99.577 Y109.732 E3.31868
G1 X99.062 Y109.467 E3.34565
G1 X98.588 Y109.134 E3.37262
G1 X98.165 Y108.739 E3.39957
G1 X97.862 Y108.375 E3.42163
G1 X97.503 Y107.891 E3.44969
G1 X97.19 Y107.403 E3.47668
G1 X96.948 Y106.877 E3.50364
G1 X96.781 Y106.322 E3.53063
G1 X96.705 Y105.885 E3.55128
G1 X96.633 Y105.279 E3.5797
G1 X96.605 Y104.7 E3.60669
G1 X96.656 Y104.123 E3.63367
G1 X96.786 Y103.558 E3.66066
G1 X96.951 Y103.112 E3.6828
G1 X97.193 Y102.554 E3.71113
G1 X97.459 Y102.04 E3.73808
G1 X97.794 Y101.567 E3.76506
G1 X98.191 Y101.145 E3.79204
G1 X98.407 Y100.965 E3.80514
G1 X98.165 Y100.739 E3.82055
G1 X97.862 Y100.375 E3.84261
G1 X97.503 Y99.891 E3.87067
G1 X97.19 Y99.403 E3.89766
G1 X96.948 Y98.877 E3.92462
G1 X96.781 Y98.322 E3.95161
G1 X96.705 Y97.885 E3.97227
G1 X96.633 Y97.279 E4.00068
G1 X96.605 Y96.7 E4.02767
G1 X96.656 Y96.123 E4.05465
G1 X96.786 Y95.558 E4.08164
G1 X96.951 Y95.112 E4.10379
G1 X97.193 Y94.554 E4.13211
G1 X97.459 Y94.04 E4.15906
G1 X97.794 Y93.567 E4.18604
G1 X98.191 Y93.145 E4.21302
M204 S3000
M205 X10 Y10
G0 F3000 X98.655 Y93.481
M204 S1800
M205 X8 Y8
G1 F2400 X98.87 Y93.307 E4.2259
G1 X99.354 Y92.946 E4.25402
G1 X99.809 Y92.657 E4.27912
G1 X100.301 Y92.438 E4.30419
G1 X100.821 Y92.294 E4.32932
G1 X101.108 Y92.249 E4.34285
G1 X101.716 Y92.178 E4.37135
G1 X102.255 Y92.155 E4.39647
G1 X102.791 Y92.212 E4.42157
G1 X103.313 Y92.348 E4.44669
G1 X103.583 Y92.452 E4.46016
G1 X104.138 Y92.692 E4.48832
G1 X104.616 Y92.942 E4.51343
G1 X105.051 Y93.26 E4.53852
G1 X105.084 Y93.293 E4.5407
G1 X105.423 Y93.04 E4.56039
G1 X105.878 Y92.75 E4.58552
G1 X106.37 Y92.531 E4.6106
G1 X106.89 Y92.387 E4.63572
G1 X107.176 Y92.342 E4.6492
G1 X107.781 Y92.271 E4.67757
G1 X108.32 Y92.248 E4.70269
G1 X108.856 Y92.305 E4.72779
G1 X109.378 Y92.44 E4.75289
G1 X109.642 Y92.542 E4.76607
G1 X110.203 Y92.783 E4.7945
G1 X110.681 Y93.032 E4.8196
G1 X111.117 Y93.348 E4.84467
G1 X111.502 Y93.726 E4.8698
G1 X111.687 Y93.956 E4.88354
G1 X112.046 Y94.439 E4.91156
G1 X112.335 Y94.894 E4.93666
G1 X112.553 Y95.387 E4.96176
G1 X112.696 Y95.907 E4.98687
G1 X112.739 Y96.179 E4.9997
G1 X112.811 Y96.783 E5.02802
G1 X112.835 Y97.322 E5.05314
G1 X112.78 Y97.858 E5.07823
G1 X112.645 Y98.38 E5.10334
G1 X112.541 Y98.651 E5.11686
G1 X112.299 Y99.214 E5.14539
G1 X112.05 Y99.693 E5.17053
G1 X111.733 Y100.129 E5.19563
G1 X111.355 Y100.514 E5.22075
G1 X111.126 Y100.698 E5.23443
G1 X110.678 Y101.031 E5.26042
G1 X110.681 Y101.032 E5.26057
G1 X111.117 Y101.348 E5.28564
G1 X111.502 Y101.726 E5.31077
G1 X111.687 Y101.956 E5.32451
G1 X112.046 Y102.439 E5.35254
G1 X112.335 Y102.894 E5.37763
G1 X112.553 Y103.387 E5.40273
G1 X112.696 Y103.907 E5.42785
G1 X112.739 Y104.179 E5.44067
G1 X112.811 Y104.783 E5.46899
G1 X112.835 Y105.322 E5.49412
G1 X112.78 Y105.858 E5.51921
G1 X112.645 Y106.38 E5.54431
G1 X112.541 Y106.651 E5.55783
G1 X112.299 Y107.214 E5.58636
G1 X112.05 Y107.693 E5.6115
G1 X111.733 Y108.129 E5.6366
G1 X111.355 Y108.514 E5.66173
G1 X111.126 Y108.698 E5.6754
G1 X110.643 Y109.057 E5.70343
G1 X110.188 Y109.346 E5.72853
G1 X109.695 Y109.564 E5.75363
G1 X109.175 Y109.707 E5.77874
G1 X108.894 Y109.752 E5.79199
G1 X108.285 Y109.823 E5.82054
G1 X107.746 Y109.845 E5.84566
G1 X107.21 Y109.788 E5.87076
G1 X106.688 Y109.652 E5.89588
G1 X106.418 Y109.548 E5.90935
G1 X105.863 Y109.308 E5.9375
G1 X105.385 Y109.058 E5.96262
G1 X104.95 Y108.74 E5.98771
G1 X104.917 Y108.707 E5.98989
G1 X104.578 Y108.96 E6.00958
G1 X104.123 Y109.25 E6.03471
G1 X103.631 Y109.469 E6.05978
G1 X103.111 Y109.613 E6.08491
G1 X102.825 Y109.658 E6.09839
G1 X102.22 Y109.729 E6.12675
G1 X101.681 Y109.752 E6.15188
G1 X101.145 Y109.695 E6.17697
G1 X100.623 Y109.56 E6.20208
G1 X100.359 Y109.458 E6.21526
G1 X99.798 Y109.217 E6.24369
G1 X99.32 Y108.968 E6.26879
G1 X98.884 Y108.652 E6.29386
G1 X98.499 Y108.274 E6.31898
G1 X98.311 Y108.042 E6.33289
G1 X97.952 Y107.558 E6.36095
G1 X97.664 Y107.102 E6.38606
G1 X97.446 Y106.608 E6.4112
G1 X97.304 Y106.088 E6.4363
G1 X97.261 Y105.818 E6.44904
G1 X97.189 Y105.212 E6.47745
G1 X97.166 Y104.674 E6.50253
G1 X97.222 Y104.137 E6.52767
G1 X97.356 Y103.615 E6.55276
G1 X97.465 Y103.335 E6.56675
G1 X97.707 Y102.777 E6.59507
G1 X97.957 Y102.299 E6.62019
G1 X98.276 Y101.864 E6.64531
G1 X98.655 Y101.481 E6.6704
G1 X98.87 Y101.307 E6.68328
G1 X99.323 Y100.969 E6.7096
G1 X99.32 Y100.968 E6.70974
G1 X98.884 Y100.652 E6.73482
G1 X98.499 Y100.274 E6.75994
G1 X98.311 Y100.042 E6.77385
G1 X97.952 Y99.558 E6.80191
G1 X97.664 Y99.102 E6.82702
G1 X97.446 Y98.608 E6.85216
G1 X97.304 Y98.088 E6.87726
G1 X97.261 Y97.818 E6.88999
G1 X97.189 Y97.212 E6.91841
G1 X97.166 Y96.674 E6.94348
G1 X97.222 Y96.137 E6.96862
G1 X97.356 Y95.615 E6.99372
G1 X97.465 Y95.335 E7.00771
G1 X97.707 Y94.777 E7.03603
G1 X97.957 Y94.299 E7.06115
G1 X98.276 Y93.864 E7.08627
G1 X98.655 Y93.481 E7.11136
M204 S3000
M205 X10 Y10
G0 F3000 X98.754 Y94.167
M204 S1800
M205 X8 Y8
G1 F2400 X99.205 Y93.756 E7.13977
G1 X99.689 Y93.395 E7.16789
G1 X100.109 Y93.132 E7.19096
G1 X100.566 Y92.939 E7.21406
G1 X101.173 Y92.805 E7.243
G1 X101.781 Y92.734 E7.27151
G1 X102.276 Y92.716 E7.29457
G1 X102.769 Y92.778 E7.31771
G1 X103.36 Y92.966 E7.34659
G1 X103.915 Y93.206 E7.37474
G1 X104.353 Y93.439 E7.39785
G1 X104.748 Y93.739 E7.42094
G1 X105.042 Y94.061 E7.44124
G1 X105.273 Y93.851 E7.45578
G1 X105.758 Y93.489 E7.48396
G1 X106.178 Y93.225 E7.50706
G1 X106.635 Y93.032 E7.53016
G1 X107.241 Y92.898 E7.55906
G1 X107.846 Y92.827 E7.58743
G1 X108.342 Y92.809 E7.61054
G1 X108.834 Y92.871 E7.63363
G1 X109.421 Y93.056 E7.66229
G1 X109.982 Y93.297 E7.69072
G1 X110.42 Y93.529 E7.7138
G1 X110.816 Y93.828 E7.7369
G1 X111.238 Y94.29 E7.76604
G1 X111.597 Y94.773 E7.79406
G1 X111.86 Y95.193 E7.81714
G1 X112.052 Y95.651 E7.84026
G1 X112.183 Y96.245 E7.86858
G1 X112.255 Y96.849 E7.89691
G1 X112.274 Y97.345 E7.92002
G1 X112.213 Y97.837 E7.94311
G1 X112.027 Y98.43 E7.97204
G1 X111.785 Y98.993 E8.00058
G1 X111.553 Y99.432 E8.0237
G1 X111.253 Y99.827 E8.0468
G1 X110.792 Y100.249 E8.0759
G1 X110.309 Y100.608 E8.10392
G1 X109.889 Y100.871 E8.127
G1 X109.434 Y101.062 E8.14997
G1 X109.982 Y101.297 E8.17774
G1 X110.42 Y101.529 E8.20082
G1 X110.816 Y101.828 E8.22392
G1 X111.238 Y102.29 E8.25306
G1 X111.597 Y102.773 E8.28108
G1 X111.86 Y103.193 E8.30416
G1 X112.052 Y103.651 E8.32728
G1 X112.183 Y104.245 E8.3556
G1 X112.255 Y104.849 E8.38393
G1 X112.274 Y105.345 E8.40704
G1 X112.213 Y105.837 E8.43013
G1 X112.027 Y106.43 E8.45907
G1 X111.785 Y106.993 E8.4876
G1 X111.553 Y107.432 E8.51072
G1 X111.253 Y107.827 E8.53382
G1 X110.792 Y108.249 E8.56292
G1 X110.309 Y108.608 E8.59094
G1 X109.889 Y108.871 E8.61402
G1 X109.431 Y109.063 E8.63714
G1 X108.829 Y109.195 E8.66584
G1 X108.22 Y109.266 E8.69439
G1 X107.724 Y109.284 E8.7175
G1 X107.232 Y109.222 E8.74059
G1 X106.641 Y109.034 E8.76947
G1 X106.086 Y108.794 E8.79762
G1 X105.648 Y108.561 E8.82073
G1 X105.253 Y108.261 E8.84382
G1 X104.959 Y107.939 E8.86412
G1 X104.728 Y108.149 E8.87866
G1 X104.243 Y108.511 E8.90684
G1 X103.823 Y108.775 E8.92994
G1 X103.366 Y108.968 E8.95304
G1 X102.76 Y109.102 E8.98194
G1 X102.155 Y109.173 E9.01031
G1 X101.659 Y109.191 E9.03342
G1 X101.167 Y109.129 E9.05651
G1 X100.58 Y108.944 E9.08517
G1 X100.019 Y108.703 E9.1136
G1 X99.581 Y108.471 E9.13668
G1 X99.185 Y108.172 E9.15978
G1 X98.761 Y107.708 E9.18905
G1 X98.402 Y107.224 E9.21711
G1 X98.14 Y106.803 E9.2402
G1 X97.948 Y106.346 E9.26328
G1 X97.818 Y105.752 E9.29159
G1 X97.746 Y105.146 E9.32001
G1 X97.727 Y104.651 E9.34308
G1 X97.788 Y104.159 E9.36616
G1 X97.978 Y103.558 E9.39551
G1 X98.22 Y103 E9.42383
G1 X98.454 Y102.562 E9.44696
G1 X98.754 Y102.167 E9.47005
G1 X99.205 Y101.756 E9.49847
G1 X99.689 Y101.395 E9.52658
G1 X100.109 Y101.132 E9.54966
G1 X100.566 Y100.939 E9.57276
G1 X100.568 Y100.939 E9.57285
G1 X100.019 Y100.703 E9.60067
G1 X99.581 Y100.471 E9.62375
G1 X99.185 Y100.172 E9.64686
G1 X98.761 Y99.708 E9.67613
G1 X98.402 Y99.224 E9.70419
G1 X98.14 Y98.803 E9.72728
G1 X97.948 Y98.346 E9.75036
G1 X97.818 Y97.752 E9.77867
G1 X97.746 Y97.146 E9.80709
G1 X97.727 Y96.651 E9.83015
G1 X97.788 Y96.159 E9.85324
G1 X97.978 Y95.558 E9.88259
G1 X98.22 Y95 E9.91091
G1 X98.454 Y94.562 E9.93403
G1 X98.754 Y94.167 E9.95713
M204 S3000
M205 X10 Y10
G0 F3000 X99.229 Y94.479
M204 S1800
M205 X8 Y8
G1 F2400 X99.539 Y94.205 E9.9764
G1 X100.023 Y93.844 E10.00451
G1 X100.405 Y93.609 E10.0254
G1 X100.823 Y93.445 E10.0463
G1 X101.238 Y93.361 E10.06602
G1 X101.846 Y93.29 E10.09452
G1 X102.294 Y93.278 E10.11539
G1 X102.738 Y93.345 E10.1363
G1 X103.138 Y93.48 E10.15596
G1 X103.693 Y93.72 E10.18411
G1 X104.087 Y93.934 E10.20499
G1 X104.437 Y94.214 E10.22586
G1 X104.712 Y94.526 E10.24523
G1 X105.013 Y94.929 E10.26865
G1 X105.016 Y94.924 E10.26892
G1 X105.297 Y94.574 E10.28982
G1 X105.608 Y94.3 E10.30912
G1 X106.093 Y93.938 E10.3373
G1 X106.475 Y93.702 E10.35821
G1 X106.892 Y93.538 E10.37908
G1 X107.306 Y93.454 E10.39875
G1 X107.911 Y93.383 E10.42711
G1 X108.36 Y93.371 E10.44803
G1 X108.803 Y93.438 E10.46889
G1 X109.2 Y93.571 E10.48838
G1 X109.761 Y93.812 E10.51681
G1 X110.155 Y94.025 E10.53767
G1 X110.506 Y94.304 E10.55855
G1 X110.789 Y94.624 E10.57844
G1 X111.148 Y95.107 E10.60646
G1 X111.382 Y95.489 E10.62732
G1 X111.545 Y95.907 E10.64821
G1 X111.627 Y96.312 E10.66746
G1 X111.699 Y96.916 E10.69578
G1 X111.713 Y97.364 E10.71665
G1 X111.646 Y97.808 E10.73756
G1 X111.512 Y98.209 E10.75725
G1 X111.27 Y98.772 E10.78578
G1 X111.057 Y99.167 E10.80668
G1 X110.777 Y99.518 E10.82758
G1 X110.458 Y99.8 E10.84741
G1 X109.975 Y100.159 E10.87543
G1 X109.593 Y100.393 E10.89629
G1 X109.175 Y100.556 E10.91718
G1 X108.764 Y100.639 E10.93671
G1 X108.155 Y100.71 E10.96526
G1 X107.706 Y100.722 E10.98617
G1 X107.263 Y100.655 E11.00703
G1 X106.863 Y100.52 E11.02669
G1 X106.308 Y100.28 E11.05485
G1 X105.914 Y100.066 E11.07573
G1 X105.564 Y99.786 E11.0966
G1 X105.287 Y99.472 E11.11609
G1 X104.988 Y99.071 E11.13939
G1 X104.985 Y99.076 E11.13966
G1 X104.704 Y99.426 E11.16056
G1 X104.393 Y99.7 E11.17986
G1 X103.908 Y100.062 E11.20804
G1 X103.526 Y100.298 E11.22895
G1 X103.109 Y100.462 E11.24981
G1 X102.695 Y100.546 E11.26948
G1 X102.09 Y100.617 E11.29785
G1 X101.641 Y100.629 E11.31876
G1 X101.198 Y100.562 E11.33962
G1 X100.801 Y100.429 E11.35912
G1 X100.24 Y100.188 E11.38755
G1 X99.846 Y99.975 E11.40841
G1 X99.495 Y99.696 E11.42928
G1 X99.211 Y99.374 E11.44928
G1 X98.852 Y98.89 E11.47734
G1 X98.618 Y98.508 E11.4982
G1 X98.455 Y98.09 E11.51909
G1 X98.374 Y97.686 E11.53827
G1 X98.302 Y97.08 E11.56669
G1 X98.289 Y96.632 E11.58756
G1 X98.355 Y96.188 E11.60846
G1 X98.492 Y95.78 E11.6285
G1 X98.734 Y95.222 E11.65682
G1 X98.948 Y94.828 E11.6777
G1 X99.229 Y94.479 E11.69857
M204 S3000
M205 X10 Y10
G0 F3000 X99.699 Y94.801
M204 S1800
M205 X8 Y8
G1 F2400 X99.874 Y94.654 E11.70921
G1 X100.358 Y94.293 E11.73732
G1 X100.697 Y94.09 E11.75572
G1 X101.071 Y93.959 E11.77417
G1 X101.303 Y93.917 E11.78515
G1 X101.911 Y93.846 E11.81366
G1 X102.306 Y93.84 E11.83205
