;FLAVOR:Marlin
;TIME:5016
;Filament used: 12.0539m
;Layer height: 0.25
;MINX:60.618
;MINY:60.609
;MINZ:0.2
;MAXX:149.603
;MAXY:149.596
;MAXZ:19.775
;Generated with Cura_SteamEngine 4.10.0
M140 S60
M105
M190 S60
M104 S200
M105
M109 S200
M82 ;absolute extrusion mode
G21 ;metric values
G90 ;absolute positionin
M82 ;absolute extrusion mode
G28
G29
M501
G92 E0 ;zero the extruded length
G1 F200 E3 ;extrude 3mm of feed stock
G92 E0 ;zero the extruded length again
G1 F100
G0 Y20 F100
M117 Printing...
G5
G92 E0
G92 E0
G1 F2400 E-8
;LAYER_COUNT:79
;LAYER:0
M107
M204 S3000
M205 X10 Y10
G1 F600 Z0.275
G0 F3000 X73.614 Y73.676 Z0.275
M204 S1800
M205 X8 Y8
;TYPE:SKIRT
G1 F600 Z0.2
G1 F2400 E0
G1 X74.196 Y73.143 E0.07717
G1 X74.83 Y72.671 E0.15446
G1 X75.508 Y72.266 E0.23169
G1 X76.223 Y71.932 E0.30885
G1 X77.111 Y71.631 E0.40054
G1 X79.759 Y70.909 E0.66893
G1 X82.238 Y70.157 E0.92224
G1 X84.736 Y69.321 E1.17983
G1 X87.146 Y68.438 E1.43081
G1 X89.615 Y67.455 E1.69067
G1 X91.984 Y66.432 E1.943
G1 X94.343 Y65.333 E2.19748
G1 X96.678 Y64.164 E2.45282
G1 X98.969 Y62.935 E2.70704
G1 X100.205 Y62.22 E2.84667
G1 X101.28 Y61.614 E2.96734
G1 X101.986 Y61.262 E3.04448
G1 X102.725 Y60.983 E3.12172
G1 X103.488 Y60.779 E3.19895
G1 X104.268 Y60.655 E3.27618
G1 X105.056 Y60.609 E3.35337
G1 X105.845 Y60.644 E3.4306
G1 X106.627 Y60.758 E3.50787
G1 X107.392 Y60.95 E3.585
G1 X108.135 Y61.219 E3.66227
G1 X108.98 Y61.637 E3.75445
G1 X111.324 Y62.977 E4.01847
G1 X113.618 Y64.204 E4.27286
G1 X115.95 Y65.369 E4.52777
G1 X118.334 Y66.475 E4.78475
G1 X120.705 Y67.496 E5.03718
G1 X123.155 Y68.47 E5.29499
G1 X125.598 Y69.359 E5.54921
G1 X128.044 Y70.174 E5.80132
G1 X130.556 Y70.933 E6.05792
G1 X131.951 Y71.307 E6.19915
G1 X133.154 Y71.643 E6.32128
G1 X133.903 Y71.893 E6.3985
G1 X134.623 Y72.218 E6.47574
G1 X135.306 Y72.614 E6.55294
G1 X135.945 Y73.078 E6.63016
G1 X136.535 Y73.603 E6.70739
G1 X137.068 Y74.186 E6.78463
G1 X137.54 Y74.819 E6.86184
G1 X137.945 Y75.497 E6.93907
G1 X138.28 Y76.212 E7.01628
G1 X138.581 Y77.104 E7.10833
G1 X139.296 Y79.728 E7.37428
G1 X140.057 Y82.237 E7.63066
G1 X140.874 Y84.678 E7.88236
G1 X141.783 Y87.161 E8.14092
G1 X142.744 Y89.57 E8.39454
G1 X143.792 Y91.998 E8.65313
G1 X144.868 Y94.31 E8.90249
G1 X146.056 Y96.68 E9.16173
G1 X147.268 Y98.94 E9.4125
G1 X148.005 Y100.216 E9.55659
G1 X148.605 Y101.285 E9.67646
G1 X148.956 Y101.993 E9.75373
G1 X149.234 Y102.732 E9.83094
G1 X149.436 Y103.495 E9.90812
G1 X149.559 Y104.275 E9.98533
G1 X149.603 Y105.064 E10.06261
G1 X149.567 Y105.853 E10.13984
G1 X149.451 Y106.634 E10.21705
G1 X149.257 Y107.399 E10.29422
G1 X148.987 Y108.141 E10.37143
G1 X148.574 Y108.975 E10.46243
G1 X147.219 Y111.344 E10.7293
G1 X145.999 Y113.626 E10.98233
G1 X144.835 Y115.962 E11.23755
G1 X143.737 Y118.326 E11.49243
G1 X142.707 Y120.722 E11.74745
G1 X141.722 Y123.204 E12.00857
G1 X140.85 Y125.596 E12.25753
G1 X140.027 Y128.07 E12.51248
G1 X139.273 Y130.567 E12.76754
G1 X138.889 Y132.002 E12.9128
G1 X138.571 Y133.143 E13.02862
G1 X138.32 Y133.892 E13.10586
G1 X137.996 Y134.612 E13.18307
G1 X137.6 Y135.295 E13.26027
G1 X137.137 Y135.935 E13.33751
G1 X136.612 Y136.525 E13.41474
G1 X136.03 Y137.058 E13.49191
G1 X135.397 Y137.53 E13.56912
G1 X134.719 Y137.936 E13.6464
G1 X134.004 Y138.271 E13.72361
G1 X133.11 Y138.574 E13.81591
G1 X130.445 Y139.301 E14.08603
G1 X127.957 Y140.056 E14.34027
G1 X125.481 Y140.885 E14.5956
G1 X123.053 Y141.774 E14.84843
G1 X120.607 Y142.75 E15.10595
G1 X118.226 Y143.779 E15.35959
G1 X115.836 Y144.894 E15.61748
G1 X113.543 Y146.041 E15.86819
G1 X111.221 Y147.288 E16.12591
G1 X109.968 Y148.011 E16.26737
G1 X108.946 Y148.588 E16.38214
G1 X108.239 Y148.941 E16.45941
G1 X107.501 Y149.221 E16.53659
G1 X106.738 Y149.424 E16.6138
G1 X105.958 Y149.55 E16.69106
G1 X105.17 Y149.596 E16.76824
G1 X104.381 Y149.562 E16.84547
G1 X103.599 Y149.448 E16.92274
G1 X102.833 Y149.256 E16.99996
G1 X102.091 Y148.988 E17.07711
G1 X101.239 Y148.567 E17.17004
G1 X98.851 Y147.202 E17.439
G1 X96.549 Y145.973 E17.69418
G1 X94.229 Y144.816 E17.94768
G1 X91.834 Y143.707 E18.20577
G1 X89.463 Y142.687 E18.45816
G1 X87.001 Y141.712 E18.7171
G1 X84.578 Y140.83 E18.96924
G1 X82.109 Y140.01 E19.22363
G1 X79.632 Y139.263 E19.47662
G1 X78.242 Y138.89 E19.61735
G1 X77.087 Y138.569 E19.73457
G1 X76.338 Y138.319 E19.81179
G1 X75.618 Y137.995 E19.88899
G1 X74.935 Y137.6 E19.96614
G1 X74.294 Y137.138 E20.04341
G1 X73.704 Y136.613 E20.12063
G1 X73.17 Y136.031 E20.19787
G1 X72.852 Y135.62 E20.24869
G1 X72.42 Y134.958 E20.32598
G1 X72.058 Y134.257 E20.40313
G1 X71.768 Y133.522 E20.48039
G1 X71.635 Y133.084 E20.52516
G1 X70.915 Y130.444 E20.79274
G1 X70.162 Y127.964 E21.04617
G1 X69.337 Y125.497 E21.30054
G1 X68.435 Y123.035 E21.55694
G1 X67.464 Y120.598 E21.81346
G1 X66.441 Y118.229 E22.06578
G1 X65.341 Y115.869 E22.32039
G1 X64.171 Y113.532 E22.57596
G1 X62.94 Y111.238 E22.83053
G1 X62.228 Y110.006 E22.96967
G1 X61.622 Y108.93 E23.09043
G1 X61.27 Y108.223 E23.16766
G1 X60.991 Y107.484 E23.2449
G1 X60.788 Y106.721 E23.3221
G1 X60.663 Y105.941 E23.39935
G1 X60.618 Y105.153 E23.47653
G1 X60.653 Y104.364 E23.55376
G1 X60.767 Y103.582 E23.63103
G1 X60.96 Y102.817 E23.70818
G1 X61.23 Y102.074 E23.78548
G1 X61.646 Y101.232 E23.87732
G1 X63.009 Y98.847 E24.14593
G1 X64.249 Y96.525 E24.40334
G1 X65.39 Y94.235 E24.65352
G1 X66.506 Y91.825 E24.91322
G1 X67.527 Y89.452 E25.16583
G1 X68.5 Y86.999 E25.42388
G1 X69.384 Y84.566 E25.67701
G1 X70.203 Y82.1 E25.9311
G1 X70.95 Y79.623 E26.18409
G1 X71.326 Y78.222 E26.32593
G1 X71.652 Y77.056 E26.44432
G1 X71.903 Y76.307 E26.52156
G1 X72.228 Y75.587 E26.59881
G1 X72.625 Y74.904 E26.67606
G1 X73.088 Y74.265 E26.75322
G1 X73.614 Y73.676 E26.83044
M204 S3000
M205 X10 Y10
G0 F3000 X74.606 Y74.273
M204 S1800
M205 X8 Y8
G1 F2400 X75.167 Y73.804 E26.90194
G1 X75.775 Y73.399 E26.97338
G1 X76.424 Y73.064 E27.0448
G1 X77.406 Y72.711 E27.14684
G1 X80.09 Y71.979 E27.41888
G1 X82.575 Y71.225 E27.67281
G1 X85.078 Y70.388 E27.93089
G1 X87.592 Y69.467 E28.1927
G1 X90.015 Y68.501 E28.44776
G1 X92.443 Y67.454 E28.70632
G1 X94.833 Y66.34 E28.96417
G1 X97.208 Y65.15 E29.22393
G1 X99.497 Y63.923 E29.47789
G1 X100.755 Y63.196 E29.61996
G1 X101.83 Y62.59 E29.74063
G1 X102.485 Y62.266 E29.81209
G1 X103.172 Y62.016 E29.88358
G1 X103.881 Y61.843 E29.95494
G1 X104.606 Y61.748 E30.02644
G1 X105.337 Y61.733 E30.09794
G1 X106.064 Y61.798 E30.16931
G1 X106.781 Y61.941 E30.2408
G1 X107.477 Y62.163 E30.31224
G1 X108.424 Y62.609 E30.4146
G1 X110.769 Y63.949 E30.6787
G1 X113.118 Y65.206 E30.93922
G1 X115.478 Y66.385 E31.19718
G1 X117.847 Y67.484 E31.45255
G1 X120.307 Y68.543 E31.71444
G1 X122.767 Y69.521 E31.97331
G1 X125.193 Y70.404 E32.22576
G1 X127.752 Y71.256 E32.48949
G1 X130.23 Y72.005 E32.74263
G1 X131.65 Y72.385 E32.88637
G1 X132.853 Y72.721 E33.00851
G1 X133.545 Y72.956 E33.07997
G1 X134.207 Y73.265 E33.15141
G1 X134.832 Y73.644 E33.22288
G1 X135.411 Y74.09 E33.29435
G1 X135.938 Y74.596 E33.36579
G1 X136.407 Y75.156 E33.43722
G1 X136.812 Y75.765 E33.50874
G1 X137.148 Y76.414 E33.5802
G1 X137.501 Y77.398 E33.68242
G1 X138.229 Y80.07 E33.95323
G1 X138.989 Y82.574 E34.20911
G1 X139.824 Y85.069 E34.46638
G1 X140.73 Y87.545 E34.7242
G1 X141.715 Y90.014 E34.98413
G1 X142.765 Y92.444 E35.24298
G1 X143.879 Y94.838 E35.50118
G1 X145.054 Y97.183 E35.75767
G1 X146.295 Y99.496 E36.01434
G1 X147.028 Y100.764 E36.15756
G1 X147.628 Y101.833 E36.27743
G1 X147.95 Y102.489 E36.34889
G1 X148.199 Y103.176 E36.42034
G1 X148.371 Y103.887 E36.49187
G1 X148.465 Y104.611 E36.56326
G1 X148.479 Y105.342 E36.63476
G1 X148.413 Y106.07 E36.70624
G1 X148.268 Y106.786 E36.77767
G1 X148.045 Y107.482 E36.84914
G1 X147.602 Y108.419 E36.95049
G1 X146.247 Y110.789 E37.21744
G1 X145.004 Y113.113 E37.47515
G1 X143.811 Y115.506 E37.73662
G1 X142.721 Y117.855 E37.98984
G1 X141.679 Y120.278 E38.24775
G1 X140.68 Y122.793 E38.51237
G1 X139.786 Y125.246 E38.76767
G1 X138.959 Y127.732 E39.02386
G1 X138.201 Y130.242 E39.28025
G1 X137.81 Y131.701 E39.42795
G1 X137.492 Y132.842 E39.54378
G1 X137.257 Y133.535 E39.61533
G1 X136.949 Y134.197 E39.68673
G1 X136.57 Y134.822 E39.7582
G1 X136.125 Y135.401 E39.82961
G1 X135.619 Y135.929 E39.90112
G1 X135.059 Y136.398 E39.97255
G1 X134.45 Y136.803 E40.04407
G1 X133.802 Y137.139 E40.11544
G1 X132.816 Y137.493 E40.21789
G1 X130.138 Y138.224 E40.48933
G1 X127.63 Y138.984 E40.74559
G1 X125.127 Y139.823 E41.00373
G1 X122.638 Y140.734 E41.26291
G1 X120.163 Y141.722 E41.52349
G1 X117.779 Y142.751 E41.7774
G1 X115.363 Y143.879 E42.03813
G1 X112.999 Y145.061 E42.29658
G1 X110.683 Y146.305 E42.55365
G1 X109.417 Y147.036 E42.6966
G1 X108.395 Y147.613 E42.81136
G1 X107.74 Y147.937 E42.88282
G1 X107.054 Y148.187 E42.95422
G1 X106.344 Y148.361 E43.0257
G1 X105.619 Y148.457 E43.09721
G1 X104.889 Y148.472 E43.16861
G1 X104.161 Y148.408 E43.24007
G1 X103.444 Y148.265 E43.31156
G1 X102.748 Y148.044 E43.38297
G1 X101.795 Y147.595 E43.48599
G1 X99.394 Y146.222 E43.75644
G1 X97.075 Y144.984 E44.0135
G1 X94.683 Y143.792 E44.27483
G1 X92.292 Y142.684 E44.53252
G1 X89.915 Y141.662 E44.78553
G1 X87.4 Y140.666 E45.05004
G1 X84.929 Y139.766 E45.30719
G1 X82.464 Y138.947 E45.56119
G1 X79.928 Y138.183 E45.82018
G1 X78.542 Y137.811 E45.96051
G1 X77.387 Y137.49 E46.07773
G1 X76.695 Y137.256 E46.14916
G1 X76.032 Y136.948 E46.22064
G1 X75.407 Y136.569 E46.29212
G1 X74.827 Y136.125 E46.36354
G1 X74.3 Y135.619 E46.43499
G1 X73.774 Y134.983 E46.51569
G1 X73.758 Y134.961 E46.51835
G1 X73.361 Y134.347 E46.58985
G1 X73.033 Y133.694 E46.6613
G1 X72.715 Y132.789 E46.7551
G1 X71.991 Y130.132 E47.02439
G1 X71.234 Y127.638 E47.27925
G1 X70.39 Y125.114 E47.53949
G1 X69.484 Y122.641 E47.79703
G1 X68.51 Y120.198 E48.05421
G1 X67.453 Y117.749 E48.31504
G1 X66.35 Y115.382 E48.57039
G1 X65.159 Y113.005 E48.83037
G1 X63.928 Y110.71 E49.08503
G1 X63.204 Y109.456 E49.22662
G1 X62.598 Y108.38 E49.34738
G1 X62.274 Y107.725 E49.41883
G1 X62.025 Y107.038 E49.49029
G1 X61.851 Y106.328 E49.56177
G1 X61.757 Y105.603 E49.63326
G1 X61.742 Y104.873 E49.70465
G1 X61.807 Y104.145 E49.77613
G1 X61.951 Y103.428 E49.84764
G1 X62.173 Y102.732 E49.91907
G1 X62.618 Y101.788 E50.02112
G1 X63.996 Y99.376 E50.29276
G1 X65.23 Y97.066 E50.54885
G1 X66.414 Y94.689 E50.80852
G1 X67.529 Y92.283 E51.06783
G1 X68.557 Y89.892 E51.32233
G1 X69.554 Y87.379 E51.58669
G1 X70.438 Y84.948 E51.83964
G1 X71.266 Y82.455 E52.09651
G1 X72.03 Y79.919 E52.3555
G1 X72.405 Y78.523 E52.49685
G1 X72.731 Y77.357 E52.61524
G1 X72.966 Y76.665 E52.6867
G1 X73.275 Y76.003 E52.75814
G1 X73.654 Y75.379 E52.82953
G1 X74.1 Y74.8 E52.901
G1 X74.606 Y74.273 E52.97244
M204 S3000
M205 X10 Y10
G0 F3000 X75.105 Y75.356
M204 S1800
M205 X8 Y8
G1 F2400 X75.589 Y74.897 E53.03766
G1 X76.125 Y74.5 E53.10289
G1 X76.704 Y74.17 E53.16805
G1 X77.318 Y73.911 E53.23322
G1 X77.701 Y73.792 E53.27243
G1 X80.355 Y73.068 E53.54144
G1 X82.933 Y72.286 E53.80487
G1 X85.465 Y71.439 E54.06595
G1 X87.975 Y70.52 E54.32732
G1 X90.446 Y69.535 E54.58744
G1 X92.901 Y68.475 E54.84892
G1 X95.334 Y67.342 E55.11136
G1 X97.71 Y66.152 E55.37121
G1 X100.062 Y64.89 E55.63222
G1 X101.305 Y64.172 E55.77258
G1 X102.38 Y63.566 E55.89325
G1 X102.979 Y63.274 E55.95841
G1 X103.609 Y63.055 E56.02364
G1 X104.26 Y62.914 E56.08877
G1 X104.924 Y62.852 E56.15398
G1 X105.591 Y62.87 E56.21923
G1 X106.25 Y62.967 E56.28436
G1 X106.893 Y63.143 E56.34955
G1 X107.511 Y63.394 E56.41477
G1 X107.869 Y63.582 E56.45432
G1 X110.24 Y64.937 E56.72135
G1 X112.59 Y66.194 E56.98196
G1 X114.979 Y67.388 E57.24312
G1 X117.405 Y68.513 E57.50461
G1 X119.845 Y69.564 E57.76439
G1 X122.374 Y70.57 E58.03054
G1 X124.854 Y71.472 E58.28859
G1 X127.396 Y72.319 E58.55059
G1 X129.924 Y73.083 E58.80883
G1 X131.349 Y73.464 E58.95307
G1 X132.552 Y73.8 E59.07521
G1 X133.182 Y74.017 E59.14037
G1 X133.781 Y74.309 E59.20553
G1 X134.342 Y74.67 E59.27076
G1 X134.855 Y75.095 E59.3359
G1 X135.314 Y75.579 E59.40113
G1 X135.711 Y76.114 E59.46627
G1 X136.041 Y76.693 E59.53144
G1 X136.3 Y77.308 E59.5967
G1 X136.42 Y77.693 E59.63613
G1 X137.14 Y80.336 E59.90399
G1 X137.931 Y82.943 E60.17039
G1 X138.769 Y85.445 E60.42841
G1 X139.689 Y87.959 E60.69018
G1 X140.68 Y90.445 E60.95188
G1 X141.729 Y92.873 E61.21051
G1 X142.871 Y95.326 E61.4751
G1 X144.06 Y97.698 E61.73455
G1 X145.314 Y100.037 E61.99407
G1 X146.052 Y101.313 E62.13821
G1 X146.652 Y102.382 E62.25808
G1 X146.942 Y102.982 E62.32324
G1 X147.159 Y103.612 E62.3884
G1 X147.299 Y104.264 E62.45361
G1 X147.36 Y104.927 E62.51871
G1 X147.341 Y105.594 E62.58396
G1 X147.243 Y106.253 E62.64911
G1 X147.066 Y106.896 E62.71433
G1 X146.814 Y107.513 E62.7795
G1 X146.63 Y107.863 E62.81816
G1 X145.259 Y110.26 E63.08819
G1 X144.001 Y112.614 E63.34918
G1 X142.815 Y114.993 E63.60911
G1 X141.691 Y117.414 E63.87012
G1 X140.64 Y119.859 E64.13036
G1 X139.634 Y122.393 E64.39696
G1 X138.734 Y124.863 E64.65402
G1 X137.887 Y127.408 E64.9163
G1 X137.124 Y129.936 E65.17452
G1 X136.731 Y131.401 E65.32284
G1 X136.413 Y132.542 E65.43866
G1 X136.196 Y133.172 E65.50382
G1 X135.905 Y133.772 E65.56902
G1 X135.544 Y134.332 E65.63418
G1 X135.119 Y134.846 E65.69939
G1 X134.635 Y135.305 E65.76462
G1 X134.1 Y135.702 E65.82976
G1 X133.521 Y136.033 E65.89498
G1 X132.907 Y136.292 E65.96014
G1 X132.521 Y136.413 E65.9997
G1 X129.84 Y137.145 E66.27146
G1 X127.261 Y137.927 E66.53498
G1 X124.751 Y138.768 E66.79383
G1 X122.223 Y139.693 E67.05706
G1 X119.762 Y140.675 E67.31616
G1 X117.307 Y141.736 E67.57768
G1 X114.873 Y142.871 E67.8403
G1 X112.51 Y144.054 E68.0987
G1 X110.135 Y145.329 E68.36229
G1 X108.866 Y146.061 E68.50554
G1 X107.844 Y146.638 E68.62031
G1 X107.245 Y146.93 E68.68547
G1 X106.616 Y147.149 E68.7506
G1 X105.964 Y147.29 E68.81582
G1 X105.3 Y147.353 E68.88105
G1 X104.634 Y147.336 E68.94619
G1 X103.975 Y147.239 E69.01133
G1 X103.331 Y147.063 E69.07661
G1 X102.714 Y146.813 E69.14171
G1 X102.351 Y146.623 E69.18177
G1 X99.936 Y145.242 E69.45381
G1 X97.559 Y143.973 E69.71729
G1 X95.195 Y142.795 E69.97556
G1 X92.777 Y141.675 E70.23614
G1 X90.283 Y140.602 E70.50163
G1 X87.799 Y139.618 E70.76289
G1 X85.322 Y138.717 E71.02063
G1 X82.786 Y137.874 E71.28195
G1 X80.247 Y137.108 E71.54128
G1 X78.842 Y136.732 E71.6835
G1 X77.687 Y136.411 E71.80073
G1 X77.057 Y136.194 E71.86588
G1 X76.457 Y135.904 E71.93105
G1 X75.896 Y135.543 E71.99628
G1 X75.382 Y135.119 E72.06144
G1 X74.923 Y134.635 E72.12666
G1 X74.663 Y134.302 E72.16797
G1 X74.304 Y133.741 E72.2331
G1 X74.015 Y133.14 E72.29831
G1 X73.796 Y132.494 E72.36501
G1 X73.079 Y129.865 E72.63148
G1 X72.295 Y127.28 E72.89562
G1 X71.452 Y124.759 E73.15555
G1 X70.524 Y122.227 E73.41925
G1 X69.544 Y119.767 E73.67819
G1 X68.484 Y117.312 E73.93967
G1 X67.351 Y114.879 E74.20211
G1 X66.161 Y112.503 E74.46196
G1 X64.899 Y110.151 E74.72296
G1 X64.179 Y108.906 E74.8636
G1 X63.573 Y107.83 E74.98435
G1 X63.282 Y107.231 E75.04947
G1 X63.064 Y106.601 E75.11466
G1 X62.923 Y105.949 E75.17989
G1 X62.861 Y105.286 E75.24501
G1 X62.879 Y104.619 E75.31025
G1 X62.977 Y103.96 E75.3754
G1 X63.152 Y103.317 E75.44056
G1 X63.404 Y102.699 E75.50583
G1 X63.59 Y102.344 E75.54502
G1 X64.984 Y99.904 E75.8198
G1 X66.221 Y97.588 E76.07655
G1 X67.426 Y95.169 E76.34082
G1 X68.538 Y92.768 E76.59956
G1 X69.604 Y90.289 E76.86343
G1 X70.592 Y87.8 E77.12529
G1 X71.506 Y85.286 E77.38686
G1 X72.339 Y82.777 E77.64537
G1 X73.105 Y80.238 E77.9047
G1 X73.483 Y78.825 E78.04773
G1 X73.809 Y77.659 E78.16612
G1 X74.027 Y77.029 E78.23131
G1 X74.319 Y76.429 E78.29656
G1 X74.68 Y75.869 E78.36171
G1 X75.105 Y75.356 E78.42685
M204 S3000
M205 X10 Y10
G1 F2400 E70.42685
;MESH:fidget_star_8_8.stl
G0 F3000 X78.47 Y79.475
G0 X79.548 Y79.539
G0 X79.534 Y79.525
M204 S1800
M205 X8 Y8
;TYPE:WALL-OUTER
G1 F2400 E78.42685
G1 F900 X79.713 Y79.515 E78.44438
G1 X94.152 Y78.646 E79.85885
G1 X104.976 Y69.051 E81.27326
G1 X105.111 Y68.931 E81.29092
G1 X105.245 Y69.05 E81.30845
G1 X116.07 Y78.646 E82.723
G1 X130.507 Y79.514 E84.13727
G1 X130.687 Y79.525 E84.1549
G1 X130.697 Y79.704 E84.17243
G1 X131.567 Y94.143 E85.58691
G1 X141.162 Y104.966 E87.00125
G1 X141.282 Y105.102 E87.01898
G1 X141.163 Y105.237 E87.03658
G1 X131.567 Y116.061 E88.45106
