;FLAVOR:Marlin
;TIME:5911
;Filament used: 10.8777m
;Layer height: 0.2
;MINX:46.045
;MINY:65.54
;MINZ:0.2
;MAXX:163.954
;MAXY:144.476
;MAXZ:70.6
;Generated with Cura_SteamEngine 4.10.0
M140 S60
M105
M190 S60
M104 S215
M105
M109 S215
M82 ;absolute extrusion mode
G21 ;metric values
G90 ;absolute positionin
M82 ;absolute extrusion mode
G28
G29
M501
G92 E0 ;zero the extruded length
G1 F200 E3 ;extrude 3mm of feed stock
G92 E0 ;zero the extruded length again
G1 F100
G0 Y20 F100
M117 Printing...
G5
G92 E0
G92 E0
G1 F2400 E-6
;LAYER_COUNT:353
;LAYER:0
M107
M204 S3000
M205 X10 Y10
G1 F600 Z0.275
G0 F3000 X53.059 Y69.175 Z0.275
M204 S1800
M205 X8 Y8
;TYPE:SKIRT
G1 F600 Z0.2
G1 F2400 E0
G1 X53.606 Y68.762 E0.06702
G1 X54.177 Y68.375 E0.13447
G1 X54.7 Y68.056 E0.19438
G1 X54.959 Y67.907 E0.2236
G1 X55.453 Y67.631 E0.27893
G1 X56.06 Y67.325 E0.3454
G1 X56.859 Y66.966 E0.43105
G1 X57.419 Y66.731 E0.49044
G1 X57.926 Y66.542 E0.54335
G1 X58.254 Y66.437 E0.57703
G1 X58.94 Y66.23 E0.64709
G1 X59.556 Y66.06 E0.70958
G1 X60.251 Y65.907 E0.77917
G1 X61.13 Y65.755 E0.8664
G1 X61.841 Y65.652 E0.93665
G1 X62.523 Y65.588 E1.00363
G1 X63.263 Y65.551 E1.07608
G1 X63.905 Y65.54 E1.13887
G1 X65.171 Y65.559 E1.26268
G1 X134.326 Y67.969 E8.02909
G1 X135.178 Y68.009 E8.1125
G1 X135.42 Y68.024 E8.1362
G1 X136.215 Y68.087 E8.21419
G1 X136.423 Y68.107 E8.23462
G1 X137.148 Y68.184 E8.30591
G1 X137.76 Y68.273 E8.36639
G1 X138.472 Y68.408 E8.43725
G1 X138.783 Y68.472 E8.4683
G1 X139.48 Y68.625 E8.53808
G1 X140.101 Y68.789 E8.60088
G1 X140.864 Y69.024 E8.67895
G1 X141.113 Y69.106 E8.70459
G1 X141.709 Y69.308 E8.76612
G1 X142.369 Y69.564 E8.83535
G1 X142.973 Y69.827 E8.89976
G1 X143.149 Y69.906 E8.91863
G1 X143.968 Y70.287 E9.00696
G1 X144.541 Y70.583 E9.07002
G1 X145.172 Y70.943 E9.14106
G1 X145.487 Y71.131 E9.17693
G1 X146.108 Y71.511 E9.24812
G1 X146.632 Y71.861 E9.30974
G1 X147.156 Y72.243 E9.37315
G1 X147.319 Y72.365 E9.39306
G1 X147.992 Y72.883 E9.4761
G1 X148.447 Y73.26 E9.53388
G1 X148.637 Y73.43 E9.55881
G1 X149.266 Y74.012 E9.64261
G1 X149.773 Y74.498 E9.71129
G1 X150.24 Y74.986 E9.77733
G1 X150.753 Y75.571 E9.85342
G1 X150.893 Y75.736 E9.87458
G1 X151.373 Y76.315 E9.94812
G1 X151.757 Y76.819 E10.01008
G1 X152.175 Y77.418 E10.0815
G1 X152.365 Y77.699 E10.11467
G1 X152.744 Y78.274 E10.18201
G1 X153.074 Y78.824 E10.24473
G1 X153.443 Y79.5 E10.32004
G1 X153.588 Y79.774 E10.35036
G1 X153.929 Y80.446 E10.42404
G1 X154.198 Y81.037 E10.48754
G1 X154.486 Y81.745 E10.56228
G1 X154.565 Y81.946 E10.5834
G1 X154.803 Y82.581 E10.64971
G1 X155.006 Y83.194 E10.71285
G1 X155.16 Y83.726 E10.76701
G1 X155.371 Y84.499 E10.84536
G1 X155.525 Y85.101 E10.90613
G1 X155.574 Y85.303 E10.92645
G1 X155.757 Y86.114 E11.00775
G1 X163.398 Y122.043 E14.59963
G1 X163.555 Y122.841 E14.67916
G1 X163.602 Y123.102 E14.70509
G1 X163.773 Y124.16 E14.80989
G1 X163.843 Y124.659 E14.85916
G1 X163.905 Y125.377 E14.92963
G1 X163.945 Y126.374 E15.0272
G1 X163.951 Y126.644 E15.05361
G1 X163.954 Y127.192 E15.1072
G1 X163.929 Y127.854 E15.17198
G1 X163.876 Y128.437 E15.22922
G1 X163.798 Y129.081 E15.29265
G1 X163.659 Y129.948 E15.37852
G1 X163.481 Y130.745 E15.45837
G1 X163.305 Y131.441 E15.52857
G1 X163.099 Y132.119 E15.59786
G1 X162.77 Y133.046 E15.69405
G1 X162.531 Y133.664 E15.75884
G1 X162.255 Y134.284 E15.8252
G1 X162.027 Y134.737 E15.87479
G1 X161.859 Y135.052 E15.9097
G1 X161.564 Y135.586 E15.96936
G1 X161.197 Y136.185 E16.03805
G1 X160.676 Y136.955 E16.12896
G1 X160.496 Y137.21 E16.15948
G1 X160.177 Y137.643 E16.21207
G1 X159.774 Y138.145 E16.27502
G1 X159.297 Y138.678 E16.34497
G1 X158.772 Y139.23 E16.41946
G1 X158.279 Y139.703 E16.48627
G1 X157.665 Y140.243 E16.56622
G1 X157.46 Y140.418 E16.59258
G1 X157.049 Y140.755 E16.64455
G1 X156.516 Y141.155 E16.70971
G1 X155.905 Y141.563 E16.78156
G1 X155.742 Y141.666 E16.80041
G1 X155.144 Y142.036 E16.86917
G1 X154.605 Y142.34 E16.92969
G1 X154.054 Y142.619 E16.99008
G1 X153.78 Y142.748 E17.01969
G1 X153.22 Y143.003 E17.07986
G1 X152.582 Y143.26 E17.14712
G1 X151.771 Y143.546 E17.23121
G1 X151.178 Y143.737 E17.29213
G1 X150.514 Y143.913 E17.3593
G1 X149.567 Y144.12 E17.45409
G1 X148.823 Y144.26 E17.52812
G1 X148.173 Y144.35 E17.59229
G1 X147.477 Y144.408 E17.66058
G1 X146.73 Y144.447 E17.73372
G1 X146.478 Y144.456 E17.75838
G1 X145.27 Y144.476 E17.87652
G1 X69.119 Y144.475 E25.32293
G1 X68.335 Y144.464 E25.3996
G1 X68.122 Y144.458 E25.42044
G1 X67.485 Y144.431 E25.48278
G1 X67.099 Y144.409 E25.52059
G1 X66.361 Y144.358 E25.59293
G1 X65.715 Y144.287 E25.65648
G1 X65.051 Y144.185 E25.72217
G1 X64.843 Y144.15 E25.74279
G1 X64.104 Y144.016 E25.81623
G1 X63.462 Y143.871 E25.88059
G1 X62.734 Y143.674 E25.95434
G1 X62.388 Y143.573 E25.98959
G1 X61.712 Y143.369 E26.05863
G1 X61.013 Y143.126 E26.131
G1 X60.436 Y142.897 E26.1917
G1 X60.062 Y142.743 E26.23125
G1 X59.432 Y142.475 E26.2982
G1 X58.834 Y142.19 E26.36297
G1 X58.177 Y141.842 E26.43568
G1 X57.99 Y141.74 E26.4565
G1 X57.307 Y141.354 E26.53322
G1 X56.685 Y140.967 E26.60485
G1 X56.172 Y140.618 E26.66552
G1 X55.882 Y140.414 E26.7002
G1 X55.334 Y140.02 E26.76619
G1 X54.803 Y139.603 E26.83222
G1 X54.213 Y139.096 E26.90828
G1 X54.059 Y138.96 E26.92837
G1 X53.494 Y138.448 E27.00293
G1 X53.033 Y137.998 E27.06593
G1 X52.609 Y137.546 E27.12653
G1 X52.105 Y136.993 E27.19969
G1 X51.747 Y136.581 E27.25306
G1 X51.254 Y135.958 E27.33075
G1 X50.826 Y135.37 E27.40187
G1 X50.357 Y134.701 E27.48176
G1 X50.027 Y134.191 E27.54116
G1 X49.648 Y133.543 E27.61457
G1 X49.467 Y133.221 E27.65069
G1 X49.133 Y132.609 E27.71886
G1 X48.829 Y131.992 E27.78612
G1 X48.55 Y131.361 E27.85359
G1 X48.412 Y131.037 E27.88802
G1 X48.171 Y130.453 E27.9498
G1 X47.933 Y129.799 E28.01785
G1 X47.711 Y129.101 E28.08948
G1 X47.611 Y128.769 E28.12338
G1 X47.417 Y128.096 E28.19187
G1 X47.288 Y127.584 E28.2435
G1 X47.169 Y127.016 E28.30025
G1 X47.068 Y126.46 E28.35551
G1 X46.952 Y125.766 E28.42431
G1 X46.855 Y125.003 E28.49952
G1 X46.803 Y124.397 E28.559
G1 X46.754 Y123.644 E28.63279
G1 X46.743 Y123.412 E28.6555
G1 X46.709 Y122.406 E28.75392
G1 X46.045 Y84.158 E32.49456
G1 X46.046 Y83.448 E32.56399
G1 X46.075 Y82.475 E32.65917
G1 X46.113 Y81.79 E32.72626
G1 X46.189 Y81.083 E32.79579
G1 X46.318 Y80.239 E32.87928
G1 X46.417 Y79.689 E32.93393
G1 X46.576 Y79.014 E33.00174
G1 X46.839 Y78.087 E33.09596
G1 X46.997 Y77.577 E33.14817
G1 X47.253 Y76.886 E33.22023
G1 X47.626 Y76.009 E33.31342
G1 X47.869 Y75.476 E33.3707
G1 X48.198 Y74.844 E33.44037
G1 X48.6 Y74.151 E33.51871
G1 X48.737 Y73.923 E33.54472
G1 X49.029 Y73.457 E33.5985
G1 X49.392 Y72.929 E33.66115
G1 X49.822 Y72.365 E33.7305
G1 X50.311 Y71.766 E33.80612
G1 X50.785 Y71.237 E33.87557
G1 X51.351 Y70.66 E33.95461
G1 X51.828 Y70.198 E34.01954
G1 X52.357 Y69.735 E34.08829
G1 X53.059 Y69.175 E34.1761
M204 S3000
M205 X10 Y10
G0 F3000 X53.757 Y70.051
M204 S1800
M205 X8 Y8
G1 F2400 X54.276 Y69.66 E34.23964
G1 X54.764 Y69.328 E34.29735
G1 X55.262 Y69.025 E34.35436
G1 X55.505 Y68.884 E34.38183
G1 X55.999 Y68.608 E34.43716
G1 X56.519 Y68.347 E34.49405
G1 X57.318 Y67.988 E34.57971
G1 X57.846 Y67.767 E34.63568
G1 X58.395 Y67.567 E34.69281
G1 X58.577 Y67.509 E34.71149
G1 X59.263 Y67.302 E34.78156
G1 X59.846 Y67.142 E34.84068
G1 X60.442 Y67.011 E34.90035
G1 X61.321 Y66.859 E34.98758
G1 X61.995 Y66.761 E35.05418
G1 X62.579 Y66.706 E35.11154
G1 X63.319 Y66.669 E35.18399
G1 X63.888 Y66.66 E35.23963
G1 X65.287 Y66.682 E35.37645
G1 X134.374 Y69.092 E42.13622
G1 X135.124 Y69.128 E42.20964
G1 X135.332 Y69.141 E42.23002
G1 X136.127 Y69.204 E42.308
G1 X136.304 Y69.22 E42.32538
G1 X137.029 Y69.297 E42.39667
G1 X137.554 Y69.374 E42.44856
G1 X138.247 Y69.505 E42.51753
G1 X138.543 Y69.566 E42.54708
G1 X139.24 Y69.719 E42.61686
G1 X139.772 Y69.859 E42.67065
G1 X140.518 Y70.089 E42.74699
G1 X140.753 Y70.166 E42.77117
G1 X141.349 Y70.368 E42.8327
G1 X141.922 Y70.59 E42.89279
G1 X142.526 Y70.853 E42.95721
G1 X142.677 Y70.921 E42.9734
G1 X143.496 Y71.302 E43.06173
G1 X143.986 Y71.556 E43.1157
G1 X144.602 Y71.908 E43.18508
G1 X144.903 Y72.086 E43.21927
G1 X145.524 Y72.466 E43.29046
G1 X145.972 Y72.766 E43.34319
G1 X146.496 Y73.148 E43.4066
G1 X146.635 Y73.252 E43.42357
G1 X147.308 Y73.77 E43.50662
G1 X147.715 Y74.107 E43.55829
G1 X147.877 Y74.253 E43.57961
G1 X148.491 Y74.821 E43.6614
G1 X148.998 Y75.307 E43.73008
G1 X149.397 Y75.725 E43.78658
G1 X149.91 Y76.31 E43.86267
G1 X150.031 Y76.451 E43.88084
G1 X150.511 Y77.03 E43.95438
G1 X150.84 Y77.462 E44.00748
G1 X151.247 Y78.045 E44.077
G1 X151.429 Y78.316 E44.10892
G1 X151.808 Y78.891 E44.17627
G1 X152.092 Y79.361 E44.22996
G1 X152.455 Y80.026 E44.30405
G1 X152.589 Y80.281 E44.33222
G1 X152.93 Y80.953 E44.4059
G1 X153.161 Y81.459 E44.46029
G1 X153.449 Y82.167 E44.53504
G1 X153.516 Y82.34 E44.55318
G1 X153.754 Y82.975 E44.61949
G1 X153.936 Y83.525 E44.67614
G1 X154.106 Y84.113 E44.73599
G1 X154.286 Y84.776 E44.80317
G1 X154.44 Y85.378 E44.86393
G1 X154.662 Y86.347 E44.96114
G1 X162.299 Y122.259 E48.55131
G1 X162.456 Y123.057 E48.63084
G1 X162.496 Y123.281 E48.65309
G1 X162.667 Y124.339 E48.75789
G1 X162.732 Y124.807 E48.80409
G1 X162.786 Y125.422 E48.86446
G1 X162.826 Y126.419 E48.96203
G1 X162.831 Y126.65 E48.98463
G1 X162.834 Y127.198 E49.03821
G1 X162.813 Y127.765 E49.09369
G1 X162.765 Y128.302 E49.14641
G1 X162.687 Y128.946 E49.20985
G1 X162.562 Y129.719 E49.28642
G1 X162.391 Y130.489 E49.36355
G1 X162.22 Y131.164 E49.43164
G1 X162.043 Y131.744 E49.49093
G1 X161.714 Y132.671 E49.58712
G1 X161.489 Y133.254 E49.64823
G1 X161.253 Y133.784 E49.70496
G1 X160.94 Y134.397 E49.77226
G1 X160.584 Y135.044 E49.84447
G1 X160.27 Y135.557 E49.90329
G1 X159.749 Y136.327 E49.9942
G1 X159.594 Y136.546 E50.02043
G1 X159.275 Y136.979 E50.07302
G1 X158.93 Y137.409 E50.12693
G1 X158.474 Y137.919 E50.19383
G1 X157.961 Y138.457 E50.26652
G1 X157.54 Y138.862 E50.32365
G1 X156.926 Y139.402 E50.4036
G1 X156.75 Y139.552 E50.42621
G1 X156.339 Y139.889 E50.47819
G1 X155.882 Y140.231 E50.534
G1 X155.292 Y140.625 E50.60338
G1 X155.153 Y140.714 E50.61952
G1 X154.555 Y141.084 E50.68828
G1 X154.093 Y141.344 E50.74012
G1 X153.575 Y141.607 E50.79693
G1 X153.316 Y141.728 E50.82488
G1 X152.756 Y141.983 E50.88505
G1 X152.21 Y142.204 E50.94265
G1 X151.399 Y142.49 E51.02674
G1 X150.844 Y142.668 E51.08373
G1 X150.274 Y142.819 E51.14139
G1 X149.327 Y143.026 E51.23618
G1 X148.623 Y143.158 E51.30622
G1 X148.067 Y143.235 E51.36111
G1 X147.397 Y143.291 E51.42685
G1 X147.253 Y143.3 E51.44096
G1 X146.674 Y143.329 E51.49765
G1 X146.459 Y143.336 E51.51868
G1 X145.27 Y143.356 E51.63497
G1 X69.134 Y143.355 E59.07991
G1 X68.35 Y143.344 E59.15658
G1 X68.169 Y143.339 E59.17429
G1 X67.546 Y143.313 E59.23526
G1 X67.176 Y143.292 E59.2715
G1 X66.438 Y143.241 E59.34383
G1 X65.885 Y143.18 E59.39824
G1 X65.221 Y143.078 E59.46393
G1 X65.043 Y143.048 E59.48158
G1 X64.304 Y142.914 E59.55502
G1 X63.754 Y142.79 E59.61015
G1 X63.043 Y142.597 E59.68219
G1 X62.711 Y142.501 E59.71599
G1 X62.035 Y142.297 E59.78503
G1 X61.424 Y142.084 E59.84831
G1 X60.862 Y141.861 E59.90743
G1 X60.5 Y141.712 E59.94571
G1 X59.87 Y141.444 E60.01266
G1 X59.358 Y141.2 E60.06812
G1 X58.701 Y140.852 E60.14082
G1 X58.541 Y140.765 E60.15863
G1 X57.858 Y140.379 E60.23534
G1 X57.314 Y140.041 E60.29797
G1 X56.894 Y139.756 E60.3476
G1 X56.535 Y139.505 E60.39043
G1 X55.987 Y139.111 E60.45643
G1 X55.533 Y138.753 E60.51297
G1 X54.943 Y138.246 E60.58904
G1 X54.811 Y138.13 E60.60622
G1 X54.246 Y137.618 E60.68078
G1 X53.831 Y137.211 E60.73762
G1 X53.482 Y136.841 E60.78735
G1 X52.933 Y136.239 E60.86702
G1 X52.596 Y135.851 E60.91728
G1 X52.143 Y135.277 E60.98878
G1 X51.735 Y134.715 E61.05669
G1 X51.274 Y134.059 E61.13509
G1 X50.984 Y133.608 E61.18752
G1 X50.674 Y133.08 E61.2474
G1 X50.45 Y132.684 E61.29188
G1 X50.116 Y132.072 E61.36006
G1 X49.852 Y131.537 E61.4184
G1 X49.579 Y130.921 E61.48428
G1 X49.447 Y130.61 E61.51732
G1 X49.206 Y130.026 E61.5791
G1 X49 Y129.46 E61.638
G1 X48.783 Y128.775 E61.70826
G1 X48.687 Y128.459 E61.74055
G1 X48.493 Y127.786 E61.80904
G1 X48.311 Y127.015 E61.88651
G1 X48.191 Y126.384 E61.94932
G1 X48.056 Y125.581 E62.02894
G1 X47.968 Y124.879 E62.09812
G1 X47.92 Y124.309 E62.15405
G1 X47.872 Y123.573 E62.22618
G1 X47.862 Y123.374 E62.24566
G1 X47.829 Y122.386 E62.34233
G1 X47.165 Y84.153 E66.0815
G1 X47.166 Y83.481 E66.14721
G1 X47.195 Y82.508 E66.24239
G1 X47.231 Y81.857 E66.30615
G1 X47.296 Y81.252 E66.36565
G1 X47.425 Y80.408 E66.44914
G1 X47.517 Y79.897 E66.49991
G1 X47.654 Y79.32 E66.5579
G1 X47.917 Y78.393 E66.65212
G1 X48.065 Y77.916 E66.70096
G1 X48.284 Y77.325 E66.76259
G1 X48.657 Y76.448 E66.85578
G1 X48.885 Y75.947 E66.90961
G1 X49.167 Y75.406 E66.96927
G1 X49.569 Y74.713 E67.04761
G1 X49.686 Y74.518 E67.06984
G1 X49.978 Y74.052 E67.12362
G1 X50.289 Y73.6 E67.17727
G1 X50.689 Y73.074 E67.24189
G1 X51.178 Y72.475 E67.3175
G1 X51.584 Y72.021 E67.37706
G1 X52.15 Y71.444 E67.45609
G1 X52.603 Y71.007 E67.51764
G1 X53.055 Y70.611 E67.5764
G1 X53.757 Y70.051 E67.66421
M204 S3000
M205 X10 Y10
G0 F3000 X54.456 Y70.927
M204 S1800
M205 X8 Y8
G1 F2400 X54.945 Y70.558 E67.72412
G1 X55.696 Y70.07 E67.81169
G1 X56.051 Y69.862 E67.85193
G1 X56.545 Y69.586 E67.90726
G1 X56.978 Y69.368 E67.95467
G1 X57.777 Y69.009 E68.04032
G1 X58.273 Y68.802 E68.09288
G1 X58.749 Y68.629 E68.1424
G1 X58.901 Y68.581 E68.15799
G1 X59.587 Y68.374 E68.22805
G1 X60.137 Y68.224 E68.2838
G1 X60.633 Y68.114 E68.33348
G1 X61.512 Y67.962 E68.42071
G1 X62.149 Y67.871 E68.48363
G1 X62.635 Y67.825 E68.53137
G1 X63.375 Y67.788 E68.60382
G1 X63.871 Y67.78 E68.65232
G1 X65.248 Y67.801 E68.78699
G1 X134.321 Y70.21 E75.54539
G1 X135.071 Y70.246 E75.61881
G1 X135.243 Y70.257 E75.63566
G1 X136.038 Y70.32 E75.71364
G1 X136.186 Y70.334 E75.72818
G1 X136.911 Y70.411 E75.79947
G1 X137.348 Y70.475 E75.84266
G1 X138.022 Y70.602 E75.90973
G1 X138.303 Y70.66 E75.93778
G1 X139 Y70.813 E76.00756
G1 X139.443 Y70.93 E76.05237
G1 X140.172 Y71.155 E76.12697
G1 X140.394 Y71.227 E76.14979
G1 X140.99 Y71.429 E76.21133
G1 X141.475 Y71.617 E76.26219
G1 X142.079 Y71.88 E76.32661
G1 X143.023 Y72.318 E76.42837
G1 X143.432 Y72.529 E76.47337
G1 X144.033 Y72.872 E76.54104
G1 X144.318 Y73.041 E76.57344
G1 X144.939 Y73.421 E76.64463
G1 X145.312 Y73.671 E76.68854
G1 X145.836 Y74.053 E76.75195
G1 X145.952 Y74.14 E76.76613
G1 X146.625 Y74.658 E76.84917
G1 X147.117 Y75.075 E76.91224
G1 X147.716 Y75.629 E76.99202
G1 X148.223 Y76.115 E77.0607
G1 X148.555 Y76.463 E77.10773
G1 X149.068 Y77.048 E77.18381
G1 X149.168 Y77.165 E77.19886
G1 X149.648 Y77.744 E77.27241
G1 X149.922 Y78.104 E77.31665
G1 X150.318 Y78.671 E77.38427
G1 X150.494 Y78.932 E77.41506
G1 X150.873 Y79.507 E77.4824
G1 X151.109 Y79.899 E77.52714
G1 X151.466 Y80.552 E77.59991
G1 X151.59 Y80.788 E77.62598
G1 X151.931 Y81.46 E77.69967
G1 X152.123 Y81.881 E77.74492
G1 X152.411 Y82.589 E77.81966
G1 X152.467 Y82.733 E77.83476
G1 X152.705 Y83.368 E77.90108
G1 X152.866 Y83.856 E77.95132
G1 X153.007 Y84.342 E78.00081
G1 X153.201 Y85.054 E78.07297
G1 X153.355 Y85.656 E78.13373
G1 X153.549 Y86.503 E78.2187
G1 X161.183 Y122.392 E81.80661
G1 X161.357 Y123.274 E81.89452
G1 X161.391 Y123.46 E81.91301
G1 X161.562 Y124.518 E82.01781
G1 X161.622 Y124.955 E82.06094
G1 X161.667 Y125.467 E82.1112
G1 X161.707 Y126.464 E82.20877
G1 X161.711 Y126.657 E82.22765
G1 X161.714 Y127.205 E82.28123
G1 X161.675 Y127.94 E82.35321
G1 X161.653 Y128.168 E82.37561
G1 X161.575 Y128.812 E82.43904
G1 X161.466 Y129.491 E82.50629
G1 X161.3 Y130.234 E82.58073
G1 X161.135 Y130.886 E82.6465
G1 X160.988 Y131.37 E82.69596
G1 X160.659 Y132.297 E82.79214
G1 X160.447 Y132.843 E82.84942
G1 X160.104 Y133.578 E82.92873
G1 X159.899 Y133.969 E82.9719
G1 X159.604 Y134.503 E83.03156
G1 X159.342 Y134.93 E83.08054
G1 X158.821 Y135.7 E83.17145
G1 X158.692 Y135.882 E83.19327
G1 X158.373 Y136.315 E83.24586
G1 X157.908 Y136.876 E83.31711
G1 X157.587 Y137.227 E83.36362
G1 X157.151 Y137.684 E83.42539
G1 X156.8 Y138.021 E83.47297
G1 X156.186 Y138.561 E83.55292
G1 X156.039 Y138.685 E83.57173
G1 X155.628 Y139.022 E83.6237
G1 X155.061 Y139.437 E83.69241
G1 X154.563 Y139.761 E83.7505
G1 X153.965 Y140.131 E83.81927
