;FLAVOR:Marlin
;TIME:3169
;Filament used: 2.4436m
;Layer height: 0.2
;MINX:78.1
;MINY:74.1
;MINZ:0.2
;MAXX:131.9
;MAXY:135.9
;MAXZ:21
;Generated with Cura_SteamEngine 4.6.1
M140 S60
M105
M190 S60
M104 S200
M105
M109 S200
M82 ;absolute extrusion mode
G21 ;metric values
G90 ;absolute positioning
M82 ;set extruder to absolute mode
M107 ;start with the fan off
G28
G29
M501
M420 S1
G92 E0 ;zero the extruded length
G1 F200 E3 ;extrude 3mm of feed stock
G92 E0 ;zero the extruded length again
G1 F120
G0 Y20 F120
M117 Printing...
G5
G92 E0
G92 E0
G1 F2400 E-6
;LAYER_COUNT:105
;LAYER:0
M106 S255
M204 S5000
M205 X30 Y30
G1 F600 Z0.275
G0 F3600 X119.941 Y75.229 Z0.275
M204 S1800
M205 X8 Y8
;TYPE:SKIRT
G1 F600 Z0.2
G1 F2400 E0
G1 F1500 X120.682 Y75.259 E0.03453
G1 X121.525 Y75.341 E0.07397
G1 X122.382 Y75.498 E0.11454
G1 X123.069 Y75.683 E0.14767
G1 X123.982 Y75.999 E0.19266
G1 X124.532 Y76.233 E0.22049
G1 X125.149 Y76.549 E0.25277
G1 X125.904 Y76.999 E0.2937
G1 X126.37 Y77.319 E0.32002
G1 X126.774 Y77.635 E0.3439
G1 X127.203 Y78.005 E0.37028
G1 X127.581 Y78.359 E0.39439
G1 X127.944 Y78.734 E0.4187
G1 X128.325 Y79.178 E0.44594
G1 X128.684 Y79.644 E0.47333
G1 X128.986 Y80.075 E0.49784
G1 X129.412 Y80.777 E0.53607
G1 X129.651 Y81.237 E0.56021
G1 X130.023 Y82.077 E0.60299
G1 X130.218 Y82.605 E0.6292
G1 X130.432 Y83.352 E0.66538
G1 X130.593 Y84.087 E0.70042
G1 X130.723 Y85.067 E0.74645
G1 X130.754 Y85.555 E0.76922
G1 X130.769 Y86.433 E0.81011
G1 X130.78 Y123.329 E2.52814
G1 X130.772 Y123.905 E2.55496
G1 X130.74 Y124.692 E2.59164
G1 X130.659 Y125.522 E2.63047
G1 X130.502 Y126.382 E2.67118
G1 X130.317 Y127.069 E2.70431
G1 X130.005 Y127.974 E2.74888
G1 X129.769 Y128.528 E2.77692
G1 X129.456 Y129.14 E2.80893
G1 X128.999 Y129.906 E2.85046
G1 X128.676 Y130.376 E2.87702
G1 X128.36 Y130.779 E2.90087
G1 X127.998 Y131.2 E2.92672
G1 X127.654 Y131.568 E2.95018
G1 X127.286 Y131.925 E2.97405
G1 X126.822 Y132.325 E3.00258
G1 X126.351 Y132.687 E3.03024
G1 X125.909 Y132.996 E3.05535
G1 X125.465 Y133.275 E3.07977
G1 X125.007 Y133.527 E3.10411
G1 X124.484 Y133.781 E3.13118
G1 X123.923 Y134.023 E3.15963
G1 X123.371 Y134.226 E3.18702
G1 X122.654 Y134.43 E3.22173
G1 X121.862 Y134.602 E3.25947
G1 X121.306 Y134.685 E3.28564
G1 X120.484 Y134.748 E3.32403
G1 X119.165 Y134.775 E3.38546
G1 X90.714 Y134.78 E4.71026
G1 X90.06 Y134.771 E4.74072
G1 X89.318 Y134.741 E4.7753
G1 X88.475 Y134.659 E4.81473
G1 X87.618 Y134.502 E4.8553
G1 X86.931 Y134.317 E4.88843
G1 X86.018 Y134.001 E4.93342
G1 X85.468 Y133.767 E4.96125
G1 X84.851 Y133.451 E4.99353
G1 X84.096 Y133.001 E5.03446
G1 X83.624 Y132.676 E5.06114
G1 X83.221 Y132.36 E5.08499
G1 X82.797 Y131.995 E5.11104
G1 X82.419 Y131.641 E5.13515
G1 X82.057 Y131.267 E5.15939
G1 X81.672 Y130.819 E5.1869
G1 X81.311 Y130.349 E5.21449
G1 X81.001 Y129.905 E5.23971
G1 X80.725 Y129.465 E5.26389
G1 X80.473 Y129.007 E5.28823
G1 X80.219 Y128.485 E5.31527
G1 X79.976 Y127.922 E5.34382
G1 X79.771 Y127.361 E5.37163
G1 X79.57 Y126.654 E5.40586
G1 X79.398 Y125.862 E5.44359
G1 X79.314 Y125.287 E5.47065
G1 X79.267 Y124.768 E5.49492
G1 X79.221 Y123.118 E5.57178
G1 X79.22 Y86.707 E7.26723
G1 X79.229 Y86.078 E7.29652
G1 X79.261 Y85.298 E7.33287
G1 X79.341 Y84.475 E7.37137
G1 X79.498 Y83.618 E7.41194
G1 X79.683 Y82.931 E7.44507
G1 X79.999 Y82.018 E7.49006
G1 X80.237 Y81.46 E7.51831
G1 X80.53 Y80.884 E7.5484
G1 X81.015 Y80.071 E7.59248
G1 X81.335 Y79.608 E7.61869
G1 X81.809 Y79.018 E7.65393
G1 X82.359 Y78.419 E7.69179
G1 X82.733 Y78.057 E7.71603
G1 X83.179 Y77.674 E7.74341
G1 X83.654 Y77.308 E7.77133
G1 X84.097 Y76.999 E7.79648
G1 X84.535 Y76.725 E7.82054
G1 X84.993 Y76.473 E7.84488
G1 X85.516 Y76.219 E7.87195
G1 X86.077 Y75.977 E7.9004
G1 X86.629 Y75.774 E7.92779
G1 X87.346 Y75.57 E7.9625
G1 X88.138 Y75.398 E8.00024
G1 X88.694 Y75.315 E8.02641
G1 X89.516 Y75.252 E8.0648
G1 X90.835 Y75.225 E8.12623
G1 X119.286 Y75.22 E9.45103
G1 X119.941 Y75.229 E9.48153
M204 S5000
M205 X30 Y30
G0 F3600 X119.948 Y74.669
M204 S1800
M205 X8 Y8
G1 F1500 X120.707 Y74.7 E9.5169
G1 X121.616 Y74.788 E9.55943
G1 X122.516 Y74.955 E9.60205
G1 X123.223 Y75.144 E9.63613
G1 X124.171 Y75.472 E9.68284
G1 X124.78 Y75.731 E9.71365
G1 X125.412 Y76.055 E9.74672
G1 X126.195 Y76.521 E9.78915
G1 X126.711 Y76.875 E9.81829
G1 X127.133 Y77.206 E9.84326
G1 X127.586 Y77.596 E9.8711
G1 X127.964 Y77.95 E9.89521
G1 X128.365 Y78.365 E9.92208
G1 X128.763 Y78.828 E9.95051
G1 X129.143 Y79.323 E9.97957
G1 X129.445 Y79.754 E10.00408
G1 X129.738 Y80.217 E10.02959
G1 X130.042 Y80.767 E10.05885
G1 X130.295 Y81.294 E10.08607
G1 X130.537 Y81.855 E10.11452
G1 X130.753 Y82.439 E10.14352
G1 X130.973 Y83.206 E10.18067
G1 X131.141 Y83.974 E10.21728
G1 X131.225 Y84.506 E10.24236
G1 X131.28 Y85.005 E10.26573
G1 X131.314 Y85.545 E10.29093
G1 X131.329 Y86.423 E10.33182
G1 X131.34 Y123.328 E12.05027
G1 X131.332 Y123.913 E12.07751
G1 X131.299 Y124.717 E12.11498
G1 X131.212 Y125.612 E12.15685
G1 X131.045 Y126.516 E12.19966
G1 X130.856 Y127.223 E12.23374
G1 X130.532 Y128.163 E12.28003
G1 X130.271 Y128.776 E12.31106
G1 X129.951 Y129.403 E12.34383
G1 X129.477 Y130.198 E12.38693
G1 X129.119 Y130.718 E12.41633
G1 X128.79 Y131.138 E12.44117
G1 X128.407 Y131.582 E12.46848
G1 X128.063 Y131.95 E12.49193
G1 X127.657 Y132.345 E12.51831
G1 X127.172 Y132.763 E12.54812
G1 X126.672 Y133.146 E12.57745
G1 X126.23 Y133.455 E12.60256
G1 X125.739 Y133.763 E12.62955
G1 X125.261 Y134.026 E12.65496
G1 X124.706 Y134.295 E12.68368
G1 X124.145 Y134.537 E12.71212
G1 X123.534 Y134.761 E12.74243
G1 X122.8 Y134.971 E12.77798
G1 X121.973 Y135.151 E12.81739
G1 X121.359 Y135.242 E12.84629
G1 X120.496 Y135.308 E12.88659
G1 X119.177 Y135.335 E12.94802
G1 X90.714 Y135.34 E14.27338
G1 X90.052 Y135.331 E14.30421
G1 X89.293 Y135.3 E14.33958
G1 X88.384 Y135.212 E14.3821
G1 X87.484 Y135.045 E14.42473
G1 X86.777 Y134.856 E14.4588
G1 X85.829 Y134.528 E14.50551
G1 X85.22 Y134.269 E14.53633
G1 X84.588 Y133.945 E14.5694
G1 X83.805 Y133.479 E14.61183
G1 X83.282 Y133.119 E14.64139
G1 X82.862 Y132.79 E14.66624
G1 X82.414 Y132.404 E14.69377
G1 X82.036 Y132.05 E14.71789
G1 X81.636 Y131.636 E14.74469
G1 X81.234 Y131.168 E14.77342
G1 X80.852 Y130.669 E14.80268
G1 X80.542 Y130.225 E14.8279
G1 X80.236 Y129.739 E14.85464
G1 X79.974 Y129.261 E14.88002
G1 X79.705 Y128.707 E14.9087
G1 X79.462 Y128.144 E14.93725
G1 X79.235 Y127.524 E14.968
G1 X79.029 Y126.8 E15.00305
G1 X78.849 Y125.973 E15.04246
G1 X78.756 Y125.338 E15.07234
G1 X78.709 Y124.819 E15.09661
G1 X78.661 Y123.129 E15.17533
G1 X78.66 Y86.707 E16.87129
G1 X78.669 Y86.07 E16.90096
G1 X78.702 Y85.273 E16.9381
G1 X78.789 Y84.385 E16.97965
G1 X78.955 Y83.484 E17.02231
G1 X79.144 Y82.777 E17.05638
G1 X79.472 Y81.829 E17.10309
G1 X79.735 Y81.212 E17.13433
G1 X80.034 Y80.624 E17.16504
G1 X80.538 Y79.778 E17.2109
G1 X80.892 Y79.266 E17.23988
G1 X81.211 Y78.861 E17.26389
G1 X81.596 Y78.414 E17.29136
G1 X81.95 Y78.036 E17.31547
G1 X82.364 Y77.636 E17.34228
G1 X82.829 Y77.236 E17.37084
G1 X83.334 Y76.849 E17.40046
G1 X83.777 Y76.54 E17.42561
G1 X84.261 Y76.236 E17.45223
G1 X84.739 Y75.974 E17.47761
G1 X85.294 Y75.705 E17.50633
G1 X85.855 Y75.463 E17.53478
G1 X86.466 Y75.239 E17.56508
G1 X87.2 Y75.029 E17.60063
G1 X88.027 Y74.849 E17.64004
G1 X88.641 Y74.758 E17.66894
G1 X89.504 Y74.692 E17.70924
G1 X90.823 Y74.665 E17.77068
G1 X119.286 Y74.66 E19.09603
G1 X119.948 Y74.669 E19.12686
M204 S5000
M205 X30 Y30
G0 F3600 X119.956 Y74.109
M204 S1800
M205 X8 Y8
G1 F1500 X120.732 Y74.141 E19.16303
G1 X121.15 Y74.169 E19.18253
G1 X121.706 Y74.236 E19.20861
G1 X122.65 Y74.411 E19.25332
G1 X123.377 Y74.606 E19.28836
G1 X124.361 Y74.945 E19.33683
G1 X125.028 Y75.228 E19.37056
G1 X125.675 Y75.56 E19.40443
G1 X126.487 Y76.043 E19.44842
G1 X127.052 Y76.431 E19.48033
G1 X127.492 Y76.776 E19.50637
G1 X127.969 Y77.188 E19.53572
G1 X128.347 Y77.542 E19.55983
G1 X128.786 Y77.996 E19.58924
G1 X129.2 Y78.479 E19.61886
G1 X129.601 Y79.001 E19.64951
G1 X129.903 Y79.432 E19.67402
G1 X130.225 Y79.94 E19.70202
G1 X130.542 Y80.515 E19.7326
G1 X130.81 Y81.072 E19.76138
G1 X131.052 Y81.633 E19.78983
G1 X131.288 Y82.274 E19.82164
G1 X131.513 Y83.06 E19.85971
G1 X131.69 Y83.862 E19.89795
G1 X131.781 Y84.445 E19.92542
G1 X131.836 Y84.944 E19.9488
G1 X131.874 Y85.536 E19.97642
G1 X131.889 Y86.414 E20.01731
G1 X131.9 Y123.328 E21.73618
G1 X131.892 Y123.92 E21.76375
G1 X131.859 Y124.742 E21.80206
G1 X131.764 Y125.703 E21.84703
G1 X131.589 Y126.65 E21.89187
G1 X131.394 Y127.377 E21.92692
G1 X131.059 Y128.352 E21.97492
G1 X130.773 Y129.024 E22.00893
G1 X130.445 Y129.665 E22.04246
G1 X129.955 Y130.49 E22.08714
G1 X129.563 Y131.06 E22.11935
G1 X129.22 Y131.497 E22.14522
G1 X128.816 Y131.964 E22.17397
G1 X128.472 Y132.332 E22.19743
G1 X128.027 Y132.765 E22.22634
G1 X127.521 Y133.2 E22.25741
G1 X126.993 Y133.605 E22.2884
G1 X126.551 Y133.914 E22.31351
G1 X126.013 Y134.252 E22.34309
G1 X125.515 Y134.525 E22.36954
G1 X124.928 Y134.81 E22.39992
G1 X124.367 Y135.052 E22.42837
G1 X123.698 Y135.297 E22.46155
G1 X122.947 Y135.512 E22.49792
G1 X122.084 Y135.7 E22.53905
G1 X121.412 Y135.8 E22.57068
G1 X120.507 Y135.868 E22.61294
G1 X119.188 Y135.895 E22.67438
G1 X90.714 Y135.9 E24.00024
G1 X90.045 Y135.891 E24.0314
G1 X89.268 Y135.86 E24.06761
G1 X88.848 Y135.831 E24.08721
G1 X88.294 Y135.764 E24.1132
G1 X87.35 Y135.589 E24.1579
G1 X86.623 Y135.394 E24.19295
G1 X85.639 Y135.055 E24.24141
G1 X84.972 Y134.772 E24.27515
G1 X84.325 Y134.44 E24.30901
G1 X83.513 Y133.957 E24.35301
G1 X82.94 Y133.563 E24.38539
G1 X82.503 Y133.22 E24.41125
G1 X82.031 Y132.812 E24.4403
G1 X81.653 Y132.458 E24.46442
G1 X81.215 Y132.005 E24.49376
G1 X80.796 Y131.517 E24.52371
G1 X80.392 Y130.99 E24.55463
G1 X80.082 Y130.546 E24.57985
G1 X79.748 Y130.013 E24.60914
G1 X79.475 Y129.515 E24.63558
G1 X79.191 Y128.929 E24.6659
G1 X78.948 Y128.366 E24.69446
G1 X78.699 Y127.686 E24.72818
G1 X78.488 Y126.947 E24.76396
G1 X78.3 Y126.084 E24.80509
G1 X78.198 Y125.388 E24.83784
G1 X78.151 Y124.869 E24.86211
G1 X78.101 Y123.14 E24.94265
G1 X78.1 Y86.707 E26.63913
G1 X78.109 Y86.061 E26.66921
G1 X78.143 Y85.247 E26.70714
G1 X78.17 Y84.842 E26.72605
G1 X78.236 Y84.294 E26.75175
G1 X78.411 Y83.35 E26.79645
G1 X78.606 Y82.623 E26.8315
G1 X78.945 Y81.639 E26.87996
G1 X79.233 Y80.963 E26.91418
G1 X79.538 Y80.364 E26.94548
G1 X80.061 Y79.485 E26.9931
G1 X80.449 Y78.923 E27.0249
G1 X80.781 Y78.501 E27.04991
G1 X81.188 Y78.031 E27.07886
G1 X81.542 Y77.653 E27.10297
G1 X81.995 Y77.215 E27.13231
G1 X82.48 Y76.799 E27.16207
G1 X83.014 Y76.39 E27.19339
G1 X83.457 Y76.081 E27.21854
G1 X83.987 Y75.748 E27.24768
G1 X84.485 Y75.475 E27.27413
G1 X85.072 Y75.19 E27.30451
G1 X85.633 Y74.948 E27.33296
G1 X86.302 Y74.703 E27.36614
G1 X87.053 Y74.488 E27.40251
G1 X87.916 Y74.3 E27.44364
G1 X88.588 Y74.2 E27.47527
G1 X89.493 Y74.132 E27.51753
G1 X90.812 Y74.105 E27.57896
G1 X119.286 Y74.1 E28.90483
G1 X119.956 Y74.109 E28.93603
M204 S5000
M205 X30 Y30
G1 F2400 E22.93603
;MESH:RetractionTest.stl
G0 F3600 X119.979 Y79.836
G0 X119.98 Y81.359
G0 X120.916 Y81.533
G0 X120.937 Y81.436
M204 S1800
M205 X8 Y8
;TYPE:WALL-INNER
G1 F2400 E28.93603
G1 F1500 X121.509 Y81.594 E28.96367
G1 X121.85 Y81.724 E28.98066
G1 X122.366 Y81.989 E29.00767
G1 X122.685 Y82.194 E29.02533
G1 X123.142 Y82.562 E29.05265
G1 X123.396 Y82.811 E29.06921
G1 X123.775 Y83.272 E29.097
G1 X123.974 Y83.568 E29.11361
G1 X124.25 Y84.097 E29.14139
G1 X124.386 Y84.431 E29.15818
G1 X124.549 Y85.005 E29.18597
G1 X124.615 Y85.354 E29.20251
G1 X124.65 Y85.743 E29.22069
G1 X124.66 Y123.981 E31.00122
G1 X124.623 Y124.575 E31.02893
G1 X124.564 Y124.937 E31.04601
G1 X124.406 Y125.509 E31.07364
G1 X124.276 Y125.85 E31.09063
G1 X124.011 Y126.366 E31.11764
G1 X123.806 Y126.685 E31.1353
G1 X123.438 Y127.142 E31.16262
G1 X123.189 Y127.396 E31.17918
G1 X122.728 Y127.775 E31.20697
G1 X122.432 Y127.974 E31.22358
G1 X121.903 Y128.25 E31.25136
G1 X121.569 Y128.386 E31.26816
G1 X120.995 Y128.549 E31.29594
G1 X120.65 Y128.614 E31.31229
G1 X120.045 Y128.656 E31.34053
G1 X90.02 Y128.66 E32.73862
G1 X89.425 Y128.623 E32.76638
G1 X89.063 Y128.564 E32.78346
G1 X88.491 Y128.406 E32.81109
G1 X88.15 Y128.276 E32.82808
G1 X87.634 Y128.011 E32.85509
G1 X87.315 Y127.806 E32.87275
G1 X86.858 Y127.438 E32.90007
G1 X86.604 Y127.189 E32.91663
G1 X86.225 Y126.728 E32.94442
G1 X86.026 Y126.432 E32.96103
G1 X85.75 Y125.903 E32.98881
G1 X85.614 Y125.569 E33.0056
G1 X85.451 Y124.995 E33.03339
G1 X85.386 Y124.648 E33.04983
G1 X85.34 Y123.977 E33.08115
G1 X85.34 Y86.019 E34.84863
G1 X85.377 Y85.425 E34.87634
G1 X85.436 Y85.063 E34.89342
G1 X85.594 Y84.491 E34.92105
G1 X85.724 Y84.15 E34.93805
G1 X85.989 Y83.634 E34.96506
G1 X86.194 Y83.315 E34.98271
G1 X86.562 Y82.858 E35.01004
G1 X86.811 Y82.604 E35.0266
G1 X87.272 Y82.225 E35.05439
G1 X87.568 Y82.026 E35.071
G1 X88.097 Y81.75 E35.09878
G1 X88.431 Y81.614 E35.11557
G1 X89.005 Y81.451 E35.14336
G1 X89.35 Y81.386 E35.1597
G1 X89.955 Y81.344 E35.18794
G1 X119.98 Y81.34 E36.58603
G1 X120.575 Y81.377 E36.61379
G1 X120.937 Y81.436 E36.63087
M204 S5000
M205 X30 Y30
G0 F3600 X121.056 Y80.888
M204 S1800
M205 X8 Y8
;TYPE:WALL-OUTER
G1 F1500 X121.677 Y81.059 E36.66086
G1 X122.081 Y81.213 E36.68099
G1 X122.649 Y81.505 E36.71073
G1 X123.008 Y81.735 E36.73059
G1 X123.517 Y82.145 E36.76102
G1 X123.809 Y82.431 E36.78005
G1 X124.225 Y82.938 E36.81059
G1 X124.456 Y83.282 E36.82988
G1 X124.76 Y83.863 E36.86042
G1 X124.917 Y84.249 E36.87982
G1 X125.093 Y84.869 E36.90983
G1 X125.171 Y85.285 E36.92954
G1 X125.21 Y85.714 E36.9496
G1 X125.22 Y124 E38.73236
G1 X125.18 Y124.64 E38.76221
G1 X125.112 Y125.056 E38.78184
G1 X124.941 Y125.677 E38.81184
G1 X124.787 Y126.081 E38.83197
G1 X124.495 Y126.649 E38.86171
G1 X124.265 Y127.008 E38.88156
G1 X123.855 Y127.517 E38.91199
G1 X123.569 Y127.809 E38.93103
G1 X123.062 Y128.225 E38.96156
G1 X122.718 Y128.456 E38.98086
G1 X122.137 Y128.76 E39.01139
G1 X121.751 Y128.917 E39.03079
G1 X121.131 Y129.093 E39.06081
G1 X120.714 Y129.171 E39.08056
G1 X120.07 Y129.216 E39.11062
G1 X90.001 Y129.22 E40.51076
G1 X89.36 Y129.18 E40.54066
G1 X88.944 Y129.112 E40.56029
G1 X88.323 Y128.941 E40.59028
G1 X87.919 Y128.787 E40.61042
G1 X87.351 Y128.495 E40.64016
G1 X86.992 Y128.265 E40.66001
G1 X86.483 Y127.855 E40.69044
G1 X86.191 Y127.569 E40.70947
G1 X85.775 Y127.062 E40.74001
G1 X85.544 Y126.718 E40.75931
G1 X85.24 Y126.137 E40.78984
G1 X85.083 Y125.751 E40.80924
G1 X84.907 Y125.131 E40.83925
G1 X84.829 Y124.713 E40.85905
G1 X84.78 Y124 E40.89233
G1 X84.78 Y86 E42.66177
G1 X84.82 Y85.36 E42.69163
G1 X84.888 Y84.944 E42.71126
G1 X85.059 Y84.323 E42.74125
G1 X85.213 Y83.919 E42.76138
G1 X85.505 Y83.351 E42.79112
G1 X85.735 Y82.992 E42.81098
G1 X86.145 Y82.483 E42.84141
G1 X86.431 Y82.191 E42.86044
G1 X86.938 Y81.775 E42.89098
G1 X87.282 Y81.544 E42.91027
G1 X87.863 Y81.24 E42.94081
G1 X88.249 Y81.083 E42.96021
G1 X88.869 Y80.907 E42.99022
G1 X89.286 Y80.829 E43.00998
G1 X89.93 Y80.784 E43.04004
G1 X119.999 Y80.78 E44.44017
G1 X120.64 Y80.82 E44.47008
G1 X121.056 Y80.888 E44.48971
M204 S5000
M205 X30 Y30
G0 F3600 X121.248 Y80.941
G0 X121.072 Y81.576
G0 X120.813 Y81.972
M204 S1800
M205 X8 Y8
;TYPE:SKIN
G1 F1500 X121.336 Y82.117 E44.51498
G1 X121.626 Y82.227 E44.52942
G1 X122.091 Y82.466 E44.55377
G1 X122.366 Y82.643 E44.569
G1 X122.773 Y82.971 E44.59334
G1 X122.991 Y83.184 E44.60753
G1 X123.334 Y83.603 E44.63274
G1 X123.501 Y83.85 E44.64662
G1 X123.75 Y84.327 E44.67168
G1 X123.865 Y84.61 E44.6859
G1 X124.015 Y85.137 E44.71142
G1 X124.069 Y85.423 E44.72497
G1 X124.1 Y85.77 E44.74119
G1 X124.11 Y123.981 E46.52046
G1 X124.077 Y124.511 E46.54518
G1 X124.028 Y124.813 E46.55943
G1 X123.883 Y125.336 E46.5847
G1 X123.773 Y125.626 E46.59914
G1 X123.534 Y126.091 E46.62349
G1 X123.357 Y126.366 E46.63872
G1 X123.029 Y126.773 E46.66306
G1 X122.817 Y126.99 E46.67718
G1 X122.397 Y127.334 E46.70246
G1 X122.15 Y127.501 E46.71635
G1 X121.673 Y127.75 E46.7414
G1 X121.389 Y127.865 E46.75567
G1 X120.863 Y128.015 E46.78114
G1 X120.579 Y128.068 E46.79459
G1 X120.035 Y128.106 E46.81998
G1 X90.022 Y128.11 E48.21751
G1 X89.489 Y128.077 E48.24238
G1 X89.187 Y128.028 E48.25663
