;FLAVOR:Marlin
;TIME:236
;Filament used: 0.225834m
;Layer height: 0.3
;Generated with Cura_SteamEngine 3.6.0
M140 S60
M105
M190 S60
M104 S185
M105
M109 S185
M82 ;absolute extrusion mode
G21 ;metric values
G90 ;absolute positioning
M82 ;set extruder to absolute mode
M107 ;start with the fan off
G28 X0 Y0 ;move X/Y to min endstops
G28 Z0 ;move Z to min endstops
G1 Z15.0 F100 ;move the platform down 15mm
G92 E0 ;zero the extruded length
G1 F200 E3 ;extrude 3mm of feed stock
G92 E0 ;zero the extruded length again
G1 F100
M117 Printing...
G5
G92 E0
G1 F2400 E-6
;LAYER_COUNT:2
;LAYER:0
M106 S255
M204 S3000
M205 X10 Y10
G0 F3000 X10.179 Y10.411 Z0.2
M204 S1800
M205 X8 Y8
;TYPE:SKIRT
G1 F2400 E0
G1 X10.537 Y10.061 E0.02331
G1 X11.076 Y9.59 E0.05664
G1 X11.663 Y9.182 E0.08993
G1 X12.293 Y8.843 E0.12324
G1 X12.956 Y8.576 E0.15652
G1 X13.646 Y8.384 E0.18987
G1 X14.352 Y8.271 E0.22317
G1 X15.011 Y8.237 E0.25389
G1 X194.996 Y8.238 E8.63475
G1 X195.71 Y8.278 E8.66805
G1 X196.415 Y8.397 E8.70134
G1 X197.103 Y8.595 E8.73468
G1 X197.764 Y8.868 E8.76798
G1 X198.391 Y9.212 E8.80128
G1 X198.975 Y9.625 E8.83459
G1 X199.528 Y10.119 E8.86911
G1 X199.889 Y10.481 E8.89292
G1 X200.365 Y11.015 E8.92623
G1 X200.778 Y11.598 E8.9595
G1 X201.124 Y12.225 E8.99284
G1 X201.398 Y12.885 E9.02612
G1 X201.596 Y13.573 E9.05946
G1 X201.716 Y14.278 E9.09276
G1 X201.757 Y15 E9.12643
G1 X201.762 Y194.991 E17.50756
G1 X201.722 Y195.705 E17.54086
G1 X201.603 Y196.41 E17.57415
G1 X201.405 Y197.098 E17.60749
G1 X201.133 Y197.759 E17.64077
G1 X200.788 Y198.386 E17.6741
G1 X200.375 Y198.97 E17.7074
G1 X199.925 Y199.479 E17.73904
G1 X199.568 Y199.842 E17.76275
G1 X199.039 Y200.323 E17.79604
G1 X198.459 Y200.742 E17.82936
G1 X197.836 Y201.094 E17.86268
G1 X197.178 Y201.374 E17.89597
G1 X196.493 Y201.579 E17.92927
G1 X195.789 Y201.706 E17.96258
G1 X195.005 Y201.754 E17.99915
G1 X15.004 Y201.762 E26.38075
G1 X14.29 Y201.722 E26.41405
G1 X13.585 Y201.603 E26.44735
G1 X12.897 Y201.405 E26.48068
G1 X12.236 Y201.133 E26.51397
G1 X11.61 Y200.788 E26.54725
G1 X11.025 Y200.375 E26.58059
G1 X10.491 Y199.9 E26.61387
G1 X10.133 Y199.544 E26.63738
G1 X9.655 Y199.012 E26.67068
G1 X9.239 Y198.43 E26.70399
G1 X8.891 Y197.806 E26.73726
G1 X8.614 Y197.146 E26.77059
G1 X8.413 Y196.46 E26.80388
G1 X8.29 Y195.755 E26.8372
G1 X8.246 Y195.006 E26.87214
G1 X8.253 Y14.987 E35.25458
G1 X8.293 Y14.273 E35.28788
G1 X8.412 Y13.567 E35.32122
G1 X8.61 Y12.88 E35.35451
G1 X8.883 Y12.219 E35.38781
G1 X9.228 Y11.592 E35.42113
G1 X9.64 Y11.008 E35.45441
G1 X10.179 Y10.411 E35.49186
M204 S3000
M205 X10 Y10
G0 F3000 X10.57 Y10.811
M204 S1800
M205 X8 Y8
G1 F2400 X10.928 Y10.461 E35.51518
G1 X11.444 Y10.013 E35.547
G1 X12.009 Y9.628 E35.57883
G1 X12.614 Y9.312 E35.61061
G1 X13.252 Y9.068 E35.64242
G1 X13.915 Y8.901 E35.67426
G1 X14.592 Y8.812 E35.70605
G1 X15.011 Y8.797 E35.72558
G1 X194.996 Y8.798 E44.10643
G1 X195.678 Y8.838 E44.13824
G1 X196.351 Y8.957 E44.17007
G1 X197.005 Y9.154 E44.20187
G1 X197.632 Y9.427 E44.23371
G1 X198.222 Y9.77 E44.26549
G1 X198.769 Y10.18 E44.29732
G1 X199.131 Y10.514 E44.32026
G1 X199.492 Y10.876 E44.34406
G1 X199.946 Y11.387 E44.37589
G1 X200.336 Y11.948 E44.40771
G1 X200.658 Y12.55 E44.4395
G1 X200.908 Y13.186 E44.47132
G1 X201.082 Y13.847 E44.50314
G1 X201.178 Y14.524 E44.53498
G1 X201.197 Y15 E44.55717
G1 X201.202 Y194.991 E52.9383
G1 X201.162 Y195.673 E52.97011
G1 X201.043 Y196.346 E53.00194
G1 X200.846 Y197 E53.03374
G1 X200.574 Y197.626 E53.06552
G1 X200.23 Y198.217 E53.09736
G1 X199.82 Y198.764 E53.1292
G1 X199.526 Y199.086 E53.1495
G1 X199.169 Y199.449 E53.17321
G1 X198.662 Y199.907 E53.20502
G1 X198.105 Y200.303 E53.23684
G1 X197.506 Y200.631 E53.26864
G1 X196.873 Y200.887 E53.30044
G1 X196.214 Y201.068 E53.33226
G1 X195.538 Y201.17 E53.36409
G1 X195.005 Y201.194 E53.38894
G1 X15.004 Y201.202 E61.77054
G1 X14.322 Y201.162 E61.80235
G1 X13.649 Y201.043 E61.83417
G1 X12.995 Y200.846 E61.86598
G1 X12.369 Y200.574 E61.89776
G1 X11.778 Y200.23 E61.9296
G1 X11.231 Y199.82 E61.96143
G1 X10.886 Y199.503 E61.98325
G1 X10.528 Y199.147 E62.00676
G1 X10.073 Y198.638 E62.03855
G1 X9.68 Y198.079 E62.07037
G1 X9.355 Y197.478 E62.10218
G1 X9.102 Y196.843 E62.13401
G1 X8.926 Y196.183 E62.16582
G1 X8.828 Y195.507 E62.19762
G1 X8.806 Y195.006 E62.22097
G1 X8.813 Y14.987 E70.60341
G1 X8.853 Y14.305 E70.63522
G1 X8.972 Y13.632 E70.66705
G1 X9.169 Y12.978 E70.69885
G1 X9.442 Y12.351 E70.7307
G1 X9.785 Y11.761 E70.76247
G1 X10.195 Y11.214 E70.79431
G1 X10.57 Y10.811 E70.81994
M204 S3000
M205 X10 Y10
G0 F3000 X10.962 Y11.212
M204 S1800
M205 X8 Y8
G1 F2400 X11.32 Y10.862 E70.84325
G1 X11.811 Y10.437 E70.87349
G1 X12.351 Y10.076 E70.90374
G1 X12.932 Y9.784 E70.93401
G1 X13.543 Y9.565 E70.96424
G1 X14.177 Y9.423 E70.99449
G1 X15.011 Y9.357 E71.03345
G1 X194.996 Y9.358 E79.4143
G1 X195.644 Y9.398 E79.44453
G1 X196.283 Y9.517 E79.4748
G1 X196.902 Y9.714 E79.50505
G1 X197.492 Y9.985 E79.53528
G1 X198.045 Y10.327 E79.56556
G1 X198.735 Y10.91 E79.60762
G1 X199.096 Y11.272 E79.63142
G1 X199.525 Y11.759 E79.66164
G1 X199.892 Y12.295 E79.69189
G1 X200.189 Y12.873 E79.72215
G1 X200.414 Y13.482 E79.75238
G1 X200.562 Y14.115 E79.78265
G1 X200.637 Y15 E79.82401
G1 X200.642 Y194.991 E88.20514
G1 X200.602 Y195.639 E88.23538
G1 X200.483 Y196.278 E88.26564
G1 X200.286 Y196.897 E88.29589
G1 X200.015 Y197.487 E88.32612
G1 X199.673 Y198.04 E88.3564
G1 X199.127 Y198.693 E88.39603
G1 X198.77 Y199.056 E88.41974
G1 X198.286 Y199.491 E88.45004
G1 X197.754 Y199.862 E88.48024
G1 X197.179 Y200.166 E88.51053
G1 X196.572 Y200.396 E88.54076
G1 X195.941 Y200.55 E88.571
G1 X195.005 Y200.634 E88.61476
G1 X15.004 Y200.642 E96.99636
G1 X14.356 Y200.602 E97.02659
G1 X13.717 Y200.483 E97.05686
G1 X13.098 Y200.286 E97.0871
G1 X12.508 Y200.015 E97.11734
G1 X11.955 Y199.673 E97.14761
G1 X11.281 Y199.106 E97.18863
G1 X10.923 Y198.75 E97.21213
G1 X10.491 Y198.264 E97.24241
G1 X10.123 Y197.73 E97.27261
G1 X9.822 Y197.154 E97.30287
G1 X9.595 Y196.545 E97.33314
G1 X9.444 Y195.913 E97.36339
G1 X9.366 Y195.006 E97.40578
G1 X9.373 Y14.987 E105.78822
G1 X9.413 Y14.338 E105.8185
G1 X9.532 Y13.7 E105.84872
G1 X9.729 Y13.081 E105.87897
G1 X10 Y12.491 E105.9092
G1 X10.342 Y11.938 E105.93948
G1 X10.962 Y11.212 E105.98393
M204 S3000
M205 X10 Y10
G1 F2400 E99.98393
G1 F300 Z0.275
;MESH:prueba_nivelacion_cama.STL
G0 F3000 X105.1 Y104.898 Z0.275
M204 S1800
M205 X8 Y8
;TYPE:WALL-INNER
G1 F300 Z0.2
G1 F2400 E105.98393
G1 F1500 X105.143 Y105.001 E105.98913
G1 X105.102 Y105.102 E105.9942
G1 X105.001 Y105.143 E105.99928
G1 X104.898 Y105.1 E106.00448
G1 X104.857 Y105.001 E106.00678
G1 X104.9 Y104.898 E106.00926
G1 X105 Y104.856 E106.01163
G1 X105.1 Y104.898 E106.01396
M204 S3000
M205 X10 Y10
G0 F3000 X105.028 Y104.967
G0 X105.022 Y60.022
G0 X105.092 Y60.092
M204 S1800
M205 X8 Y8
;TYPE:WALL-OUTER
G1 F1500 X105.092 Y104.289 E108.07196
G1 X105.438 Y104.432 E108.0894
G1 X149.432 Y60.438 E110.98648
G1 X149.289 Y60.092 E111.00391
G1 X105.092 Y60.092 E113.06191
M204 S3000
M205 X10 Y10
G0 F3000 X105.092 Y60.292
G0 X104.908 Y60.092
M204 S1800
M205 X8 Y8
G1 F1500 X60.711 Y60.092 E115.1199
G1 X60.568 Y60.438 E115.13734
G1 X104.562 Y104.432 E118.03442
G1 X104.908 Y104.289 E118.05185
G1 X104.908 Y60.092 E118.72805
M204 S3000
M205 X10 Y10
G0 F3000 X104.708 Y60.092
G0 X104.908 Y59.908
M204 S1800
M205 X8 Y8
G1 F1500 X104.908 Y15.092 E120.81487
G1 X15.711 Y15.092 E124.96826
G1 X15.582 Y15.404 E124.98398
G1 X15.568 Y15.438 E124.98569
G1 X60.038 Y59.908 E127.91411
G1 X60.568 Y59.908 E127.93879
G1 X60.711 Y59.908 E127.94167
G1 X104.908 Y59.908 E128.61787
M204 S3000
M205 X10 Y10
G0 F3000 X104.908 Y59.708
G0 X104.993 Y59.708
G0 X105.037 Y15.037
G0 X105.092 Y15.092
M204 S1800
M205 X8 Y8
G1 F1500 X105.092 Y59.908 E129.30354
G1 X149.289 Y59.908 E129.97974
G1 X149.432 Y59.908 E129.98262
G1 X149.962 Y59.908 E130.00729
G1 X194.432 Y15.438 E132.93572
G1 X194.419 Y15.405 E132.93737
G1 X194.289 Y15.092 E132.95315
G1 X105.092 Y15.092 E137.10654
M204 S3000
M205 X10 Y10
G0 F3000 X105.092 Y15.292
G0 X105.007 Y15.292
G0 X105.079 Y15.079
G0 X194.301 Y15.074
G0 X194.665 Y15.335
G0 X194.72 Y15.28
M204 S1800
M205 X8 Y8
G1 F1500 X194.908 Y15.28 E137.11405
G1 X195.092 Y15.28 E137.12262
G1 X195.092 Y15.567 E137.13243
G1 X195.092 Y15.71 E137.13732
G1 X195.092 Y104.908 E141.29075
G1 X195.092 Y105.092 E141.29932
G1 X195.092 Y194.289 E145.4527
G1 X195.092 Y194.432 E145.45936
G1 X195.092 Y194.72 E145.47277
G1 X194.908 Y194.72 E145.47778
G1 X194.72 Y194.72 E145.48321
G1 X194.72 Y194.908 E145.48914
G1 X194.72 Y195.092 E145.49489
G1 X194.432 Y195.092 E145.50474
G1 X194.289 Y195.092 E145.50963
G1 X105.092 Y195.092 E149.66302
G1 X104.908 Y195.092 E149.67159
G1 X15.71 Y195.092 E153.82502
G1 X15.567 Y195.092 E153.83168
G1 X15.28 Y195.092 E153.84504
G1 X15.28 Y194.908 E153.85005
G1 X15.28 Y194.72 E153.85548
G1 X15.092 Y194.72 E153.86141
G1 X14.908 Y194.72 E153.86716
G1 X14.908 Y194.432 E153.877
G1 X14.908 Y194.289 E153.8819
G1 X14.908 Y105.092 E158.03529
G1 X14.908 Y104.908 E158.04385
G1 X14.908 Y15.71 E162.19729
G1 X14.908 Y15.567 E162.20395
G1 X14.908 Y15.28 E162.21731
G1 X15.092 Y15.28 E162.22232
G1 X15.28 Y15.28 E162.22775
G1 X15.28 Y15.092 E162.23261
G1 X15.28 Y14.908 E162.23835
G1 X15.568 Y14.908 E162.2482
G1 X15.711 Y14.908 E162.25108
G1 X104.908 Y14.908 E163.61577
G1 X105.092 Y14.908 E163.62175
G1 X194.289 Y14.908 E164.98643
G1 X194.432 Y14.908 E164.9893
G1 X194.72 Y14.908 E165.00271
G1 X194.72 Y15.092 E165.00772
G1 X194.72 Y15.28 E165.01256
M204 S3000
M205 X10 Y10
G0 F3000 X194.908 Y15.28
G0 X194.92 Y15.28
G0 X194.92 Y15.365
G0 X194.557 Y15.547
G0 X150.071 Y60.028
G0 X150.037 Y104.963
G0 X150.092 Y104.908
M204 S1800
M205 X8 Y8
G1 F1500 X194.908 Y104.908 E167.0968
G1 X194.908 Y15.71 E168.4615
G1 X194.596 Y15.581 E168.4733
G1 X194.562 Y15.567 E168.47373
G1 X150.092 Y60.037 E169.43073
G1 X150.092 Y60.567 E169.45541
G1 X150.092 Y60.71 E169.46207
G1 X150.092 Y104.908 E171.52011
M204 S3000
M205 X10 Y10
G0 F3000 X150.292 Y104.908
G0 X150.092 Y105.092
M204 S1800
M205 X8 Y8
G1 F1500 X150.092 Y149.289 E173.57811
G1 X150.092 Y149.432 E173.58477
G1 X150.092 Y149.962 E173.60945
G1 X194.562 Y194.432 E176.53787
G1 X194.595 Y194.419 E176.53827
G1 X194.908 Y194.289 E176.55012
G1 X194.908 Y105.092 E177.91481
G1 X150.092 Y105.092 E178.60048
M204 S3000
M205 X10 Y10
G0 F3000 X150.092 Y105.292
G0 X149.908 Y105.092
M204 S1800
M205 X8 Y8
G1 F1500 X105.711 Y105.092 E180.65848
G1 X105.568 Y105.438 E180.67591
G1 X149.562 Y149.432 E183.57299
G1 X149.908 Y149.289 E183.58664
G1 X149.908 Y105.092 E184.26284
M204 S3000
M205 X10 Y10
G0 F3000 X149.708 Y105.092
G0 X149.908 Y104.908
M204 S1800
M205 X8 Y8
G1 F1500 X149.908 Y60.71 E184.93905
G1 X149.562 Y60.567 E184.9527
G1 X105.567 Y104.562 E185.89946
G1 X105.71 Y104.908 E185.91689
G1 X149.908 Y104.908 E186.59312
M204 S3000
M205 X10 Y10
G0 F3000 X149.908 Y104.708
G0 X149.993 Y104.708
G0 X149.926 Y149.301
G0 X149.301 Y149.926
G0 X105.037 Y149.963
G0 X105.092 Y149.908
M204 S1800
M205 X8 Y8
G1 F1500 X149.289 Y149.908 E188.65112
G1 X149.432 Y149.562 E188.66855
G1 X105.438 Y105.568 E189.61526
G1 X105.092 Y105.711 E189.6327
G1 X105.092 Y149.908 E191.69069
M204 S3000
M205 X10 Y10
G0 F3000 X105.292 Y149.908
G0 X105.092 Y150.092
M204 S1800
M205 X8 Y8
G1 F1500 X105.092 Y194.908 E193.77493
G1 X194.289 Y194.908 E195.13961
G1 X194.418 Y194.596 E195.15143
G1 X194.432 Y194.562 E195.15146
G1 X149.962 Y150.092 E196.10842
G1 X149.432 Y150.092 E196.1331
G1 X149.289 Y150.092 E196.13598
G1 X105.092 Y150.092 E196.81218
M204 S3000
M205 X10 Y10
G0 F3000 X105.092 Y150.292
G0 X104.908 Y149.908
M204 S1800
M205 X8 Y8
G1 F1500 X104.908 Y105.71 E197.48841
G1 X104.562 Y105.567 E197.50584
G1 X60.567 Y149.562 E200.40299
G1 X60.71 Y149.908 E200.42042
G1 X104.908 Y149.908 E202.47847
M204 S3000
M205 X10 Y10
G0 F3000 X104.908 Y149.708
G0 X104.993 Y149.708
G0 X104.963 Y194.963
G0 X104.908 Y194.908
M204 S1800
M205 X8 Y8
G1 F1500 X104.908 Y150.092 E203.16414
G1 X60.71 Y150.092 E203.84035
G1 X60.567 Y150.092 E203.84323
G1 X60.037 Y150.092 E203.86791
G1 X15.567 Y194.562 E206.79633
G1 X15.58 Y194.595 E206.79672
G1 X15.71 Y194.908 E206.80857
G1 X104.908 Y194.908 E208.17327
M204 S3000
M205 X10 Y10
G0 F3000 X104.908 Y194.708
G0 X104.993 Y194.708
G0 X104.921 Y150.079
G0 X60.698 Y149.926
G0 X60.074 Y149.301
G0 X60.037 Y105.037
G0 X60.092 Y105.092
M204 S1800
M205 X8 Y8
G1 F1500 X60.092 Y149.289 E210.23127
G1 X60.438 Y149.432 E210.2487
G1 X104.432 Y105.438 E211.19538
G1 X104.289 Y105.092 E211.21281
G1 X60.092 Y105.092 E213.27081
M204 S3000
M205 X10 Y10
G0 F3000 X60.092 Y105.292
G0 X60.092 Y104.908
M204 S1800
M205 X8 Y8
G1 F1500 X104.29 Y104.908 E213.94704
G1 X104.433 Y104.562 E213.96447
G1 X60.438 Y60.567 E214.91123
G1 X60.092 Y60.71 E214.92867
G1 X60.092 Y104.908 E216.98671
M204 S3000
M205 X10 Y10
G0 F3000 X60.292 Y104.908
G0 X60.292 Y104.993
G0 X15.037 Y104.963
G0 X15.092 Y104.908
M204 S1800
M205 X8 Y8
G1 F1500 X59.908 Y104.908 E219.07353
G1 X59.908 Y60.71 E219.74974
G1 X59.908 Y60.567 E219.75262
G1 X59.908 Y60.037 E219.7773
G1 X15.438 Y15.567 E220.7343
G1 X15.405 Y15.58 E220.73469
G1 X15.092 Y15.71 E220.74654
G1 X15.092 Y104.908 E222.11124
M204 S3000
M205 X10 Y10
G0 F3000 X15.292 Y104.908
G0 X15.092 Y105.092
M204 S1800
M205 X8 Y8
G1 F1500 X15.092 Y194.289 E223.47592
G1 X15.404 Y194.418 E223.48774
G1 X15.438 Y194.432 E223.48777
G1 X59.908 Y149.962 E224.44477
G1 X59.908 Y149.432 E224.46944
G1 X59.908 Y149.289 E224.47232
G1 X59.908 Y105.092 E225.14852
G1 X15.092 Y105.092 E225.83419
M204 S3000
M205 X10 Y10
G0 F3000 X15.092 Y105.292
;TIME_ELAPSED:236.182161
G1 F2400 E219.83419
M140 S0
M204 S4000
M205 X20 Y20
M107
M104 S0 ; turn off extruder
M140 S0 ; turn off bed
M84 ; disable motors
M107
G91 ;relative positioning
G1 E-1 F300 ;retract the filament a bit before lifting the nozzle
to release some of the pressure
G1 Z+0.5 E-5 ;X-20 Y-20 F100 ;move Z up a bit and retract filament even more
G28 X0 ;Y0 ;move X/Y to min endstops
so the head is out of the way
G1 Y180 F2000
M84 ;steppers off
G90
M300 P300 S4000
M82 ;absolute extrusion mode
M104 S0
;End of Gcode
;SETTING_3 {"extruder_quality": ["[general]\\nversion = 4\\nname = AI3M Profile\
;SETTING_3 \ndefinition = anycubic_i3_mega\\n\\n[metadata]\\nquality_type = norm
;SETTING_3 al\\ntype = quality_changes\\nsetting_version = 5\\nposition = 0\\n\\
;SETTING_3 n[values]\\ninfill_pattern = cubicsubdiv\\ninfill_sparse_density = 25
;SETTING_3 \\nmaterial_print_temperature = 185\\nsupport_roof_enable = False\\ns
;SETTING_3 upport_z_distance = 0.15\\n\\n"], "global_quality": "[general]\\nvers
;SETTING_3 ion = 4\\nname = AI3M Profile\\ndefinition = anycubic_i3_mega\\n\\n[m
;SETTING_3 etadata]\\nquality_type = normal\\ntype = quality_changes\\nsetting_v
;SETTING_3 ersion = 5\\n\\n[values]\\nadhesion_type = skirt\\nlayer_height = 0.3
;SETTING_3 \\nsupport_enable = True\\nsupport_type = buildplate\\n\\n"}
