;FLAVOR:Marlin
;TIME:3315
;Filament used: 3.55623m
;Layer height: 0.2
;MINX:68.6
;MINY:88.6
;MINZ:0.2
;MAXX:141.4
;MAXY:121.4
;MAXZ:20
;Generated with Cura_SteamEngine 4.10.0
M140 S60
M105
M190 S60
M104 S215
M105
M109 S215
M82 ;absolute extrusion mode
G21 ;metric values
G90 ;absolute positionin
M82 ;absolute extrusion mode
G28
G29
M501
G92 E0 ;zero the extruded length
G1 F200 E5 ;extrude 3mm of feed stock
G92 E0 ;zero the extruded length again
G1 F100
G0 Y20 F100
M117 Printing...
G5
G92 E0
G92 E0
G1 F2400 E-1
;LAYER_COUNT:100
;LAYER:0
M107
M204 S3000
M205 X10 Y10
G1 F600 Z0.275
G0 F3000 X71.08 Y89.958 Z0.275
M204 S1800
M205 X8 Y8
;TYPE:SKIRT
G1 F600 Z0.2
G1 F2400 E0
G1 X71.668 Y89.551 E0.03563
G1 X72.298 Y89.212 E0.07127
G1 X72.962 Y88.946 E0.10691
G1 X73.651 Y88.755 E0.14254
G1 X74.358 Y88.642 E0.17821
G1 X75.15 Y88.603 E0.21772
G1 X75.33 Y88.6 E0.22669
G1 X94.293 Y88.6 E1.17149
G1 X95.11 Y88.612 E1.2122
G1 X95.558 Y88.634 E1.23455
G1 X98.357 Y88.874 E1.37452
G1 X101.013 Y89.023 E1.50706
G1 X103.623 Y89.097 E1.63715
G1 X106.3 Y89.097 E1.77053
G1 X108.908 Y89.023 E1.90052
G1 X111.586 Y88.871 E2.03416
G1 X113.065 Y88.746 E2.10812
G1 X113.194 Y88.742 E2.11455
G1 X114.461 Y88.633 E2.17791
G1 X115.15 Y88.603 E2.21227
G1 X115.33 Y88.6 E2.22124
G1 X134.376 Y88.601 E3.17018
G1 X135.074 Y88.61 E3.20496
G1 X135.787 Y88.659 E3.24057
G1 X136.491 Y88.787 E3.27622
G1 X137.176 Y88.993 E3.31186
G1 X137.833 Y89.275 E3.34748
G1 X138.455 Y89.628 E3.38311
G1 X139.034 Y90.048 E3.41875
G1 X139.563 Y90.53 E3.45441
G1 X140.034 Y91.068 E3.49003
G1 X140.442 Y91.655 E3.52565
G1 X140.782 Y92.285 E3.56132
G1 X141.05 Y92.948 E3.59695
G1 X141.242 Y93.637 E3.63259
G1 X141.356 Y94.343 E3.66822
G1 X141.397 Y95.151 E3.70853
G1 X141.4 Y95.33 E3.71745
G1 X141.4 Y114.343 E4.66474
G1 X141.391 Y115.07 E4.70097
G1 X141.342 Y115.784 E4.73663
G1 X141.214 Y116.488 E4.77228
G1 X141.008 Y117.173 E4.80792
G1 X140.727 Y117.83 E4.84352
G1 X140.374 Y118.453 E4.87919
G1 X139.954 Y119.032 E4.91483
G1 X139.472 Y119.56 E4.95045
G1 X138.935 Y120.032 E4.98607
G1 X138.347 Y120.44 E5.02173
G1 X137.718 Y120.781 E5.05738
G1 X137.055 Y121.049 E5.09301
G1 X136.366 Y121.241 E5.12865
G1 X135.66 Y121.356 E5.16429
G1 X134.849 Y121.397 E5.20474
G1 X134.67 Y121.4 E5.21366
G1 X115.609 Y121.399 E6.16335
G1 X114.889 Y121.388 E6.19923
G1 X114.441 Y121.366 E6.22158
G1 X111.643 Y121.126 E6.3615
G1 X108.987 Y120.977 E6.49404
G1 X106.377 Y120.903 E6.62413
G1 X103.7 Y120.903 E6.75751
G1 X101.092 Y120.977 E6.8875
G1 X98.414 Y121.129 E7.02114
G1 X96.935 Y121.254 E7.09509
G1 X96.806 Y121.258 E7.10152
G1 X95.539 Y121.367 E7.16488
G1 X94.85 Y121.397 E7.19925
G1 X94.67 Y121.4 E7.20821
G1 X75.624 Y121.399 E8.15716
G1 X74.926 Y121.39 E8.19194
G1 X74.213 Y121.341 E8.22754
G1 X73.509 Y121.213 E8.2632
G1 X72.824 Y121.007 E8.29883
G1 X72.167 Y120.725 E8.33446
G1 X71.545 Y120.372 E8.37009
G1 X70.966 Y119.952 E8.40573
G1 X70.437 Y119.47 E8.44138
G1 X69.966 Y118.932 E8.47701
G1 X69.558 Y118.345 E8.51263
G1 X69.218 Y117.715 E8.5483
G1 X68.95 Y117.052 E8.58393
G1 X68.758 Y116.363 E8.61956
G1 X68.644 Y115.657 E8.65519
G1 X68.602 Y114.831 E8.6964
G1 X68.6 Y114.658 E8.70502
G1 X68.601 Y95.578 E9.65566
G1 X68.611 Y94.913 E9.68879
G1 X68.661 Y94.199 E9.72446
G1 X68.791 Y93.496 E9.76007
G1 X68.999 Y92.812 E9.7957
G1 X69.282 Y92.155 E9.83134
G1 X69.636 Y91.533 E9.86699
G1 X70.058 Y90.955 E9.90265
G1 X70.541 Y90.428 E9.93827
G1 X71.08 Y89.958 E9.9739
M204 S3000
M205 X10 Y10
G0 F3000 X71.62 Y90.254
M204 S1800
M205 X8 Y8
G1 F2400 X72.199 Y89.89 E10.00797
G1 X72.816 Y89.597 E10.04201
G1 X73.463 Y89.378 E10.07604
G1 X74.131 Y89.236 E10.11006
G1 X74.846 Y89.171 E10.14583
G1 X75.33 Y89.16 E10.16996
G1 X94.293 Y89.16 E11.11476
G1 X95.101 Y89.172 E11.15502
G1 X95.51 Y89.192 E11.17543
G1 X98.312 Y89.432 E11.31554
G1 X100.965 Y89.581 E11.44793
G1 X103.642 Y89.657 E11.58137
G1 X106.281 Y89.657 E11.71285
G1 X108.954 Y89.581 E11.84608
G1 X111.63 Y89.43 E11.97962
G1 X113.112 Y89.304 E12.05373
G1 X113.237 Y89.301 E12.05996
G1 X114.51 Y89.191 E12.12362
G1 X115.165 Y89.162 E12.15629
G1 X115.33 Y89.16 E12.16451
G1 X134.368 Y89.16 E13.11305
G1 X135.066 Y89.169 E13.14783
G1 X135.748 Y89.218 E13.1819
G1 X136.419 Y89.346 E13.21593
G1 X137.07 Y89.552 E13.24995
G1 X137.694 Y89.832 E13.28403
G1 X138.28 Y90.183 E13.31806
G1 X138.821 Y90.6 E13.3521
G1 X139.31 Y91.078 E13.38617
G1 X139.739 Y91.609 E13.42018
G1 X140.104 Y92.187 E13.45424
G1 X140.398 Y92.803 E13.48825
G1 X140.619 Y93.45 E13.52231
G1 X140.763 Y94.118 E13.55636
G1 X140.829 Y94.845 E13.59273
G1 X140.84 Y95.33 E13.6169
G1 X140.84 Y114.336 E14.56385
G1 X140.831 Y115.063 E14.60007
G1 X140.782 Y115.745 E14.63414
G1 X140.654 Y116.416 E14.66817
G1 X140.449 Y117.068 E14.70223
G1 X140.169 Y117.691 E14.73626
G1 X139.819 Y118.277 E14.77027
G1 X139.402 Y118.819 E14.80434
G1 X138.925 Y119.308 E14.83837
G1 X138.394 Y119.737 E14.87238
G1 X137.816 Y120.102 E14.90644
G1 X137.2 Y120.397 E14.94047
G1 X136.553 Y120.618 E14.97454
G1 X135.885 Y120.762 E15.00858
G1 X135.155 Y120.829 E15.04511
G1 X134.67 Y120.84 E15.06928
G1 X115.618 Y120.839 E16.01852
G1 X114.898 Y120.828 E16.0544
G1 X114.489 Y120.808 E16.0748
G1 X111.688 Y120.568 E16.21487
G1 X109.035 Y120.419 E16.34726
G1 X106.358 Y120.343 E16.48069
G1 X103.719 Y120.343 E16.61217
G1 X101.046 Y120.419 E16.74541
G1 X98.37 Y120.57 E16.87895
G1 X96.888 Y120.696 E16.95305
G1 X96.763 Y120.699 E16.95928
G1 X95.49 Y120.809 E17.02294
G1 X94.835 Y120.838 E17.05561
G1 X94.67 Y120.84 E17.06383
G1 X75.632 Y120.84 E18.01238
G1 X74.934 Y120.831 E18.04715
G1 X74.252 Y120.782 E18.08122
G1 X73.581 Y120.654 E18.11526
G1 X72.93 Y120.448 E18.14928
G1 X72.306 Y120.168 E18.18335
G1 X71.72 Y119.817 E18.21739
G1 X71.179 Y119.4 E18.25142
G1 X70.69 Y118.922 E18.28549
G1 X70.261 Y118.391 E18.3195
G1 X69.896 Y117.813 E18.35356
G1 X69.602 Y117.197 E18.38757
G1 X69.381 Y116.55 E18.42163
G1 X69.237 Y115.882 E18.45568
G1 X69.171 Y115.149 E18.49235
G1 X69.16 Y114.658 E18.51682
G1 X69.161 Y95.586 E19.46706
G1 X69.171 Y94.921 E19.50019
G1 X69.221 Y94.24 E19.53421
G1 X69.35 Y93.569 E19.56826
G1 X69.557 Y92.918 E19.60229
G1 X69.839 Y92.295 E19.63636
G1 X70.191 Y91.71 E19.67038
G1 X70.609 Y91.17 E19.7044
G1 X71.088 Y90.682 E19.73847
G1 X71.62 Y90.254 E19.77249
M204 S3000
M205 X10 Y10
G0 F3000 X71.633 Y90.95
M204 S1800
M205 X8 Y8
G1 F2400 X72.157 Y90.566 E19.80486
G1 X72.724 Y90.25 E19.8372
G1 X73.326 Y90.005 E19.86958
G1 X73.953 Y89.836 E19.90194
G1 X74.862 Y89.731 E19.94753
G1 X75.33 Y89.72 E19.97085
G1 X94.293 Y89.72 E20.91566
G1 X95.093 Y89.732 E20.95552
G1 X95.462 Y89.75 E20.97393
G1 X98.266 Y89.99 E21.11415
G1 X100.954 Y90.141 E21.24828
G1 X103.626 Y90.217 E21.38147
G1 X106.297 Y90.217 E21.51455
G1 X108.967 Y90.141 E21.64763
G1 X111.675 Y89.988 E21.78277
G1 X113.16 Y89.862 E21.85702
G1 X113.263 Y89.86 E21.86215
G1 X114.558 Y89.748 E21.92692
G1 X115.181 Y89.722 E21.95798
G1 X115.33 Y89.72 E21.96541
G1 X134.361 Y89.72 E22.9136
G1 X135.059 Y89.729 E22.94838
G1 X135.707 Y89.778 E22.98076
G1 X136.344 Y89.905 E23.01312
G1 X136.96 Y90.11 E23.04547
G1 X137.547 Y90.389 E23.07785
G1 X138.095 Y90.738 E23.11022
G1 X138.596 Y91.151 E23.14257
G1 X139.043 Y91.623 E23.17496
G1 X139.428 Y92.146 E23.20732
G1 X139.746 Y92.713 E23.23971
G1 X139.992 Y93.314 E23.27206
G1 X140.162 Y93.941 E23.30443
G1 X140.269 Y94.861 E23.35058
G1 X140.28 Y95.33 E23.37395
G1 X140.28 Y114.329 E24.32055
G1 X140.271 Y115.056 E24.35677
G1 X140.223 Y115.704 E24.38915
G1 X140.095 Y116.341 E24.42152
G1 X139.891 Y116.958 E24.4539
G1 X139.612 Y117.545 E24.48628
G1 X139.264 Y118.093 E24.51862
G1 X138.851 Y118.594 E24.55097
G1 X138.379 Y119.041 E24.58336
G1 X137.856 Y119.426 E24.61572
G1 X137.29 Y119.744 E24.64807
G1 X136.688 Y119.991 E24.68049
G1 X136.062 Y120.161 E24.71281
G1 X135.139 Y120.269 E24.75911
G1 X134.67 Y120.28 E24.78248
G1 X115.626 Y120.279 E25.73132
G1 X114.906 Y120.268 E25.7672
G1 X114.536 Y120.25 E25.78566
G1 X111.731 Y120.01 E25.92592
G1 X109.046 Y119.859 E26.05991
G1 X106.374 Y119.783 E26.19309
G1 X103.703 Y119.783 E26.32617
G1 X101.033 Y119.859 E26.45925
G1 X98.325 Y120.012 E26.59439
G1 X96.84 Y120.138 E26.66865
G1 X96.737 Y120.14 E26.67378
G1 X95.442 Y120.252 E26.73854
G1 X94.819 Y120.278 E26.76961
G1 X94.67 Y120.28 E26.77703
G1 X75.639 Y120.28 E27.72523
G1 X74.941 Y120.271 E27.76001
G1 X74.293 Y120.222 E27.79239
G1 X73.656 Y120.095 E27.82475
G1 X73.04 Y119.89 E27.85709
G1 X72.453 Y119.611 E27.88948
G1 X71.905 Y119.262 E27.92185
G1 X71.404 Y118.849 E27.9542
G1 X70.957 Y118.377 E27.98659
G1 X70.572 Y117.854 E28.01894
G1 X70.254 Y117.287 E28.05133
G1 X70.008 Y116.686 E28.08369
G1 X69.838 Y116.059 E28.11605
G1 X69.731 Y115.134 E28.16245
G1 X69.72 Y114.658 E28.18617
G1 X69.721 Y95.595 E29.13596
G1 X69.731 Y94.93 E29.1691
G1 X69.78 Y94.282 E29.20147
G1 X69.909 Y93.645 E29.23386
G1 X70.115 Y93.029 E29.26622
G1 X70.395 Y92.443 E29.29858
G1 X70.745 Y91.896 E29.33093
G1 X71.16 Y91.396 E29.36331
G1 X71.633 Y90.95 E29.3957
M204 S3000
M205 X10 Y10
G1 F2400 E28.3957
;MESH:xyzCalibration_cube.stl
G0 F3000 X75.854 Y94.335
G0 X75.854 Y95.854
G0 X93.6 Y113.6
M204 S1800
M205 X8 Y8
;TYPE:WALL-INNER
G1 F2400 E29.3957
G1 F900 X76.4 Y113.6 E30.25266
G1 X76.4 Y96.4 E31.10963
G1 X93.6 Y96.4 E31.9666
G1 X93.6 Y113.6 E32.82357
M204 S3000
M205 X10 Y10
G0 F3000 X94.16 Y114.16
M204 S1800
M205 X8 Y8
G1 F900 X75.84 Y114.16 E33.73634
G1 X75.84 Y95.84 E34.64911
G1 X94.16 Y95.84 E35.56188
G1 X94.16 Y114.16 E36.47465
M204 S3000
M205 X10 Y10
G0 F3000 X94.72 Y114.72
M204 S1800
M205 X8 Y8
;TYPE:WALL-OUTER
G1 F900 X75.28 Y114.72 E37.44322
G1 X75.28 Y95.28 E38.41179
G1 X94.72 Y95.28 E39.38036
G1 X94.72 Y114.72 E40.34894
M204 S3000
M205 X10 Y10
G0 F3000 X94.52 Y114.72
G0 X94.09 Y114.09
G0 X93.05 Y113.05
M204 S1800
M205 X8 Y8
;TYPE:SKIN
G1 F900 X76.95 Y113.05 E41.1511
G1 X76.95 Y96.95 E41.95326
G1 X93.05 Y96.95 E42.75542
G1 X93.05 Y113.05 E43.55758
M204 S3000
M205 X10 Y10
G0 F3000 X92.49 Y112.49
M204 S1800
M205 X8 Y8
G1 F900 X77.51 Y112.49 E44.30394
G1 X77.51 Y97.51 E45.0503
G1 X92.49 Y97.51 E45.79666
G1 X92.49 Y112.49 E46.54302
M204 S3000
M205 X10 Y10
G0 F3000 X91.93 Y111.93
M204 S1800
M205 X8 Y8
G1 F900 X78.07 Y111.93 E47.23357
G1 X78.07 Y98.07 E47.92413
G1 X91.93 Y98.07 E48.61468
G1 X91.93 Y111.93 E49.30524
M204 S3000
M205 X10 Y10
G0 F3000 X91.67 Y98.797
M204 S1800
M205 X8 Y8
G1 F900 X91.201 Y98.329 E49.33825
M204 S3000
M205 X10 Y10
G0 F3000 X90.409 Y98.329
M204 S1800
M205 X8 Y8
G1 F900 X91.67 Y99.589 E49.42707
M204 S3000
M205 X10 Y10
G0 F3000 X91.67 Y100.381
M204 S1800
M205 X8 Y8
G1 F900 X89.618 Y98.329 E49.57166
M204 S3000
M205 X10 Y10
G0 F3000 X88.826 Y98.329
M204 S1800
M205 X8 Y8
G1 F900 X91.67 Y101.173 E49.77205
M204 S3000
M205 X10 Y10
G0 F3000 X91.67 Y101.965
M204 S1800
M205 X8 Y8
G1 F900 X88.034 Y98.329 E50.02824
M204 S3000
M205 X10 Y10
G0 F3000 X87.242 Y98.329
M204 S1800
M205 X8 Y8
G1 F900 X91.67 Y102.757 E50.34025
M204 S3000
M205 X10 Y10
G0 F3000 X91.67 Y103.549
M204 S1800
M205 X8 Y8
G1 F900 X86.45 Y98.329 E50.70806
M204 S3000
M205 X10 Y10
G0 F3000 X85.658 Y98.329
M204 S1800
M205 X8 Y8
G1 F900 X91.67 Y104.341 E51.13167
M204 S3000
M205 X10 Y10
G0 F3000 X91.67 Y105.133
M204 S1800
M205 X8 Y8
G1 F900 X84.866 Y98.329 E51.61109
M204 S3000
M205 X10 Y10
G0 F3000 X84.074 Y98.329
M204 S1800
M205 X8 Y8
G1 F900 X91.67 Y105.925 E52.14631
M204 S3000
M205 X10 Y10
G0 F3000 X91.67 Y106.717
M204 S1800
M205 X8 Y8
G1 F900 X83.282 Y98.329 E52.73734
M204 S3000
M205 X10 Y10
G0 F3000 X82.49 Y98.329
M204 S1800
M205 X8 Y8
G1 F900 X91.67 Y107.509 E53.38418
M204 S3000
M205 X10 Y10
G0 F3000 X91.67 Y108.301
M204 S1800
M205 X8 Y8
G1 F900 X81.698 Y98.329 E54.08682
M204 S3000
M205 X10 Y10
G0 F3000 X80.906 Y98.329
M204 S1800
M205 X8 Y8
G1 F900 X91.67 Y109.093 E54.84526
M204 S3000
M205 X10 Y10
G0 F3000 X91.67 Y109.885
M204 S1800
M205 X8 Y8
G1 F900 X80.114 Y98.329 E55.65951
M204 S3000
M205 X10 Y10
G0 F3000 X79.322 Y98.329
M204 S1800
M205 X8 Y8
G1 F900 X91.67 Y110.677 E56.52957
M204 S3000
M205 X10 Y10
G0 F3000 X91.67 Y111.469
M204 S1800
M205 X8 Y8
G1 F900 X78.53 Y98.329 E57.45543
M204 S3000
M205 X10 Y10
G0 F3000 X78.329 Y98.92
M204 S1800
M205 X8 Y8
G1 F900 X91.078 Y111.669 E58.35374
M204 S3000
M205 X10 Y10
G0 F3000 X90.286 Y111.669
M204 S1800
M205 X8 Y8
G1 F900 X78.329 Y99.712 E59.19625
M204 S3000
M205 X10 Y10
G0 F3000 X78.329 Y100.504
M204 S1800
M205 X8 Y8
G1 F900 X89.494 Y111.669 E59.98295
M204 S3000
M205 X10 Y10
G0 F3000 X88.702 Y111.669
M204 S1800
M205 X8 Y8
G1 F900 X78.329 Y101.296 E60.71385
M204 S3000
M205 X10 Y10
G0 F3000 X78.329 Y102.088
M204 S1800
M205 X8 Y8
G1 F900 X87.91 Y111.669 E61.38894
M204 S3000
M205 X10 Y10
G0 F3000 X87.118 Y111.669
M204 S1800
M205 X8 Y8
G1 F900 X78.329 Y102.88 E62.00822
M204 S3000
M205 X10 Y10
G0 F3000 X78.329 Y103.672
M204 S1800
M205 X8 Y8
G1 F900 X86.326 Y111.669 E62.5717
M204 S3000
M205 X10 Y10
G0 F3000 X85.534 Y111.669
M204 S1800
M205 X8 Y8
G1 F900 X78.329 Y104.464 E63.07937
M204 S3000
M205 X10 Y10
G0 F3000 X78.329 Y105.256
M204 S1800
M205 X8 Y8
G1 F900 X84.742 Y111.669 E63.53124
M204 S3000
M205 X10 Y10
G0 F3000 X83.95 Y111.669
M204 S1800
M205 X8 Y8
G1 F900 X78.329 Y106.048 E63.92731
M204 S3000
M205 X10 Y10
G0 F3000 X78.329 Y106.84
M204 S1800
M205 X8 Y8
G1 F900 X83.158 Y111.669 E64.26756
M204 S3000
M205 X10 Y10
G0 F3000 X82.366 Y111.669
M204 S1800
M205 X8 Y8
G1 F900 X78.329 Y107.632 E64.55202
M204 S3000
M205 X10 Y10
G0 F3000 X78.329 Y108.424
M204 S1800
M205 X8 Y8
G1 F900 X81.574 Y111.669 E64.78066
M204 S3000
M205 X10 Y10
G0 F3000 X80.782 Y111.669
M204 S1800
M205 X8 Y8
G1 F900 X78.329 Y109.216 E64.9535
M204 S3000
M205 X10 Y10
G0 F3000 X78.329 Y110.008
M204 S1800
M205 X8 Y8
G1 F900 X79.99 Y111.669 E65.07054
M204 S3000
M205 X10 Y10
G0 F3000 X79.198 Y111.669
M204 S1800
M205 X8 Y8
G1 F900 X78.329 Y110.8 E65.13177
G1 X78.259 Y110.73
M204 S3000
M205 X10 Y10
G1 F2400 E64.13177
;MESH:xyzCalibration_cube.stl(1)
G0 F3000 X94.14 Y113.6
G0 X95.665 Y113.6
G0 X114.335 Y113.6
G0 X115.86 Y113.6
G0 X133.6 Y113.6
M204 S1800
M205 X8 Y8
;TYPE:WALL-INNER
G1 F2400 E65.13177
G1 F900 X116.4 Y113.6 E65.98874
G1 X116.4 Y96.4 E66.84571
G1 X133.6 Y96.4 E67.70267
G1 X133.6 Y113.6 E68.55964
M204 S3000
M205 X10 Y10
G0 F3000 X134.16 Y114.16
M204 S1800
M205 X8 Y8
G1 F900 X115.84 Y114.16 E69.47241
G1 X115.84 Y95.84 E70.38518
G1 X134.16 Y95.84 E71.29795
G1 X134.16 Y114.16 E72.21072
M204 S3000
M205 X10 Y10
G0 F3000 X134.72 Y114.72
M204 S1800
M205 X8 Y8
;TYPE:WALL-OUTER
G1 F900 X115.28 Y114.72 E73.17929
G1 X115.28 Y95.28 E74.14786
G1 X134.72 Y95.28 E75.11644
G1 X134.72 Y114.72 E76.08501
M204 S3000
M205 X10 Y10
G0 F3000 X134.52 Y114.72
G0 X134.09 Y114.09
G0 X133.05 Y113.05
M204 S1800
M205 X8 Y8
;TYPE:SKIN
G1 F900 X116.95 Y113.05 E76.88717
G1 X116.95 Y96.95 E77.68933
G1 X133.05 Y96.95 E78.49149
G1 X133.05 Y113.05 E79.29365
M204 S3000
M205 X10 Y10
G0 F3000 X132.49 Y112.49
M204 S1800
M205 X8 Y8
G1 F900 X117.51 Y112.49 E80.04001
G1 X117.51 Y97.51 E80.78637
G1 X132.49 Y97.51 E81.53273
G1 X132.49 Y112.49 E82.27909
M204 S3000
M205 X10 Y10
G0 F3000 X131.93 Y111.93
M204 S1800
M205 X8 Y8
G1 F900 X118.07 Y111.93 E82.96965
G1 X118.07 Y98.07 E83.6602
G1 X131.93 Y98.07 E84.35076
G1 X131.93 Y111.93 E85.04131
M204 S3000
M205 X10 Y10
G0 F3000 X131.669 Y99.199
M204 S1800
M205 X8 Y8
G1 F900 X130.8 Y98.33 E85.10255
M204 S3000
M205 X10 Y10
G0 F3000 X130.008 Y98.33
M204 S1800
M205 X8 Y8
G1 F900 X131.669 Y99.991 E85.21958
M204 S3000
M205 X10 Y10
G0 F3000 X131.669 Y100.783
M204 S1800
M205 X8 Y8
G1 F900 X129.216 Y98.33 E85.39242
M204 S3000
M205 X10 Y10
G0 F3000 X128.424 Y98.33
M204 S1800
M205 X8 Y8
G1 F900 X131.669 Y101.575 E85.62107
M204 S3000
M205 X10 Y10
G0 F3000 X131.669 Y102.367
M204 S1800
M205 X8 Y8
G1 F900 X127.632 Y98.33 E85.90552
M204 S3000
M205 X10 Y10
G0 F3000 X126.84 Y98.33
M204 S1800
M205 X8 Y8
G1 F900 X131.669 Y103.159 E86.24578
M204 S3000
M205 X10 Y10
G0 F3000 X131.669 Y103.951
M204 S1800
M205 X8 Y8
G1 F900 X126.048 Y98.33 E86.64184
M204 S3000
M205 X10 Y10
G0 F3000 X125.256 Y98.33
M204 S1800
M205 X8 Y8
G1 F900 X131.669 Y104.743 E87.09371
M204 S3000
M205 X10 Y10
G0 F3000 X131.669 Y105.534
M204 S1800
M205 X8 Y8
G1 F900 X124.464 Y98.33 E87.60135
M204 S3000
