;FLAVOR:Marlin
;TIME:304
;Filament used: 0.269409m
;Layer height: 0.2
;Generated with Cura_SteamEngine 3.6.0
M140 S60
M105
M190 S60
M104 S200
M105
M109 S200
M82 ;absolute extrusion mode
G21 ;metric values
G90 ;absolute positioning
M82 ;set extruder to absolute mode
M107 ;start with the fan off
G28 X0 Y0 ;move X/Y to min endstops
G28 Z0 ;move Z to min endstops
G1 Z15.0 F100 ;move the platform down 15mm
G92 E0 ;zero the extruded length
G1 F200 E3 ;extrude 3mm of feed stock
G92 E0 ;zero the extruded length again
G1 F100
M117 Printing...
G5
G92 E0
G1 F2400 E-6
;LAYER_COUNT:23
;LAYER:0
M106 S255
M204 S3000
M205 X10 Y10
G0 F3000 X91.188 Y95.399 Z0.2
M204 S1800
M205 X8 Y8
;TYPE:SKIRT
G1 F2400 E0
G1 X91.75 Y94.957 E0.03329
G1 X92.359 Y94.581 E0.06662
G1 X92.81 Y94.359 E0.09003
G1 X93.185 Y94.192 E0.10914
G1 X93.854 Y93.938 E0.14246
G1 X94.547 Y93.76 E0.17578
G1 X95.255 Y93.66 E0.20907
G1 X95.783 Y93.638 E0.23368
G1 X114.138 Y93.622 E1.08837
G1 X114.853 Y93.661 E1.12171
G1 X115.558 Y93.78 E1.155
G1 X116.246 Y93.977 E1.18833
G1 X116.594 Y94.098 E1.20548
G1 X117.255 Y94.37 E1.23876
G1 X117.882 Y94.715 E1.27209
G1 X118.566 Y95.207 E1.31132
G1 X118.818 Y95.415 E1.32654
G1 X119.343 Y95.901 E1.35985
G1 X119.811 Y96.442 E1.39316
G1 X120.216 Y97.031 E1.42644
G1 X120.483 Y97.519 E1.45234
G1 X120.707 Y97.973 E1.47592
G1 X120.988 Y98.631 E1.50923
G1 X121.193 Y99.317 E1.54257
G1 X121.32 Y100.02 E1.57584
G1 X121.368 Y100.809 E1.61264
G1 X121.363 Y109.228 E2.00467
G1 X121.323 Y109.942 E2.03797
G1 X121.203 Y110.647 E2.07127
G1 X121.005 Y111.334 E2.10456
G1 X120.79 Y111.871 E2.13149
G1 X120.631 Y112.221 E2.14939
G1 X120.299 Y112.855 E2.18272
G1 X119.899 Y113.447 E2.21599
G1 X119.435 Y113.992 E2.24932
G1 X119.074 Y114.341 E2.2727
G1 X118.748 Y114.633 E2.29308
G1 X118.189 Y115.08 E2.3264
G1 X117.584 Y115.462 E2.35972
G1 X116.643 Y115.889 E2.40784
G1 X116.376 Y115.985 E2.42105
G1 X115.691 Y116.189 E2.45433
G1 X114.987 Y116.315 E2.48763
G1 X114.211 Y116.362 E2.52383
G1 X95.788 Y116.363 E3.38168
G1 X95.074 Y116.323 E3.41498
G1 X94.369 Y116.204 E3.44828
G1 X93.36 Y115.885 E3.49755
G1 X93.038 Y115.753 E3.51376
G1 X92.393 Y115.445 E3.54704
G1 X91.786 Y115.067 E3.58034
G1 X91.224 Y114.624 E3.61366
G1 X90.642 Y114.037 E3.65215
G1 X90.281 Y113.623 E3.67772
G1 X89.842 Y113.059 E3.711
G1 X89.469 Y112.449 E3.7443
G1 X89.166 Y111.801 E3.77761
G1 X88.915 Y111.041 E3.81488
G1 X88.825 Y110.698 E3.83139
G1 X88.682 Y109.997 E3.8647
G1 X88.615 Y109.038 E3.90947
G1 X88.662 Y100.656 E4.29977
G1 X88.706 Y99.942 E4.33308
G1 X88.829 Y99.238 E4.36636
G1 X89.031 Y98.551 E4.39971
G1 X89.307 Y97.892 E4.43297
G1 X89.656 Y97.267 E4.46631
G1 X89.875 Y96.943 E4.48452
G1 X90.227 Y96.456 E4.5125
G1 X90.678 Y95.901 E4.5458
G1 X91.188 Y95.399 E4.57912
M204 S3000
M205 X10 Y10
G0 F3000 X91.604 Y95.779
M204 S1800
M205 X8 Y8
G1 F2400 X92.147 Y95.365 E4.61091
G1 X93.038 Y94.87 E4.65837
G1 X93.413 Y94.703 E4.67749
G1 X94.053 Y94.462 E4.70933
G1 X94.716 Y94.297 E4.74115
G1 X95.393 Y94.211 E4.77292
G1 X95.784 Y94.198 E4.79114
G1 X114.139 Y94.182 E5.64583
G1 X114.821 Y94.221 E5.67764
G1 X115.494 Y94.34 E5.70946
G1 X116.062 Y94.506 E5.73701
G1 X116.41 Y94.627 E5.75417
G1 X117.041 Y94.889 E5.78598
G1 X117.637 Y95.222 E5.81777
G1 X118.21 Y95.639 E5.85077
G1 X118.462 Y95.847 E5.86599
G1 X118.962 Y96.312 E5.89778
G1 X119.405 Y96.832 E5.92959
G1 X119.784 Y97.401 E5.96143
G1 X119.981 Y97.767 E5.98078
G1 X120.205 Y98.221 E6.00435
G1 X120.471 Y98.85 E6.03615
G1 X120.662 Y99.506 E6.06797
G1 X120.774 Y100.18 E6.09978
G1 X120.808 Y100.808 E6.12907
G1 X120.803 Y109.227 E6.52109
G1 X120.763 Y109.91 E6.55295
G1 X120.643 Y110.582 E6.58474
G1 X120.445 Y111.236 E6.61655
G1 X120.28 Y111.639 E6.63683
G1 X120.121 Y111.989 E6.65473
G1 X119.803 Y112.594 E6.68656
G1 X119.416 Y113.157 E6.71837
G1 X118.966 Y113.671 E6.75018
G1 X118.7 Y113.924 E6.76727
G1 X118.374 Y114.216 E6.78765
G1 X117.84 Y114.641 E6.81943
G1 X117.259 Y115.001 E6.85126
G1 X116.454 Y115.362 E6.89234
G1 X116.187 Y115.458 E6.90555
G1 X115.532 Y115.651 E6.93735
G1 X114.858 Y115.766 E6.96918
G1 X114.211 Y115.802 E6.99936
G1 X95.788 Y115.803 E7.85721
G1 X95.106 Y115.763 E7.88902
G1 X94.434 Y115.644 E7.9208
G1 X93.573 Y115.367 E7.96291
G1 X93.251 Y115.235 E7.97912
G1 X92.635 Y114.939 E8.01094
G1 X92.058 Y114.573 E8.04276
G1 X91.527 Y114.143 E8.07458
G1 X91.064 Y113.669 E8.10543
G1 X90.703 Y113.255 E8.13101
G1 X90.285 Y112.715 E8.1628
G1 X89.933 Y112.129 E8.19463
G1 X89.652 Y111.507 E8.22642
G1 X89.456 Y110.899 E8.25616
G1 X89.366 Y110.556 E8.27267
G1 X89.232 Y109.886 E8.30449
G1 X89.175 Y109.041 E8.34393
G1 X89.222 Y100.659 E8.73423
G1 X89.266 Y99.977 E8.76606
G1 X89.389 Y99.305 E8.79787
G1 X89.59 Y98.652 E8.82968
G1 X89.865 Y98.027 E8.86148
G1 X90.329 Y97.271 E8.90278
G1 X90.681 Y96.784 E8.93076
G1 X91.113 Y96.255 E8.96256
G1 X91.604 Y95.779 E8.99441
M204 S3000
M205 X10 Y10
G0 F3000 X92.018 Y96.162
M204 S1800
M205 X8 Y8
G1 F2400 X92.54 Y95.776 E9.02464
G1 X93.266 Y95.382 E9.0631
G1 X93.641 Y95.215 E9.08221
G1 X94.25 Y94.987 E9.11249
G1 X94.881 Y94.837 E9.1427
G1 X95.784 Y94.758 E9.1849
G1 X114.139 Y94.742 E10.03959
G1 X114.788 Y94.781 E10.06986
G1 X115.426 Y94.9 E10.10008
G1 X115.878 Y95.035 E10.12205
G1 X116.226 Y95.156 E10.13921
G1 X116.825 Y95.407 E10.16945
G1 X117.389 Y95.729 E10.19969
G1 X117.853 Y96.071 E10.22653
G1 X118.105 Y96.279 E10.24174
G1 X118.58 Y96.723 E10.27202
G1 X118.996 Y97.221 E10.30224
G1 X119.479 Y98.015 E10.34551
G1 X119.703 Y98.469 E10.36908
G1 X119.954 Y99.068 E10.39933
G1 X120.13 Y99.693 E10.42956
G1 X120.227 Y100.336 E10.45984
G1 X120.248 Y100.808 E10.48184
G1 X120.243 Y109.227 E10.87386
G1 X120.203 Y109.875 E10.90409
G1 X120.083 Y110.514 E10.93437
G1 X119.77 Y111.408 E10.97848
G1 X119.611 Y111.758 E10.99638
G1 X119.307 Y112.332 E11.02662
G1 X118.934 Y112.864 E11.05687
G1 X118.327 Y113.507 E11.09805
G1 X118.001 Y113.799 E11.11843
G1 X117.491 Y114.202 E11.1487
G1 X116.936 Y114.539 E11.17893
G1 X116.264 Y114.835 E11.21312
G1 X115.997 Y114.931 E11.22633
G1 X115.374 Y115.112 E11.25654
G1 X114.733 Y115.216 E11.28678
G1 X114.211 Y115.242 E11.31112
G1 X95.788 Y115.243 E12.16897
G1 X95.14 Y115.203 E12.1992
G1 X94.501 Y115.084 E12.22947
G1 X93.785 Y114.848 E12.26457
G1 X93.463 Y114.716 E12.28077
G1 X92.878 Y114.434 E12.31101
G1 X92.333 Y114.081 E12.34125
G1 X91.835 Y113.664 E12.3715
G1 X91.486 Y113.301 E12.39494
G1 X91.125 Y112.887 E12.42052
G1 X90.729 Y112.372 E12.45077
G1 X90.4 Y111.812 E12.48101
G1 X90.141 Y111.217 E12.51123
G1 X89.998 Y110.757 E12.53366
G1 X89.908 Y110.414 E12.55017
G1 X89.782 Y109.777 E12.58041
G1 X89.735 Y109.044 E12.61461
G1 X89.782 Y100.662 E13.00492
G1 X89.826 Y100.014 E13.03516
G1 X89.949 Y99.376 E13.06542
G1 X90.149 Y98.758 E13.09566
G1 X90.423 Y98.17 E13.12587
G1 X90.783 Y97.599 E13.1573
G1 X91.135 Y97.112 E13.18528
G1 X91.547 Y96.61 E13.21552
G1 X92.018 Y96.162 E13.24579
M204 S3000
M205 X10 Y10
G1 F2400 E7.24579
;MESH:7MIN_JUUL_CHG.stl
G0 F3000 X94.869 Y99.784
G0 X95.898 Y100.909
G0 X98.982 Y107.667
G0 X102.55 Y108.2
M204 S1800
M205 X8 Y8
;TYPE:WALL-INNER
G1 F2400 E13.24579
G1 F1500 X102.55 Y107.92 E13.25883
G1 X102.55 Y101.4 E13.56242
G1 X107.45 Y101.4 E13.79059
G1 X107.45 Y108.119 E14.10345
G1 X107.45 Y108.199 E14.10718
G1 X111.27 Y108.2 E14.28505
G1 X111.55 Y108.2 E14.29809
G1 X111.55 Y107.92 E14.30653
G1 X111.55 Y101.4 E14.61013
G1 X113.32 Y101.4 E14.69255
G1 X113.6 Y101.4 E14.70559
G1 X113.6 Y101.68 E14.71403
G1 X113.599 Y108.599 E15.0362
G1 X111.55 Y108.599 E15.13161
G1 X111.27 Y108.599 E15.14278
G1 X107.45 Y108.599 E15.29524
G1 X107.37 Y108.599 E15.29859
G1 X102.55 Y108.598 E15.52303
G1 X102.27 Y108.598 E15.53607
G1 X98.45 Y108.597 E15.71394
G1 X98.369 Y108.597 E15.71772
G1 X96.404 Y108.596 E15.80922
G1 X96.401 Y101.401 E16.14424
G1 X98.17 Y101.4 E16.22662
G1 X98.45 Y101.4 E16.23965
G1 X98.45 Y101.68 E16.24809
G1 X98.45 Y108.118 E16.54787
G1 X98.45 Y108.199 E16.55126
G1 X102.27 Y108.2 E16.70342
G1 X102.55 Y108.2 E16.71186
M204 S3000
M205 X10 Y10
G0 F3000 X111.06 Y107.71
G0 X110.99 Y107.64
M204 S1800
M205 X8 Y8
G1 F1500 X110.99 Y107.36 E16.72489
G1 X110.99 Y100.84 E17.02849
G1 X113.824 Y100.84 E17.16046
G1 X113.964 Y100.84 E17.16697
G1 X114.05 Y100.851 E17.17101
G1 X114.101 Y100.88 E17.17374
G1 X114.133 Y100.917 E17.17602
G1 X114.153 Y100.967 E17.17853
G1 X114.16 Y101.04 E17.18194
G1 X114.16 Y101.18 E17.18846
G1 X114.159 Y108.825 E17.54445
G1 X114.159 Y108.988 E17.55204
G1 X114.145 Y109.059 E17.55541
G1 X114.119 Y109.101 E17.55771
G1 X114.073 Y109.138 E17.56045
G1 X114 Y109.159 E17.56399
G1 X113.837 Y109.159 E17.57158
G1 X95.99 Y109.156 E18.40261
G1 X95.939 Y109.144 E18.40505
G1 X95.888 Y109.112 E18.40786
G1 X95.855 Y109.059 E18.41076
G1 X95.844 Y109.01 E18.4131
G1 X95.841 Y101.174 E18.77798
G1 X95.841 Y101.01 E18.78561
G1 X95.857 Y100.936 E18.78914
G1 X95.884 Y100.896 E18.79139
G1 X95.929 Y100.861 E18.79404
G1 X96 Y100.841 E18.79748
G1 X96.164 Y100.841 E18.80511
G1 X98.73 Y100.84 E18.9246
G1 X99.01 Y100.84 E18.93763
G1 X99.01 Y101.12 E18.94607
G1 X99.01 Y107.639 E19.24963
G1 X101.71 Y107.64 E19.37535
G1 X101.99 Y107.64 E19.38839
G1 X101.99 Y107.36 E19.39683
G1 X101.99 Y100.84 E19.70043
G1 X108.01 Y100.84 E19.98074
G1 X108.01 Y107.639 E20.29733
G1 X110.71 Y107.64 E20.42306
G1 X110.99 Y107.64 E20.4315
M204 S3000
M205 X10 Y10
G0 F3000 X110.43 Y107.08
M204 S1800
M205 X8 Y8
;TYPE:WALL-OUTER
G1 F1500 X110.43 Y106.8 E20.44453
G1 X110.43 Y100.28 E20.74813
G1 X113.988 Y100.28 E20.91381
G1 X114.129 Y100.292 E20.9204
G1 X114.24 Y100.322 E20.92575
G1 X114.365 Y100.381 E20.93219
G1 X114.46 Y100.447 E20.93757
G1 X114.553 Y100.54 E20.9437
G1 X114.619 Y100.635 E20.94908
G1 X114.678 Y100.76 E20.95552
G1 X114.707 Y100.867 E20.96068
G1 X114.72 Y101.012 E20.96746
G1 X114.719 Y109.022 E21.34044
G1 X114.701 Y109.16 E21.34692
G1 X114.665 Y109.273 E21.35244
G1 X114.608 Y109.383 E21.35821
G1 X114.529 Y109.486 E21.36426
G1 X114.437 Y109.57 E21.37006
G1 X114.334 Y109.636 E21.37575
G1 X114.216 Y109.685 E21.3817
G1 X114.086 Y109.714 E21.38791
G1 X114.029 Y109.719 E21.39057
G1 X95.938 Y109.716 E22.23296
G1 X95.813 Y109.694 E22.23887
G1 X95.698 Y109.652 E22.24457
G1 X95.584 Y109.586 E22.25071
G1 X95.491 Y109.509 E22.25633
G1 X95.414 Y109.416 E22.26195
G1 X95.347 Y109.3 E22.26819
G1 X95.306 Y109.187 E22.27379
G1 X95.284 Y109.062 E22.2797
G1 X95.281 Y100.978 E22.65612
G1 X95.299 Y100.84 E22.6626
G1 X95.335 Y100.727 E22.66812
G1 X95.393 Y100.616 E22.67396
G1 X95.471 Y100.514 E22.67993
G1 X95.563 Y100.43 E22.68574
G1 X95.666 Y100.364 E22.69143
G1 X95.784 Y100.315 E22.69738
G1 X95.914 Y100.286 E22.70358
G1 X95.971 Y100.281 E22.70625
G1 X99.29 Y100.28 E22.86079
G1 X99.57 Y100.28 E22.87383
G1 X99.57 Y100.56 E22.88227
G1 X99.57 Y107.079 E23.18582
G1 X101.15 Y107.08 E23.2594
G1 X101.43 Y107.08 E23.27243
G1 X101.43 Y106.8 E23.28087
G1 X101.43 Y100.28 E23.58447
G1 X108.57 Y100.28 E23.91694
G1 X108.57 Y107.079 E24.23353
G1 X110.15 Y107.08 E24.3071
G1 X110.43 Y107.08 E24.31554
M204 S3000
M205 X10 Y10
G0 F3000 X110.43 Y106.88
G0 X111.09 Y106.88
G0 X112.1 Y108.049
M204 S1800
M205 X8 Y8
;TYPE:SKIN
G1 F1500 X112.1 Y101.95 E24.59954
G1 X113.05 Y101.95 E24.64377
G1 X113.049 Y108.049 E24.92777
G1 X112.1 Y108.049 E24.97196
M204 S3000
M205 X10 Y10
G0 F3000 X112.54 Y107.788
M204 S1800
M205 X8 Y8
G1 F1500 X112.359 Y107.607 E24.98388
M204 S3000
M205 X10 Y10
G0 F3000 X112.789 Y107.245
M204 S1800
M205 X8 Y8
G1 F1500 X112.359 Y106.815 E25.01219
M204 S3000
M205 X10 Y10
G0 F3000 X112.789 Y106.453
M204 S1800
M205 X8 Y8
G1 F1500 X112.359 Y106.023 E25.04051
M204 S3000
M205 X10 Y10
G0 F3000 X112.789 Y105.661
M204 S1800
M205 X8 Y8
G1 F1500 X112.359 Y105.231 E25.06882
M204 S3000
M205 X10 Y10
G0 F3000 X112.789 Y104.869
M204 S1800
M205 X8 Y8
G1 F1500 X112.359 Y104.439 E25.09714
M204 S3000
M205 X10 Y10
G0 F3000 X112.789 Y104.077
M204 S1800
M205 X8 Y8
G1 F1500 X112.359 Y103.647 E25.12546
M204 S3000
M205 X10 Y10
G0 F3000 X112.789 Y103.285
M204 S1800
M205 X8 Y8
G1 F1500 X112.359 Y102.855 E25.15377
M204 S3000
M205 X10 Y10
G0 F3000 X112.789 Y102.493
M204 S1800
M205 X8 Y8
G1 F1500 X112.504 Y102.209 E25.17251
M204 S3000
M205 X10 Y10
G0 F3000 X111.018 Y107.668
G0 X107.982 Y107.667
G0 X106.9 Y101.95
M204 S1800
M205 X8 Y8
G1 F1500 X106.9 Y108.048 E25.45646
G1 X103.1 Y108.047 E25.6334
G1 X103.1 Y101.95 E25.9173
G1 X106.9 Y101.95 E26.09425
M204 S3000
M205 X10 Y10
G0 F3000 X106.64 Y102.68
M204 S1800
M205 X8 Y8
G1 F1500 X106.169 Y102.21 E26.12523
M204 S3000
M205 X10 Y10
G0 F3000 X105.378 Y102.21
M204 S1800
M205 X8 Y8
G1 F1500 X106.64 Y103.472 E26.20833
M204 S3000
M205 X10 Y10
G0 F3000 X106.64 Y104.264
M204 S1800
M205 X8 Y8
G1 F1500 X104.586 Y102.21 E26.34359
M204 S3000
M205 X10 Y10
G0 F3000 X103.794 Y102.21
M204 S1800
M205 X8 Y8
G1 F1500 X106.64 Y105.056 E26.53101
M204 S3000
M205 X10 Y10
G0 F3000 X106.64 Y105.848
M204 S1800
M205 X8 Y8
G1 F1500 X103.359 Y102.567 E26.74707
M204 S3000
M205 X10 Y10
G0 F3000 X103.359 Y103.359
M204 S1800
M205 X8 Y8
G1 F1500 X106.64 Y106.64 E26.96313
M204 S3000
M205 X10 Y10
G0 F3000 X106.64 Y107.432
M204 S1800
M205 X8 Y8
G1 F1500 X103.359 Y104.151 E27.17919
M204 S3000
M205 X10 Y10
G0 F3000 X103.359 Y104.943
M204 S1800
M205 X8 Y8
G1 F1500 X106.202 Y107.786 E27.3664
M204 S3000
M205 X10 Y10
G0 F3000 X105.41 Y107.786
M204 S1800
M205 X8 Y8
G1 F1500 X103.359 Y105.735 E27.50146
M204 S3000
M205 X10 Y10
G0 F3000 X103.359 Y106.527
M204 S1800
M205 X8 Y8
G1 F1500 X104.618 Y107.786 E27.58437
M204 S3000
M205 X10 Y10
G0 F3000 X103.826 Y107.786
M204 S1800
M205 X8 Y8
G1 F1500 X103.359 Y107.319 E27.61512
M204 S3000
M205 X10 Y10
G0 F3000 X102.153 Y107.633
G0 X97.9 Y108.046
M204 S1800
M205 X8 Y8
G1 F1500 X96.954 Y108.046 E27.65917
G1 X96.951 Y101.951 E27.94298
G1 X97.9 Y101.95 E27.98717
G1 X97.9 Y108.046 E28.27103
M204 S3000
M205 X10 Y10
G0 F3000 X97.489 Y107.784
M204 S1800
M205 X8 Y8
G1 F1500 X97.213 Y107.508 E28.2892
M204 S3000
M205 X10 Y10
G0 F3000 X97.64 Y107.143
M204 S1800
M205 X8 Y8
G1 F1500 X97.213 Y106.716 E28.31732
M204 S3000
M205 X10 Y10
G0 F3000 X97.64 Y106.351
M204 S1800
M205 X8 Y8
G1 F1500 X97.212 Y105.923 E28.34551
M204 S3000
M205 X10 Y10
G0 F3000 X97.64 Y105.559
M204 S1800
M205 X8 Y8
G1 F1500 X97.212 Y105.131 E28.37369
M204 S3000
M205 X10 Y10
G0 F3000 X97.64 Y104.767
M204 S1800
M205 X8 Y8
G1 F1500 X97.211 Y104.339 E28.40191
M204 S3000
M205 X10 Y10
G0 F3000 X97.64 Y103.975
M204 S1800
M205 X8 Y8
G1 F1500 X97.21 Y103.546 E28.43019
M204 S3000
M205 X10 Y10
G0 F3000 X97.64 Y103.183
M204 S1800
M205 X8 Y8
G1 F1500 X97.21 Y102.754 E28.45847
M204 S3000
M205 X10 Y10
G0 F3000 X97.64 Y102.391
M204 S1800
M205 X8 Y8
G1 F1500 X97.458 Y102.21 E28.47043
M204 S3000
M205 X10 Y10
;MESH:NONMESH
G0 F3000 X98.982 Y107.667
G0 X111.018 Y107.668
G0 X111.15 Y107.6
;TIME_ELAPSED:31.809250
;LAYER:1
M140 S60
;MESH:7MIN_JUUL_CHG.stl
G0 F4500 X111.15 Y107.6 Z0.4
M204 S1800
M205 X8 Y8
;TYPE:WALL-INNER
G1 F2250 X111.15 Y107.4 E28.47708
G1 X111.15 Y101.2 E28.68329
G1 X111.15 Y101 E28.68994
G1 X111.35 Y101 E28.69425
G1 X113.997 Y101.003 E28.78229
G1 X113.997 Y108.797 E29.04152
G1 X113.997 Y108.997 E29.04817
G1 X113.797 Y108.997 E29.05248
G1 X96.004 Y108.996 E29.64428
G1 X96.002 Y101.006 E29.91002
G1 X96.015 Y101.001 E29.91049
G1 X98.65 Y101 E29.99813
G1 X98.85 Y101 E30.00478
G1 X98.85 Y101.2 E30.00909
G1 X98.85 Y107.599 E30.22192
G1 X101.95 Y107.6 E30.32503
G1 X102.15 Y107.6 E30.33168
G1 X102.15 Y107.4 E30.33598
G1 X102.15 Y101 E30.54885
G1 X107.85 Y101 E30.73843
G1 X107.85 Y107.599 E30.95792
G1 X110.95 Y107.6 E31.06102
