;FLAVOR:Marlin
;TIME:3522
;Filament used: 3.35939m
;Layer height: 0.2
;MINX:32.198
;MINY:77.449
;MINZ:0.24
;MAXX:162.546
;MAXY:132.549
;MAXZ:9.69
;Generated with Cura_SteamEngine 4.6.1
M140 S60
M105
M190 S60
M104 S200
M105
M109 S200
M82 ;absolute extrusion mode
G28
G29
M501
M420 S1
G92 E0 ;zero the extruded length
G1 F200 E3 ;extrude 3mm of feed stock
G92 E0 ;zero the extruded length again
G1 F120
M117 Printing...
G5
G92 E0
G92 E0
G1 F2400 E-6
;LAYER_COUNT:43
;LAYER:-6
M107
M204 S5000
M205 X30 Y30
G0 F7200 X44.454 Y84.415 Z0.24
M204 S1800
M205 X8 Y8
;TYPE:SUPPORT-INTERFACE
G1 F2400 E0
G1 F1125 X45.42 Y83.901 E0.08735
G1 X45.985 Y83.628 E0.13744
G1 X46.943 Y83.205 E0.22103
G1 X47.48 Y82.99 E0.2672
G1 X48.473 Y82.63 E0.35152
G1 X49.03 Y82.453 E0.39817
G1 X50.034 Y82.165 E0.48155
G1 X50.632 Y82.017 E0.53072
G1 X51.566 Y81.818 E0.60695
G1 X52.211 Y81.705 E0.65922
G1 X53.246 Y81.558 E0.74267
G1 X53.866 Y81.495 E0.79242
G1 X54.921 Y81.422 E0.87683
G1 X55.506 Y81.403 E0.92355
G1 X56.534 Y81.404 E1.00561
G1 X57.172 Y81.428 E1.05658
G1 X58.252 Y81.507 E1.14302
G1 X58.821 Y81.569 E1.18871
G1 X59.796 Y81.706 E1.2673
G1 X60.388 Y81.81 E1.31528
G1 X61.434 Y82.032 E1.40064
G1 X62.036 Y82.183 E1.45018
G1 X63.007 Y82.462 E1.53082
G1 X63.64 Y82.67 E1.58401
G1 X64.569 Y83.008 E1.66292
G1 X65.17 Y83.253 E1.71473
G1 X65.315 Y83.318 E1.72742
G1 X65.943 Y83.551 E1.78088
G1 X66.609 Y83.706 E1.83547
G1 X67.287 Y83.775 E1.88987
G1 X67.97 Y83.759 E1.9444
G1 X68.645 Y83.657 E1.9989
G1 X69.297 Y83.471 E2.05302
G1 X69.686 Y83.317 E2.08641
G1 X69.941 Y83.206 E2.10861
G1 X70.48 Y82.99 E2.15497
G1 X71.473 Y82.63 E2.23928
G1 X72.03 Y82.453 E2.28593
G1 X73.034 Y82.165 E2.36931
G1 X73.632 Y82.017 E2.41848
G1 X74.566 Y81.818 E2.49471
G1 X75.211 Y81.705 E2.54698
G1 X76.246 Y81.558 E2.63043
G1 X76.866 Y81.495 E2.68018
G1 X77.921 Y81.422 E2.76459
G1 X78.506 Y81.403 E2.81132
G1 X79.534 Y81.404 E2.89337
G1 X80.172 Y81.428 E2.94434
G1 X81.252 Y81.507 E3.03078
G1 X81.821 Y81.569 E3.07647
G1 X82.796 Y81.706 E3.15506
G1 X83.388 Y81.81 E3.20304
G1 X84.434 Y82.032 E3.2884
G1 X85.036 Y82.183 E3.33794
G1 X86.323 Y82.552 E3.44481
G1 X86.33 Y82.538 E3.44606
G1 X86.612 Y82.606 E3.46922
G1 X87.291 Y82.681 E3.52375
G1 X87.973 Y82.672 E3.57819
G1 X88.649 Y82.574 E3.63272
G1 X89.308 Y82.394 E3.68725
G1 X89.935 Y82.131 E3.74152
G1 X90.399 Y81.874 E3.78386
G1 X90.908 Y81.557 E3.83173
G1 X91.764 Y81.063 E3.91062
G1 X92.568 Y80.637 E3.98325
G1 X93.458 Y80.203 E4.06229
G1 X94.267 Y79.842 E4.13301
G1 X95.174 Y79.474 E4.21114
G1 X96.014 Y79.167 E4.28253
G1 X96.989 Y78.849 E4.3644
G1 X97.783 Y78.618 E4.43041
G1 X98.765 Y78.368 E4.51129
G1 X99.626 Y78.182 E4.58161
G1 X100.635 Y78 E4.66345
G1 X101.449 Y77.88 E4.72913
G1 X102.504 Y77.763 E4.81386
G1 X103.373 Y77.697 E4.88343
G1 X104.372 Y77.657 E4.96324
G1 X105.247 Y77.651 E5.03308
G1 X106.255 Y77.679 E5.11358
G1 X107.131 Y77.734 E5.18364
G1 X108.098 Y77.826 E5.26118
G1 X108.922 Y77.931 E5.32749
G1 X109.975 Y78.105 E5.41268
G1 X110.797 Y78.27 E5.47961
G1 X111.766 Y78.499 E5.55909
G1 X112.638 Y78.738 E5.63126
G1 X113.594 Y79.035 E5.71117
G1 X114.425 Y79.325 E5.78143
G1 X115.339 Y79.678 E5.85964
G1 X116.131 Y80.016 E5.92838
G1 X117.046 Y80.444 E6.00901
G1 X117.55 Y80.702 E6.05421
G1 X118.165 Y80.968 E6.1077
G1 X118.821 Y81.158 E6.16221
G1 X119.496 Y81.264 E6.21675
G1 X120.178 Y81.285 E6.27122
G1 X120.858 Y81.219 E6.32576
G1 X121.528 Y81.066 E6.38061
G1 X122.395 Y80.725 E6.45498
G1 X122.568 Y80.637 E6.47048
G1 X123.458 Y80.203 E6.54952
G1 X124.267 Y79.842 E6.62023
G1 X125.174 Y79.474 E6.69837
G1 X126.014 Y79.167 E6.76976
G1 X126.989 Y78.849 E6.85162
G1 X127.783 Y78.618 E6.91763
G1 X128.765 Y78.368 E6.99852
G1 X129.626 Y78.182 E7.06883
G1 X130.635 Y78 E7.15067
G1 X131.449 Y77.88 E7.21635
G1 X132.504 Y77.763 E7.30108
G1 X133.373 Y77.697 E7.37065
G1 X134.372 Y77.657 E7.45046
G1 X135.247 Y77.651 E7.52031
G1 X136.255 Y77.679 E7.6008
G1 X137.131 Y77.734 E7.67086
G1 X138.098 Y77.826 E7.7484
G1 X138.922 Y77.931 E7.81471
G1 X139.975 Y78.105 E7.8999
G1 X140.797 Y78.27 E7.96683
G1 X141.766 Y78.499 E8.04631
G1 X142.638 Y78.738 E8.11848
G1 X143.594 Y79.035 E8.19839
G1 X144.425 Y79.325 E8.26865
G1 X145.339 Y79.678 E8.34686
G1 X146.131 Y80.016 E8.4156
G1 X147.048 Y80.445 E8.49641
G1 X147.833 Y80.847 E8.56681
G1 X148.738 Y81.351 E8.6495
G1 X149.482 Y81.8 E8.71887
G1 X150.337 Y82.356 E8.80028
G1 X151.048 Y82.854 E8.86957
G1 X151.854 Y83.46 E8.95007
G1 X152.509 Y83.99 E9.01732
G1 X153.281 Y84.659 E9.09887
G1 X153.909 Y85.241 E9.16721
G1 X154.648 Y85.975 E9.25036
G1 X155.193 Y86.553 E9.31377
G1 X155.867 Y87.321 E9.39534
G1 X156.412 Y87.985 E9.46391
G1 X157.053 Y88.824 E9.54819
G1 X157.544 Y89.515 E9.61586
G1 X158.107 Y90.365 E9.69724
G1 X158.552 Y91.093 E9.76535
G1 X159.04 Y91.955 E9.84442
G1 X159.439 Y92.719 E9.91322
G1 X159.877 Y93.632 E9.99405
G1 X160.246 Y94.48 E10.06787
G1 X160.618 Y95.421 E10.14865
G1 X160.9 Y96.212 E10.21568
G1 X161.217 Y97.209 E10.29919
G1 X161.436 Y97.988 E10.36378
G1 X161.697 Y99.054 E10.45139
G1 X161.86 Y99.839 E10.51539
G1 X162.028 Y100.81 E10.59405
G1 X162.146 Y101.664 E10.66287
G1 X162.254 Y102.716 E10.74728
G1 X162.314 Y103.577 E10.81618
G1 X162.347 Y104.381 E10.88041
G1 X162.353 Y104.795 E10.91346
G1 X162.346 Y105.483 E10.96839
G1 X162.315 Y106.377 E11.03979
G1 X162.246 Y107.408 E11.12227
G1 X162.165 Y108.182 E11.1844
G1 X162.132 Y108.436 E11.20484
G1 X162.01 Y109.303 E11.27473
G1 X161.86 Y110.152 E11.34355
G1 X161.658 Y111.11 E11.4217
G1 X161.463 Y111.913 E11.48767
G1 X161.178 Y112.924 E11.57151
G1 X160.915 Y113.744 E11.64025
G1 X160.558 Y114.737 E11.72449
G1 X160.236 Y115.541 E11.79362
G1 X159.84 Y116.447 E11.87255
G1 X159.471 Y117.216 E11.94063
G1 X158.985 Y118.143 E12.02418
G1 X158.573 Y118.87 E12.09089
G1 X158.047 Y119.729 E12.17129
G1 X157.567 Y120.453 E12.24063
G1 X156.947 Y121.32 E12.32571
G1 X156.45 Y121.969 E12.39097
G1 X155.807 Y122.752 E12.47184
G1 X155.236 Y123.399 E12.54073
G1 X154.525 Y124.153 E12.62345
G1 X153.919 Y124.752 E12.69147
G1 X153.183 Y125.431 E12.7714
G1 X152.505 Y126.015 E12.84283
G1 X151.748 Y126.623 E12.92034
G1 X151.06 Y127.14 E12.98903
G1 X150.202 Y127.738 E13.07252
G1 X149.495 Y128.195 E13.13972
G1 X148.614 Y128.723 E13.2217
G1 X147.826 Y129.157 E13.29351
G1 X146.954 Y129.6 E13.37159
G1 X146.187 Y129.958 E13.43915
G1 X145.271 Y130.349 E13.51866
G1 X144.473 Y130.658 E13.58697
G1 X143.484 Y131.003 E13.67058
G1 X142.651 Y131.259 E13.74014
G1 X141.667 Y131.526 E13.82153
G1 X140.819 Y131.724 E13.89104
G1 X139.838 Y131.919 E13.97088
G1 X138.986 Y132.057 E14.03978
G1 X137.985 Y132.187 E14.12035
G1 X137.15 Y132.267 E14.18731
G1 X136.091 Y132.33 E14.27199
G1 X135.23 Y132.351 E14.34074
G1 X134.2 Y132.339 E14.42297
G1 X133.322 Y132.299 E14.49312
G1 X132.374 Y132.226 E14.56902
G1 X131.488 Y132.125 E14.6402
G1 X130.467 Y131.974 E14.72259
G1 X129.639 Y131.821 E14.78981
G1 X128.654 Y131.606 E14.87028
G1 X127.768 Y131.377 E14.94333
G1 X126.831 Y131.102 E15.02128
G1 X126.052 Y130.846 E15.08674
G1 X125.055 Y130.48 E15.17151
G1 X124.288 Y130.166 E15.23767
G1 X123.302 Y129.723 E15.32396
G1 X122.643 Y129.4 E15.38254
G1 X122.144 Y129.148 E15.42716
G1 X122.136 Y129.163 E15.42852
G1 X121.937 Y129.071 E15.44602
G1 X121.286 Y128.866 E15.5005
G1 X120.614 Y128.746 E15.55499
G1 X119.931 Y128.71 E15.60959
G1 X119.25 Y128.762 E15.66411
G1 X118.582 Y128.899 E15.71854
G1 X117.94 Y129.118 E15.77269
G1 X117.552 Y129.296 E15.80676
G1 X116.949 Y129.602 E15.86074
G1 X116.187 Y129.958 E15.92788
G1 X115.271 Y130.349 E16.00738
G1 X114.473 Y130.658 E16.07569
G1 X113.484 Y131.003 E16.1593
G1 X112.651 Y131.259 E16.22886
G1 X111.667 Y131.526 E16.31025
G1 X110.819 Y131.724 E16.37976
G1 X109.838 Y131.919 E16.4596
G1 X108.986 Y132.057 E16.5285
G1 X107.985 Y132.187 E16.60907
G1 X107.15 Y132.267 E16.67603
G1 X106.091 Y132.33 E16.76071
G1 X105.23 Y132.351 E16.82946
G1 X104.2 Y132.339 E16.91169
G1 X103.322 Y132.299 E16.98185
G1 X102.374 Y132.226 E17.05774
G1 X101.488 Y132.125 E17.12893
G1 X100.467 Y131.974 E17.21131
G1 X99.639 Y131.821 E17.27853
G1 X98.654 Y131.606 E17.35901
G1 X97.768 Y131.377 E17.43205
G1 X96.831 Y131.102 E17.51
G1 X96.052 Y130.846 E17.57546
G1 X95.055 Y130.48 E17.66024
G1 X94.288 Y130.166 E17.72639
G1 X93.302 Y129.723 E17.81268
G1 X92.558 Y129.357 E17.87887
G1 X91.666 Y128.881 E17.95957
G1 X90.913 Y128.442 E18.02915
G1 X90.401 Y128.123 E18.0773
G1 X89.81 Y127.806 E18.13084
G1 X89.174 Y127.56 E18.18527
G1 X88.511 Y127.397 E18.23977
G1 X87.833 Y127.319 E18.29425
G1 X87.15 Y127.326 E18.34877
G1 X86.476 Y127.42 E18.40309
G1 X86.336 Y127.456 E18.41463
G1 X86.331 Y127.446 E18.41553
G1 X84.966 Y127.835 E18.52882
G1 X84.376 Y127.981 E18.57734
G1 X83.434 Y128.182 E18.65423
G1 X82.789 Y128.295 E18.7065
G1 X81.754 Y128.442 E18.78995
G1 X81.134 Y128.505 E18.83969
G1 X80.079 Y128.578 E18.92411
G1 X79.494 Y128.597 E18.97083
G1 X78.466 Y128.596 E19.05289
G1 X77.828 Y128.572 E19.10385
G1 X76.748 Y128.493 E19.19029
G1 X76.179 Y128.431 E19.23598
G1 X75.204 Y128.294 E19.31458
G1 X74.605 Y128.188 E19.36313
G1 X73.566 Y127.968 E19.44791
G1 X72.964 Y127.817 E19.49745
G1 X71.991 Y127.537 E19.57827
G1 X71.36 Y127.33 E19.63128
G1 X70.422 Y126.988 E19.71098
G1 X69.83 Y126.747 E19.762
G1 X69.685 Y126.682 E19.77469
G1 X69.057 Y126.449 E19.82816
G1 X68.391 Y126.294 E19.88274
G1 X67.713 Y126.225 E19.93714
G1 X67.03 Y126.241 E19.99168
G1 X66.355 Y126.343 E20.04617
G1 X65.703 Y126.529 E20.10029
G1 X65.314 Y126.683 E20.13369
G1 X65.064 Y126.793 E20.15549
G1 X64.52 Y127.01 E20.20224
G1 X63.527 Y127.37 E20.28656
G1 X62.977 Y127.547 E20.33268
G1 X61.966 Y127.835 E20.41659
G1 X61.376 Y127.981 E20.46511
G1 X60.434 Y128.182 E20.54199
G1 X59.789 Y128.295 E20.59426
G1 X58.754 Y128.442 E20.67771
G1 X58.134 Y128.505 E20.72746
G1 X57.079 Y128.578 E20.81187
G1 X56.494 Y128.597 E20.8586
G1 X55.466 Y128.596 E20.94065
G1 X54.828 Y128.572 E20.99162
G1 X53.748 Y128.493 E21.07806
G1 X53.179 Y128.431 E21.12375
G1 X52.204 Y128.294 E21.20234
G1 X51.605 Y128.188 E21.2509
G1 X50.566 Y127.968 E21.33568
G1 X49.964 Y127.817 E21.38522
G1 X48.991 Y127.537 E21.46604
G1 X48.36 Y127.33 E21.51905
G1 X47.422 Y126.988 E21.59875
G1 X46.841 Y126.752 E21.6488
G1 X45.907 Y126.336 E21.73042
G1 X45.35 Y126.062 E21.77997
G1 X44.426 Y125.568 E21.86361
G1 X43.893 Y125.259 E21.91279
G1 X43.022 Y124.712 E21.99489
G1 X42.535 Y124.383 E22.0418
G1 X41.703 Y123.779 E22.12387
G1 X41.228 Y123.406 E22.17208
G1 X40.448 Y122.752 E22.25333
G1 X39.98 Y122.332 E22.30353
G1 X39.187 Y121.564 E22.39165
G1 X38.789 Y121.15 E22.43749
G1 X38.084 Y120.364 E22.52178
G1 X37.687 Y119.888 E22.57125
G1 X37.049 Y119.067 E22.65425
G1 X36.701 Y118.585 E22.70171
G1 X36.146 Y117.764 E22.78081
G1 X35.827 Y117.253 E22.8289
G1 X35.281 Y116.304 E22.91629
G1 X35.015 Y115.802 E22.96164
G1 X34.553 Y114.853 E23.0459
G1 X34.33 Y114.354 E23.08953
G1 X33.922 Y113.346 E23.17633
G1 X33.707 Y112.75 E23.22691
G1 X33.391 Y111.776 E23.30864
G1 X33.227 Y111.202 E23.3563
G1 X32.973 Y110.179 E23.44044
G1 X32.848 Y109.581 E23.4892
G1 X32.674 Y108.601 E23.56865
G1 X32.59 Y108.006 E23.61662
G1 X32.476 Y106.922 E23.70363
G1 X32.436 Y106.354 E23.74908
G1 X32.399 Y105.321 E23.83159
G1 X32.4 Y104.673 E23.88332
G1 X32.437 Y103.638 E23.96599
G1 X32.478 Y103.054 E24.01272
G1 X32.593 Y101.966 E24.10005
G1 X32.671 Y101.414 E24.14455
G1 X32.852 Y100.394 E24.22725
G1 X32.971 Y99.826 E24.27357
G1 X33.229 Y98.787 E24.35903
G1 X33.408 Y98.171 E24.41023
G1 X33.74 Y97.154 E24.49563
G1 X33.94 Y96.608 E24.54205
G1 X34.334 Y95.639 E24.62555
G1 X34.581 Y95.088 E24.67375
G1 X35.031 Y94.165 E24.75571
G1 X35.308 Y93.645 E24.80275
G1 X35.853 Y92.705 E24.88948
G1 X36.171 Y92.198 E24.93725
G1 X36.729 Y91.373 E25.01676
G1 X37.113 Y90.846 E25.06881
G1 X37.773 Y90.007 E25.15402
G1 X38.148 Y89.562 E25.20047
G1 X38.843 Y88.794 E25.28315
G1 X39.253 Y88.369 E25.33029
G1 X39.99 Y87.656 E25.41215
G1 X40.436 Y87.255 E25.46002
G1 X41.249 Y86.575 E25.54463
G1 X41.719 Y86.209 E25.59218
G1 X42.559 Y85.599 E25.67505
G1 X43.086 Y85.244 E25.72577
G1 X43.843 Y84.771 E25.79702
G1 X44.454 Y84.415 E25.85347
M204 S5000
M205 X30 Y30
G0 F7200 X44.8 Y84.23
M204 S1800
M205 X8 Y8
G1 F1125 X44.8 Y125.767 E29.16913
M204 S5000
M205 X30 Y30
G0 F7200 X46.4 Y126.555
M204 S1800
M205 X8 Y8
G1 F1125 X46.4 Y83.444 E32.61044
M204 S5000
M205 X30 Y30
G0 F7200 X48 Y82.801
M204 S1800
M205 X8 Y8
G1 F1125 X48 Y127.198 E36.1544
M204 S5000
M205 X30 Y30
G0 F7200 X49.6 Y127.712
M204 S1800
M205 X8 Y8
G1 F1125 X49.6 Y82.289 E39.78026
M204 S5000
M205 X30 Y30
G0 F7200 X51.2 Y81.895
M204 S1800
M205 X8 Y8
G1 F1125 X51.2 Y128.102 E43.4687
M204 S5000
M205 X30 Y30
G0 F7200 X52.8 Y128.377
M204 S1800
M205 X8 Y8
G1 F1125 X52.8 Y81.621 E47.20097
M204 S5000
M205 X30 Y30
G0 F7200 X54.4 Y81.458
M204 S1800
M205 X8 Y8
G1 F1125 X54.4 Y128.54 E50.95926
M204 S5000
M205 X30 Y30
G0 F7200 X56 Y128.596
M204 S1800
M205 X8 Y8
G1 F1125 X56 Y81.404 E54.72632
M204 S5000
M205 X30 Y30
G0 F7200 X57.6 Y81.46
M204 S1800
M205 X8 Y8
G1 F1125 X57.6 Y128.542 E58.48461
M204 S5000
M205 X30 Y30
G0 F7200 X59.2 Y128.379
M204 S1800
M205 X8 Y8
G1 F1125 X59.2 Y81.623 E62.21688
M204 S5000
M205 X30 Y30
G0 F7200 X60.8 Y81.898
M204 S1800
M205 X8 Y8
G1 F1125 X60.8 Y128.104 E65.90524
M204 S5000
M205 X30 Y30
G0 F7200 X62.4 Y127.712
M204 S1800
M205 X8 Y8
G1 F1125 X62.4 Y82.288 E69.53118
M204 S5000
M205 X30 Y30
G0 F7200 X64 Y82.801
M204 S1800
M205 X8 Y8
G1 F1125 X64 Y127.199 E73.07522
M204 S5000
M205 X30 Y30
G0 F7200 X65.6 Y126.57
M204 S1800
M205 X8 Y8
G1 F1125 X65.6 Y83.424 E76.51932
M204 S5000
M205 X30 Y30
G0 F7200 X67.2 Y83.767
M204 S1800
M205 X8 Y8
G1 F1125 X67.2 Y126.238 E79.90954
M204 S5000
M205 X30 Y30
G0 F7200 X68.8 Y126.389
M204 S1800
M205 X8 Y8
G1 F1125 X68.8 Y83.612 E83.32419
M204 S5000
M205 X30 Y30
G0 F7200 X70.4 Y83.022
M204 S1800
M205 X8 Y8
G1 F1125 X70.4 Y126.979 E86.83303
M204 S5000
M205 X30 Y30
G0 F7200 X72 Y127.539
M204 S1800
M205 X8 Y8
G1 F1125 X72 Y82.462 E90.43127
M204 S5000
M205 X30 Y30
G0 F7200 X73.6 Y82.024
M204 S1800
M205 X8 Y8
G1 F1125 X73.6 Y127.975 E94.09927
M204 S5000
M205 X30 Y30
G0 F7200 X75.2 Y128.293
M204 S1800
M205 X8 Y8
G1 F1125 X75.2 Y81.706 E97.81805
M204 S5000
M205 X30 Y30
G0 F7200 X76.8 Y81.501
M204 S1800
M205 X8 Y8
G1 F1125 X76.8 Y128.496 E101.56939
M204 S5000
M205 X30 Y30
G0 F7200 X78.4 Y128.593
M204 S1800
M205 X8 Y8
G1 F1125 X78.4 Y81.406 E105.33606
M204 S5000
M205 X30 Y30
G0 F7200 X80 Y81.422
M204 S1800
M205 X8 Y8
G1 F1125 X80 Y128.581 E109.1005
M204 S5000
M205 X30 Y30
G0 F7200 X81.6 Y128.458
M204 S1800
M205 X8 Y8
G1 F1125 X81.6 Y81.545 E112.8453
M204 S5000
M205 X30 Y30
G0 F7200 X83.2 Y81.777
M204 S1800
M205 X8 Y8
G1 F1125 X83.2 Y128.223 E116.55282
M204 S5000
M205 X30 Y30
G0 F7200 X84.8 Y127.877
M204 S1800
M205 X8 Y8
G1 F1125 X84.8 Y82.124 E120.20502
M204 S5000
M205 X30 Y30
G0 F7200 X86.4 Y82.555
M204 S1800
M205 X8 Y8
G1 F1125 X86.4 Y127.44 E123.78794
M204 S5000
M205 X30 Y30
G0 F7200 X88 Y127.338
M204 S1800
M205 X8 Y8
G1 F1125 X88 Y82.668 E127.35369
M204 S5000
M205 X30 Y30
G0 F7200 X89.6 Y82.271
M204 S1800
M205 X8 Y8
G1 F1125 X89.6 Y127.724 E130.98194
M204 S5000
M205 X30 Y30
G0 F7200 X91.2 Y128.609
M204 S1800
M205 X8 Y8
G1 F1125 X91.2 Y81.388 E134.75133
M204 S5000
M205 X30 Y30
G0 F7200 X92.8 Y80.523
M204 S1800
M205 X8 Y8
G1 F1125 X92.8 Y129.476 E138.65897
M204 S5000
M205 X30 Y30
G0 F7200 X94.4 Y130.211
M204 S1800
M205 X8 Y8
G1 F1125 X94.4 Y79.788 E142.68395
M204 S5000
M205 X30 Y30
G0 F7200 X96 Y79.172
M204 S1800
M205 X8 Y8
G1 F1125 X96 Y130.826 E146.8072
M204 S5000
M205 X30 Y30
G0 F7200 X97.6 Y131.327
M204 S1800
M205 X8 Y8
G1 F1125 X97.6 Y78.671 E151.01042
M204 S5000
M205 X30 Y30
G0 F7200 X99.2 Y78.274
M204 S1800
M205 X8 Y8
G1 F1125 X99.2 Y131.725 E155.27711
M204 S5000
M205 X30 Y30
G0 F7200 X100.8 Y132.023
M204 S1800
M205 X8 Y8
G1 F1125 X100.8 Y77.975 E159.59146
M204 S5000
M205 X30 Y30
G0 F7200 X102.4 Y77.774
M204 S1800
M205 X8 Y8
G1 F1125 X102.4 Y132.228 E163.93821
M204 S5000
M205 X30 Y30
G0 F7200 X104 Y132.329
M204 S1800
M205 X8 Y8
G1 F1125 X104 Y77.671 E168.30125
M204 S5000
M205 X30 Y30
G0 F7200 X105.6 Y77.661
M204 S1800
M205 X8 Y8
G1 F1125 X105.6 Y132.342 E172.66613
M204 S5000
M205 X30 Y30
