;FLAVOR:Marlin
;TIME:908
;Filament used: 1.07044m
;Layer height: 0.2
;MINX:83.6
;MINY:83.6
;MINZ:0.2
;MAXX:126.4
;MAXY:126.4
;MAXZ:12
;Generated with Cura_SteamEngine 4.10.0
M140 S60
M105
M190 S60
M104 S195
M105
M109 S195
M82 ;absolute extrusion mode
G21 ;metric values
G90 ;absolute positionin
M82 ;absolute extrusion mode
G28
G29
M501
G92 E0 ;zero the extruded length
G1 F200 E5 ;extrude 3mm of feed stock
G92 E0 ;zero the extruded length again
G1 F100
G0 Y20 F100
M117 Printing...
G5
G92 E0
G92 E0
G1 F2400 E-1
;LAYER_COUNT:60
;LAYER:0
M107
M204 S3000
M205 X10 Y10
G1 F600 Z0.275
G0 F3000 X85.533 Y85.435 Z0.275
M204 S1800
M205 X8 Y8
;TYPE:SKIRT
G1 F600 Z0.2
G1 F2400 E0
G1 X86.071 Y84.964 E0.03995
G1 X86.659 Y84.556 E0.07994
G1 X87.288 Y84.216 E0.1199
G1 X87.952 Y83.949 E0.15989
G1 X88.641 Y83.757 E0.19985
G1 X89.347 Y83.643 E0.23981
G1 X90.151 Y83.603 E0.28479
G1 X90.33 Y83.6 E0.2948
G1 X119.293 Y83.6 E1.91316
G1 X120.083 Y83.611 E1.95731
G1 X120.796 Y83.661 E1.99725
G1 X121.5 Y83.79 E2.03724
G1 X122.184 Y83.998 E2.07719
G1 X122.841 Y84.28 E2.11714
G1 X123.463 Y84.634 E2.15713
G1 X124.041 Y85.055 E2.19709
G1 X124.569 Y85.538 E2.23707
G1 X125.039 Y86.076 E2.27699
G1 X125.447 Y86.664 E2.31698
G1 X125.786 Y87.294 E2.35695
G1 X126.053 Y87.957 E2.39689
G1 X126.244 Y88.647 E2.4369
G1 X126.357 Y89.353 E2.47685
G1 X126.397 Y90.15 E2.52144
G1 X126.4 Y90.33 E2.5315
G1 X126.4 Y119.343 E4.15266
G1 X126.391 Y120.07 E4.19328
G1 X126.342 Y120.784 E4.23327
G1 X126.214 Y121.488 E4.27326
G1 X126.008 Y122.173 E4.31323
G1 X125.727 Y122.83 E4.35315
G1 X125.374 Y123.453 E4.39316
G1 X124.954 Y124.032 E4.43313
G1 X124.472 Y124.56 E4.47308
G1 X123.935 Y125.032 E4.51303
G1 X123.347 Y125.44 E4.55302
G1 X122.718 Y125.781 E4.593
G1 X122.055 Y126.049 E4.63296
G1 X121.366 Y126.241 E4.67292
G1 X120.66 Y126.356 E4.71289
G1 X119.849 Y126.397 E4.75827
G1 X119.67 Y126.4 E4.76827
G1 X90.624 Y126.399 E6.39127
G1 X89.926 Y126.39 E6.43028
G1 X89.213 Y126.341 E6.47021
G1 X88.509 Y126.213 E6.5102
G1 X87.824 Y126.007 E6.55017
G1 X87.167 Y125.725 E6.59012
G1 X86.545 Y125.372 E6.63008
G1 X85.966 Y124.952 E6.67005
G1 X85.437 Y124.47 E6.71004
G1 X84.966 Y123.932 E6.74999
G1 X84.558 Y123.345 E6.78993
G1 X84.218 Y122.715 E6.82994
G1 X83.95 Y122.052 E6.8699
G1 X83.758 Y121.363 E6.90986
G1 X83.644 Y120.657 E6.94982
G1 X83.602 Y119.831 E6.99604
G1 X83.6 Y119.658 E7.0057
G1 X83.601 Y90.587 E8.6301
G1 X83.61 Y89.922 E8.66727
G1 X83.659 Y89.209 E8.7072
G1 X83.788 Y88.505 E8.74719
G1 X83.995 Y87.821 E8.78712
G1 X84.277 Y87.163 E8.82713
G1 X84.63 Y86.541 E8.86709
G1 X85.05 Y85.963 E8.90701
G1 X85.533 Y85.435 E8.947
M204 S3000
M205 X10 Y10
G0 F3000 X86.08 Y85.688
M204 S1800
M205 X8 Y8
G1 F2400 X86.612 Y85.259 E8.98518
G1 X87.19 Y84.894 E9.02338
G1 X87.807 Y84.6 E9.06157
G1 X88.453 Y84.38 E9.0997
G1 X89.121 Y84.237 E9.13788
G1 X89.845 Y84.171 E9.1785
G1 X90.33 Y84.16 E9.20561
G1 X119.293 Y84.16 E10.82397
G1 X120.075 Y84.171 E10.86767
G1 X120.756 Y84.22 E10.90582
G1 X121.427 Y84.349 E10.944
G1 X122.078 Y84.556 E10.98217
G1 X122.701 Y84.837 E11.02036
G1 X123.287 Y85.189 E11.05856
G1 X123.827 Y85.607 E11.09672
G1 X124.315 Y86.085 E11.13489
G1 X124.744 Y86.617 E11.17307
G1 X125.108 Y87.195 E11.21124
G1 X125.402 Y87.812 E11.24943
G1 X125.621 Y88.459 E11.2876
G1 X125.764 Y89.127 E11.32577
G1 X125.829 Y89.846 E11.36611
G1 X125.84 Y90.33 E11.39316
G1 X125.84 Y119.336 E13.01393
G1 X125.831 Y120.063 E13.05456
G1 X125.782 Y120.745 E13.09276
G1 X125.654 Y121.416 E13.13093
G1 X125.449 Y122.068 E13.16912
G1 X125.169 Y122.691 E13.20729
G1 X124.819 Y123.277 E13.24543
G1 X124.402 Y123.819 E13.28364
G1 X123.925 Y124.308 E13.32181
G1 X123.394 Y124.737 E13.35995
G1 X122.816 Y125.102 E13.39815
G1 X122.2 Y125.397 E13.43631
G1 X121.553 Y125.618 E13.47452
G1 X120.885 Y125.762 E13.5127
G1 X120.155 Y125.829 E13.55366
G1 X119.67 Y125.84 E13.58077
G1 X90.632 Y125.84 E15.20333
G1 X89.934 Y125.831 E15.24233
G1 X89.252 Y125.782 E15.28054
G1 X88.581 Y125.654 E15.31871
G1 X87.93 Y125.448 E15.35686
G1 X87.306 Y125.168 E15.39508
G1 X86.72 Y124.817 E15.43325
G1 X86.179 Y124.4 E15.47141
G1 X85.69 Y123.922 E15.50962
G1 X85.261 Y123.391 E15.54777
G1 X84.896 Y122.813 E15.58597
G1 X84.602 Y122.197 E15.62411
G1 X84.381 Y121.55 E15.66231
G1 X84.237 Y120.882 E15.70049
G1 X84.171 Y120.149 E15.74162
G1 X84.16 Y119.658 E15.76906
G1 X84.161 Y90.595 E17.39301
G1 X84.17 Y89.93 E17.43017
G1 X84.219 Y89.249 E17.46832
G1 X84.347 Y88.577 E17.50655
G1 X84.553 Y87.926 E17.5447
G1 X84.834 Y87.303 E17.58289
G1 X85.185 Y86.717 E17.62106
G1 X85.603 Y86.176 E17.65926
G1 X86.08 Y85.688 E17.69739
M204 S3000
M205 X10 Y10
G0 F3000 X86.154 Y86.401
M204 S1800
M205 X8 Y8
G1 F2400 X86.626 Y85.955 E17.73368
G1 X87.149 Y85.571 E17.76993
G1 X87.716 Y85.253 E17.80626
G1 X88.317 Y85.007 E17.84254
G1 X88.944 Y84.837 E17.87884
G1 X89.861 Y84.731 E17.93042
G1 X90.33 Y84.72 E17.95664
G1 X119.293 Y84.72 E19.575
G1 X120.067 Y84.731 E19.61826
G1 X120.714 Y84.78 E19.65451
G1 X121.351 Y84.908 E19.69082
G1 X121.967 Y85.114 E19.72711
G1 X122.554 Y85.394 E19.76345
G1 X123.101 Y85.743 E19.79971
G1 X123.602 Y86.157 E19.83602
G1 X124.047 Y86.63 E19.87231
G1 X124.432 Y87.154 E19.90864
G1 X124.749 Y87.721 E19.94494
G1 X124.994 Y88.322 E19.98121
G1 X125.163 Y88.949 E20.01749
G1 X125.269 Y89.862 E20.06885
G1 X125.28 Y90.33 E20.09501
G1 X125.28 Y119.329 E21.71539
G1 X125.271 Y120.056 E21.75601
G1 X125.223 Y120.704 E21.79232
G1 X125.095 Y121.341 E21.82863
G1 X124.891 Y121.958 E21.86494
G1 X124.612 Y122.545 E21.90125
G1 X124.264 Y123.093 E21.93753
G1 X123.851 Y123.594 E21.97381
G1 X123.379 Y124.041 E22.01013
G1 X122.856 Y124.426 E22.04642
G1 X122.29 Y124.744 E22.08269
G1 X121.688 Y124.991 E22.11905
G1 X121.062 Y125.161 E22.1553
G1 X120.139 Y125.269 E22.20723
G1 X119.67 Y125.28 E22.23344
G1 X90.639 Y125.28 E23.85561
G1 X89.941 Y125.271 E23.89461
G1 X89.293 Y125.222 E23.93092
G1 X88.656 Y125.095 E23.96722
G1 X88.04 Y124.89 E24.00349
G1 X87.453 Y124.611 E24.03981
G1 X86.905 Y124.262 E24.07611
G1 X86.404 Y123.849 E24.11239
G1 X85.957 Y123.377 E24.14872
G1 X85.572 Y122.854 E24.185
G1 X85.254 Y122.287 E24.22133
G1 X85.008 Y121.686 E24.25762
G1 X84.838 Y121.059 E24.29392
G1 X84.731 Y120.134 E24.34595
G1 X84.72 Y119.658 E24.37255
G1 X84.72 Y90.603 E25.99606
G1 X84.729 Y89.938 E26.03322
G1 X84.778 Y89.29 E26.06953
G1 X84.906 Y88.653 E26.10584
G1 X85.111 Y88.036 E26.14217
G1 X85.391 Y87.45 E26.17846
G1 X85.74 Y86.902 E26.21476
G1 X86.154 Y86.401 E26.25107
M204 S3000
M205 X10 Y10
G1 F2400 E25.25107
;MESH:30 mm cube.stl
G0 F3000 X89.335 Y90.854
G0 X90.854 Y90.854
G0 X119.09 Y119.09
G0 X119.16 Y119.16
M204 S1800
M205 X8 Y8
;TYPE:WALL-INNER
G1 F2400 E26.25107
G1 F1500 X90.84 Y119.16 E27.83351
G1 X90.84 Y90.84 E29.41595
G1 X119.16 Y90.84 E30.99839
G1 X119.16 Y119.16 E32.58082
M204 S3000
M205 X10 Y10
G0 F3000 X119.72 Y119.72
M204 S1800
M205 X8 Y8
;TYPE:WALL-OUTER
G1 F1500 X90.28 Y119.72 E34.22584
G1 X90.28 Y90.28 E35.87086
G1 X119.72 Y90.28 E37.51588
G1 X119.72 Y119.72 E39.1609
M204 S3000
M205 X10 Y10
G0 F3000 X119.52 Y119.72
G0 X119.09 Y119.09
G0 X118.61 Y118.61
M204 S1800
M205 X8 Y8
;TYPE:SKIN
G1 F1500 X91.39 Y118.61 E40.68188
G1 X91.39 Y91.39 E42.20285
G1 X118.61 Y91.39 E43.72382
G1 X118.61 Y118.61 E45.24479
M204 S3000
M205 X10 Y10
G0 F3000 X118.05 Y118.05
M204 S1800
M205 X8 Y8
G1 F1500 X91.95 Y118.05 E46.70318
G1 X91.95 Y91.95 E48.16157
G1 X118.05 Y91.95 E49.61996
G1 X118.05 Y118.05 E51.07835
M204 S3000
M205 X10 Y10
G0 F3000 X117.49 Y117.49
M204 S1800
M205 X8 Y8
G1 F1500 X92.51 Y117.49 E52.47416
G1 X92.51 Y92.51 E53.86997
G1 X117.49 Y92.51 E55.26578
G1 X117.49 Y117.49 E56.66159
M204 S3000
M205 X10 Y10
G0 F3000 X117.229 Y93.471
M204 S1800
M205 X8 Y8
G1 F1500 X116.529 Y92.77 E56.71694
M204 S3000
M205 X10 Y10
G0 F3000 X115.737 Y92.77
M204 S1800
M205 X8 Y8
G1 F1500 X117.229 Y94.262 E56.83484
M204 S3000
M205 X10 Y10
G0 F3000 X117.229 Y95.054
M204 S1800
M205 X8 Y8
G1 F1500 X114.945 Y92.77 E57.01533
M204 S3000
M205 X10 Y10
G0 F3000 X114.153 Y92.77
M204 S1800
M205 X8 Y8
G1 F1500 X117.229 Y95.846 E57.2584
M204 S3000
M205 X10 Y10
G0 F3000 X117.229 Y96.638
M204 S1800
M205 X8 Y8
G1 F1500 X113.361 Y92.77 E57.56406
M204 S3000
M205 X10 Y10
G0 F3000 X112.569 Y92.77
M204 S1800
M205 X8 Y8
G1 F1500 X117.229 Y97.43 E57.9323
M204 S3000
M205 X10 Y10
G0 F3000 X117.229 Y98.222
M204 S1800
M205 X8 Y8
G1 F1500 X111.777 Y92.77 E58.36313
M204 S3000
M205 X10 Y10
G0 F3000 X110.985 Y92.77
M204 S1800
M205 X8 Y8
G1 F1500 X117.229 Y99.014 E58.85654
M204 S3000
M205 X10 Y10
G0 F3000 X117.229 Y99.806
M204 S1800
M205 X8 Y8
G1 F1500 X110.193 Y92.77 E59.41254
M204 S3000
M205 X10 Y10
G0 F3000 X109.401 Y92.77
M204 S1800
M205 X8 Y8
G1 F1500 X117.229 Y100.598 E60.03113
M204 S3000
M205 X10 Y10
G0 F3000 X117.229 Y101.39
M204 S1800
M205 X8 Y8
G1 F1500 X108.609 Y92.77 E60.7123
M204 S3000
M205 X10 Y10
G0 F3000 X107.817 Y92.77
M204 S1800
M205 X8 Y8
G1 F1500 X117.229 Y102.182 E61.45605
M204 S3000
M205 X10 Y10
G0 F3000 X117.229 Y102.974
M204 S1800
M205 X8 Y8
G1 F1500 X107.025 Y92.77 E62.26239
M204 S3000
M205 X10 Y10
G0 F3000 X106.233 Y92.77
M204 S1800
M205 X8 Y8
G1 F1500 X117.229 Y103.766 E63.13132
M204 S3000
M205 X10 Y10
G0 F3000 X117.229 Y104.558
M204 S1800
M205 X8 Y8
G1 F1500 X105.441 Y92.77 E64.06283
M204 S3000
M205 X10 Y10
G0 F3000 X104.649 Y92.77
M204 S1800
M205 X8 Y8
G1 F1500 X117.229 Y105.35 E65.05693
M204 S3000
M205 X10 Y10
G0 F3000 X117.229 Y106.142
M204 S1800
M205 X8 Y8
G1 F1500 X103.857 Y92.77 E66.11361
M204 S3000
M205 X10 Y10
G0 F3000 X103.065 Y92.77
M204 S1800
M205 X8 Y8
G1 F1500 X117.229 Y106.934 E67.23288
M204 S3000
M205 X10 Y10
G0 F3000 X117.229 Y107.726
M204 S1800
M205 X8 Y8
G1 F1500 X102.273 Y92.77 E68.41473
M204 S3000
M205 X10 Y10
G0 F3000 X101.481 Y92.77
M204 S1800
M205 X8 Y8
G1 F1500 X117.229 Y108.518 E69.65917
M204 S3000
M205 X10 Y10
G0 F3000 X117.229 Y109.31
M204 S1800
M205 X8 Y8
G1 F1500 X100.689 Y92.77 E70.9662
M204 S3000
M205 X10 Y10
G0 F3000 X99.897 Y92.77
M204 S1800
M205 X8 Y8
G1 F1500 X117.229 Y110.102 E72.33581
M204 S3000
M205 X10 Y10
G0 F3000 X117.229 Y110.894
M204 S1800
M205 X8 Y8
G1 F1500 X99.105 Y92.77 E73.768
M204 S3000
M205 X10 Y10
G0 F3000 X98.314 Y92.77
M204 S1800
M205 X8 Y8
G1 F1500 X117.229 Y111.686 E75.26275
M204 S3000
M205 X10 Y10
G0 F3000 X117.229 Y112.478
M204 S1800
M205 X8 Y8
G1 F1500 X97.522 Y92.77 E76.82007
M204 S3000
M205 X10 Y10
G0 F3000 X96.73 Y92.77
M204 S1800
M205 X8 Y8
G1 F1500 X117.229 Y113.27 E78.43999
M204 S3000
M205 X10 Y10
G0 F3000 X117.229 Y114.061
M204 S1800
M205 X8 Y8
G1 F1500 X95.938 Y92.77 E80.12244
M204 S3000
M205 X10 Y10
G0 F3000 X95.146 Y92.77
M204 S1800
M205 X8 Y8
G1 F1500 X117.229 Y114.853 E81.86749
M204 S3000
M205 X10 Y10
G0 F3000 X117.229 Y115.645
M204 S1800
M205 X8 Y8
G1 F1500 X94.354 Y92.77 E83.67512
M204 S3000
M205 X10 Y10
G0 F3000 X93.562 Y92.77
M204 S1800
M205 X8 Y8
G1 F1500 X117.229 Y116.437 E85.54533
M204 S3000
M205 X10 Y10
G0 F3000 X117.229 Y117.229
M204 S1800
M205 X8 Y8
G1 F1500 X92.769 Y92.769 E87.47821
M204 S3000
M205 X10 Y10
G0 F3000 X92.769 Y93.561
M204 S1800
M205 X8 Y8
G1 F1500 X116.437 Y117.229 E89.3485
M204 S3000
M205 X10 Y10
G0 F3000 X115.645 Y117.229
M204 S1800
M205 X8 Y8
G1 F1500 X92.769 Y94.353 E91.15621
M204 S3000
M205 X10 Y10
G0 F3000 X92.769 Y95.145
M204 S1800
M205 X8 Y8
G1 F1500 X114.853 Y117.229 E92.90134
M204 S3000
M205 X10 Y10
G0 F3000 X114.061 Y117.229
M204 S1800
M205 X8 Y8
G1 F1500 X92.769 Y95.937 E94.58387
M204 S3000
M205 X10 Y10
G0 F3000 X92.769 Y96.729
M204 S1800
M205 X8 Y8
G1 F1500 X113.269 Y117.229 E96.20383
M204 S3000
M205 X10 Y10
G0 F3000 X112.477 Y117.229
M204 S1800
M205 X8 Y8
G1 F1500 X92.769 Y97.521 E97.76119
M204 S3000
M205 X10 Y10
G0 F3000 X92.769 Y98.313
M204 S1800
M205 X8 Y8
G1 F1500 X111.685 Y117.229 E99.25597
M204 S3000
M205 X10 Y10
G0 F3000 X110.893 Y117.229
M204 S1800
M205 X8 Y8
G1 F1500 X92.769 Y99.105 E100.68817
M204 S3000
M205 X10 Y10
G0 F3000 X92.769 Y99.897
M204 S1800
M205 X8 Y8
G1 F1500 X110.101 Y117.229 E102.05778
M204 S3000
M205 X10 Y10
G0 F3000 X109.309 Y117.229
M204 S1800
M205 X8 Y8
G1 F1500 X92.769 Y100.689 E103.3648
M204 S3000
M205 X10 Y10
G0 F3000 X92.769 Y101.481
M204 S1800
M205 X8 Y8
G1 F1500 X108.517 Y117.229 E104.60924
M204 S3000
M205 X10 Y10
G0 F3000 X107.725 Y117.229
M204 S1800
M205 X8 Y8
G1 F1500 X92.769 Y102.273 E105.7911
M204 S3000
M205 X10 Y10
G0 F3000 X92.769 Y103.065
M204 S1800
M205 X8 Y8
G1 F1500 X106.933 Y117.229 E106.91037
M204 S3000
M205 X10 Y10
G0 F3000 X106.141 Y117.229
M204 S1800
M205 X8 Y8
G1 F1500 X92.769 Y103.857 E107.96705
M204 S3000
M205 X10 Y10
G0 F3000 X92.769 Y104.648
M204 S1800
M205 X8 Y8
G1 F1500 X105.349 Y117.229 E108.96118
M204 S3000
M205 X10 Y10
G0 F3000 X104.557 Y117.229
M204 S1800
M205 X8 Y8
G1 F1500 X92.769 Y105.44 E109.89274
M204 S3000
M205 X10 Y10
G0 F3000 X92.769 Y106.232
M204 S1800
M205 X8 Y8
G1 F1500 X103.765 Y117.229 E110.7617
M204 S3000
M205 X10 Y10
G0 F3000 X102.973 Y117.229
M204 S1800
M205 X8 Y8
G1 F1500 X92.769 Y107.024 E111.56808
M204 S3000
M205 X10 Y10
G0 F3000 X92.769 Y107.816
M204 S1800
M205 X8 Y8
G1 F1500 X102.181 Y117.229 E112.31188
M204 S3000
M205 X10 Y10
G0 F3000 X101.389 Y117.229
M204 S1800
M205 X8 Y8
G1 F1500 X92.769 Y108.608 E112.99309
M204 S3000
M205 X10 Y10
G0 F3000 X92.769 Y109.4
M204 S1800
M205 X8 Y8
G1 F1500 X100.597 Y117.229 E113.61171
M204 S3000
M205 X10 Y10
G0 F3000 X99.806 Y117.229
M204 S1800
M205 X8 Y8
G1 F1500 X92.769 Y110.192 E114.16779
M204 S3000
M205 X10 Y10
G0 F3000 X92.769 Y110.984
M204 S1800
M205 X8 Y8
G1 F1500 X99.014 Y117.229 E114.66128
M204 S3000
M205 X10 Y10
G0 F3000 X98.222 Y117.229
M204 S1800
M205 X8 Y8
G1 F1500 X92.769 Y111.776 E115.09219
M204 S3000
M205 X10 Y10
G0 F3000 X92.769 Y112.568
M204 S1800
M205 X8 Y8
G1 F1500 X97.43 Y117.229 E115.46051
M204 S3000
M205 X10 Y10
G0 F3000 X96.638 Y117.229
M204 S1800
M205 X8 Y8
G1 F1500 X92.769 Y113.36 E115.76625
M204 S3000
M205 X10 Y10
G0 F3000 X92.769 Y114.152
M204 S1800
M205 X8 Y8
G1 F1500 X95.846 Y117.229 E116.0094
M204 S3000
M205 X10 Y10
G0 F3000 X95.054 Y117.229
M204 S1800
M205 X8 Y8
G1 F1500 X92.769 Y114.944 E116.18996
M204 S3000
M205 X10 Y10
G0 F3000 X92.769 Y115.736
M204 S1800
M205 X8 Y8
G1 F1500 X94.262 Y117.229 E116.30794
M204 S3000
M205 X10 Y10
G0 F3000 X93.47 Y117.229
M204 S1800
M205 X8 Y8
G1 F1500 X92.769 Y116.528 E116.36334
M204 S3000
M205 X10 Y10
;MESH:NONMESH
G0 F600 X92.769 Y116.528 Z0.4
G0 F3000 X119.09 Y119.09
G0 X119.4 Y119.4
;TIME_ELAPSED:84.852111
;LAYER:1
M106 S127.5
M204 S1800
M205 X8 Y8
;TYPE:WALL-INNER
;MESH:30 mm cube.stl
G1 F2250 X90.6 Y119.4 E117.51281
G1 X90.6 Y90.6 E118.66228
G1 X119.4 Y90.6 E119.81175
G1 X119.4 Y119.4 E120.96122
M204 S3000
M205 X10 Y10
G0 F4500 X119.8 Y119.8
M204 S1800
M205 X8 Y8
;TYPE:WALL-OUTER
G1 F2250 X90.2 Y119.8 E122.14262
G1 X90.2 Y90.2 E123.32402
G1 X119.8 Y90.2 E124.50542
G1 X119.8 Y119.8 E125.68682
M204 S3000
M205 X10 Y10
G0 F4500 X119.6 Y119.8
G0 X119.01 Y119.01
M204 S1800
M205 X8 Y8
;TYPE:SKIN
G1 F1350 X90.99 Y119.01 E126.80516
G1 X90.99 Y90.99 E127.9235
G1 X119.01 Y90.99 E129.04184
G1 X119.01 Y119.01 E130.16017
M204 S3000
M205 X10 Y10
G0 F4500 X118.61 Y118.61
M204 S1800
M205 X8 Y8
G1 F1350 X91.39 Y118.61 E131.24658
G1 X91.39 Y91.39 E132.33299
G1 X118.61 Y91.39 E133.4194
G1 X118.61 Y118.61 E134.50581
M204 S3000
M205 X10 Y10
G0 F4500 X118.21 Y118.21
M204 S1800
M205 X8 Y8
G1 F1350 X91.79 Y118.21 E135.56029
G1 X91.79 Y91.79 E136.61477
G1 X118.21 Y91.79 E137.66925
G1 X118.21 Y118.21 E138.72373
M204 S3000
M205 X10 Y10
G0 F4500 X117.861 Y118.029
M204 S1800
M205 X8 Y8
G1 F1350 X118.029 Y117.861 E138.73321
M204 S3000
M205 X10 Y10
G0 F4500 X118.029 Y117.295
M204 S1800
M205 X8 Y8
G1 F1350 X117.295 Y118.029 E138.77464
M204 S3000
M205 X10 Y10
G0 F4500 X116.729 Y118.029
M204 S1800
M205 X8 Y8
G1 F1350 X118.029 Y116.729 E138.84802
M204 S3000
M205 X10 Y10
G0 F4500 X118.029 Y116.164
M204 S1800
M205 X8 Y8
G1 F1350 X116.164 Y118.029 E138.95329
M204 S3000
M205 X10 Y10
G0 F4500 X115.598 Y118.029
M204 S1800
M205 X8 Y8
G1 F1350 X118.029 Y115.598 E139.0905
M204 S3000
M205 X10 Y10
G0 F4500 X118.029 Y115.032
M204 S1800
M205 X8 Y8
G1 F1350 X115.032 Y118.029 E139.25967
M204 S3000
M205 X10 Y10
G0 F4500 X114.467 Y118.029
M204 S1800
