;FLAVOR:Marlin
;TIME:5076
;Filament used: 4.70984m
;Layer height: 0.2
;Generated with Cura_SteamEngine 3.6.0
M140 S60
M105
M190 S60
M104 S200
M105
M109 S200
M82 ;absolute extrusion mode
G21 ;metric values
G90 ;absolute positioning
M82 ;set extruder to absolute mode
M107 ;start with the fan off
G28 X0 Y0 ;move X/Y to min endstops
G28 Z0 ;move Z to min endstops
G1 Z15.0 F100 ;move the platform down 15mm
G92 E0 ;zero the extruded length
G1 F200 E3 ;extrude 3mm of feed stock
G92 E0 ;zero the extruded length again
G1 F100
M117 Printing...
G5
G92 E0
G1 F2400 E-6
;LAYER_COUNT:208
;LAYER:0
M106 S255
M204 S3000
M205 X10 Y10
G0 F3000 X100.426 Y72.555 Z0.2
M204 S1800
M205 X8 Y8
;TYPE:SKIRT
G1 F2400 E0
G1 X100.809 Y72.121 E0.02695
G1 X101.248 Y71.743 E0.05393
G1 X101.971 Y71.309 E0.09319
G1 X102.47 Y71.074 E0.11888
G1 X103.009 Y70.864 E0.14581
G1 X103.573 Y70.73 E0.17281
G1 X104.15 Y70.675 E0.1998
G1 X104.729 Y70.7 E0.22678
G1 X105.084 Y70.756 E0.24352
G1 X105.973 Y70.934 E0.28573
G1 X106.531 Y71.086 E0.31266
G1 X107.064 Y71.314 E0.33966
G1 X107.56 Y71.614 E0.36665
G1 X108.01 Y71.978 E0.3936
G1 X108.406 Y72.401 E0.42058
G1 X108.508 Y72.545 E0.4288
G1 X108.865 Y72.976 E0.45486
G1 X108.883 Y73.006 E0.45649
G1 X109.127 Y73.3 E0.47428
G1 X109.176 Y73.379 E0.47861
G1 X109.405 Y73.647 E0.49502
G1 X109.484 Y73.77 E0.50183
G1 X109.652 Y73.961 E0.51367
G1 X109.767 Y74.135 E0.52338
G1 X109.967 Y74.37 E0.53775
G1 X110.279 Y74.858 E0.56472
G1 X110.52 Y75.385 E0.59171
G1 X110.593 Y75.629 E0.60357
G1 X110.627 Y75.691 E0.60686
G1 X110.867 Y76.218 E0.63382
G1 X110.944 Y76.457 E0.64551
G1 X112.39 Y79.109 E0.78617
G1 X112.557 Y79.451 E0.80389
G1 X112.851 Y80.13 E0.83834
G1 X113.044 Y80.676 E0.86531
G1 X113.13 Y81.05 E0.88318
G1 X113.233 Y81.618 E0.91006
G1 X113.3 Y82.379 E0.94563
G1 X113.296 Y83.631 E1.00393
G1 X113.364 Y83.964 E1.01975
G1 X113.394 Y84.439 E1.04192
G1 X113.585 Y84.598 E1.05349
G1 X114.003 Y84.999 E1.08046
G1 X114.363 Y85.453 E1.10744
G1 X114.656 Y85.953 E1.13442
G1 X114.878 Y86.488 E1.1614
G1 X114.889 Y86.529 E1.16337
G1 X115.371 Y86.49 E1.18589
G1 X115.949 Y86.524 E1.21285
G1 X116.725 Y86.698 E1.24988
G1 X116.933 Y86.766 E1.26007
G1 X117.47 Y86.983 E1.28704
G1 X117.972 Y87.273 E1.31404
G1 X118.429 Y87.629 E1.34101
G1 X118.833 Y88.044 E1.36798
G1 X119.315 Y88.746 E1.40763
G1 X120.781 Y91.433 E1.55016
G1 X121.046 Y91.834 E1.57254
G1 X121.295 Y92.357 E1.59951
G1 X121.47 Y92.91 E1.62652
G1 X121.567 Y93.481 E1.65349
G1 X121.569 Y94.297 E1.69149
G1 X121.548 Y94.517 E1.70178
G1 X121.453 Y95.089 E1.72878
G1 X121.289 Y95.62 E1.75466
G1 X120.237 Y98.367 E1.89163
G1 X120.119 Y98.62 E1.90463
G1 X120.113 Y98.984 E1.92158
G1 X120.024 Y99.556 E1.94853
G1 X119.816 Y100.215 E1.98071
G1 X119.083 Y102.005 E2.07078
G1 X118.827 Y102.524 E2.09772
G1 X118.502 Y103.004 E2.12472
G1 X118.114 Y103.434 E2.15169
G1 X117.67 Y103.807 E2.17869
G1 X117.3 Y104.048 E2.19925
G1 X116.481 Y104.522 E2.24331
G1 X115.961 Y104.777 E2.27028
G1 X115.41 Y104.958 E2.29728
G1 X114.84 Y105.061 E2.32426
G1 X114.638 Y105.069 E2.33367
G1 X114.725 Y105.411 E2.3501
G1 X114.79 Y105.987 E2.37709
G1 X114.776 Y106.521 E2.40197
G1 X114.898 Y106.532 E2.40767
G1 X115.463 Y106.662 E2.43467
G1 X116.005 Y106.868 E2.46167
G1 X116.512 Y107.146 E2.48859
G1 X117.117 Y107.618 E2.52432
G1 X117.278 Y107.769 E2.5346
G1 X117.672 Y108.193 E2.56155
G1 X118.004 Y108.668 E2.58854
G1 X118.268 Y109.184 E2.61552
G1 X118.458 Y109.731 E2.64249
G1 X118.596 Y110.559 E2.68158
G1 X118.787 Y113.487 E2.8182
G1 X118.785 Y114.066 E2.84517
G1 X118.703 Y114.639 E2.87212
G1 X118.543 Y115.196 E2.8991
G1 X118.437 Y115.45 E2.91192
G1 X117.641 Y118.471 E3.05739
G1 X117.541 Y119.347 E3.09845
G1 X117.436 Y119.917 E3.12543
G1 X117.254 Y120.467 E3.15241
G1 X117.035 Y120.921 E3.17588
G1 X116.261 Y122.307 E3.2498
G1 X115.944 Y122.792 E3.27678
G1 X115.565 Y123.227 E3.30365
G1 X114.609 Y124.184 E3.36663
G1 X114.173 Y124.565 E3.39359
G1 X113.688 Y124.882 E3.42057
G1 X112.977 Y125.197 E3.45678
G1 X112.528 Y125.348 E3.47884
G1 X111.967 Y125.494 E3.50584
G1 X111.392 Y125.562 E3.5328
G1 X110.813 Y125.55 E3.55976
G1 X110.241 Y125.459 E3.58673
G1 X109.465 Y125.197 E3.62487
G1 X107.888 Y124.487 E3.7054
G1 X108.201 Y124.857 E3.72797
G1 X108.627 Y125.581 E3.76708
G1 X109.017 Y126.426 E3.81042
G1 X109.223 Y126.967 E3.83737
G1 X109.353 Y127.532 E3.86437
G1 X109.403 Y128.109 E3.89134
G1 X109.374 Y128.688 E3.91833
G1 X109.328 Y128.981 E3.93214
G1 X109.187 Y129.712 E3.96681
G1 X109.038 Y130.272 E3.99379
G1 X108.814 Y130.806 E4.02076
G1 X108.728 Y130.947 E4.02845
G1 X108.705 Y131.018 E4.03192
G1 X108.453 Y131.539 E4.05887
G1 X108.132 Y132.021 E4.08584
G1 X107.748 Y132.455 E4.11282
G1 X107.307 Y132.831 E4.13981
G1 X106.819 Y133.143 E4.16678
G1 X106.293 Y133.385 E4.19374
G1 X105.738 Y133.552 E4.22072
G1 X104.98 Y133.653 E4.25633
G1 X104.282 Y133.682 E4.28886
G1 X103.703 Y133.666 E4.31583
G1 X103.132 Y133.571 E4.34279
G1 X102.579 Y133.398 E4.36977
G1 X102.055 Y133.15 E4.39676
G1 X101.571 Y132.833 E4.4237
G1 X101.134 Y132.452 E4.4507
G1 X100.754 Y132.015 E4.47766
G1 X100.438 Y131.529 E4.50466
G1 X100.301 Y131.237 E4.51968
G1 X100.027 Y130.768 E4.54497
G1 X99.806 Y130.233 E4.57192
G1 X99.662 Y129.672 E4.59889
G1 X99.595 Y129.096 E4.62589
G1 X99.609 Y128.517 E4.65286
G1 X99.614 Y128.484 E4.65442
G1 X99.607 Y128.375 E4.6595
G1 X99.649 Y127.789 E4.68686
G1 X99.706 Y127.389 E4.70567
G1 X99.827 Y126.823 E4.73262
G1 X100.025 Y126.279 E4.75958
G1 X100.19 Y125.966 E4.77606
G1 X99.786 Y125.972 E4.79487
G1 X99.211 Y125.902 E4.82184
G1 X98.398 Y125.659 E4.86135
G1 X97.985 Y125.488 E4.88217
G1 X97.293 Y125.122 E4.91862
G1 X95.865 Y124.188 E4.99807
G1 X95.242 Y123.69 E5.03521
G1 X93.601 Y122.101 E5.14158
G1 X93.214 Y121.671 E5.16851
G1 X92.89 Y121.191 E5.19548
G1 X92.634 Y120.671 E5.22247
G1 X92.453 Y120.12 E5.24947
G1 X92.362 Y119.653 E5.27163
G1 X92.216 Y118.585 E5.32182
G1 X92.179 Y118.151 E5.3421
G1 X92.132 Y116.706 E5.40943
G1 X91.745 Y115.978 E5.44782
G1 X91.508 Y115.449 E5.47481
G1 X91.347 Y114.892 E5.50181
G1 X91.275 Y114.44 E5.52312
G1 X91.128 Y113.031 E5.58908
G1 X91.107 Y112.452 E5.61606
G1 X91.167 Y111.876 E5.64303
G1 X91.305 Y111.313 E5.67002
G1 X91.493 Y110.831 E5.69411
G1 X92.319 Y109.046 E5.78569
G1 X92.598 Y108.538 E5.81268
G1 X92.944 Y108.074 E5.83963
G1 X93.157 Y107.844 E5.85423
G1 X94.716 Y106.281 E5.95703
G1 X95.153 Y105.9 E5.98402
G1 X95.637 Y105.583 E6.01096
G1 X96.161 Y105.335 E6.03796
G1 X96.633 Y105.187 E6.06099
G1 X96.661 Y104.728 E6.0824
G1 X96.678 Y104.643 E6.08644
G1 X96.431 Y104.708 E6.09833
G1 X95.856 Y104.778 E6.1253
G1 X95.055 Y104.742 E6.16264
G1 X94.743 Y104.698 E6.17731
G1 X94.177 Y104.578 E6.20425
G1 X93.632 Y104.38 E6.23125
G1 X93.12 Y104.11 E6.25821
G1 X92.649 Y103.772 E6.2852
G1 X92.23 Y103.373 E6.31214
G1 X91.869 Y102.919 E6.33915
G1 X91.467 Y102.187 E6.37804
G1 X88.631 Y95.54 E6.71454
G1 X88.441 Y94.993 E6.74151
G1 X88.328 Y94.425 E6.76847
G1 X88.294 Y93.846 E6.79548
G1 X88.34 Y93.269 E6.82243
G1 X88.466 Y92.703 E6.84943
G1 X88.676 Y92.142 E6.87733
G1 X90.194 Y88.831 E7.04693
G1 X90.471 Y88.322 E7.07392
G1 X90.816 Y87.856 E7.10091
G1 X91.221 Y87.442 E7.12788
G1 X91.68 Y87.088 E7.15487
G1 X92.182 Y86.8 E7.18182
G1 X92.626 Y86.616 E7.2042
G1 X92.852 Y86.537 E7.21535
G1 X93.411 Y86.384 E7.24234
G1 X93.985 Y86.31 E7.26928
G1 X94.565 Y86.315 E7.29629
G1 X95.138 Y86.399 E7.32326
G1 X95.656 Y86.551 E7.3484
G1 X95.8 Y86.248 E7.36402
G1 X95.856 Y85.864 E7.38209
G1 X96.017 Y85.307 E7.40909
G1 X96.229 Y84.832 E7.43331
G1 X96.253 Y84.658 E7.44149
G1 X96.372 Y84.091 E7.46846
G1 X96.437 Y83.9 E7.47786
G1 X96.446 Y83.812 E7.48198
G1 X96.545 Y83.242 E7.50892
G1 X96.658 Y82.889 E7.52617
G1 X96.672 Y82.773 E7.53161
G1 X96.78 Y82.204 E7.55858
G1 X96.88 Y81.895 E7.57371
G1 X96.89 Y81.81 E7.57769
G1 X96.995 Y81.24 E7.60468
G1 X97.105 Y80.9 E7.62132
G1 X97.17 Y80.318 E7.64859
G1 X97.273 Y79.748 E7.67556
G1 X97.523 Y79.038 E7.71061
G1 X98.757 Y76.333 E7.84905
G1 X99.856 Y73.561 E7.9879
G1 X100.106 Y73.038 E8.0149
G1 X100.426 Y72.555 E8.04187
M204 S3000
M205 X10 Y10
G0 F3000 X100.916 Y72.837
M204 S1800
M205 X8 Y8
G1 F2400 X101.283 Y72.442 E8.06698
G1 X101.704 Y72.105 E8.09209
G1 X102.209 Y71.816 E8.11918
G1 X102.708 Y71.581 E8.14487
G1 X103.212 Y71.388 E8.17
G1 X103.738 Y71.271 E8.19509
G1 X104.276 Y71.234 E8.2202
G1 X104.974 Y71.305 E8.25287
G1 X105.863 Y71.483 E8.29509
G1 X106.382 Y71.628 E8.32018
G1 X106.874 Y71.847 E8.34526
G1 X107.329 Y72.138 E8.37041
G1 X107.736 Y72.492 E8.39552
G1 X108.085 Y72.902 E8.42059
G1 X108.11 Y72.942 E8.42279
G1 X108.141 Y72.971 E8.42477
G1 X108.374 Y73.266 E8.44227
G1 X108.403 Y73.294 E8.44415
G1 X108.736 Y73.718 E8.46925
G1 X108.743 Y73.73 E8.4699
G1 X109.021 Y74.072 E8.49042
G1 X109.055 Y74.129 E8.49351
G1 X109.273 Y74.391 E8.50938
G1 X109.326 Y74.477 E8.51409
G1 X109.582 Y74.794 E8.53306
G1 X109.856 Y75.259 E8.55819
G1 X110.058 Y75.759 E8.5833
G1 X110.083 Y75.861 E8.58819
G1 X110.135 Y75.958 E8.59332
G1 X110.356 Y76.45 E8.61843
G1 X110.43 Y76.683 E8.62982
G1 X111.899 Y79.377 E8.7727
G1 X112.043 Y79.674 E8.78807
G1 X112.337 Y80.353 E8.82252
G1 X112.514 Y80.862 E8.84761
G1 X112.579 Y81.15 E8.86136
G1 X112.682 Y81.718 E8.88824
G1 X112.74 Y82.377 E8.91904
G1 X112.736 Y83.684 E8.9799
G1 X112.813 Y84.074 E8.99842
G1 X112.839 Y84.521 E9.01926
G1 X112.838 Y84.706 E9.02788
G1 X113.226 Y85.029 E9.05139
G1 X113.614 Y85.404 E9.07651
G1 X113.942 Y85.832 E9.10162
G1 X114.203 Y86.303 E9.1267
G1 X114.392 Y86.809 E9.15185
G1 X114.471 Y87.179 E9.16946
G1 X114.951 Y87.08 E9.19229
G1 X115.489 Y87.051 E9.21737
G1 X116.026 Y87.101 E9.24249
G1 X116.551 Y87.23 E9.26766
G1 X116.759 Y87.298 E9.27785
G1 X117.258 Y87.503 E9.30297
G1 X117.721 Y87.78 E9.32809
G1 X118.138 Y88.122 E9.35321
G1 X118.5 Y88.521 E9.37829
G1 X118.823 Y89.015 E9.40577
G1 X120.286 Y91.696 E9.54799
G1 X120.577 Y92.142 E9.57279
G1 X120.801 Y92.633 E9.59792
G1 X120.95 Y93.151 E9.62302
G1 X121.022 Y93.685 E9.64811
G1 X121.012 Y94.244 E9.67414
G1 X120.991 Y94.464 E9.68443
G1 X120.9 Y94.995 E9.70952
G1 X120.766 Y95.42 E9.73027
G1 X119.714 Y98.167 E9.86724
G1 X119.56 Y98.496 E9.88415
G1 X119.569 Y98.62 E9.88994
G1 X119.529 Y99.158 E9.91506
G1 X119.411 Y99.684 E9.94016
G1 X119.298 Y100.002 E9.95588
G1 X118.565 Y101.792 E10.04595
G1 X118.324 Y102.275 E10.07108
G1 X118.014 Y102.717 E10.09622
G1 X117.643 Y103.108 E10.12132
G1 X117.019 Y103.563 E10.15728
G1 X116.2 Y104.037 E10.20134
G1 X115.715 Y104.272 E10.22644
G1 X115.2 Y104.433 E10.25156
G1 X114.667 Y104.515 E10.27667
G1 X114.128 Y104.518 E10.30177
G1 X113.817 Y104.474 E10.3164
G1 X113.86 Y104.561 E10.32091
G1 X114.062 Y105.061 E10.34602
G1 X114.187 Y105.585 E10.37111
G1 X114.234 Y106.123 E10.39626
G1 X114.2 Y106.661 E10.42136
G1 X114.12 Y107.038 E10.4393
G1 X114.311 Y107.042 E10.4482
G1 X114.848 Y107.091 E10.47331
G1 X115.372 Y107.22 E10.49844
G1 X115.871 Y107.425 E10.52356
G1 X116.334 Y107.701 E10.54865
G1 X116.734 Y108.026 E10.57265
G1 X116.895 Y108.177 E10.58293
G1 X117.26 Y108.574 E10.60804
G1 X117.562 Y109.021 E10.63316
G1 X117.795 Y109.507 E10.65826
G1 X117.954 Y110.022 E10.68336
G1 X118.037 Y110.595 E10.71032
G1 X118.228 Y113.523 E10.84695
G1 X118.223 Y114.062 E10.87205
G1 X118.139 Y114.595 E10.89717
G1 X117.916 Y115.233 E10.92864
G1 X117.089 Y118.367 E11.07957
G1 X116.985 Y119.284 E11.12254
G1 X116.884 Y119.814 E11.14766
G1 X116.707 Y120.323 E11.17276
G1 X116.546 Y120.648 E11.18965
G1 X115.772 Y122.034 E11.26357
G1 X115.475 Y122.484 E11.28867
G1 X115.169 Y122.832 E11.31025
G1 X114.213 Y123.789 E11.37324
G1 X113.805 Y124.141 E11.39833
G1 X113.349 Y124.429 E11.42344
G1 X112.798 Y124.666 E11.45137
G1 X112.349 Y124.817 E11.47343
G1 X111.827 Y124.951 E11.49852
G1 X111.29 Y125.006 E11.52366
G1 X110.752 Y124.981 E11.54874
G1 X110.223 Y124.876 E11.57385
G1 X109.695 Y124.686 E11.59998
G1 X107.055 Y123.498 E11.73478
G1 X106.581 Y123.241 E11.75989
G1 X106.15 Y122.917 E11.785
G1 X105.772 Y122.533 E11.81009
G1 X105.455 Y122.096 E11.83523
G1 X105.199 Y121.602 E11.86113
G1 X105.106 Y121.383 E11.87221
G1 X104.932 Y120.872 E11.89735
G1 X104.836 Y120.342 E11.92243
G1 X104.825 Y119.959 E11.94027
G1 X104.805 Y119.959 E11.9412
G1 X104.507 Y119.915 E11.95523
G1 X104.141 Y121.698 E12.03998
G1 X103.993 Y122.217 E12.06511
G1 X103.836 Y122.583 E12.08366
G1 X103.472 Y123.317 E12.12181
G1 X103.197 Y123.781 E12.14692
G1 X103.114 Y123.884 E12.15308
G1 X103.175 Y123.857 E12.15619
G1 X103.696 Y123.717 E12.18131
G1 X104.232 Y123.656 E12.20643
G1 X104.776 Y123.675 E12.23178
G1 X105.212 Y123.723 E12.2522
G1 X105.743 Y123.821 E12.27734
G1 X106.252 Y123.997 E12.30242
G1 X106.731 Y124.246 E12.32756
G1 X107.167 Y124.564 E12.35269
G1 X107.551 Y124.942 E12.37778
G1 X107.876 Y125.372 E12.40288
G1 X108.119 Y125.816 E12.42645
G1 X108.509 Y126.661 E12.46978
G1 X108.698 Y127.166 E12.49489
G1 X108.81 Y127.693 E12.51998
G1 X108.844 Y128.231 E12.54508
G1 X108.778 Y128.875 E12.57522
G1 X108.637 Y129.606 E12.60989
G1 X108.496 Y130.127 E12.63502
G1 X108.28 Y130.621 E12.66013
G1 X108.203 Y130.744 E12.66688
G1 X108.157 Y130.879 E12.67352
G1 X107.91 Y131.358 E12.69862
G1 X107.595 Y131.796 E12.72374
G1 X107.219 Y132.182 E12.74883
G1 X106.79 Y132.509 E12.77395
G1 X106.317 Y132.768 E12.79906
G1 X105.812 Y132.955 E12.82414
G1 X105.284 Y133.066 E12.84926
G1 X104.957 Y133.094 E12.86454
G1 X104.259 Y133.123 E12.89707
G1 X103.72 Y133.105 E12.92218
G1 X103.19 Y133.008 E12.94727
G1 X102.679 Y132.834 E12.97241
G1 X102.2 Y132.586 E12.99752
G1 X101.763 Y132.27 E13.02264
G1 X101.378 Y131.893 E13.04773
G1 X101.052 Y131.464 E13.07282
G1 X100.793 Y130.99 E13.09797
G1 X100.775 Y130.941 E13.1004
G1 X100.512 Y130.486 E13.12487
G1 X100.315 Y129.985 E13.14994
G1 X100.193 Y129.459 E13.17508
G1 X100.151 Y128.922 E13.20016
G1 X100.179 Y128.52 E13.21892
G1 X100.169 Y128.264 E13.23085
G1 X100.203 Y127.868 E13.24936
G1 X100.26 Y127.468 E13.26818
G1 X100.376 Y126.942 E13.29326
G1 X100.568 Y126.438 E13.31837
G1 X100.946 Y125.805 E13.3527
G1 X101.457 Y125.12 E13.39249
G1 X101.294 Y125.182 E13.40062
G1 X100.777 Y125.335 E13.42572
G1 X100.243 Y125.41 E13.45083
G1 X99.704 Y125.406 E13.47593
G1 X99.171 Y125.321 E13.50106
G1 X98.613 Y125.141 E13.52836
G1 X98.2 Y124.97 E13.54918
G1 X97.6 Y124.653 E13.58078
G1 X96.172 Y123.719 E13.66023
G1 X95.632 Y123.288 E13.6924
G1 X93.991 Y121.699 E13.79876
G1 X93.632 Y121.296 E13.8239
G1 X93.337 Y120.845 E13.84899
G1 X93.112 Y120.355 E13.8741
G1 X92.917 Y119.577 E13.91144
G1 X92.771 Y118.509 E13.96164
G1 X92.739 Y118.133 E13.97921
G1 X92.688 Y116.559 E14.05254
G1 X92.239 Y115.715 E14.09706
G1 X92.021 Y115.221 E14.1222
G1 X91.879 Y114.701 E14.1473
G1 X91.832 Y114.382 E14.16231
G1 X91.685 Y112.973 E14.22828
G1 X91.669 Y112.434 E14.25339
G1 X91.732 Y111.898 E14.27852
G1 X91.874 Y111.378 E14.30362
G1 X92.002 Y111.066 E14.31932
G1 X92.828 Y109.281 E14.4109
G1 X93.09 Y108.81 E14.436
G1 X93.554 Y108.239 E14.47026
G1 X95.113 Y106.676 E14.57306
G1 X95.521 Y106.324 E14.59815
G1 X95.977 Y106.035 E14.62329
G1 X96.47 Y105.818 E14.64837
G1 X96.99 Y105.675 E14.67348
G1 X97.209 Y105.644 E14.68378
G1 X97.199 Y105.58 E14.68679
G1 X97.193 Y105.041 E14.71189
G1 X97.267 Y104.506 E14.73704
G1 X97.419 Y103.989 E14.76214
G1 X97.44 Y103.943 E14.76449
G1 X97.487 Y103.71 E14.77556
G1 X97.174 Y103.885 E14.79226
G1 X96.669 Y104.075 E14.81738
G1 X96.142 Y104.189 E14.84249
G1 X95.604 Y104.223 E14.86759
G1 X95.134 Y104.187 E14.88954
G1 X94.822 Y104.143 E14.90421
G1 X94.295 Y104.029 E14.92932
G1 X93.791 Y103.837 E14.95443
G1 X93.32 Y103.574 E14.97955
G1 X92.894 Y103.244 E15.00464
G1 X92.521 Y102.854 E15.02977
G1 X92.21 Y102.414 E15.05486
