;FLAVOR:Marlin
;TIME:3513
;Filament used: 5.1258m
;Layer height: 0.2
;MINX:69.526
;MINY:87.301
;MINZ:0.24
;MAXX:134.594
;MAXY:122.699
;MAXZ:49.065
;Generated with Cura_SteamEngine 4.10.0
M140 S60
M105
M190 S60
M104 S215
M105
M109 S215
M82 ;absolute extrusion mode
G21 ;metric values
G90 ;absolute positionin
M82 ;absolute extrusion mode
G28
G29
M501
G92 E0 ;zero the extruded length
G1 F200 E3 ;extrude 3mm of feed stock
G92 E0 ;zero the extruded length again
G1 F100
G0 Y20 F100
M117 Printing...
G5
G92 E0
G92 E0
G1 F2400 E-6
;LAYER_COUNT:240
;LAYER:-6
M107
M204 S3000
M205 X10 Y10
G0 F6000 X73.75 Y91.768 Z0.24
M204 S1800
M205 X8 Y8
;TYPE:SUPPORT-INTERFACE
G1 F2400 E0
G1 F1125 X74.365 Y91.281 E0.12524
G1 X74.828 Y90.958 E0.21537
G1 X75.03 Y90.827 E0.2538
G1 X75.539 Y90.524 E0.34837
G1 X76.206 Y90.192 E0.46732
G1 X76.615 Y90.004 E0.53918
G1 X77.185 Y89.781 E0.6369
G1 X77.692 Y89.615 E0.72207
G1 X78.188 Y89.481 E0.8041
G1 X78.739 Y89.363 E0.89406
G1 X79.186 Y89.279 E0.96667
G1 X79.819 Y89.199 E1.06853
G1 X80.253 Y89.164 E1.13804
G1 X96.369 Y88.186 E3.71567
G1 X97.071 Y88.148 E3.82791
G1 X97.606 Y88.109 E3.91355
G1 X103.74 Y87.737 E4.89463
G1 X104.397 Y87.71 E4.99961
G1 X105.007 Y87.701 E5.09701
G1 X105.669 Y87.709 E5.2027
G1 X105.913 Y87.716 E5.24167
G1 X106.635 Y87.753 E5.35709
G1 X107.336 Y87.809 E5.46936
G1 X108.003 Y87.883 E5.5765
G1 X108.554 Y87.957 E5.66526
G1 X109.184 Y88.059 E5.76714
G1 X109.88 Y88.191 E5.88024
G1 X110.489 Y88.324 E5.97976
G1 X111.124 Y88.479 E6.08411
G1 X111.633 Y88.619 E6.16839
G1 X112.174 Y88.778 E6.25841
G1 X112.747 Y88.965 E6.35464
G1 X113.222 Y89.129 E6.43487
G1 X113.829 Y89.357 E6.53838
G1 X114.448 Y89.61 E6.64514
G1 X115.05 Y89.873 E6.75002
G1 X115.346 Y90.011 E6.80216
G1 X116.18 Y90.427 E6.95095
G1 X117.046 Y90.899 E7.10841
G1 X117.472 Y91.151 E7.18743
G1 X118.033 Y91.498 E7.29274
G1 X118.545 Y91.835 E7.3906
G1 X118.983 Y92.138 E7.47562
G1 X119.57 Y92.568 E7.59179
G1 X120.016 Y92.912 E7.68171
G1 X120.426 Y93.245 E7.76604
G1 X120.935 Y93.679 E7.87283
G1 X121.472 Y94.165 E7.98846
G1 X121.889 Y94.563 E8.08049
G1 X122.3 Y94.975 E8.1734
G1 X122.682 Y95.375 E8.2617
G1 X123.084 Y95.818 E8.3572
G1 X123.654 Y96.487 E8.49752
G1 X123.969 Y96.879 E8.5778
G1 X124.432 Y97.486 E8.69968
G1 X124.801 Y97.998 E8.80044
G1 X125.12 Y98.468 E8.89112
G1 X125.527 Y99.101 E9.01127
G1 X125.853 Y99.649 E9.11306
G1 X126.198 Y100.284 E9.22844
G1 X126.279 Y100.45 E9.25793
G1 X126.533 Y101.018 E9.35726
G1 X126.565 Y101.1 E9.37131
G1 X126.843 Y101.897 E9.50607
G1 X127.003 Y102.456 E9.5989
G1 X127.021 Y102.531 E9.61121
G1 X127.181 Y103.33 E9.7413
G1 X127.263 Y103.935 E9.83877
G1 X127.279 Y104.121 E9.86858
G1 X127.317 Y104.907 E9.99421
G1 X127.303 Y105.527 E10.09322
G1 X127.295 Y105.675 E10.11688
G1 X127.215 Y106.451 E10.24142
G1 X127.195 Y106.58 E10.26226
G1 X127.026 Y107.446 E10.40313
G1 X127.003 Y107.548 E10.41982
G1 X126.837 Y108.135 E10.51721
G1 X126.795 Y108.261 E10.53841
G1 X126.47 Y109.123 E10.68549
G1 X126.383 Y109.325 E10.7206
G1 X126.063 Y109.974 E10.83612
G1 X125.774 Y110.49 E10.93054
G1 X125.361 Y111.158 E11.05592
G1 X125.019 Y111.685 E11.15622
G1 X124.407 Y112.548 E11.32513
G1 X124.037 Y113.034 E11.42264
G1 X123.629 Y113.543 E11.52679
G1 X123.151 Y114.106 E11.64469
G1 X122.688 Y114.617 E11.75478
G1 X122.146 Y115.181 E11.87966
G1 X121.713 Y115.606 E11.97652
G1 X121.34 Y115.957 E12.05829
G1 X120.888 Y116.359 E12.15486
G1 X120.653 Y116.565 E12.20476
G1 X119.992 Y117.106 E12.34112
G1 X119.345 Y117.601 E12.47118
G1 X118.797 Y117.991 E12.57856
G1 X118.118 Y118.446 E12.70905
G1 X117.54 Y118.807 E12.81785
G1 X117.399 Y118.892 E12.84413
G1 X116.889 Y119.188 E12.93827
G1 X116.474 Y119.418 E13.01402
G1 X116.432 Y119.334 E13.02901
G1 X115.739 Y119.796 E13.16198
G1 X115.288 Y120.014 E13.24195
G1 X114.828 Y120.225 E13.32275
G1 X114.306 Y120.45 E13.4135
G1 X114.001 Y120.574 E13.46606
G1 X113.432 Y120.795 E13.56351
G1 X112.897 Y120.986 E13.6542
G1 X112.402 Y121.148 E13.73735
G1 X111.784 Y121.339 E13.84062
G1 X111.238 Y121.491 E13.93111
G1 X110.645 Y121.641 E14.02876
G1 X110.152 Y121.751 E14.1094
G1 X109.594 Y121.866 E14.20036
G1 X109.092 Y121.955 E14.28175
G1 X108.575 Y122.039 E14.36537
G1 X108.046 Y122.112 E14.45063
G1 X107.363 Y122.188 E14.56034
G1 X106.666 Y122.246 E14.672
G1 X105.914 Y122.285 E14.79222
G1 X105.324 Y122.298 E14.88643
G1 X104.546 Y122.293 E15.01064
G1 X103.989 Y122.276 E15.09961
G1 X103.128 Y122.226 E15.23729
G1 X100.118 Y122.043 E15.71872
G1 X98.375 Y121.937 E15.99751
G1 X97.411 Y121.872 E16.15176
G1 X97.411 Y121.877 E16.15256
G1 X96.589 Y121.824 E16.28406
G1 X96.081 Y121.797 E16.36527
G1 X87.685 Y121.287 E17.70816
G1 X86.889 Y121.24 E17.83546
G1 X84.399 Y121.089 E18.23371
G1 X80.205 Y120.833 E18.90453
G1 X79.593 Y120.775 E19.00267
G1 X79.318 Y120.74 E19.04693
G1 X78.466 Y120.585 E19.18518
G1 X78.271 Y120.541 E19.21709
G1 X77.763 Y120.406 E19.30101
G1 X77.606 Y120.358 E19.32722
G1 X76.916 Y120.117 E19.4439
G1 X76.754 Y120.051 E19.47183
G1 X76.148 Y119.785 E19.57749
G1 X75.641 Y119.524 E19.66852
G1 X74.958 Y119.123 E19.79497
G1 X74.359 Y118.716 E19.91058
G1 X73.935 Y118.38 E19.99695
G1 X73.449 Y117.964 E20.09909
G1 X73.019 Y117.539 E20.19561
G1 X72.559 Y117.035 E20.30454
G1 X72.186 Y116.565 E20.40034
G1 X71.853 Y116.11 E20.49035
G1 X71.563 Y115.667 E20.57488
G1 X71.279 Y115.182 E20.66461
G1 X71.021 Y114.674 E20.75557
G1 X70.751 Y114.064 E20.86207
G1 X70.594 Y113.658 E20.93157
G1 X70.374 Y112.98 E21.04537
G1 X70.241 Y112.459 E21.13121
G1 X70.087 Y111.738 E21.24891
G1 X70.024 Y111.24 E21.32905
G1 X69.95 Y110.386 E21.4659
G1 X69.928 Y109.868 E21.54867
G1 X69.928 Y100.176 E23.09599
G1 X69.93 Y100.042 E23.11738
G1 X69.945 Y99.54 E23.19756
G1 X69.987 Y99.014 E23.28181
G1 X70.096 Y98.21 E23.41134
G1 X70.217 Y97.618 E23.5078
G1 X70.343 Y97.121 E23.58966
G1 X70.584 Y96.369 E23.71573
G1 X70.774 Y95.885 E23.79874
G1 X70.945 Y95.483 E23.86848
G1 X71.285 Y94.81 E23.98886
G1 X71.413 Y94.582 E24.0306
G1 X71.69 Y94.127 E24.11565
G1 X71.806 Y93.95 E24.14943
G1 X72.162 Y93.451 E24.24729
G1 X72.536 Y92.994 E24.34157
G1 X72.895 Y92.594 E24.42738
G1 X73.289 Y92.2 E24.51633
G1 X73.686 Y91.822 E24.60385
G1 X73.75 Y91.768 E24.61722
M204 S3000
M205 X10 Y10
G0 F6000 X73.6 Y91.903
M204 S1800
M205 X8 Y8
G1 F1125 X73.6 Y118.093 E28.79842
M204 S3000
M205 X10 Y10
G0 F6000 X76.8 Y120.069
M204 S1800
M205 X8 Y8
G1 F1125 X76.8 Y89.931 E33.60991
M204 S3000
M205 X10 Y10
G0 F6000 X80 Y89.184
M204 S1800
M205 X8 Y8
G1 F1125 X80 Y120.813 E38.65943
M204 S3000
M205 X10 Y10
G0 F6000 X83.2 Y121.015
M204 S1800
M205 X8 Y8
G1 F1125 X83.2 Y88.985 E43.77298
M204 S3000
M205 X10 Y10
G0 F6000 X86.4 Y88.79
M204 S1800
M205 X8 Y8
G1 F1125 X86.4 Y121.21 E48.94879
M204 S3000
M205 X10 Y10
G0 F6000 X89.6 Y121.403
M204 S1800
M205 X8 Y8
G1 F1125 X89.6 Y88.596 E54.18638
M204 S3000
M205 X10 Y10
G0 F6000 X92.8 Y88.402
M204 S1800
M205 X8 Y8
G1 F1125 X92.8 Y121.597 E59.48592
M204 S3000
M205 X10 Y10
G0 F6000 X96 Y121.792
M204 S1800
M205 X8 Y8
G1 F1125 X96 Y88.208 E64.84756
M204 S3000
M205 X10 Y10
G0 F6000 X99.2 Y88.012
M204 S1800
M205 X8 Y8
G1 F1125 X99.2 Y121.987 E70.27162
M204 S3000
M205 X10 Y10
G0 F6000 X102.4 Y122.181
M204 S1800
M205 X8 Y8
G1 F1125 X102.4 Y87.818 E75.75763
M204 S3000
M205 X10 Y10
G0 F6000 X105.6 Y87.709
M204 S1800
M205 X8 Y8
G1 F1125 X105.6 Y122.292 E81.27876
M204 S3000
M205 X10 Y10
G0 F6000 X108.8 Y122.003
M204 S1800
M205 X8 Y8
G1 F1125 X108.8 Y87.997 E86.70777
M204 S3000
M205 X10 Y10
G0 F6000 X112 Y88.727
M204 S1800
M205 X8 Y8
G1 F1125 X112 Y121.273 E91.9037
M204 S3000
M205 X10 Y10
G0 F6000 X115.2 Y120.055
M204 S1800
M205 X8 Y8
G1 F1125 X115.2 Y89.943 E96.71104
M204 S3000
M205 X10 Y10
G0 F6000 X118.4 Y91.74
M204 S1800
M205 X8 Y8
G1 F1125 X118.4 Y118.258 E100.9446
M204 S3000
M205 X10 Y10
G0 F6000 X121.6 Y115.713
M204 S1800
M205 X8 Y8
G1 F1125 X121.6 Y94.288 E104.36507
M204 S3000
M205 X10 Y10
G0 F6000 X124.8 Y97.997
M204 S1800
M205 X8 Y8
G1 F1125 X124.8 Y111.994 E106.59967
M204 S3000
M205 X10 Y10
G0 F6000 X70.4 Y113.06
M204 S1800
M205 X8 Y8
G1 F1125 X70.4 Y96.943 E109.17273
M204 S3000
M205 X10 Y10
G0 F600 X70.4 Y96.943 Z0.54
G0 F6000 X70.728 Y114.003
;TIME_ELAPSED:41.733332
;LAYER:-5
M204 S1800
M205 X8 Y8
;TYPE:SUPPORT
G1 F1125 X76.789 Y120.064 E110.88327
G1 X76.754 Y120.05 E110.8908
G1 X76.147 Y119.784 E111.02305
G1 X75.989 Y119.711 E111.05778
G1 X75.815 Y119.619 E111.09706
G1 X75.641 Y119.522 E111.13682
G1 X75.53 Y119.458 E111.16239
G1 X75.217 Y119.287 E111.23356
G1 X74.868 Y119.065 E111.31611
G1 X74.705 Y118.958 E111.35502
G1 X74.629 Y118.901 E111.37398
G1 X74.302 Y118.676 E111.45319
G1 X74.028 Y118.45 E111.52407
G1 X73.935 Y118.379 E111.54742
G1 X73.798 Y118.26 E111.58363
G1 X73.546 Y118.049 E111.64922
G1 X73.449 Y117.963 E111.67509
G1 X73.018 Y117.538 E111.79588
G1 X72.778 Y117.266 E111.86827
G1 X72.559 Y117.034 E111.93194
G1 X72.448 Y116.906 E111.96575
G1 X72.186 Y116.564 E112.05173
G1 X72.086 Y116.441 E112.08336
G1 X71.952 Y116.255 E112.12911
G1 X71.852 Y116.109 E112.16442
G1 X71.697 Y115.865 E112.22211
G1 X71.562 Y115.666 E112.2701
G1 X71.407 Y115.393 E112.33275
G1 X71.276 Y115.174 E112.38367
G1 X71.218 Y115.063 E112.40867
G1 X71.132 Y114.877 E112.44956
G1 X71.021 Y114.673 E112.49591
G1 X70.75 Y114.062 E112.6293
M204 S3000
M205 X10 Y10
G0 F6000 X76.789 Y120.064
M204 S1800
M205 X8 Y8
G1 F1125 X76.916 Y120.116 E112.65668
G1 X77.605 Y120.357 E112.80235
G1 X77.762 Y120.405 E112.83511
G1 X78.367 Y120.564 E112.95994
G1 X78.466 Y120.584 E112.9801
G1 X79.318 Y120.739 E113.15292
G1 X79.426 Y120.755 E113.1747
G1 X79.592 Y120.774 E113.20805
G1 X80.091 Y120.821 E113.30807
G1 X69.964 Y110.694 E116.16613
G1 X69.949 Y110.385 E116.22786
G1 X69.939 Y110.257 E116.25349
G1 X69.936 Y110.166 E116.27166
G1 X69.932 Y110.143 E116.27631
G1 X69.927 Y109.846 E116.33559
G1 X69.927 Y108.11 E116.68203
G1 X82.806 Y120.99 E120.3169
G1 X84.398 Y121.087 E120.63519
G1 X85.517 Y121.155 E120.85891
G1 X69.927 Y105.565 E125.25875
G1 X69.927 Y103.019 E125.76683
G1 X88.226 Y121.319 E130.93135
G1 X90.936 Y121.483 E131.47314
G1 X69.927 Y100.474 E137.40234
G1 X69.927 Y100.175 E137.46201
G1 X69.93 Y100.041 E137.48875
G1 X69.944 Y99.538 E137.58917
G1 X69.973 Y99.146 E137.66761
G1 X69.986 Y99.013 E137.69428
G1 X70.096 Y98.209 E137.85622
G1 X70.114 Y98.116 E137.87513
G1 X93.646 Y121.647 E144.51622
G1 X96.18 Y121.801 E145.02285
G1 X96.354 Y121.81 E145.05762
G1 X70.674 Y96.13 E152.30507
G1 X70.887 Y95.605 E152.41813
G1 X70.945 Y95.482 E152.44527
G1 X71.284 Y94.808 E152.59583
G1 X71.338 Y94.711 E152.61798
G1 X71.413 Y94.581 E152.64793
G1 X71.51 Y94.42 E152.68544
G1 X99.067 Y121.978 E160.46276
G1 X99.665 Y122.014 E160.58232
G1 X100.117 Y122.042 E160.67269
G1 X101.778 Y122.142 E161.00476
G1 X72.578 Y92.942 E169.24563
G1 X72.664 Y92.839 E169.27241
G1 X72.894 Y92.593 E169.33962
G1 X72.954 Y92.525 E169.35772
G1 X73.138 Y92.336 E169.41035
G1 X73.288 Y92.199 E169.45089
G1 X73.552 Y91.944 E169.52414
G1 X73.693 Y91.814 E169.56241
G1 X73.749 Y91.766 E169.57713
G1 X73.86 Y91.679 E169.60528
G1 X104.471 Y122.29 E178.24436
G1 X104.515 Y122.291 E178.25315
G1 X104.96 Y122.298 E178.34196
G1 X105.324 Y122.297 E178.4146
G1 X105.515 Y122.294 E178.45272
G1 X105.913 Y122.283 E178.53218
G1 X106.247 Y122.266 E178.59892
G1 X106.413 Y122.261 E178.63206
G1 X106.688 Y122.242 E178.68707
G1 X106.948 Y122.221 E178.73913
G1 X75.357 Y90.631 E187.65465
G1 X75.539 Y90.523 E187.69688
G1 X75.828 Y90.374 E187.76177
G1 X76.403 Y90.096 E187.88922
G1 X76.562 Y90.024 E187.92405
G1 X77.09 Y89.818 E188.03716
G1 X109.207 Y121.935 E197.10127
G1 X109.253 Y121.929 E197.11053
G1 X109.581 Y121.868 E197.1771
G1 X109.868 Y121.811 E197.2355
G1 X110.152 Y121.75 E197.29347
G1 X110.645 Y121.64 E197.39427
G1 X111.162 Y121.51 E197.50065
G1 X111.292 Y121.474 E197.52757
G1 X79.109 Y89.292 E206.61017
G1 X79.118 Y89.29 E206.61201
G1 X79.145 Y89.282 E206.61763
G1 X79.879 Y89.191 E206.76523
G1 X80.252 Y89.163 E206.83987
G1 X81.453 Y89.09 E207.07999
G1 X113.23 Y120.867 E216.04814
G1 X113.431 Y120.794 E216.09082
G1 X114.001 Y120.573 E216.21282
G1 X114.445 Y120.392 E216.3085
G1 X114.677 Y120.29 E216.35908
G1 X115.018 Y120.138 E216.43358
G1 X115.037 Y120.128 E216.43787
G1 X83.854 Y88.945 E225.23838
G1 X86.254 Y88.799 E225.71822
G1 X116.729 Y119.275 E234.31906
G1 X116.888 Y119.187 E234.35533
G1 X117.398 Y118.89 E234.4731
G1 X117.698 Y118.712 E234.54272
G1 X118.088 Y118.464 E234.63495
G1 X118.314 Y118.314 E234.68908
G1 X88.654 Y88.654 E243.05977
G1 X91.054 Y88.508 E243.5396
G1 X119.8 Y117.255 E251.65249
G1 X119.991 Y117.106 E251.70083
G1 X120.154 Y116.972 E251.74294
G1 X120.701 Y116.523 E251.88416
G1 X121.066 Y116.203 E251.98103
G1 X121.133 Y116.14 E251.99938
G1 X121.185 Y116.094 E252.01324
G1 X93.454 Y88.362 E259.83967
G1 X95.854 Y88.217 E260.31949
G1 X122.475 Y114.838 E267.83251
G1 X122.687 Y114.616 E267.89377
G1 X122.885 Y114.401 E267.95209
G1 X122.926 Y114.35 E267.96515
G1 X123.127 Y114.131 E268.02447
G1 X123.325 Y113.903 E268.08474
G1 X123.627 Y113.542 E268.17866
G1 X123.671 Y113.489 E268.19241
G1 X98.252 Y88.07 E275.3662
G1 X100.652 Y87.924 E275.84603
G1 X124.767 Y112.039 E282.65181
G1 X125.018 Y111.685 E282.73841
G1 X125.249 Y111.336 E282.82193
G1 X125.36 Y111.157 E282.86396
G1 X125.769 Y110.496 E283.01908
G1 X103.052 Y87.778 E289.43045
G1 X103.738 Y87.737 E289.56759
G1 X103.997 Y87.725 E289.61933
G1 X104.411 Y87.709 E289.70201
G1 X104.74 Y87.703 E289.76768
G1 X105.182 Y87.702 E289.85588
G1 X105.526 Y87.707 E289.92454
G1 X126.598 Y108.779 E295.87151
G1 X126.794 Y108.26 E295.98223
G1 X126.836 Y108.135 E296.00854
G1 X127.002 Y107.548 E296.13028
G1 X127.025 Y107.445 E296.15134
G1 X127.154 Y106.789 E296.28476
G1 X108.284 Y87.919 E301.61028
G1 X108.594 Y87.962 E301.67274
G1 X108.966 Y88.022 E301.74793
G1 X109.256 Y88.071 E301.80662
G1 X109.663 Y88.147 E301.88925
G1 X110.131 Y88.244 E301.98463
G1 X110.562 Y88.34 E302.07275
G1 X111.123 Y88.478 E302.18804
G1 X111.488 Y88.578 E302.26356
G1 X127.29 Y104.38 E306.72323
G1 X127.271 Y104.01 E306.79716
G1 X127.207 Y103.486 E306.90251
G1 X127.18 Y103.329 E306.9343
G1 X127.02 Y102.53 E307.09692
G1 X127.002 Y102.459 E307.11153
G1 X126.899 Y102.075 E307.19087
G1 X126.842 Y101.896 E307.22836
G1 X126.569 Y101.113 E307.39384
G1 X115.587 Y90.132 E310.49306
G1 X116.179 Y90.426 E310.62497
G1 X116.516 Y90.605 E310.70112
G1 X116.707 Y90.715 E310.7451
G1 X116.822 Y90.774 E310.7709
G1 X117.019 Y90.884 E310.81592
G1 X117.47 Y91.151 E310.92051
G1 X117.667 Y91.269 E310.96634
G1 X118.032 Y91.497 E311.05222
G1 X118.213 Y91.613 E311.09513
G1 X118.544 Y91.835 E311.17466
G1 X118.672 Y91.925 E311.20589
G1 X118.921 Y92.095 E311.26605
G1 X119.257 Y92.336 E311.34857
G1 X119.686 Y92.656 E311.45538
G1 X120.015 Y92.911 E311.53844
G1 X120.309 Y93.15 E311.61406
G1 X120.5 Y93.307 E311.6634
G1 X120.57 Y93.369 E311.68206
G1 X120.626 Y93.413 E311.69627
G1 X120.934 Y93.679 E311.77748
G1 X121.143 Y93.864 E311.83318
G1 X121.471 Y94.165 E311.92202
G1 X121.684 Y94.366 E311.98047
G1 X121.888 Y94.562 E312.03692
G1 X122.299 Y94.975 E312.1532
G1 X122.483 Y95.165 E312.20598
G1 X122.68 Y95.375 E312.26344
G1 X123.083 Y95.818 E312.38296
G1 X123.653 Y96.487 E312.55835
G1 X123.968 Y96.879 E312.65871
G1 X124.265 Y97.263 E312.75558
G1 X124.438 Y97.494 E312.81318
G1 X124.669 Y97.813 E312.89177
G1 X124.884 Y98.12 E312.96657
G1 X125.164 Y98.538 E313.06697
G1 X125.526 Y99.1 E313.20038
G1 X125.718 Y99.421 E313.27502
G1 X125.934 Y99.789 E313.36017
G1 X125.978 Y99.867 E313.37805
G1 X126.244 Y100.375 E313.49248
G1 X126.531 Y101.017 E313.63282
G1 X126.564 Y101.1 E313.65064
M204 S3000
M205 X10 Y10
G0 F600 X126.564 Y101.1 Z0.74
G0 F6000 X110.841 Y87.996
;TIME_ELAPSED:97.050390
;LAYER:-4
M204 S1800
M205 X8 Y8
;TYPE:SUPPORT-INTERFACE
G1 F1500 X110.652 Y87.951 E313.66357
G1 X110.208 Y87.851 E313.69384
G1 X109.741 Y87.755 E313.72556
G1 X109.327 Y87.677 E313.75358
G1 X109.039 Y87.628 E313.77301
G1 X108.653 Y87.568 E313.799
G1 X108.313 Y87.52 E313.82184
G1 X107.747 Y87.449 E313.85978
G1 X107.419 Y87.415 E313.88172
G1 X106.952 Y87.375 E313.9129
G1 X106.652 Y87.353 E313.93291
G1 X106.219 Y87.328 E313.96176
G1 X105.681 Y87.309 E313.99757
G1 X105.188 Y87.302 E314.03037
