;FLAVOR:Marlin
;TIME:3533
;Filament used: 3.76321m
;Layer height: 0.3
;Generated with Cura_SteamEngine 3.6.0
M140 S60
M105
M190 S60
M104 S185
M105
M109 S185
M82 ;absolute extrusion mode
G21 ;metric values
G90 ;absolute positioning
M82 ;set extruder to absolute mode
M107 ;start with the fan off
G28 X0 Y0 ;move X/Y to min endstops
G28 Z0 ;move Z to min endstops
G1 Z15.0 F100 ;move the platform down 15mm
G92 E0 ;zero the extruded length
G1 F200 E3 ;extrude 3mm of feed stock
G92 E0 ;zero the extruded length again
G1 F100
M117 Printing...
G5
G92 E0
G1 F2400 E-6
;LAYER_COUNT:228
;LAYER:0
M106 S255
M204 S3000
M205 X10 Y10
G0 F3000 X57.385 Y95.003 Z0.2
M204 S1800
M205 X8 Y8
;TYPE:SKIRT
G1 F2400 E0
G1 X58.01 Y94.654 E0.03333
G1 X58.67 Y94.378 E0.06664
G1 X59.356 Y94.177 E0.09993
G1 X60.061 Y94.054 E0.13325
G1 X60.81 Y94.01 E0.16819
G1 X101.348 Y94.016 E2.05581
G1 X101.425 Y94.016 E2.05939
G1 X106.328 Y94.076 E2.28772
G1 X109.147 Y94.003 E2.41902
G1 X109.314 Y94.001 E2.4268
G1 X149.193 Y94.011 E4.28373
G1 X149.907 Y94.051 E4.31703
G1 X150.612 Y94.171 E4.35033
G1 X151.299 Y94.368 E4.38361
G1 X151.96 Y94.641 E4.41691
G1 X152.587 Y94.986 E4.45024
G1 X153.171 Y95.399 E4.48354
G1 X153.706 Y95.875 E4.51689
G1 X154.184 Y96.407 E4.55019
G1 X154.599 Y96.989 E4.58347
G1 X154.947 Y97.614 E4.61678
G1 X155.223 Y98.273 E4.65005
G1 X155.424 Y98.96 E4.68338
G1 X155.547 Y99.664 E4.71666
G1 X155.591 Y100.411 E4.75151
G1 X155.591 Y109.34 E5.16728
G1 X155.551 Y110.054 E5.20058
G1 X155.432 Y110.759 E5.23387
G1 X155.234 Y111.447 E5.2672
G1 X154.961 Y112.108 E5.3005
G1 X154.617 Y112.735 E5.33381
G1 X154.204 Y113.319 E5.36711
G1 X153.729 Y113.853 E5.40039
G1 X153.197 Y114.332 E5.43373
G1 X152.615 Y114.747 E5.46701
G1 X151.99 Y115.096 E5.50034
G1 X151.33 Y115.372 E5.53365
G1 X150.644 Y115.573 E5.56694
G1 X149.939 Y115.696 E5.60026
G1 X149.192 Y115.74 E5.63511
G1 X109.708 Y115.749 E7.47365
G1 X109.557 Y115.747 E7.48068
G1 X106.406 Y115.673 E7.62744
G1 X60.818 Y115.739 E9.75021
G1 X60.104 Y115.7 E9.78351
G1 X59.399 Y115.582 E9.81679
G1 X58.711 Y115.385 E9.85012
G1 X58.049 Y115.113 E9.88344
G1 X57.422 Y114.769 E9.91675
G1 X56.837 Y114.358 E9.95004
G1 X56.302 Y113.883 E9.98335
G1 X55.823 Y113.352 E10.01665
G1 X55.407 Y112.77 E10.04996
G1 X55.057 Y112.146 E10.08328
G1 X54.78 Y111.487 E10.11656
G1 X54.578 Y110.801 E10.14986
G1 X54.454 Y110.096 E10.18319
G1 X54.409 Y109.339 E10.2185
G1 X54.409 Y100.41 E10.63428
G1 X54.449 Y99.696 E10.66757
G1 X54.568 Y98.991 E10.70087
G1 X54.766 Y98.303 E10.7342
G1 X55.039 Y97.642 E10.7675
G1 X55.383 Y97.015 E10.8008
G1 X55.796 Y96.431 E10.83411
G1 X56.271 Y95.897 E10.86739
G1 X56.803 Y95.418 E10.90072
G1 X57.385 Y95.003 E10.93401
M204 S3000
M205 X10 Y10
G0 F3000 X57.921 Y95.334
M204 S1800
M205 X8 Y8
G1 F2400 X58.534 Y95.031 E10.96585
G1 X59.177 Y94.803 E10.99762
G1 X59.843 Y94.65 E11.02944
G1 X60.81 Y94.57 E11.07462
G1 X101.348 Y94.576 E12.96224
G1 X101.418 Y94.576 E12.9655
G1 X106.336 Y94.636 E13.19452
G1 X109.162 Y94.563 E13.32615
G1 X109.313 Y94.561 E13.33318
G1 X149.192 Y94.571 E15.19011
G1 X149.875 Y94.611 E15.22197
G1 X150.547 Y94.731 E15.25376
G1 X151.201 Y94.928 E15.28556
G1 X151.828 Y95.2 E15.31739
G1 X152.418 Y95.544 E15.34919
G1 X152.965 Y95.954 E15.38102
G1 X153.46 Y96.425 E15.41284
G1 X153.896 Y96.951 E15.44465
G1 X154.268 Y97.524 E15.47646
G1 X154.57 Y98.137 E15.50828
G1 X154.799 Y98.781 E15.54011
G1 X154.951 Y99.447 E15.57192
G1 X155.031 Y100.411 E15.61696
G1 X155.031 Y109.34 E16.03273
G1 X154.991 Y110.022 E16.06454
G1 X154.872 Y110.695 E16.09637
G1 X154.675 Y111.349 E16.12817
G1 X154.402 Y111.976 E16.16001
G1 X154.059 Y112.566 E16.19179
G1 X153.649 Y113.113 E16.22362
G1 X153.178 Y113.608 E16.25544
G1 X152.652 Y114.044 E16.28725
G1 X152.079 Y114.416 E16.31906
G1 X151.466 Y114.719 E16.3509
G1 X150.823 Y114.947 E16.38267
G1 X150.157 Y115.1 E16.41449
G1 X149.192 Y115.18 E16.45958
G1 X109.708 Y115.189 E18.29812
G1 X109.57 Y115.187 E18.30455
G1 X106.418 Y115.113 E18.45136
G1 X60.817 Y115.179 E20.57473
G1 X60.135 Y115.14 E20.60654
G1 X59.462 Y115.022 E20.63836
G1 X58.808 Y114.825 E20.67016
G1 X58.181 Y114.554 E20.70197
G1 X57.59 Y114.212 E20.73376
G1 X57.043 Y113.802 E20.76559
G1 X56.547 Y113.332 E20.79741
G1 X56.11 Y112.807 E20.82922
G1 X55.737 Y112.234 E20.86106
G1 X55.434 Y111.622 E20.89285
G1 X55.204 Y110.979 E20.92465
G1 X55.051 Y110.313 E20.95647
G1 X54.969 Y109.339 E21.00199
G1 X54.969 Y100.41 E21.41776
G1 X55.009 Y99.728 E21.44957
G1 X55.128 Y99.055 E21.48139
G1 X55.325 Y98.401 E21.5132
G1 X55.598 Y97.774 E21.54504
G1 X55.941 Y97.184 E21.57682
G1 X56.351 Y96.637 E21.60865
G1 X56.822 Y96.142 E21.64047
G1 X57.348 Y95.706 E21.67228
G1 X57.921 Y95.334 E21.70409
M204 S3000
M205 X10 Y10
G0 F3000 X57.889 Y96.011
M204 S1800
M205 X8 Y8
G1 F2400 X58.452 Y95.685 E21.73438
G1 X59.05 Y95.432 E21.76462
G1 X59.674 Y95.253 E21.79485
G1 X60.316 Y95.153 E21.8251
G1 X60.81 Y95.13 E21.84813
G1 X101.348 Y95.136 E23.73575
G1 X101.411 Y95.136 E23.73868
G1 X106.343 Y95.196 E23.96835
G1 X109.176 Y95.123 E24.10031
G1 X109.313 Y95.121 E24.10669
G1 X149.192 Y95.131 E25.96363
G1 X149.841 Y95.171 E25.9939
G1 X150.479 Y95.291 E26.02413
G1 X151.098 Y95.488 E26.05438
G1 X151.688 Y95.759 E26.08461
G1 X152.241 Y96.101 E26.11489
G1 X152.747 Y96.508 E26.14513
G1 X153.199 Y96.974 E26.17536
G1 X153.591 Y97.492 E26.2056
G1 X153.916 Y98.055 E26.23587
G1 X154.17 Y98.653 E26.26613
G1 X154.348 Y99.278 E26.29639
G1 X154.448 Y99.92 E26.32664
G1 X154.471 Y100.411 E26.34953
G1 X154.471 Y109.34 E26.7653
G1 X154.431 Y109.988 E26.79553
G1 X154.312 Y110.627 E26.8258
G1 X154.115 Y111.246 E26.85605
G1 X153.844 Y111.836 E26.88628
G1 X153.502 Y112.389 E26.91656
G1 X153.095 Y112.895 E26.94679
G1 X152.629 Y113.348 E26.97706
G1 X152.111 Y113.739 E27.00728
G1 X151.548 Y114.065 E27.03757
G1 X150.95 Y114.318 E27.0678
G1 X150.326 Y114.497 E27.09803
G1 X149.684 Y114.597 E27.12829
G1 X149.192 Y114.62 E27.15122
G1 X109.708 Y114.629 E28.98976
G1 X109.583 Y114.628 E28.99558
G1 X106.39 Y114.553 E29.1443
G1 X60.817 Y114.619 E31.26637
G1 X60.168 Y114.58 E31.29665
G1 X59.529 Y114.462 E31.32691
G1 X58.91 Y114.266 E31.35714
G1 X58.319 Y113.995 E31.38742
G1 X57.767 Y113.654 E31.41763
G1 X57.26 Y113.248 E31.44787
G1 X56.806 Y112.783 E31.47813
G1 X56.414 Y112.265 E31.50838
G1 X56.088 Y111.703 E31.53863
G1 X55.833 Y111.105 E31.56891
G1 X55.654 Y110.481 E31.59913
G1 X55.553 Y109.839 E31.6294
G1 X55.529 Y109.339 E31.6527
G1 X55.529 Y100.41 E32.06848
G1 X55.569 Y99.762 E32.09871
G1 X55.688 Y99.123 E32.12897
G1 X55.885 Y98.504 E32.15922
G1 X56.156 Y97.914 E32.18945
G1 X56.498 Y97.361 E32.21973
G1 X56.905 Y96.855 E32.24997
G1 X57.371 Y96.402 E32.28023
G1 X57.889 Y96.011 E32.31045
M204 S3000
M205 X10 Y10
G1 F2400 E26.31045
;MESH:Quad_Juul_Hitter.STL
G0 F3000 X61.094 Y99.736
G0 X61.094 Y100.695
G0 X61.45 Y101.051
G0 X61.52 Y101.121
M204 S1800
M205 X8 Y8
;TYPE:WALL-OUTER
G1 F2400 E32.31045
G1 F1500 X61.52 Y108.629 E32.66005
G1 X77.18 Y108.629 E33.38925
G1 X77.18 Y101.121 E33.73885
G1 X61.52 Y101.121 E34.46805
M204 S3000
M205 X10 Y10
G0 F3000 X61.52 Y101.321
G0 X61.42 Y101.321
G0 X61.492 Y101.093
G0 X77.52 Y101.121
G0 X77.62 Y101.121
M204 S1800
M205 X8 Y8
G1 F1500 X77.62 Y108.629 E34.74274
G1 X77.62 Y109.069 E34.76323
G1 X77.18 Y109.069 E34.78371
G1 X61.52 Y109.069 E35.35665
G1 X61.08 Y109.069 E35.37714
G1 X61.08 Y108.629 E35.39763
G1 X61.08 Y101.121 E35.67232
G1 X61.08 Y100.681 E35.69281
G1 X61.52 Y100.681 E35.71329
G1 X77.18 Y100.681 E36.28623
G1 X77.62 Y100.681 E36.30672
G1 X77.62 Y101.121 E36.32721
M204 S3000
M205 X10 Y10
G0 F3000 X77.62 Y101.321
G1 F2400 E30.32721
G0 F3000 X77.52 Y101.321
G0 X77.6 Y101.051
G0 X78.565 Y101.051
G0 X83.235 Y101.051
G0 X84.2 Y101.051
G0 X84.55 Y101.051
G0 X84.62 Y101.121
M204 S1800
M205 X8 Y8
G1 F2400 E36.32721
G1 F1500 X84.62 Y108.629 E36.67681
G1 X100.28 Y108.629 E37.40601
G1 X100.28 Y101.121 E37.75561
G1 X84.62 Y101.121 E38.48481
M204 S3000
M205 X10 Y10
G0 F3000 X84.62 Y101.321
G0 X84.52 Y101.321
G0 X84.592 Y101.093
G0 X89.047 Y101.093
G0 X100.62 Y101.121
G0 X100.72 Y101.121
M204 S1800
M205 X8 Y8
G1 F1500 X100.72 Y108.629 E38.7595
G1 X100.72 Y109.069 E38.77999
G1 X100.28 Y109.069 E38.80047
G1 X84.62 Y109.069 E39.37341
G1 X84.18 Y109.069 E39.3939
G1 X84.18 Y108.629 E39.41439
G1 X84.18 Y101.121 E39.68908
G1 X84.18 Y100.681 E39.70957
G1 X84.62 Y100.681 E39.73005
G1 X100.28 Y100.681 E40.30299
G1 X100.72 Y100.681 E40.32348
G1 X100.72 Y101.121 E40.34397
M204 S3000
M205 X10 Y10
G0 F3000 X100.72 Y101.321
G1 F2400 E34.34397
G0 F3000 X100.62 Y101.321
G0 X100.7 Y101.051
G0 X101.665 Y101.051
G0 X108.335 Y101.051
G0 X109.3 Y101.051
G0 X109.65 Y101.051
G0 X109.72 Y101.121
M204 S1800
M205 X8 Y8
G1 F2400 E40.34397
G1 F1500 X109.72 Y108.629 E40.69357
G1 X125.38 Y108.629 E41.42277
G1 X125.38 Y101.121 E41.77237
G1 X109.72 Y101.121 E42.50157
M204 S3000
M205 X10 Y10
G0 F3000 X109.72 Y101.321
G0 X109.62 Y101.321
G0 X109.692 Y101.093
G0 X114.147 Y101.093
G0 X125.72 Y101.121
G0 X125.82 Y101.121
M204 S1800
M205 X8 Y8
G1 F1500 X125.82 Y108.629 E42.77626
G1 X125.82 Y109.069 E42.79675
G1 X125.38 Y109.069 E42.81723
G1 X109.72 Y109.069 E43.39017
G1 X109.28 Y109.069 E43.41066
G1 X109.28 Y108.629 E43.43115
G1 X109.28 Y101.121 E43.70584
G1 X109.28 Y100.681 E43.72633
G1 X109.72 Y100.681 E43.74681
G1 X125.38 Y100.681 E44.31975
G1 X125.82 Y100.681 E44.34024
G1 X125.82 Y101.121 E44.36073
M204 S3000
M205 X10 Y10
G0 F3000 X125.82 Y101.321
G1 F2400 E38.36073
G0 F3000 X125.72 Y101.321
G0 X125.8 Y101.051
G0 X126.765 Y101.051
G0 X131.435 Y101.051
G0 X132.4 Y101.051
G0 X132.75 Y101.051
G0 X132.82 Y101.121
M204 S1800
M205 X8 Y8
G1 F2400 E44.36073
G1 F1500 X132.82 Y108.629 E44.71033
G1 X148.48 Y108.629 E45.43953
G1 X148.48 Y101.121 E45.78913
G1 X132.82 Y101.121 E46.51833
M204 S3000
M205 X10 Y10
G0 F3000 X132.82 Y101.321
G0 X132.72 Y101.321
G0 X132.792 Y101.093
G0 X148.82 Y101.121
G0 X148.92 Y101.121
M204 S1800
M205 X8 Y8
G1 F1500 X148.92 Y108.629 E46.79302
G1 X148.92 Y109.069 E46.81351
G1 X148.48 Y109.069 E46.83399
G1 X132.82 Y109.069 E47.40693
G1 X132.38 Y109.069 E47.42742
G1 X132.38 Y108.629 E47.44791
G1 X132.38 Y101.121 E47.7226
G1 X132.38 Y100.681 E47.74309
G1 X132.82 Y100.681 E47.76357
G1 X148.48 Y100.681 E48.33651
G1 X148.92 Y100.681 E48.357
G1 X148.92 Y101.121 E48.37749
M204 S3000
M205 X10 Y10
G0 F3000 X148.92 Y101.321
G1 F2400 E42.37749
;MESH:NONMESH
G0 F3000 X148.82 Y101.321
G0 X148.54 Y101.116
G0 X132.4 Y101.021
G0 X131.435 Y101.021
G0 X126.753 Y99.748
G0 X83.247 Y99.748
G0 X78.565 Y101.021
G0 X77.6 Y101.021
G0 X61.6 Y101.021
G0 X61.6 Y101.201
;TIME_ELAPSED:46.702063
;LAYER:1
M140 S60
;MESH:Quad_Juul_Hitter.STL
G0 F4500 X61.6 Y101.201 Z0.5
M204 S1800
M205 X8 Y8
;TYPE:WALL-OUTER
G1 F2400 E48.37749
G1 F2250 X61.6 Y108.549 E48.74408
G1 X77.1 Y108.549 E49.51738
G1 X77.1 Y101.201 E49.88397
G1 X61.6 Y101.201 E50.65727
M204 S3000
M205 X10 Y10
G0 F4500 X61.6 Y101.401
G0 X61.5 Y101.401
G0 X61.572 Y108.577
G0 X77.63 Y109.079
G0 X77.7 Y109.149
M204 S1800
M205 X8 Y8
G1 F2250 X61 Y109.149 E51.49044
G1 X61 Y100.601 E51.9169
G1 X77.7 Y100.601 E52.75007
G1 X77.7 Y109.149 E53.17653
M204 S3000
M205 X10 Y10
G0 F4500 X77.5 Y109.149
G0 X77.44 Y108.953
M204 S1800
M205 X8 Y8
;TYPE:SKIN
G1 F1350 X77.504 Y108.888 E53.1788
M204 S3000
M205 X10 Y10
G0 F4500 X77.33 Y108.779
M204 S1800
M205 X8 Y8
G1 F1350 X76.979 Y108.848 E53.19233
G1 X76.13 Y108.848 E53.22443
M204 S3000
M205 X10 Y10
G0 F4500 X77.399 Y108.427
M204 S1800
M205 X8 Y8
G1 F1350 X77.399 Y108.144 E53.23191
G1 X77.399 Y101.073 E53.4187
G1 X77.29 Y100.9 E53.4241
G1 X61.734 Y100.9 E53.83504
G1 X61.375 Y100.975 E53.84472
G1 X61.299 Y101.9 E53.86924
G1 X61.299 Y108.688 E54.04856
G1 X61.423 Y108.848 E54.05391
G1 X75.848 Y108.848 E54.43496
M204 S3000
M205 X10 Y10
G0 F4500 X75.953 Y108.743
G0 X61.572 Y108.577
G0 X61.273 Y100.795
M204 S1800
M205 X8 Y8
G1 F1350 X61.195 Y100.873 E54.43772
M204 S3000
M205 X10 Y10
G0 F4500 X61.4 Y101.001
G1 F2400 E48.43772
G0 F4500 X77.68 Y101.131
G0 X78.565 Y101.131
G0 X83.235 Y101.131
G0 X84.12 Y101.131
G0 X84.63 Y101.131
G0 X84.7 Y101.201
M204 S1800
M205 X8 Y8
;TYPE:WALL-OUTER
G1 F2400 E54.43772
G1 F2250 X84.7 Y108.549 E54.80431
G1 X100.2 Y108.549 E55.57761
G1 X100.2 Y101.201 E55.9442
G1 X84.7 Y101.201 E56.7175
M204 S3000
M205 X10 Y10
G0 F4500 X84.7 Y101.401
G0 X84.6 Y101.401
G0 X84.672 Y108.577
G0 X100.73 Y109.079
G0 X100.8 Y109.149
M204 S1800
M205 X8 Y8
G1 F2250 X84.1 Y109.149 E57.55067
G1 X84.1 Y100.601 E57.97713
G1 X100.8 Y100.601 E58.81029
G1 X100.8 Y109.149 E59.23675
M204 S3000
M205 X10 Y10
G0 F4500 X100.6 Y109.149
G0 X100.477 Y108.825
M204 S1800
M205 X8 Y8
;TYPE:SKIN
G1 F1350 X100.5 Y108.52 E59.24482
G1 X100.5 Y101.166 E59.43884
G1 X100.483 Y100.9 E59.44588
G1 X84.643 Y100.9 E59.86378
G1 X84.399 Y101.144 E59.87289
G1 X84.399 Y108.78 E60.07435
G1 X85.181 Y108.848 E60.09506
G1 X100.172 Y108.848 E60.49056
M204 S3000
M205 X10 Y10
G0 F4500 X100.277 Y108.743
G0 X100.228 Y101.173
G0 X84.466 Y100.795
M204 S1800
M205 X8 Y8
G1 F1350 X84.295 Y100.966 E60.4966
M204 S3000
M205 X10 Y10
G0 F4500 X84.418 Y100.919
G1 F2400 E54.4966
G0 F4500 X100.78 Y101.131
G0 X101.665 Y101.131
G0 X108.335 Y101.131
G0 X109.22 Y101.131
G0 X109.73 Y101.131
G0 X109.8 Y101.201
M204 S1800
M205 X8 Y8
;TYPE:WALL-OUTER
G1 F2400 E60.4966
G1 F2250 X109.8 Y108.549 E60.86319
G1 X125.3 Y108.549 E61.63649
G1 X125.3 Y101.201 E62.00308
G1 X109.8 Y101.201 E62.77638
M204 S3000
M205 X10 Y10
G0 F4500 X109.8 Y101.401
G0 X109.7 Y101.401
G0 X109.772 Y108.577
G0 X125.83 Y109.079
G0 X125.9 Y109.149
M204 S1800
M205 X8 Y8
G1 F2250 X109.2 Y109.149 E63.60955
G1 X109.2 Y100.601 E64.03601
G1 X125.9 Y100.601 E64.86917
G1 X125.9 Y109.149 E65.29563
M204 S3000
M205 X10 Y10
G0 F4500 X125.7 Y109.149
G0 X125.612 Y108.863
M204 S1800
M205 X8 Y8
;TYPE:SKIN
G1 F1350 X125.598 Y108.594 E65.30271
G1 X125.598 Y100.957 E65.50336
G1 X124.807 Y100.9 E65.5242
G1 X109.816 Y100.9 E65.91806
G1 X109.499 Y101.218 E65.92986
G1 X109.505 Y108.848 E66.13032
G1 X125.344 Y108.848 E66.54646
M204 S3000
M205 X10 Y10
G0 F4500 X125.449 Y108.743
G0 X125.328 Y101.173
G0 X109.639 Y100.795
M204 S1800
M205 X8 Y8
G1 F1350 X109.394 Y101.04 E66.55511
M204 S3000
M205 X10 Y10
G0 F4500 X109.518 Y100.919
G1 F2400 E60.55511
G0 F4500 X125.88 Y101.131
G0 X126.765 Y101.131
G0 X131.435 Y101.131
G0 X132.32 Y101.131
G0 X132.83 Y101.131
G0 X132.9 Y101.201
M204 S1800
M205 X8 Y8
;TYPE:WALL-OUTER
G1 F2400 E66.55511
G1 F2250 X132.9 Y108.549 E66.9217
G1 X148.4 Y108.549 E67.695
G1 X148.4 Y101.201 E68.06159
G1 X132.9 Y101.201 E68.83489
M204 S3000
M205 X10 Y10
G0 F4500 X132.9 Y101.401
G0 X132.8 Y101.401
G0 X132.872 Y108.577
G0 X148.93 Y109.079
G0 X149 Y109.149
M204 S1800
M205 X8 Y8
G1 F2250 X132.3 Y109.149 E69.66805
G1 X132.3 Y100.601 E70.09452
G1 X149 Y100.601 E70.92768
G1 X149 Y109.149 E71.35414
M204 S3000
M205 X10 Y10
G0 F4500 X148.8 Y109.149
G0 X148.715 Y108.954
M204 S1800
M205 X8 Y8
;TYPE:SKIN
G1 F1350 X148.804 Y108.865 E71.35728
M204 S3000
M205 X10 Y10
G0 F4500 X148.618 Y108.768
M204 S1800
M205 X8 Y8
G1 F1350 X148.254 Y108.849 E71.36732
G1 X132.698 Y108.849 E71.78596
G1 X132.599 Y108.382 E71.79881
G1 X132.599 Y101.311 E71.9891
G1 X132.663 Y100.964 E71.9986
G1 X133.575 Y100.9 E72.0232
G1 X133.858 Y100.9 E72.03082
M204 S3000
M205 X10 Y10
G0 F4500 X132.549 Y100.795
M204 S1800
M205 X8 Y8
G1 F1350 X132.494 Y100.85 E72.03276
M204 S3000
M205 X10 Y10
G0 F4500 X134.036 Y101.005
G0 X134.141 Y100.9
M204 S1800
M205 X8 Y8
G1 F1350 X134.424 Y100.9 E72.04031
G1 X148.566 Y100.9 E72.41751
