;FLAVOR:Marlin
;TIME:13815
;Filament used: 19.8074m
;Layer height: 0.3
;Generated with Cura_SteamEngine 3.6.0
M140 S60
M105
M190 S60
M104 S200
M105
M109 S200
M82 ;absolute extrusion mode
G21 ;metric values
G90 ;absolute positioning
M82 ;set extruder to absolute mode
M107 ;start with the fan off
G28 X0 Y0 ;move X/Y to min endstops
G28 Z0 ;move Z to min endstops
G1 Z15.0 F100 ;move the platform down 15mm
G92 E0 ;zero the extruded length
G1 F200 E3 ;extrude 3mm of feed stock
G92 E0 ;zero the extruded length again
G1 F100
M117 Printing...
G5
G92 E0
G1 F2400 E-6
;LAYER_COUNT:134
;LAYER:0
M106 S255
M204 S3000
M205 X10 Y10
G0 F3000 X28.672 Y71.812 Z0.2
M204 S1800
M205 X8 Y8
;TYPE:SKIRT
G1 F2400 E0
G1 X29.359 Y71.611 E0.03333
G1 X30.063 Y71.488 E0.06661
G1 X30.815 Y71.444 E0.10168
G1 X45.819 Y71.455 E0.80033
G1 X46.533 Y71.495 E0.83363
G1 X47.238 Y71.615 E0.86693
G1 X47.925 Y71.813 E0.90022
G1 X48.898 Y72.247 E0.94983
G1 X50.537 Y73.148 E1.03692
G1 X55.311 Y75.551 E1.28579
G1 X60.172 Y77.664 E1.5326
G1 X65.144 Y79.496 E1.77934
G1 X70.217 Y81.045 E2.02632
G1 X75.401 Y82.314 E2.27484
G1 X77.915 Y82.816 E2.39421
G1 X83.177 Y83.639 E2.64221
G1 X88.489 Y84.163 E2.89076
G1 X91.062 Y84.308 E3.01076
G1 X95.095 Y84.393 E3.1986
G1 X117.625 Y84.353 E4.24769
G1 X122.927 Y84.053 E4.49497
G1 X128.177 Y83.457 E4.741
G1 X133.402 Y82.561 E4.98785
G1 X138.584 Y81.368 E5.23546
G1 X141.054 Y80.69 E5.35472
G1 X146.165 Y79.045 E5.60474
G1 X151.091 Y77.149 E5.85052
G1 X155.895 Y74.977 E6.09601
G1 X161.226 Y72.179 E6.37636
G1 X161.877 Y71.883 E6.40966
G1 X162.557 Y71.661 E6.44297
G1 X163.257 Y71.516 E6.47625
G1 X164.2 Y71.446 E6.52028
G1 X179.189 Y71.444 E7.21823
G1 X179.903 Y71.484 E7.25153
G1 X180.609 Y71.603 E7.28487
G1 X181.296 Y71.8 E7.31815
G1 X181.957 Y72.073 E7.35145
G1 X182.584 Y72.418 E7.38477
G1 X183.168 Y72.831 E7.41808
G1 X183.703 Y73.306 E7.45139
G1 X184.181 Y73.838 E7.4847
G1 X184.597 Y74.42 E7.51801
G1 X184.945 Y75.044 E7.55128
G1 X185.222 Y75.704 E7.58461
G1 X185.423 Y76.39 E7.61789
G1 X185.546 Y77.095 E7.65122
G1 X185.59 Y77.845 E7.6862
G1 X185.582 Y131.334 E10.17687
G1 X185.542 Y132.048 E10.21017
G1 X185.422 Y132.753 E10.24347
G1 X185.22 Y133.456 E10.27753
G1 X183.986 Y136.965 E10.45073
G1 X182.415 Y142.057 E10.69887
G1 X181.136 Y147.224 E10.94672
G1 X180.606 Y149.832 E11.07065
G1 X180.169 Y152.355 E11.18988
G1 X179.481 Y157.64 E11.43804
G1 X179.093 Y162.956 E11.68624
G1 X178.999 Y167.161 E11.88209
G1 X178.989 Y177.947 E12.38433
G1 X178.948 Y178.661 E12.41763
G1 X178.828 Y179.366 E12.45093
G1 X178.63 Y180.053 E12.48422
G1 X178.357 Y180.714 E12.51752
G1 X178.011 Y181.341 E12.55087
G1 X177.598 Y181.924 E12.58414
G1 X177.122 Y182.459 E12.61748
G1 X176.59 Y182.936 E12.65076
G1 X176.008 Y183.351 E12.68404
G1 X175.383 Y183.699 E12.71735
G1 X174.723 Y183.975 E12.75066
G1 X174.036 Y184.175 E12.78398
G1 X173.331 Y184.298 E12.8173
G1 X172.597 Y184.341 E12.85154
G1 X90.888 Y184.44 E16.65626
G1 X90.744 Y184.439 E16.66296
G1 X86.549 Y184.35 E16.85834
G1 X28.509 Y184.34 E19.56093
G1 X27.795 Y184.3 E19.59423
G1 X27.09 Y184.18 E19.62753
G1 X26.402 Y183.983 E19.66085
G1 X25.741 Y183.71 E19.69415
G1 X25.114 Y183.365 E19.72747
G1 X24.53 Y182.952 E19.76078
G1 X23.996 Y182.477 E19.79406
G1 X23.518 Y181.945 E19.82736
G1 X23.102 Y181.363 E19.86067
G1 X22.754 Y180.738 E19.89398
G1 X22.478 Y180.078 E19.92729
G1 X22.277 Y179.392 E19.96058
G1 X22.154 Y178.687 E19.9939
G1 X22.11 Y177.923 E20.02954
G1 X22.158 Y160.337 E20.84842
G1 X22.101 Y140.776 E21.75926
G1 X22.114 Y140.348 E21.7792
G1 X22.174 Y139.412 E21.82288
G1 X22.269 Y138.652 E21.85854
G1 X23.269 Y133.27 E22.11344
G1 X23.941 Y128.021 E22.35985
G1 X24.315 Y122.725 E22.60707
G1 X24.401 Y118.681 E22.79542
G1 X24.41 Y77.843 E24.697
G1 X24.45 Y77.128 E24.73035
G1 X24.57 Y76.423 E24.76365
G1 X24.767 Y75.736 E24.79693
G1 X25.04 Y75.075 E24.83023
G1 X25.385 Y74.448 E24.86355
G1 X25.798 Y73.864 E24.89686
G1 X26.273 Y73.33 E24.93014
G1 X26.805 Y72.852 E24.96344
G1 X27.388 Y72.436 E24.99679
G1 X28.012 Y72.088 E25.03006
G1 X28.672 Y71.812 E25.06337
M204 S3000
M205 X10 Y10
G0 F3000 X29.18 Y72.236
M204 S1800
M205 X8 Y8
G1 F2400 X29.846 Y72.084 E25.09518
G1 X30.814 Y72.004 E25.14041
G1 X45.818 Y72.015 E25.83906
G1 X46.5 Y72.055 E25.87087
G1 X47.173 Y72.175 E25.9027
G1 X47.827 Y72.373 E25.93452
G1 X48.628 Y72.738 E25.97551
G1 X50.265 Y73.638 E26.06249
G1 X55.08 Y76.061 E26.31349
G1 X59.948 Y78.177 E26.56065
G1 X64.98 Y80.032 E26.81037
G1 X70.065 Y81.585 E27.05795
G1 X75.294 Y82.865 E27.30862
G1 X77.796 Y83.364 E27.42742
G1 X83.104 Y84.194 E27.67759
G1 X88.451 Y84.722 E27.92778
G1 X91.046 Y84.868 E28.0488
G1 X95.085 Y84.953 E28.23692
G1 X117.64 Y84.913 E29.28717
G1 X122.969 Y84.611 E29.53571
G1 X128.266 Y84.01 E29.78394
G1 X133.513 Y83.11 E30.03183
G1 X138.716 Y81.913 E30.28044
G1 X141.239 Y81.22 E30.40227
G1 X146.324 Y79.584 E30.651
G1 X151.308 Y77.664 E30.8997
G1 X156.149 Y75.477 E31.14706
G1 X161.486 Y72.675 E31.42774
G1 X162.109 Y72.394 E31.45956
G1 X162.76 Y72.187 E31.49137
G1 X163.431 Y72.057 E31.52319
G1 X164.2 Y72.006 E31.55908
G1 X179.189 Y72.004 E32.25703
G1 X179.871 Y72.044 E32.28884
G1 X180.544 Y72.163 E32.32067
G1 X181.198 Y72.36 E32.35247
G1 X181.825 Y72.632 E32.3843
G1 X182.416 Y72.976 E32.41614
G1 X182.962 Y73.386 E32.44793
G1 X183.457 Y73.857 E32.47975
G1 X183.893 Y74.382 E32.51153
G1 X184.266 Y74.955 E32.54336
G1 X184.568 Y75.568 E32.57518
G1 X184.797 Y76.212 E32.60701
G1 X184.949 Y76.878 E32.63882
G1 X185.03 Y77.845 E32.684
G1 X185.022 Y131.334 E35.17467
G1 X184.982 Y132.016 E35.20649
G1 X184.862 Y132.689 E35.23832
G1 X184.691 Y133.27 E35.26652
G1 X183.461 Y136.768 E35.43918
G1 X181.877 Y141.902 E35.68936
G1 X180.585 Y147.119 E35.93962
G1 X180.062 Y149.695 E36.06202
G1 X179.615 Y152.28 E36.18417
G1 X178.922 Y157.598 E36.43389
G1 X178.535 Y162.902 E36.68153
G1 X178.439 Y167.195 E36.88148
G1 X178.429 Y177.946 E37.38209
G1 X178.388 Y178.628 E37.4139
G1 X178.268 Y179.301 E37.44574
G1 X178.071 Y179.955 E37.47754
G1 X177.798 Y180.581 E37.50934
G1 X177.454 Y181.172 E37.54118
G1 X177.043 Y181.718 E37.573
G1 X176.572 Y182.212 E37.60479
G1 X176.046 Y182.648 E37.6366
G1 X175.472 Y183.02 E37.66845
G1 X174.859 Y183.322 E37.70027
G1 X174.215 Y183.55 E37.73208
G1 X173.549 Y183.702 E37.76389
G1 X172.596 Y183.781 E37.80842
G1 X90.887 Y183.88 E41.61313
G1 X90.756 Y183.879 E41.61923
G1 X86.562 Y183.79 E41.81457
G1 X28.509 Y183.78 E44.51776
G1 X27.827 Y183.74 E44.54957
G1 X27.154 Y183.62 E44.5814
G1 X26.5 Y183.423 E44.61321
G1 X25.873 Y183.151 E44.64503
G1 X25.283 Y182.807 E44.67683
G1 X24.737 Y182.397 E44.70863
G1 X24.242 Y181.926 E44.74044
G1 X23.805 Y181.4 E44.77229
G1 X23.434 Y180.827 E44.80407
G1 X23.131 Y180.214 E44.83591
G1 X22.902 Y179.571 E44.86769
G1 X22.75 Y178.905 E44.8995
G1 X22.67 Y177.924 E44.94534
G1 X22.718 Y160.338 E45.76422
G1 X22.661 Y140.774 E46.6752
G1 X22.673 Y140.383 E46.69342
G1 X22.733 Y139.447 E46.73709
G1 X22.819 Y138.754 E46.76961
G1 X23.822 Y133.355 E47.02531
G1 X24.499 Y128.062 E47.27378
G1 X24.875 Y122.755 E47.52152
G1 X24.961 Y118.693 E47.7107
G1 X24.97 Y77.843 E49.61285
G1 X25.01 Y77.161 E49.64466
G1 X25.13 Y76.488 E49.67649
G1 X25.327 Y75.834 E49.7083
G1 X25.599 Y75.207 E49.74012
G1 X25.943 Y74.617 E49.77192
G1 X26.353 Y74.07 E49.80375
G1 X26.824 Y73.576 E49.83554
G1 X27.35 Y73.139 E49.86738
G1 X27.923 Y72.767 E49.89919
G1 X28.536 Y72.465 E49.93101
G1 X29.18 Y72.236 E49.96284
M204 S3000
M205 X10 Y10
G0 F3000 X29.052 Y72.865
M204 S1800
M205 X8 Y8
G1 F2400 X29.677 Y72.687 E49.9931
G1 X30.318 Y72.587 E50.02331
G1 X30.814 Y72.564 E50.04643
G1 X45.818 Y72.575 E50.74508
G1 X46.466 Y72.615 E50.77531
G1 X47.105 Y72.735 E50.80558
G1 X47.724 Y72.932 E50.83583
G1 X48.358 Y73.228 E50.86841
G1 X50.026 Y74.145 E50.95704
G1 X54.841 Y76.568 E51.20804
G1 X59.745 Y78.7 E51.45703
G1 X64.783 Y80.557 E51.70705
G1 X69.908 Y82.122 E51.95657
G1 X75.192 Y83.416 E52.20989
G1 X77.692 Y83.914 E52.32859
G1 X83.052 Y84.752 E52.5812
G1 X88.387 Y85.279 E52.83083
G1 X91.032 Y85.428 E52.95419
G1 X95.074 Y85.513 E53.14244
G1 X117.653 Y85.473 E54.19382
G1 X123.03 Y85.169 E54.44459
G1 X128.335 Y84.566 E54.69321
G1 X133.627 Y83.659 E54.94322
G1 X138.849 Y82.457 E55.19273
G1 X141.39 Y81.759 E55.31544
G1 X146.52 Y80.109 E55.56636
G1 X151.517 Y78.184 E55.81571
G1 X156.404 Y75.976 E56.06542
G1 X161.747 Y73.171 E56.34641
G1 X162.339 Y72.905 E56.37663
G1 X162.96 Y72.714 E56.40689
G1 X163.6 Y72.6 E56.43716
G1 X164.2 Y72.566 E56.46514
G1 X179.189 Y72.564 E57.16309
G1 X179.838 Y72.604 E57.19337
G1 X180.476 Y72.723 E57.22359
G1 X181.095 Y72.92 E57.25384
G1 X181.686 Y73.191 E57.28411
G1 X182.238 Y73.533 E57.31435
G1 X182.745 Y73.94 E57.34462
G1 X183.197 Y74.406 E57.37485
G1 X183.589 Y74.924 E57.4051
G1 X183.914 Y75.486 E57.43533
G1 X184.168 Y76.084 E57.46558
G1 X184.347 Y76.709 E57.49586
G1 X184.447 Y77.351 E57.52611
G1 X184.47 Y77.845 E57.54914
G1 X184.462 Y131.334 E60.03981
G1 X184.422 Y131.982 E60.07004
G1 X184.303 Y132.621 E60.10031
G1 X184.163 Y133.085 E60.12287
G1 X182.926 Y136.602 E60.29648
G1 X181.335 Y141.758 E60.54773
G1 X180.039 Y146.992 E60.79881
G1 X179.511 Y149.591 E60.9223
G1 X179.063 Y152.185 E61.04488
G1 X178.366 Y157.538 E61.29624
G1 X177.975 Y162.889 E61.54607
G1 X177.879 Y167.181 E61.74597
G1 X177.869 Y177.946 E62.24723
G1 X177.828 Y178.594 E62.27747
G1 X177.709 Y179.233 E62.30773
G1 X177.511 Y179.852 E62.338
G1 X177.239 Y180.442 E62.36825
G1 X176.897 Y180.994 E62.39849
G1 X176.49 Y181.5 E62.42872
G1 X176.023 Y181.952 E62.45899
G1 X175.505 Y182.343 E62.48921
G1 X174.942 Y182.668 E62.51948
G1 X174.344 Y182.921 E62.54971
G1 X173.719 Y183.099 E62.57997
G1 X173.077 Y183.198 E62.61022
G1 X172.595 Y183.221 E62.63269
G1 X90.886 Y183.32 E66.4374
G1 X90.768 Y183.319 E66.4429
G1 X86.574 Y183.23 E66.63823
G1 X28.509 Y183.22 E69.34198
G1 X27.861 Y183.18 E69.37221
G1 X27.222 Y183.061 E69.40248
G1 X26.603 Y182.864 E69.43273
G1 X26.013 Y182.592 E69.46298
G1 X25.461 Y182.25 E69.49322
G1 X24.954 Y181.843 E69.52349
G1 X24.502 Y181.377 E69.55372
G1 X24.11 Y180.859 E69.58397
G1 X23.785 Y180.296 E69.61424
G1 X23.531 Y179.698 E69.64449
G1 X23.353 Y179.074 E69.67471
G1 X23.253 Y178.432 E69.70496
G1 X23.23 Y177.926 E69.72855
G1 X23.278 Y160.34 E70.54743
G1 X23.221 Y140.772 E71.4586
G1 X23.232 Y140.419 E71.47504
G1 X23.292 Y139.483 E71.51872
G1 X23.37 Y138.857 E71.54809
G1 X24.376 Y133.442 E71.80455
G1 X25.055 Y128.136 E72.05364
G1 X25.435 Y122.767 E72.30426
G1 X25.521 Y118.705 E72.49345
G1 X25.53 Y77.843 E74.39616
G1 X25.57 Y77.194 E74.42643
G1 X25.69 Y76.556 E74.45666
G1 X25.886 Y75.937 E74.4869
G1 X26.158 Y75.347 E74.51715
G1 X26.5 Y74.794 E74.54743
G1 X26.907 Y74.288 E74.57766
G1 X27.373 Y73.836 E74.60789
G1 X27.891 Y73.444 E74.63814
G1 X28.454 Y73.119 E74.66841
G1 X29.052 Y72.865 E74.69866
M204 S3000
M205 X10 Y10
G1 F2400 E68.69866
;MESH:LED_Marque_Base.stl
G0 F3000 X31.654 Y77.169
G0 X31.654 Y78.688
G0 X45.635 Y85.97
M204 S1800
M205 X8 Y8
;TYPE:WALL-INNER
G1 F2400 E74.69866
G1 F1500 X46.572 Y87.496 E74.78205
G1 X47.734 Y88.857 E74.86538
G1 X49.095 Y90.018 E74.94868
G1 X50.62 Y90.953 E75.03197
G1 X52.273 Y91.639 E75.11531
G1 X54.014 Y92.057 E75.19868
G1 X55.743 Y92.193 E75.27944
G1 X154.257 Y92.193 E79.86666
G1 X155.986 Y92.057 E79.94742
G1 X157.727 Y91.639 E80.03079
G1 X159.38 Y90.953 E80.11413
G1 X160.905 Y90.018 E80.19742
G1 X162.266 Y88.857 E80.28072
G1 X163.428 Y87.496 E80.36405
G1 X164.365 Y85.97 E80.44743
G1 X165.048 Y84.316 E80.53076
G1 X165.466 Y82.577 E80.61404
G1 X165.602 Y80.847 E80.69485
G1 X165.602 Y79.235 E80.76991
G1 X177.52 Y79.234 E81.32486
G1 X177.8 Y79.234 E81.3379
G1 X177.8 Y79.514 E81.34634
G1 X177.796 Y130.791 E83.73401
G1 X32.201 Y130.791 E90.51352
G1 X32.2 Y79.514 E92.90119
G1 X32.2 Y79.234 E92.91423
G1 X32.48 Y79.234 E92.92267
G1 X44.397 Y79.235 E93.47758
G1 X44.397 Y80.847 E93.55264
G1 X44.534 Y82.577 E93.63345
G1 X44.952 Y84.316 E93.71673
G1 X45.635 Y85.97 E93.80005
M204 S3000
M205 X10 Y10
G0 F3000 X46.136 Y85.715
M204 S1800
M205 X8 Y8
G1 F1500 X47.026 Y87.166 E93.87932
G1 X48.131 Y88.46 E93.95855
G1 X49.425 Y89.564 E94.03775
G1 X50.875 Y90.453 E94.11695
G1 X52.447 Y91.105 E94.1962
G1 X54.102 Y91.502 E94.27545
G1 X55.765 Y91.633 E94.35312
G1 X154.235 Y91.633 E98.9383
G1 X155.898 Y91.502 E99.01597
G1 X157.553 Y91.105 E99.09522
G1 X159.125 Y90.453 E99.17447
G1 X160.575 Y89.564 E99.25367
G1 X161.869 Y88.46 E99.33287
G1 X162.974 Y87.166 E99.4121
G1 X163.864 Y85.715 E99.49137
G1 X164.514 Y84.143 E99.57058
G1 X164.911 Y82.489 E99.64978
G1 X165.042 Y80.825 E99.7275
G1 X165.042 Y78.675 E99.82762
G1 X178.08 Y78.674 E100.43472
G1 X178.36 Y78.674 E100.44776
G1 X178.36 Y78.954 E100.4562
G1 X178.356 Y131.231 E102.89043
G1 X178.333 Y131.294 E102.89356
G1 X178.298 Y131.333 E102.896
G1 X178.268 Y131.351 E102.89763
G1 X31.735 Y131.351 E109.72082
G1 X31.7 Y131.332 E109.72267
G1 X31.667 Y131.297 E109.72491
G1 X31.647 Y131.253 E109.72716
G1 X31.641 Y131.217 E109.72886
G1 X31.64 Y78.954 E112.16244
G1 X31.64 Y78.674 E112.17548
G1 X31.92 Y78.674 E112.18392
G1 X44.957 Y78.675 E112.79098
G1 X44.957 Y80.825 E112.89109
G1 X45.089 Y82.489 E112.96882
G1 X45.486 Y84.143 E113.04802
G1 X46.136 Y85.715 E113.12723
M204 S3000
M205 X10 Y10
G0 F3000 X46.047 Y85.76
G0 X46.994 Y87.189
G0 X48.103 Y88.488
G0 X49.402 Y89.596
G0 X50.58 Y90.317
G0 X52.369 Y91.18
G0 X52.621 Y90.571
M204 S1800
M205 X8 Y8
;TYPE:WALL-OUTER
G1 F1500 X54.19 Y90.947 E113.20236
G1 X55.787 Y91.073 E113.27695
G1 X154.213 Y91.073 E117.86008
G1 X155.81 Y90.947 E117.93468
G1 X157.379 Y90.571 E118.0098
G1 X158.87 Y89.953 E118.08496
G1 X160.245 Y89.11 E118.16006
G1 X161.472 Y88.063 E118.23517
G1 X162.52 Y86.836 E118.3103
G1 X163.363 Y85.46 E118.38545
G1 X163.98 Y83.97 E118.46054
G1 X164.356 Y82.401 E118.53567
G1 X164.482 Y80.803 E118.61031
G1 X164.482 Y78.115 E118.73547
G1 X178.64 Y78.114 E119.39473
G1 X178.92 Y78.114 E119.40777
G1 X178.92 Y78.394 E119.41621
G1 X178.92 Y131.163 E121.87335
G1 X178.913 Y131.309 E121.88016
G1 X178.885 Y131.432 E121.88603
G1 X178.818 Y131.58 E121.8936
G1 X178.741 Y131.685 E121.89966
G1 X178.644 Y131.776 E121.90585
G1 X178.54 Y131.844 E121.91164
G1 X178.425 Y131.893 E121.91746
G1 X178.357 Y131.911 E121.92073
G1 X31.644 Y131.911 E128.75231
G1 X31.58 Y131.894 E128.75539
G1 X31.455 Y131.84 E128.76173
G1 X31.367 Y131.784 E128.76659
G1 X31.307 Y131.734 E128.77022
G1 X31.221 Y131.639 E128.77619
G1 X31.172 Y131.563 E128.7804
G1 X31.122 Y131.452 E128.78607
G1 X31.097 Y131.367 E128.7902
G1 X31.081 Y131.257 E128.79537
G1 X31.08 Y78.394 E131.25689
G1 X31.08 Y78.114 E131.26993
G1 X31.36 Y78.114 E131.27837
G1 X45.517 Y78.115 E131.93758
G1 X45.517 Y80.803 E132.06275
G1 X45.644 Y82.401 E132.13739
G1 X46.02 Y83.97 E132.21252
G1 X46.637 Y85.46 E132.28761
G1 X47.48 Y86.836 E132.36275
G1 X48.528 Y88.063 E132.43789
G1 X49.755 Y89.11 E132.513
G1 X51.13 Y89.953 E132.5881
G1 X52.621 Y90.571 E132.66325
M204 S3000
M205 X10 Y10
G0 F3000 X52.815 Y90.617
G0 X52.661 Y91.258
G0 X52.102 Y92.164
M204 S1800
M205 X8 Y8
;TYPE:SKIN
G1 F1500 X53.928 Y92.601 E132.75068
G1 X55.721 Y92.743 E132.83443
G1 X154.279 Y92.743 E137.42371
G1 X156.072 Y92.601 E137.50746
G1 X157.898 Y92.164 E137.59488
G1 X159.631 Y91.444 E137.68227
G1 X161.229 Y90.464 E137.76955
G1 X162.656 Y89.248 E137.85685
G1 X163.874 Y87.82 E137.94425
G1 X164.856 Y86.22 E138.03167
G1 X165.573 Y84.487 E138.119
G1 X166.01 Y82.663 E138.20633
G1 X166.152 Y80.869 E138.29013
G1 X166.152 Y79.785 E138.3406
G1 X177.25 Y79.784 E138.85737
G1 X177.246 Y130.241 E141.20686
G1 X32.751 Y130.241 E147.93516
G1 X32.75 Y79.784 E150.28465
G1 X43.847 Y79.785 E150.80137
