;FLAVOR:Marlin
;TIME:8080
;Filament used: 13.5711m
;Layer height: 0.3
;Generated with Cura_SteamEngine 3.6.0
M140 S60
M105
M190 S60
M104 S185
M105
M109 S185
M82 ;absolute extrusion mode
G21 ;metric values
G90 ;absolute positioning
M82 ;set extruder to absolute mode
M107 ;start with the fan off
G28 X0 Y0 ;move X/Y to min endstops
G28 Z0 ;move Z to min endstops
G1 Z15.0 F100 ;move the platform down 15mm
G92 E0 ;zero the extruded length
G1 F200 E3 ;extrude 3mm of feed stock
G92 E0 ;zero the extruded length again
G1 F100
M117 Printing...
G5
G92 E0
G1 F2400 E-6
;LAYER_COUNT:385
;LAYER:0
M106 S255
M204 S3000
M205 X10 Y10
G0 F3000 X62.258 Y43.972 Z0.2
M204 S1800
M205 X8 Y8
;TYPE:SKIRT
G1 F2400 E0
G1 X76.346 Y23.708 E1.1492
G1 X82.418 Y14.744 E1.65335
G1 X82.852 Y14.175 E1.68667
G1 X83.346 Y13.658 E1.71997
G1 X83.895 Y13.199 E1.75329
G1 X84.492 Y12.805 E1.7866
G1 X85.454 Y12.347 E1.83621
G1 X89.797 Y10.705 E2.05241
G1 X90.797 Y10.417 E2.10087
G1 X106.699 Y7.216 E2.85618
G1 X107.407 Y7.114 E2.88949
G1 X108.122 Y7.092 E2.9228
G1 X108.876 Y7.156 E2.95804
G1 X113.279 Y7.791 E3.16518
G1 X113.98 Y7.932 E3.19847
G1 X114.661 Y8.151 E3.23178
G1 X115.461 Y8.524 E3.27289
G1 X126.196 Y14.458 E3.84404
G1 X126.802 Y14.838 E3.87734
G1 X127.597 Y15.505 E3.92567
G1 X130.386 Y18.259 E4.10818
G1 X130.455 Y18.328 E4.11272
G1 X130.901 Y18.782 E4.14236
G1 X131.472 Y19.449 E4.18324
G1 X142.316 Y34.039 E5.02971
G1 X142.71 Y34.636 E5.06302
G1 X143.004 Y35.207 E5.09292
G1 X146.42 Y42.715 E5.47701
G1 X146.564 Y43.057 E5.49429
G1 X152.131 Y57.457 E6.21318
G1 X152.352 Y58.138 E6.24652
G1 X152.51 Y58.947 E6.2849
G1 X153.548 Y67.005 E6.66321
G1 X153.599 Y67.719 E6.69655
G1 X153.577 Y68.36 E6.72641
G1 X153.112 Y73.873 E6.98403
G1 X152.968 Y79.185 E7.23147
G1 X153.123 Y84.473 E7.47781
G1 X153.574 Y89.716 E7.72284
G1 X154.494 Y95.913 E8.01457
G1 X154.722 Y97.196 E8.07524
G1 X154.817 Y98.095 E8.11734
G1 X155.349 Y113.474 E8.83388
G1 X155.323 Y114.313 E8.87296
G1 X154.45 Y123.317 E9.29419
G1 X154.288 Y124.253 E9.33842
G1 X150.319 Y140.107 E10.09944
G1 X150.107 Y140.79 E10.13274
G1 X149.82 Y141.445 E10.16603
G1 X149.558 Y141.914 E10.19105
G1 X146.54 Y146.805 E10.45866
G1 X146.129 Y147.394 E10.49211
G1 X140.396 Y154.704 E10.92469
G1 X139.924 Y155.241 E10.95798
G1 X139.395 Y155.722 E10.99127
G1 X138.815 Y156.141 E11.02459
G1 X138.284 Y156.447 E11.05312
G1 X124.209 Y163.677 E11.78993
G1 X123.722 Y163.902 E11.81491
G1 X117.889 Y166.304 E12.10864
G1 X117.213 Y166.539 E12.14197
G1 X116.516 Y166.697 E12.17525
G1 X115.805 Y166.776 E12.20856
G1 X114.935 Y166.765 E12.24907
G1 X97.614 Y165.362 E13.05825
G1 X88.144 Y164.886 E13.49977
G1 X87.432 Y164.81 E13.53311
G1 X86.734 Y164.655 E13.56641
G1 X86.057 Y164.424 E13.59972
G1 X85.577 Y164.205 E13.62428
G1 X80.987 Y161.884 E13.86378
G1 X80.536 Y161.633 E13.88782
G1 X79.29 Y160.871 E13.95583
G1 X78.932 Y160.635 E13.97579
G1 X68.614 Y153.334 E14.56436
G1 X68.054 Y152.889 E14.59766
G1 X67.759 Y152.609 E14.6166
G1 X64.997 Y149.814 E14.79957
G1 X64.523 Y149.277 E14.83293
G1 X64.112 Y148.692 E14.86622
G1 X63.732 Y147.983 E14.90367
G1 X58.1 Y135.704 E15.53271
G1 X57.838 Y135.038 E15.56603
G1 X57.654 Y134.355 E15.59897
G1 X55.494 Y124.098 E16.08706
G1 X55.386 Y123.391 E16.12036
G1 X55.361 Y122.997 E16.13874
G1 X55.07 Y114.455 E16.53672
G1 X55.067 Y114.127 E16.552
G1 X55.354 Y97.371 E17.33234
G1 X55.406 Y96.658 E17.36563
G1 X55.463 Y96.3 E17.38251
G1 X55.91 Y93.918 E17.49536
G1 X56.676 Y88.631 E17.74412
G1 X57.14 Y83.343 E17.9913
G1 X57.303 Y78.061 E18.23736
G1 X57.167 Y72.77 E18.48382
G1 X56.673 Y66.846 E18.76062
G1 X56.654 Y66.107 E18.79504
G1 X56.88 Y59.111 E19.12098
G1 X56.943 Y58.399 E19.15426
G1 X57.085 Y57.698 E19.18756
G1 X57.26 Y57.138 E19.21488
G1 X61.496 Y45.445 E19.79399
G1 X61.777 Y44.787 E19.8273
G1 X62.258 Y43.972 E19.87137
M204 S3000
M205 X10 Y10
G0 F3000 X62.718 Y44.291
M204 S1800
M205 X8 Y8
G1 F2400 X76.831 Y23.991 E21.02261
G1 X82.882 Y15.058 E21.52502
G1 X83.297 Y14.515 E21.55684
G1 X83.774 Y14.025 E21.58868
G1 X84.304 Y13.594 E21.62049
G1 X84.88 Y13.228 E21.65227
G1 X85.652 Y12.87 E21.69189
G1 X89.995 Y11.228 E21.90809
G1 X90.908 Y10.966 E21.95232
G1 X106.81 Y7.765 E22.70764
G1 X107.486 Y7.669 E22.73943
G1 X108.169 Y7.654 E22.77124
G1 X108.796 Y7.71 E22.80055
G1 X113.199 Y8.345 E23.0077
G1 X113.868 Y8.482 E23.03949
G1 X114.517 Y8.696 E23.07132
G1 X115.19 Y9.014 E23.10598
G1 X125.925 Y14.948 E23.67713
G1 X126.503 Y15.313 E23.70896
G1 X127.203 Y15.904 E23.75162
G1 X129.992 Y18.658 E23.93413
G1 X130.055 Y18.72 E23.93824
G1 X130.501 Y19.174 E23.96788
G1 X131.022 Y19.783 E24.0052
G1 X141.866 Y34.373 E24.85167
G1 X142.241 Y34.945 E24.88352
G1 X142.495 Y35.438 E24.90934
G1 X145.911 Y42.946 E25.29343
G1 X146.042 Y43.259 E25.30923
G1 X151.609 Y57.659 E26.02812
G1 X151.818 Y58.31 E26.05995
G1 X151.954 Y59.019 E26.09357
G1 X152.992 Y67.077 E26.47188
G1 X153.04 Y67.758 E26.50367
G1 X153.019 Y68.313 E26.52953
G1 X152.553 Y73.846 E26.78809
G1 X152.407 Y79.185 E27.03679
G1 X152.563 Y84.502 E27.28447
G1 X153.017 Y89.781 E27.53119
G1 X153.939 Y95.99 E27.82348
G1 X154.171 Y97.294 E27.88515
G1 X154.258 Y98.114 E27.92355
G1 X154.79 Y113.493 E28.64009
G1 X154.766 Y114.259 E28.67578
G1 X153.893 Y123.263 E29.09701
G1 X153.745 Y124.117 E29.13736
G1 X149.776 Y139.971 E29.89837
G1 X149.572 Y140.623 E29.93019
G1 X149.293 Y141.247 E29.96201
G1 X149.081 Y141.62 E29.98199
G1 X146.063 Y146.511 E30.24961
G1 X145.688 Y147.048 E30.2801
G1 X139.955 Y154.358 E30.71268
G1 X139.503 Y154.87 E30.74449
G1 X138.994 Y155.326 E30.77631
G1 X138.435 Y155.719 E30.80812
G1 X138.028 Y155.949 E30.82989
G1 X123.953 Y163.179 E31.56669
G1 X123.509 Y163.384 E31.58947
G1 X117.676 Y165.786 E31.8832
G1 X117.03 Y166.009 E31.91503
G1 X116.362 Y166.155 E31.94686
G1 X115.682 Y166.221 E31.97868
G1 X114.981 Y166.207 E32.01133
G1 X97.657 Y164.804 E32.82064
G1 X88.172 Y164.327 E33.26286
G1 X87.492 Y164.252 E33.29472
G1 X86.827 Y164.099 E33.32649
G1 X86.183 Y163.87 E33.35832
G1 X85.83 Y163.706 E33.37644
G1 X81.24 Y161.385 E33.61595
G1 X80.828 Y161.155 E33.63792
G1 X79.582 Y160.393 E33.70593
G1 X79.256 Y160.178 E33.72411
G1 X68.938 Y152.877 E34.31267
G1 X68.157 Y152.215 E34.36035
G1 X65.395 Y149.42 E34.54332
G1 X64.944 Y148.907 E34.57513
G1 X64.556 Y148.344 E34.60696
G1 X64.241 Y147.75 E34.63827
G1 X58.609 Y135.471 E35.26731
G1 X58.361 Y134.834 E35.29914
G1 X58.202 Y134.239 E35.32782
G1 X56.042 Y123.982 E35.8159
G1 X55.92 Y122.978 E35.86299
G1 X55.629 Y114.436 E36.26098
G1 X55.627 Y114.137 E36.2749
G1 X55.914 Y97.381 E37.05524
G1 X56.013 Y96.403 E37.10102
G1 X56.464 Y94.002 E37.21477
G1 X57.233 Y88.691 E37.46465
G1 X57.699 Y83.374 E37.71318
G1 X57.864 Y78.064 E37.96056
G1 X57.726 Y72.743 E38.20841
G1 X57.231 Y66.799 E38.48615
G1 X57.214 Y66.125 E38.51754
G1 X57.44 Y59.129 E38.84347
G1 X57.502 Y58.449 E38.87527
G1 X57.643 Y57.781 E38.90706
G1 X57.786 Y57.329 E38.92913
G1 X62.022 Y45.636 E39.50824
G1 X62.292 Y45.008 E39.54007
G1 X62.718 Y44.291 E39.5789
M204 S3000
M205 X10 Y10
G0 F3000 X63.178 Y44.611
M204 S1800
M205 X8 Y8
G1 F2400 X77.291 Y24.311 E40.73014
G1 X83.346 Y15.372 E41.23288
G1 X83.742 Y14.857 E41.26313
G1 X84.199 Y14.396 E41.29336
G1 X84.709 Y13.993 E41.32363
G1 X85.265 Y13.657 E41.35388
G1 X85.85 Y13.394 E41.38374
G1 X90.193 Y11.752 E41.59994
G1 X91.018 Y11.515 E41.63991
G1 X106.92 Y8.314 E42.39523
G1 X107.564 Y8.225 E42.4255
G1 X108.213 Y8.216 E42.45572
G1 X108.716 Y8.264 E42.47925
G1 X113.119 Y8.899 E42.6864
G1 X113.755 Y9.031 E42.71664
G1 X114.37 Y9.24 E42.74689
G1 X114.919 Y9.504 E42.77525
G1 X125.654 Y15.438 E43.34641
G1 X126.202 Y15.787 E43.37666
G1 X126.81 Y16.302 E43.41376
G1 X129.599 Y19.056 E43.59627
G1 X129.656 Y19.113 E43.60003
G1 X130.102 Y19.567 E43.62966
G1 X130.573 Y20.117 E43.66338
G1 X141.417 Y34.707 E44.50985
G1 X141.771 Y35.252 E44.54011
G1 X141.985 Y35.67 E44.56198
G1 X145.401 Y43.178 E44.94606
G1 X145.52 Y43.461 E44.96036
G1 X151.087 Y57.861 E45.67925
G1 X151.283 Y58.48 E45.70948
G1 X151.399 Y59.09 E45.73839
G1 X152.437 Y67.148 E46.11671
G1 X152.48 Y67.797 E46.14699
G1 X152.461 Y68.266 E46.16885
G1 X151.993 Y73.819 E46.42834
G1 X151.847 Y79.174 E46.67778
G1 X152.005 Y84.531 E46.92734
G1 X152.463 Y89.864 E47.17658
G1 X153.388 Y96.095 E47.4699
G1 X153.619 Y97.392 E47.53124
G1 X153.698 Y98.133 E47.56594
G1 X154.23 Y113.512 E48.28248
G1 X154.208 Y114.205 E48.31477
G1 X153.335 Y123.209 E48.736
G1 X153.202 Y123.981 E48.77247
G1 X149.233 Y139.835 E49.53348
G1 X149.037 Y140.455 E49.56376
G1 X148.604 Y141.326 E49.60905
G1 X145.586 Y146.217 E49.87667
G1 X145.248 Y146.702 E49.90419
G1 X139.515 Y154.012 E50.33677
G1 X139.083 Y154.498 E50.36705
G1 X138.595 Y154.927 E50.39731
G1 X138.058 Y155.292 E50.42754
G1 X137.773 Y155.451 E50.44274
G1 X123.698 Y162.681 E51.17954
G1 X123.295 Y162.866 E51.20019
G1 X117.462 Y165.268 E51.49392
G1 X116.848 Y165.478 E51.52414
G1 X116.212 Y165.611 E51.5544
G1 X115.564 Y165.665 E51.58467
G1 X115.026 Y165.649 E51.60974
G1 X97.665 Y164.243 E52.42078
G1 X88.2 Y163.767 E52.86207
G1 X87.554 Y163.695 E52.89234
G1 X86.922 Y163.544 E52.9226
G1 X86.082 Y163.206 E52.96476
G1 X81.492 Y160.885 E53.20426
G1 X81.12 Y160.677 E53.2241
G1 X79.874 Y159.915 E53.29211
G1 X79.579 Y159.721 E53.30855
G1 X69.261 Y152.42 E53.89712
G1 X68.555 Y151.821 E53.94023
G1 X65.793 Y149.026 E54.1232
G1 X65.366 Y148.537 E54.15343
G1 X65.002 Y147.999 E54.18368
G1 X64.75 Y147.516 E54.20904
G1 X59.118 Y135.237 E54.83808
G1 X58.884 Y134.631 E54.86833
G1 X58.75 Y134.124 E54.89275
G1 X56.59 Y123.867 E55.38083
G1 X56.48 Y122.959 E55.42342
G1 X56.189 Y114.417 E55.8214
G1 X56.187 Y114.147 E55.83398
G1 X56.474 Y97.391 E56.61432
G1 X56.564 Y96.507 E56.6557
G1 X57.017 Y94.094 E56.77002
G1 X57.789 Y88.766 E57.0207
G1 X58.259 Y83.405 E57.27129
G1 X58.424 Y78.067 E57.51997
G1 X58.286 Y72.718 E57.76912
G1 X57.789 Y66.753 E58.04784
G1 X57.774 Y66.144 E58.07621
G1 X58 Y59.148 E58.40214
G1 X58.061 Y58.501 E58.4324
G1 X58.2 Y57.866 E58.46267
G1 X58.313 Y57.52 E58.47962
G1 X62.549 Y45.827 E59.05872
G1 X62.807 Y45.231 E59.08896
G1 X63.178 Y44.611 E59.12261
M204 S3000
M205 X10 Y10
G1 F2400 E53.12261
;MESH:Skull2.stl
G0 F3000 X66.986 Y47.194
G0 X67.778 Y47.743
G0 X70.152 Y75.199
G0 X70.069 Y75.254
M204 S1800
M205 X8 Y8
;TYPE:WALL-OUTER
G1 F2400 E59.12261
G1 F1500 X69.726 Y75.222 E59.13865
G1 X67.633 Y75.024 E59.23654
G1 X63.318 Y66.206 E59.69367
G1 X63.547 Y59.358 E60.01272
G1 X67.761 Y47.734 E60.58845
G1 X82.25 Y26.917 E61.76945
G1 X87.891 Y18.556 E62.2391
G1 X92.167 Y16.941 E62.45194
G1 X107.976 Y13.763 E63.2028
G1 X112.256 Y14.375 E63.40412
G1 X122.939 Y20.278 E63.97245
G1 X126.174 Y23.49 E64.18473
G1 X136.972 Y38.032 E65.02813
G1 X140.043 Y44.715 E65.3706
G1 X145.898 Y59.829 E66.12533
G1 X146.922 Y67.781 E66.49867
G1 X141.316 Y80.102 E67.12898
G1 X144.2 Y88.591 E67.54645
G1 X147.472 Y94.826 E67.87433
G1 X148.152 Y98.346 E68.04126
G1 X148.682 Y113.686 E68.75599
G1 X147.808 Y122.7 E69.17768
G1 X143.86 Y138.447 E69.93362
G1 X140.876 Y143.284 E70.19827
G1 X135.175 Y150.553 E70.62842
G1 X121.224 Y157.715 E71.35864
G1 X115.409 Y160.111 E71.6515
G1 X96.017 Y158.529 E72.55747
G1 X88.525 Y158.227 E72.90661
G1 X83.425 Y155.63 E73.17311
G1 X72.444 Y147.872 E73.79916
G1 X69.761 Y145.144 E73.97733
G1 X64.175 Y132.956 E74.60162
G1 X62.024 Y122.737 E75.08789
G1 X61.736 Y114.86 E75.45492
G1 X62.022 Y97.546 E76.26124
G1 X65.522 Y89.808 E76.6567
G1 X69.967 Y75.583 E77.35066
G1 X70.069 Y75.254 E77.36046
M204 S3000
M205 X10 Y10
G0 F3000 X69.87 Y75.236
G0 X70.796 Y74.771
M204 S1800
M205 X8 Y8
;TYPE:SKIN
G1 F1500 X67.993 Y74.505 E77.49157
G1 X63.872 Y66.086 E77.92804
G1 X64.095 Y59.462 E78.23665
G1 X68.253 Y47.991 E78.8048
G1 X82.704 Y27.228 E79.98273
G1 X88.249 Y19.009 E80.44439
G1 X92.317 Y17.473 E80.64687
G1 X107.995 Y14.321 E81.39151
G1 X112.078 Y14.905 E81.58357
G1 X122.605 Y20.721 E82.14359
G1 X125.756 Y23.85 E82.35036
G1 X136.498 Y38.318 E83.18944
G1 X139.53 Y44.914 E83.52747
G1 X145.36 Y59.965 E84.27905
G1 X146.356 Y67.696 E84.64201
G1 X140.725 Y80.073 E85.27518
G1 X143.693 Y88.809 E85.7048
G1 X146.947 Y95.009 E86.03084
G1 X147.604 Y98.406 E86.19195
G1 X148.13 Y113.667 E86.90299
G1 X147.264 Y122.606 E87.32118
G1 X143.346 Y138.232 E88.07131
G1 X140.423 Y142.971 E88.33058
G1 X134.817 Y150.119 E88.75357
G1 X121.003 Y157.21 E89.47661
G1 X115.32 Y159.552 E89.76282
G1 X96.05 Y157.979 E90.6631
G1 X88.668 Y157.681 E91.00712
G1 X83.713 Y155.159 E91.26601
G1 X72.795 Y147.445 E91.88849
G1 X70.221 Y144.829 E92.05938
G1 X64.7 Y132.783 E92.6764
G1 X62.572 Y122.672 E93.15752
G1 X62.286 Y114.84 E93.52246
G1 X62.57 Y97.668 E94.32217
G1 X66.037 Y90.004 E94.71385
G1 X70.796 Y74.771 E95.45697
M204 S3000
M205 X10 Y10
G0 F3000 X75.106 Y148.758
M204 S1800
M205 X8 Y8
G1 F1500 X69.939 Y143.591 E95.79723
G1 X69.869 Y143.521
M204 S3000
M205 X10 Y10
G0 F3000 X69.269 Y142.129
M204 S1800
M205 X8 Y8
G1 F1500 X77.805 Y150.665 E96.35934
G1 X77.875 Y150.735
M204 S3000
M205 X10 Y10
G0 F3000 X80.504 Y152.572
M204 S1800
M205 X8 Y8
G1 F1500 X68.599 Y140.667 E97.1433
G1 X68.529 Y140.597
M204 S3000
M205 X10 Y10
G0 F3000 X67.929 Y139.205
M204 S1800
M205 X8 Y8
G1 F1500 X83.202 Y154.478 E98.14906
G1 X83.272 Y154.548
M204 S3000
M205 X10 Y10
G0 F3000 X85.074 Y155.559
M204 S1800
M205 X8 Y8
G1 F1500 X67.259 Y137.744 E99.3222
G1 X67.189 Y137.674
M204 S3000
M205 X10 Y10
G0 F3000 X66.589 Y136.282
M204 S1800
M205 X8 Y8
G1 F1500 X86.687 Y156.379 E100.64566
G1 X86.757 Y156.449
M204 S3000
M205 X10 Y10
G0 F3000 X88.299 Y157.2
M204 S1800
M205 X8 Y8
G1 F1500 X65.92 Y134.82 E102.11939
G1 X65.85 Y134.75
M204 S3000
M205 X10 Y10
G0 F3000 X65.25 Y133.358
M204 S1800
M205 X8 Y8
G1 F1500 X89.337 Y157.445 E103.70556
M204 S3000
M205 X10 Y10
G0 F3000 X90.162 Y157.479
M204 S1800
M205 X8 Y8
G1 F1500 X64.831 Y132.148 E105.37365
M204 S3000
M205 X10 Y10
G0 F3000 X64.62 Y131.144
M204 S1800
M205 X8 Y8
G1 F1500 X90.987 Y157.512 E107.10999
M204 S3000
M205 X10 Y10
G0 F3000 X91.812 Y157.545
M204 S1800
M205 X8 Y8
G1 F1500 X64.409 Y130.142 E108.91453
M204 S3000
M205 X10 Y10
G0 F3000 X64.198 Y129.138
M204 S1800
M205 X8 Y8
G1 F1500 X92.638 Y157.579 E110.78738
M204 S3000
M205 X10 Y10
G0 F3000 X93.463 Y157.612
M204 S1800
M205 X8 Y8
G1 F1500 X63.987 Y128.136 E112.72843
M204 S3000
M205 X10 Y10
G0 F3000 X63.776 Y127.132
M204 S1800
M205 X8 Y8
G1 F1500 X94.289 Y157.645 E114.73776
M204 S3000
M205 X10 Y10
G0 F3000 X95.114 Y157.679
M204 S1800
M205 X8 Y8
G1 F1500 X63.565 Y126.13 E116.81532
M204 S3000
M205 X10 Y10
G0 F3000 X63.353 Y125.126
M204 S1800
M205 X8 Y8
G1 F1500 X95.939 Y157.712 E118.96116
M204 S3000
M205 X10 Y10
G0 F3000 X96.796 Y157.777
M204 S1800
M205 X8 Y8
G1 F1500 X63.142 Y124.123 E121.17733
M204 S3000
M205 X10 Y10
G0 F3000 X62.931 Y123.12
M204 S1800
M205 X8 Y8
G1 F1500 X97.659 Y157.848 E123.46423
M204 S3000
M205 X10 Y10
G0 F3000 X98.521 Y157.918
M204 S1800
M205 X8 Y8
G1 F1500 X62.814 Y122.211 E125.8156
M204 S3000
M205 X10 Y10
G0 F3000 X62.784 Y121.389
M204 S1800
M205 X8 Y8
G1 F1500 X99.383 Y157.988 E128.2257
M204 S3000
M205 X10 Y10
G0 F3000 X100.245 Y158.058
M204 S1800
M205 X8 Y8
G1 F1500 X62.755 Y120.568 E130.69448
M204 S3000
M205 X10 Y10
G0 F3000 X62.724 Y119.745
M204 S1800
M205 X8 Y8
G1 F1500 X101.108 Y158.129 E133.22214
M204 S3000
M205 X10 Y10
G0 F3000 X101.97 Y158.199
M204 S1800
M205 X8 Y8
G1 F1500 X62.694 Y118.924 E135.8085
M204 S3000
M205 X10 Y10
G0 F3000 X62.664 Y118.101
M204 S1800
M205 X8 Y8
G1 F1500 X102.833 Y158.27 E138.45369
M204 S3000
M205 X10 Y10
G0 F3000 X103.695 Y158.34
M204 S1800
M205 X8 Y8
G1 F1500 X62.634 Y117.28 E141.1576
M204 S3000
