;FLAVOR:Marlin
;TIME:5651
;Filament used: 6.23406m
;Layer height: 0.2
;MINX:73.682
;MINY:82.104
;MINZ:0.2
;MAXX:136.318
;MAXY:123.364
;MAXZ:50
;Generated with Cura_SteamEngine 4.10.0
M140 S60
M105
M190 S60
M104 S200
M105
M109 S200
M82 ;absolute extrusion mode
G21 ;metric values
G90 ;absolute positioning
M82 ;set extruder to absolute mode
M107 ;start with the fan off
G28
G29
G92 E0 ;zero the extruded length
G1 F200 E3 ;extrude 3mm of feed stock
G92 E0 ;zero the extruded length again
G1 F100
G0 Y20 F100
M117 Printing...
G5
G92 E0
G92 E0
G1 F2400 E-6
;LAYER_COUNT:250
;LAYER:0
M107
M204 S3000
M205 X10 Y10
G1 F600 Z0.275
G0 F3000 X83.036 Y83.989 Z0.275
M204 S1800
M205 X8 Y8
;TYPE:SKIRT
G1 F600 Z0.2
G1 F2400 E0
G1 X83.569 Y83.512 E0.03331
G1 X84.152 Y83.098 E0.0666
G1 X84.778 Y82.751 E0.09993
G1 X85.438 Y82.476 E0.13322
G1 X86.125 Y82.277 E0.16653
G1 X86.83 Y82.156 E0.19984
G1 X87.345 Y82.118 E0.22388
G1 X88.04 Y82.104 E0.25625
G1 X92.843 Y82.104 E0.4799
G1 X93.633 Y82.115 E0.51669
G1 X94.164 Y82.144 E0.54145
G1 X95.36 Y82.262 E0.59741
G1 X95.658 Y82.296 E0.61138
G1 X98.28 Y82.523 E0.73392
G1 X100.916 Y82.677 E0.85688
G1 X103.561 Y82.756 E0.98009
G1 X106.202 Y82.76 E1.10307
G1 X108.884 Y82.688 E1.228
G1 X111.479 Y82.545 E1.34902
G1 X114.148 Y82.322 E1.47373
G1 X115.471 Y82.178 E1.5357
G1 X116.259 Y82.117 E1.5725
G1 X116.95 Y82.104 E1.60468
G1 X121.848 Y82.105 E1.83275
G1 X122.55 Y82.115 E1.86545
G1 X123.264 Y82.165 E1.89877
G1 X123.967 Y82.294 E1.93206
G1 X124.652 Y82.501 E1.96538
G1 X125.309 Y82.784 E1.99869
G1 X125.931 Y83.137 E2.03199
G1 X126.509 Y83.558 E2.06528
G1 X126.984 Y83.989 E2.09515
G1 X127.097 Y84.102 E2.10259
G1 X127.574 Y84.635 E2.1359
G1 X127.988 Y85.218 E2.16919
G1 X128.335 Y85.844 E2.20252
G1 X128.671 Y86.645 E2.24297
G1 X129.672 Y89.084 E2.36573
G1 X130.753 Y91.518 E2.48974
G1 X131.901 Y93.918 E2.61362
G1 X133.115 Y96.28 E2.73729
G1 X134.377 Y98.577 E2.85932
G1 X135.146 Y99.889 E2.93014
G1 X135.474 Y100.467 E2.96108
G1 X135.792 Y101.108 E2.9944
G1 X136.036 Y101.78 E3.02769
G1 X136.204 Y102.476 E3.06103
G1 X136.304 Y103.41 E3.10477
G1 X136.317 Y104.056 E3.13486
G1 X136.318 Y105.68 E3.21048
G1 X136.307 Y106.473 E3.24741
G1 X136.257 Y107.187 E3.28073
G1 X136.128 Y107.89 E3.31401
G1 X135.921 Y108.575 E3.34734
G1 X135.638 Y109.232 E3.38065
G1 X135.285 Y109.854 E3.41395
G1 X134.864 Y110.432 E3.44724
G1 X134.474 Y110.866 E3.47441
G1 X134.365 Y110.977 E3.48166
G1 X133.852 Y111.446 E3.51402
G1 X133.366 Y111.843 E3.54324
G1 X132.067 Y112.877 E3.62055
G1 X130.04 Y114.585 E3.74398
G1 X128.095 Y116.322 E3.86541
G1 X126.132 Y118.175 E3.9911
G1 X124.252 Y120.053 E4.11484
G1 X123.793 Y120.533 E4.14576
G1 X123.569 Y120.759 E4.16058
G1 X123.036 Y121.236 E4.19389
G1 X122.727 Y121.468 E4.21188
G1 X122.251 Y121.803 E4.23898
G1 X121.757 Y122.133 E4.26665
G1 X121.139 Y122.493 E4.29995
G1 X120.452 Y122.795 E4.33489
G1 X119.638 Y123.068 E4.37487
G1 X118.945 Y123.245 E4.40818
G1 X117.895 Y123.362 E4.45737
G1 X117.156 Y123.361 E4.49178
G1 X116.552 Y123.323 E4.51996
G1 X115.498 Y123.211 E4.56932
G1 X115.003 Y123.15 E4.59254
G1 X112.383 Y122.906 E4.71507
G1 X109.772 Y122.736 E4.8369
G1 X107.102 Y122.638 E4.96131
G1 X104.457 Y122.617 E5.08448
G1 X101.783 Y122.67 E5.20902
G1 X99.171 Y122.796 E5.33078
G1 X96.545 Y122.998 E5.45342
G1 X93.417 Y123.327 E5.59988
G1 X92.829 Y123.364 E5.62731
G1 X92.122 Y123.36 E5.66023
G1 X91.409 Y123.304 E5.69354
G1 X90.706 Y123.168 E5.72688
G1 X90.046 Y122.971 E5.75895
G1 X89.717 Y122.859 E5.77513
G1 X89.056 Y122.586 E5.80843
G1 X88.251 Y122.126 E5.85161
G1 X87.719 Y121.768 E5.88147
G1 X87.199 Y121.396 E5.91124
G1 X86.397 Y120.706 E5.9605
G1 X85.481 Y119.776 E6.02128
G1 X85.38 Y119.685 E6.02761
G1 X84.782 Y119.07 E6.06756
G1 X82.88 Y117.224 E6.19098
G1 X80.907 Y115.415 E6.31562
G1 X78.953 Y113.722 E6.43601
G1 X76.285 Y111.554 E6.59609
G1 X76.092 Y111.395 E6.60773
G1 X75.566 Y110.91 E6.64104
G1 X75.097 Y110.369 E6.67438
G1 X74.692 Y109.78 E6.70767
G1 X74.355 Y109.149 E6.74098
G1 X74.092 Y108.487 E6.77415
G1 X74.018 Y108.266 E6.785
G1 X73.829 Y107.576 E6.81831
G1 X73.719 Y106.87 E6.85158
G1 X73.687 Y106.312 E6.87761
G1 X73.682 Y105.903 E6.89666
G1 X73.683 Y104.237 E6.97423
G1 X73.693 Y103.533 E7.00702
G1 X73.743 Y102.82 E7.0403
G1 X73.872 Y102.116 E7.07362
G1 X74.079 Y101.432 E7.1069
G1 X74.361 Y100.774 E7.14024
G1 X74.549 Y100.426 E7.15865
G1 X75.289 Y99.143 E7.22762
G1 X75.458 Y98.856 E7.24313
G1 X76.738 Y96.551 E7.3659
G1 X77.966 Y94.182 E7.49015
G1 X79.121 Y91.791 E7.61379
G1 X80.198 Y89.39 E7.73633
G1 X81.184 Y87.024 E7.85568
G1 X81.488 Y86.265 E7.89375
G1 X81.791 Y85.617 E7.92706
G1 X82.164 Y85.007 E7.96035
G1 X82.603 Y84.442 E7.99367
G1 X83.036 Y83.989 E8.02285
M204 S3000
M205 X10 Y10
G0 F3000 X83.431 Y84.384
M204 S1800
M205 X8 Y8
G1 F2400 X83.942 Y83.93 E8.05468
G1 X84.502 Y83.539 E8.08648
G1 X85.104 Y83.216 E8.11829
G1 X85.74 Y82.965 E8.15013
G1 X86.4 Y82.791 E8.18191
G1 X87.364 Y82.677 E8.22712
G1 X88.047 Y82.664 E8.25892
G1 X92.843 Y82.664 E8.48225
G1 X93.625 Y82.675 E8.51866
G1 X94.109 Y82.702 E8.54124
G1 X95.296 Y82.819 E8.59677
G1 X95.58 Y82.852 E8.61009
G1 X98.234 Y83.082 E8.73413
G1 X100.902 Y83.237 E8.85858
G1 X103.545 Y83.316 E8.9817
G1 X106.216 Y83.32 E9.10607
G1 X108.894 Y83.248 E9.23082
G1 X111.522 Y83.104 E9.35337
G1 X114.216 Y82.878 E9.47926
G1 X115.522 Y82.735 E9.54043
G1 X116.277 Y82.677 E9.57569
G1 X116.957 Y82.664 E9.60736
G1 X121.84 Y82.665 E9.83473
G1 X122.542 Y82.675 E9.86742
G1 X123.224 Y82.724 E9.89926
G1 X123.895 Y82.853 E9.93108
G1 X124.546 Y83.06 E9.96289
G1 X125.169 Y83.341 E9.99471
G1 X125.754 Y83.693 E10.0265
G1 X126.295 Y84.11 E10.05831
G1 X126.702 Y84.497 E10.08446
G1 X127.156 Y85.008 E10.11629
G1 X127.547 Y85.568 E10.14809
G1 X128.001 Y86.476 E10.19536
G1 X128.123 Y86.785 E10.21083
G1 X129.161 Y89.313 E10.33808
G1 X130.25 Y91.765 E10.46301
G1 X131.384 Y94.136 E10.5854
G1 X132.626 Y96.554 E10.71197
G1 X133.89 Y98.852 E10.8341
G1 X134.659 Y100.166 E10.90499
G1 X134.987 Y100.744 E10.93593
G1 X135.289 Y101.357 E10.96775
G1 X135.517 Y102.001 E10.99956
G1 X135.669 Y102.667 E11.03137
G1 X135.745 Y103.429 E11.06703
G1 X135.757 Y104.064 E11.09661
G1 X135.758 Y105.68 E11.17185
G1 X135.747 Y106.465 E11.20841
G1 X135.698 Y107.147 E11.24025
G1 X135.569 Y107.818 E11.27207
G1 X135.362 Y108.469 E11.30387
G1 X135.081 Y109.092 E11.3357
G1 X134.729 Y109.677 E11.36749
G1 X134.312 Y110.218 E11.3993
G1 X133.966 Y110.585 E11.42278
G1 X133.497 Y111.013 E11.45235
G1 X133.017 Y111.405 E11.4812
G1 X131.733 Y112.426 E11.55759
G1 X129.648 Y114.184 E11.68458
G1 X127.716 Y115.909 E11.80518
G1 X125.747 Y117.767 E11.93124
G1 X123.87 Y119.643 E12.05482
G1 X123.298 Y120.24 E12.09331
G1 X123.174 Y120.364 E12.10148
G1 X122.405 Y121.01 E12.14825
G1 X121.929 Y121.345 E12.17535
G1 X121.449 Y121.665 E12.20221
G1 X120.857 Y122.008 E12.23407
G1 X120.257 Y122.269 E12.26454
G1 X119.469 Y122.534 E12.30325
G1 X118.807 Y122.701 E12.33504
G1 X117.879 Y122.803 E12.37851
G1 X117.169 Y122.802 E12.41157
G1 X116.611 Y122.766 E12.43761
G1 X115.566 Y122.655 E12.48654
G1 X115.088 Y122.597 E12.50896
G1 X112.436 Y122.349 E12.63299
G1 X109.759 Y122.174 E12.75791
G1 X107.127 Y122.078 E12.88055
G1 X104.451 Y122.057 E13.00516
G1 X101.78 Y122.11 E13.12955
G1 X99.136 Y122.238 E13.25281
G1 X96.478 Y122.441 E13.37694
G1 X93.358 Y122.77 E13.52303
G1 X92.807 Y122.804 E13.54873
G1 X92.135 Y122.8 E13.58003
G1 X91.454 Y122.745 E13.61184
G1 X90.509 Y122.53 E13.65697
G1 X89.901 Y122.33 E13.68677
G1 X89.27 Y122.068 E13.71858
G1 X88.564 Y121.661 E13.75653
G1 X88.032 Y121.303 E13.78639
G1 X87.528 Y120.942 E13.81526
G1 X86.796 Y120.313 E13.8602
G1 X86.015 Y119.52 E13.91202
G1 X85.782 Y119.295 E13.92711
G1 X85.178 Y118.674 E13.96744
G1 X83.253 Y116.805 E14.09238
G1 X81.311 Y115.024 E14.21508
G1 X79.311 Y113.292 E14.33827
G1 X76.641 Y111.121 E14.49851
G1 X76.448 Y110.962 E14.51015
G1 X75.947 Y110.498 E14.54195
G1 X75.503 Y109.978 E14.57379
G1 X75.124 Y109.41 E14.60559
G1 X74.813 Y108.801 E14.63743
G1 X74.623 Y108.309 E14.66199
G1 X74.549 Y108.088 E14.67284
G1 X74.371 Y107.429 E14.70462
G1 X74.27 Y106.753 E14.73645
G1 X74.242 Y105.896 E14.77638
G1 X74.243 Y104.245 E14.85325
G1 X74.253 Y103.541 E14.88604
G1 X74.302 Y102.86 E14.91783
G1 X74.431 Y102.189 E14.94965
G1 X74.638 Y101.537 E14.9815
G1 X75.034 Y100.705 E15.02441
G1 X75.771 Y99.427 E15.0931
G1 X75.946 Y99.13 E15.10915
G1 X77.253 Y96.775 E15.23457
G1 X78.467 Y94.434 E15.35736
G1 X79.616 Y92.056 E15.48034
G1 X80.712 Y89.614 E15.60498
G1 X81.682 Y87.286 E15.72241
G1 X82.007 Y86.474 E15.76314
G1 X82.298 Y85.855 E15.79499
G1 X82.66 Y85.275 E15.82682
G1 X83.298 Y84.517 E15.87296
G1 X83.431 Y84.384 E15.88171
M204 S3000
M205 X10 Y10
G0 F3000 X83.827 Y84.78
M204 S1800
M205 X8 Y8
G1 F2400 X84.314 Y84.35 E15.91197
G1 X84.85 Y83.983 E15.94221
G1 X85.427 Y83.684 E15.97247
G1 X86.036 Y83.459 E16.00271
G1 X86.669 Y83.31 E16.03299
G1 X87.383 Y83.237 E16.06641
G1 X88.053 Y83.224 E16.09761
G1 X92.843 Y83.224 E16.32065
G1 X93.617 Y83.235 E16.3567
G1 X94.055 Y83.259 E16.37712
G1 X95.231 Y83.375 E16.43215
G1 X95.537 Y83.41 E16.44649
G1 X98.188 Y83.64 E16.5704
G1 X100.852 Y83.795 E16.69465
G1 X103.562 Y83.876 E16.8209
G1 X106.23 Y83.88 E16.94513
G1 X108.905 Y83.808 E17.06974
G1 X111.564 Y83.662 E17.19374
G1 X114.284 Y83.434 E17.32083
G1 X115.573 Y83.293 E17.38121
G1 X116.294 Y83.237 E17.41489
G1 X116.963 Y83.224 E17.44605
G1 X121.832 Y83.225 E17.67277
G1 X122.534 Y83.235 E17.70546
G1 X123.182 Y83.284 E17.73572
G1 X123.819 Y83.412 E17.76597
G1 X124.435 Y83.618 E17.79622
G1 X125.021 Y83.897 E17.82644
G1 X125.569 Y84.247 E17.85672
G1 X126.193 Y84.78 E17.89493
G1 X126.306 Y84.893 E17.90237
G1 X126.736 Y85.38 E17.93262
G1 X127.103 Y85.916 E17.96287
G1 X127.481 Y86.682 E18.00264
G1 X127.63 Y87.058 E18.02148
G1 X128.645 Y89.532 E18.14599
G1 X129.741 Y91.998 E18.27165
G1 X130.882 Y94.383 E18.39476
G1 X132.124 Y96.802 E18.52138
G1 X133.418 Y99.155 E18.64642
G1 X134.172 Y100.442 E18.71588
G1 X134.5 Y101.02 E18.74682
G1 X134.785 Y101.604 E18.77708
G1 X134.997 Y102.218 E18.80733
G1 X135.131 Y102.854 E18.83759
G1 X135.185 Y103.448 E18.86537
G1 X135.198 Y104.071 E18.89438
G1 X135.197 Y105.755 E18.9728
G1 X135.187 Y106.457 E19.00549
G1 X135.138 Y107.105 E19.03575
G1 X135.01 Y107.742 E19.066
G1 X134.804 Y108.358 E19.09625
G1 X134.525 Y108.944 E19.12647
G1 X134.175 Y109.492 E19.15675
G1 X133.675 Y110.081 E19.19272
G1 X133.566 Y110.192 E19.19996
G1 X133.142 Y110.579 E19.2267
G1 X132.669 Y110.967 E19.25518
G1 X131.344 Y112.021 E19.33402
G1 X129.331 Y113.718 E19.45662
G1 X127.298 Y115.533 E19.58352
G1 X125.364 Y117.359 E19.70737
G1 X123.465 Y119.256 E19.83236
G1 X122.902 Y119.844 E19.87026
G1 X122.778 Y119.968 E19.87843
G1 X122.083 Y120.552 E19.9207
G1 X121.607 Y120.887 E19.9478
G1 X121.14 Y121.198 E19.97393
G1 X120.577 Y121.522 E20.00418
G1 X120.063 Y121.744 E20.03025
G1 X119.301 Y122 E20.06768
G1 X118.67 Y122.157 E20.09796
G1 X117.863 Y122.243 E20.13575
G1 X117.181 Y122.242 E20.1675
G1 X116.67 Y122.21 E20.19134
G1 X115.634 Y122.099 E20.23986
G1 X115.139 Y122.038 E20.26308
G1 X112.487 Y121.791 E20.38711
G1 X109.781 Y121.614 E20.51338
G1 X107.152 Y121.519 E20.63588
G1 X104.444 Y121.497 E20.76198
G1 X101.777 Y121.549 E20.88619
G1 X99.101 Y121.679 E21.01094
G1 X96.411 Y121.885 E21.13656
G1 X93.299 Y122.213 E21.28227
G1 X92.784 Y122.245 E21.3063
G1 X92.148 Y122.241 E21.33592
G1 X91.5 Y122.186 E21.3662
G1 X90.678 Y121.996 E21.40548
G1 X90.086 Y121.802 E21.43449
G1 X89.487 Y121.55 E21.46475
G1 X88.876 Y121.197 E21.49761
G1 X88.344 Y120.839 E21.52747
G1 X87.857 Y120.489 E21.55539
G1 X87.195 Y119.92 E21.59604
G1 X86.318 Y119.03 E21.65422
G1 X86.183 Y118.905 E21.66279
G1 X85.556 Y118.26 E21.70468
G1 X83.643 Y116.404 E21.82879
G1 X81.68 Y114.603 E21.95283
G1 X79.651 Y112.845 E22.07784
G1 X76.997 Y110.689 E22.23706
G1 X76.804 Y110.53 E22.24871
G1 X76.329 Y110.087 E22.27895
G1 X75.912 Y109.589 E22.3092
G1 X75.559 Y109.043 E22.33947
G1 X75.276 Y108.459 E22.36969
G1 X75.08 Y107.91 E22.39683
G1 X74.912 Y107.283 E22.42706
G1 X74.823 Y106.64 E22.45729
G1 X74.802 Y105.89 E22.49222
G1 X74.803 Y104.253 E22.56845
G1 X74.813 Y103.549 E22.60123
G1 X74.862 Y102.901 E22.63149
G1 X74.99 Y102.264 E22.66175
G1 X75.196 Y101.648 E22.69199
G1 X75.519 Y100.985 E22.72633
G1 X76.254 Y99.711 E22.79482
G1 X76.435 Y99.404 E22.81141
G1 X77.741 Y97.051 E22.93673
G1 X78.961 Y94.699 E23.0601
G1 X80.136 Y92.266 E23.18591
G1 X81.225 Y89.839 E23.30978
G1 X82.193 Y87.515 E23.427
G1 X82.527 Y86.682 E23.46879
G1 X82.806 Y86.095 E23.49906
G1 X83.154 Y85.547 E23.52929
G1 X83.694 Y84.913 E23.56806
G1 X83.827 Y84.78 E23.57682
M204 S3000
M205 X10 Y10
G0 F3000 X87.7 Y88.784
M204 S1800
M205 X8 Y8
;TYPE:SUPPORT
G1 F1500 X93.387 Y88.784 E23.84163
G1 X93.389 Y91.253 E23.9566
G1 X92.428 Y92.214 E24.01988
G1 X92.233 Y92.685 E24.04362
G1 X92.234 Y102.524 E24.50177
G1 X89.821 Y102.524 E24.61413
G1 X89.821 Y91.67 E25.11953
G1 X89.375 Y91.224 E25.1489
G1 X87.699 Y91.224 E25.22694
G1 X87.7 Y88.784 E25.34056
M204 S3000
M205 X10 Y10
G0 F3000 X88 Y89.004
M204 S1800
M205 X8 Y8
G1 F1500 X88 Y91.004 E25.43369
M204 S3000
M205 X10 Y10
G0 F3000 X90.158 Y89.003
M204 S1800
M205 X8 Y8
G1 F1500 X93.168 Y90.741 E25.59553
M204 S3000
M205 X10 Y10
G0 F3000 X92.012 Y94.678
M204 S1800
M205 X8 Y8
G1 F1500 X90.04 Y95.816 E25.70155
M204 S3000
M205 X10 Y10
G0 F3000 X90.039 Y98.172
M204 S1800
M205 X8 Y8
G1 F1500 X92.014 Y99.312 E25.80774
M204 S3000
M205 X10 Y10
G1 F2400 E19.80774
G0 F3000 X83.534 Y102.843
G0 X82.983 Y106.614
G0 X91.212 Y107.484
M204 S1800
M205 X8 Y8
G1 F2400 E25.80774
G1 F1500 X93.783 Y107.484 E25.92745
G1 X93.78 Y113.185 E26.19292
G1 X93.906 Y113.534 E26.21019
G1 X93.717 Y114.541 E26.2579
G1 X93.781 Y114.898 E26.27479
G1 X93.648 Y115.221 E26.29106
G1 X93.743 Y116.116 E26.33296
G1 X93.104 Y116.551 E26.36896
G1 X92.67 Y116.695 E26.39025
G1 X92.309 Y116.692 E26.40706
G1 X91.929 Y116.566 E26.4257
G1 X91.256 Y116.096 E26.46393
G1 X91.381 Y115.222 E26.50504
G1 X91.222 Y114.864 E26.52328
G1 X91.276 Y114.513 E26.53981
G1 X91.094 Y113.525 E26.58659
G1 X91.212 Y113.17 E26.60401
G1 X91.212 Y107.484 E26.86878
M204 S3000
M205 X10 Y10
G0 F3000 X91.431 Y108.213
M204 S1800
M205 X8 Y8
G1 F1500 X93.562 Y109.443 E26.98335
M204 S3000
M205 X10 Y10
G0 F3000 X93.558 Y112.26
M204 S1800
M205 X8 Y8
G1 F1500 X91.321 Y113.552 E27.10364
M204 S3000
M205 X10 Y10
G0 F3000 X116.094 Y113.525
M204 S1800
M205 X8 Y8
G1 F1500 X116.212 Y113.17 E27.12106
G1 X116.212 Y107.484 E27.38582
G1 X118.783 Y107.484 E27.50554
G1 X118.78 Y113.185 E27.771
G1 X118.906 Y113.534 E27.78828
G1 X118.717 Y114.541 E27.83599
G1 X118.781 Y114.898 E27.85288
G1 X118.648 Y115.221 E27.86914
G1 X118.743 Y116.116 E27.91105
G1 X118.104 Y116.551 E27.94704
G1 X117.67 Y116.695 E27.96834
G1 X117.309 Y116.692 E27.98515
G1 X116.929 Y116.566 E28.00379
G1 X116.256 Y116.096 E28.04201
G1 X116.381 Y115.222 E28.08312
G1 X116.222 Y114.864 E28.10136
G1 X116.276 Y114.513 E28.1179
G1 X116.094 Y113.525 E28.16468
M204 S3000
M205 X10 Y10
G0 F3000 X116.373 Y113.376
M204 S1800
M205 X8 Y8
G1 F1500 X118.504 Y114.606 E28.27925
M204 S3000
M205 X10 Y10
G0 F3000 X116.432 Y108.292
M204 S1800
M205 X8 Y8
G1 F1500 X117.452 Y107.703 E28.3341
M204 S3000
M205 X10 Y10
G1 F2400 E22.3341
G0 F3000 X126.466 Y107.165
G0 X127.017 Y103.394
G0 X117.766 Y102.524
M204 S1800
M205 X8 Y8
G1 F2400 E28.3341
G1 F1500 X117.766 Y92.424 E28.80439
G1 X116.613 Y91.271 E28.88032
G1 X116.611 Y88.784 E28.99613
G1 X122.301 Y88.784 E29.26108
G1 X122.3 Y91.224 E29.37469
G1 X120.626 Y91.224 E29.45264
G1 X120.18 Y91.67 E29.48201
G1 X120.179 Y102.524 E29.98742
G1 X117.766 Y102.524 E30.09978
M204 S3000
M205 X10 Y10
G0 F3000 X117.985 Y98.158
M204 S1800
M205 X8 Y8
G1 F1500 X119.958 Y97.018 E30.20588
M204 S3000
M205 X10 Y10
G0 F3000 X119.959 Y96.971
M204 S1800
M205 X8 Y8
G1 F1500 X117.985 Y95.831 E30.31203
M204 S3000
M205 X10 Y10
G0 F3000 X120 Y91.538
M204 S1800
M205 X8 Y8
G1 F1500 X120 Y89.004 E30.43002
M204 S3000
M205 X10 Y10
G0 F3000 X117.84 Y89.003
M204 S1800
M205 X8 Y8
G1 F1500 X116.831 Y89.586 E30.48428
M204 S3000
M205 X10 Y10
G0 F3000 X127.626 Y103.704
M204 S1800
M205 X8 Y8
;TYPE:SUPPORT-INTERFACE
