; generated by SuperSlicer 2.4 on 2022-12-22 at 16:27:14 UTC


;
;

;
;
; 

; external perimeters extrusion width = 0.60mm
; perimeters extrusion width = 0.50mm
; infill extrusion width = 0.50mm
; solid infill extrusion width = 0.50mm
; top infill extrusion width = 0.40mm
; first layer extrusion width = 0.42mm

; object:{"name":"arduinopromicroacase","id":"arduinopromicroacase.stl id:0 copy 0","object_center":[105.000000,105.000000,0.000000],"boundingbox_center":[105.000000,105.000000,3.750000],"boundingbox_size":[48.075781,68.212181,7.500000]}
; Total objects to print: 1
M486 T1
; plater:{"center":[105.000000,105.000000,0.000000],"boundingbox_center":[105.000000,105.000000,3.750000],"boundingbox_size":[48.075781,68.212181,7.500000]}

M73 P0 R53
;TYPE:Custom
G90 ; use absolute coordinates
M83 ; extruder relative mode
M204 S1250 T1250
M104 S215 ; set extruder temp
M140 S65 ; set bed temp
G28 ; home all
G29 ; AutoBed Leveling I think
G1 Y1.0 Z0.3 F1000 ; move print head up
M190 S65 ; wait for bed temp
M109 S215 ; wait for extruder temp
G92 E0.0
; initial load
G1 X205.0 E19 F1000
G1 Y1.6
M73 P1 R53
G1 X5.0 E19 F1000
G92 E0.0
; intro line
G1 Y2.0 Z0.2 F1000
G1 X65.0 E9.0 F1000
G1 X105.0 E12.5 F1000
G92 E0.0
M107
G21 ; set units to millimeters
G90 ; use absolute coordinates
M83 ; use relative distances for extrusion
; Filament gcode
;_TOOLCHANGE 0
M107
;LAYER_CHANGE
;Z:0.2
;HEIGHT:0.2
;BEFORE_LAYER_CHANGE
G92 E0.0
;0.2
G1 Z0.075 F10800
G1 Z0.2
;AFTER_LAYER_CHANGE
;0.2
G1 Z0.275
M204 S800
G1 X80.381 Y74.585
G1 Z0.2
;TYPE:Skirt
;WIDTH:0.52
G1 F1200
G1 X80.024 Y75.06 E0.02356
G1 X79.672 Y75.804 E0.03266
G1 X79.492 Y76.89 E0.04366
G1 X79.493 Y133.106 E2.23007
G1 X79.572 Y133.797 E0.0276
G1 X79.871 Y134.662 E0.0363
G1 X80.504 Y135.545 E0.04309
G1 X81.091 Y136.022 E0.03002
G1 X81.647 Y136.31 E0.02482
G1 X82.325 Y136.509 E0.02803
G1 X116.026 Y141.31 E1.3504
G1 X119.396 Y141.329 E0.1337
G1 X120.349 Y141.171 E0.03834
G1 X121.004 Y140.951 E0.02738
G1 X121.685 Y140.612 E0.03016
G1 X122.467 Y140.045 E0.03834
G1 X130.554 Y131.47 E0.46756
G1 X130.895 Y130.861 E0.0277
M73 P1 R52
G1 X131.102 Y130.286 E0.02427
G1 X131.276 Y129.107 E0.04728
G1 X131.276 Y72.89 E2.23008
G1 X131.191 Y72.056 E0.03328
G1 X130.899 Y71.151 E0.03771
G1 X130.473 Y70.422 E0.03352
G1 X129.949 Y69.816 E0.03179
G1 X129.397 Y69.374 E0.02803
G1 X128.76 Y69.023 E0.02889
G1 X127.861 Y68.738 E0.03739
G1 X127.163 Y68.659 E0.02787
G1 X108.367 Y68.705 E0.74563
G1 X82.246 Y73.501 E1.05351
G1 X81.666 Y73.68 E0.02408
G1 X81.128 Y73.955 E0.02398
G1 X80.381 Y74.585 E0.03876
M204 S1000
G1 Z0.275 F10800
; printing object arduinopromicroacase.stl id:0 copy 0
M486 S0
; acceleration to travel
M204 S1500
G1 X102.618 Y114.41
; decel to extrusion
M204 S800
G1 X114.478 Y135.65
; end travel
G1 Z0.2
;TYPE:Internal perimeter
;WIDTH:0.42
G1 F1200
G1 X114.516 Y135.897 E0.00783
G1 X114.6 Y136.224 E0.0106
G1 X114.718 Y136.541 E0.0106
G1 X114.867 Y136.845 E0.0106
G1 X115.046 Y137.131 E0.0106
G1 X115.252 Y137.399 E0.0106
G1 X115.485 Y137.644 E0.0106
G1 X115.742 Y137.864 E0.0106
G1 X116.019 Y138.057 E0.0106
G1 X116.375 Y138.255 E0.01274
G1 X116.303 Y138.488 E0.00768
G1 X116.16 Y138.475 E0.00449
G1 X115.96 Y138.428 E0.00644
G1 X115.529 Y138.261 E0.0145
G1 X115.35 Y138.161 E0.00644
G1 X114.981 Y137.883 E0.0145
G1 X114.835 Y137.737 E0.00644
G1 X114.557 Y137.368 E0.0145
G1 X114.457 Y137.189 E0.00644
G1 X114.293 Y136.766 E0.01423
G1 X114.21 Y136.32 E0.01423
G1 X114.199 Y136.093 E0.00714
G1 X114.199 Y135.671 E0.01321
G1 X114.478 Y135.65 E0.00877
M204 S1000
G1 Z0.275 F10800
; acceleration to travel
M204 S1500
G1 X114.05 Y132.058
; decel to extrusion
M204 S800
G1 X113.822 Y130.142
; end travel
G1 Z0.2
G1 F1200
G1 X109.047 Y130.142 E0.14971
G1 X108.774 Y130.111 E0.0086
G1 X108.531 Y130.026 E0.00809
G1 X108.448 Y129.981 E0.00298
G1 X108.375 Y129.929 E0.00278
G1 X108.193 Y129.746 E0.0081
G1 X108.073 Y129.555 E0.00709
G1 X107.987 Y129.311 E0.0081
G1 X107.976 Y129.244 E0.00214
G1 X107.976 Y72.783 E1.77028
G1 X108.033 Y72.531 E0.00811
M73 P2 R52
G1 X108.059 Y72.468 E0.00215
G1 X108.207 Y72.232 E0.00874
G1 X108.253 Y72.18 E0.00215
G1 X108.472 Y72.006 E0.00877
G1 X108.549 Y71.963 E0.00278
G1 X108.637 Y71.927 E0.00298
G1 X108.889 Y71.869 E0.00811
G1 X126.991 Y71.858 E0.56757
G1 X127.263 Y71.889 E0.00859
G1 X127.507 Y71.974 E0.00809
G1 X127.572 Y72.009 E0.00232
G1 X127.764 Y72.163 E0.00773
G1 X127.912 Y72.349 E0.00744
G1 X128.019 Y72.57 E0.00772
G1 X128.039 Y72.642 E0.00232
G1 X128.074 Y72.948 E0.00965
G1 X128.062 Y129.244 E1.76512
G1 X128.051 Y129.311 E0.00214
G1 X127.965 Y129.555 E0.00811
G1 X127.845 Y129.746 E0.00709
G1 X127.662 Y129.929 E0.0081
G1 X127.59 Y129.981 E0.00278
G1 X127.507 Y130.026 E0.00298
G1 X127.263 Y130.111 E0.00809
G1 X126.99 Y130.142 E0.00863
G1 X121.054 Y130.142 E0.18612
G1 X121.047 Y133.044 E0.09099
G1 X120.843 Y133.113 E0.00675
G1 X120.604 Y132.805 E0.01224
G1 X120.345 Y132.532 E0.0118
G1 X120.059 Y132.287 E0.0118
G1 X119.75 Y132.072 E0.0118
G1 X119.421 Y131.889 E0.0118
G1 X119.075 Y131.741 E0.0118
G1 X118.716 Y131.628 E0.0118
G1 X118.348 Y131.552 E0.0118
G1 X117.973 Y131.514 E0.0118
G1 X117.597 Y131.514 E0.0118
G1 X117.222 Y131.552 E0.0118
G1 X116.854 Y131.628 E0.0118
G1 X116.495 Y131.741 E0.0118
G1 X116.149 Y131.889 E0.0118
G1 X115.82 Y132.072 E0.0118
G1 X115.511 Y132.287 E0.0118
G1 X115.225 Y132.532 E0.0118
G1 X114.966 Y132.805 E0.0118
G1 X114.78 Y133.045 E0.00952
G1 X114.576 Y132.975 E0.00676
G1 X114.576 Y130.142 E0.08882
G1 X113.822 Y130.142 E0.02365
G1 X113.822 Y130.519 F10800
G1 F1200
G1 X109.026 Y130.519 E0.15037
G1 X108.69 Y130.482 E0.01059
G1 X108.377 Y130.372 E0.01042
G1 X108.247 Y130.3 E0.00465
G1 X108.131 Y130.218 E0.00445
G1 X107.896 Y129.983 E0.01043
G1 X107.731 Y129.719 E0.00975
G1 X107.621 Y129.405 E0.01043
G1 X107.599 Y129.276 E0.00413
G1 X107.598 Y72.741 E1.77261
G1 X107.672 Y72.416 E0.01043
G1 X107.723 Y72.294 E0.00415
G1 X107.905 Y72.004 E0.01074
G1 X107.993 Y71.905 E0.00415
G1 X108.261 Y71.692 E0.01076
G1 X108.385 Y71.623 E0.00445
G1 X108.522 Y71.566 E0.00465
G1 X108.847 Y71.492 E0.01043
G1 X127.012 Y71.481 E0.56955
G1 X127.348 Y71.518 E0.01059
G1 X127.661 Y71.628 E0.01042
G1 X127.782 Y71.695 E0.00432
G1 X128.033 Y71.895 E0.01006
G1 X128.233 Y72.147 E0.0101
G1 X128.373 Y72.436 E0.01006
G1 X128.411 Y72.568 E0.00432
G1 X128.451 Y72.927 E0.01131
G1 X128.439 Y129.276 E1.76678
G1 X128.417 Y129.405 E0.00413
G1 X128.307 Y129.719 E0.01043
G1 X128.142 Y129.983 E0.00975
G1 X127.907 Y130.218 E0.01043
G1 X127.791 Y130.3 E0.00445
G1 X127.661 Y130.372 E0.00465
G1 X127.348 Y130.481 E0.01042
G1 X127.011 Y130.519 E0.01062
G1 X121.43 Y130.519 E0.17498
G1 X121.419 Y135.199 E0.14675
G1 X121.416 Y136.333 E0.03553
G1 X121.333 Y136.774 E0.01409
G1 X121.265 Y136.978 E0.00671
G1 X121.179 Y137.173 E0.00671
G1 X120.94 Y137.559 E0.01422
G1 X120.64 Y137.888 E0.01395
G1 X120.285 Y138.156 E0.01395
G1 X119.887 Y138.354 E0.01395
G1 X119.459 Y138.476 E0.01395
G1 X119.256 Y138.495 E0.00639
G1 X119.184 Y138.261 E0.00768
G1 X119.551 Y138.057 E0.01315
G1 X119.828 Y137.864 E0.0106
G1 X120.085 Y137.644 E0.0106
G1 X120.318 Y137.399 E0.0106
G1 X120.525 Y137.131 E0.0106
G1 X120.704 Y136.845 E0.0106
G1 X120.852 Y136.541 E0.0106
G1 X120.97 Y136.224 E0.0106
G1 X121.055 Y135.897 E0.0106
G1 X121.106 Y135.562 E0.0106
G1 X121.123 Y135.225 E0.0106
G1 X121.106 Y134.887 E0.0106
G1 X121.055 Y134.553 E0.0106
G1 X120.97 Y134.225 E0.0106
G1 X120.852 Y133.908 E0.0106
G1 X120.704 Y133.605 E0.0106
G1 X120.525 Y133.318 E0.0106
G1 X120.318 Y133.051 E0.0106
G1 X120.085 Y132.805 E0.0106
G1 X119.828 Y132.585 E0.0106
G1 X119.551 Y132.392 E0.0106
G1 X119.255 Y132.228 E0.0106
G1 X118.944 Y132.095 E0.0106
G1 X118.622 Y131.993 E0.0106
G1 X118.291 Y131.925 E0.0106
G1 X117.954 Y131.891 E0.0106
G1 X117.616 Y131.891 E0.0106
G1 X117.28 Y131.925 E0.0106
G1 X116.948 Y131.993 E0.0106
G1 X116.626 Y132.095 E0.0106
G1 X116.315 Y132.228 E0.0106
G1 X116.02 Y132.392 E0.0106
G1 X115.742 Y132.585 E0.0106
G1 X115.485 Y132.805 E0.0106
G1 X115.252 Y133.051 E0.0106
G1 X115.046 Y133.318 E0.0106
G1 X114.867 Y133.605 E0.0106
G1 X114.718 Y133.908 E0.0106
G1 X114.6 Y134.225 E0.0106
G1 X114.516 Y134.553 E0.0106
G1 X114.478 Y134.8 E0.00783
G1 X114.199 Y134.778 E0.00877
G1 X114.199 Y130.519 E0.13355
G1 X113.822 Y130.519 E0.01182
M204 S1000
G1 Z0.275 F10800
; acceleration to travel
M204 S1500
G1 X115.179 Y132.1
; decel to extrusion
M204 S800
G1 X115.903 Y132.944
; end travel
G1 Z0.2
;TYPE:External perimeter
G1 F1200
G1 X115.746 Y133.079 E0.00652
G1 X115.539 Y133.296 E0.0094
G1 X115.355 Y133.534 E0.0094
G1 X115.197 Y133.788 E0.0094
G1 X115.065 Y134.057 E0.0094
G1 X114.961 Y134.338 E0.0094
G1 X114.885 Y134.629 E0.0094
G1 X114.84 Y134.925 E0.0094
G1 X114.825 Y135.225 E0.0094
G1 X114.84 Y135.524 E0.0094
G1 X114.885 Y135.821 E0.0094
G1 X114.961 Y136.111 E0.0094
G1 X115.065 Y136.392 E0.0094
G1 X115.197 Y136.661 E0.0094
G1 X115.355 Y136.916 E0.0094
G1 X115.539 Y137.153 E0.0094
G1 X115.746 Y137.37 E0.0094
G1 X115.973 Y137.566 E0.0094
G1 X116.219 Y137.737 E0.0094
G1 X116.481 Y137.882 E0.0094
G1 X116.757 Y138.001 E0.0094
G1 X117.043 Y138.09 E0.0094
G1 X117.337 Y138.151 E0.0094
G1 X117.635 Y138.181 E0.0094
G1 X117.935 Y138.181 E0.0094
G1 X118.233 Y138.151 E0.0094
G1 X118.527 Y138.09 E0.0094
G1 X118.813 Y138.001 E0.0094
G1 X119.089 Y137.882 E0.0094
G1 X119.351 Y137.737 E0.0094
G1 X119.597 Y137.566 E0.0094
G1 X119.825 Y137.37 E0.0094
G1 X120.031 Y137.153 E0.0094
G1 X120.215 Y136.916 E0.0094
G1 X120.373 Y136.661 E0.0094
G1 X120.505 Y136.392 E0.0094
G1 X120.61 Y136.111 E0.0094
G1 X120.685 Y135.821 E0.0094
G1 X120.73 Y135.524 E0.0094
G1 X120.745 Y135.225 E0.0094
G1 X120.73 Y134.925 E0.0094
G1 X120.685 Y134.629 E0.0094
G1 X120.61 Y134.339 E0.0094
G1 X120.505 Y134.057 E0.0094
G1 X120.373 Y133.788 E0.0094
G1 X120.215 Y133.534 E0.0094
G1 X120.031 Y133.296 E0.0094
G1 X119.825 Y133.079 E0.0094
G1 X119.597 Y132.884 E0.0094
G1 X119.351 Y132.712 E0.0094
G1 X119.089 Y132.567 E0.0094
G1 X118.813 Y132.449 E0.0094
G1 X118.527 Y132.359 E0.0094
G1 X118.233 Y132.299 E0.0094
G1 X117.935 Y132.268 E0.0094
G1 X117.635 Y132.268 E0.0094
G1 X117.337 Y132.299 E0.0094
G1 X117.043 Y132.359 E0.0094
G1 X116.757 Y132.449 E0.0094
G1 X116.481 Y132.567 E0.0094
G1 X116.219 Y132.712 E0.0094
G1 X115.973 Y132.884 E0.0094
G1 X115.903 Y132.944 E0.00288
;WIPE_START
M204 S1000
G1 X115.526 Y132.811 F10800
;WIPE_END
G1 Z0.275
; acceleration to travel
M204 S1500
G1 X114.415 Y131.562
; decel to extrusion
M204 S800
G1 X113.822 Y130.896
; end travel
G1 Z0.2
G1 F1200
G1 X109.005 Y130.896 E0.15103
G1 X108.799 Y130.884 E0.00649
G1 X108.606 Y130.852 E0.00612
G1 X108.222 Y130.717 E0.01275
G1 X108.046 Y130.62 E0.00632
G1 X107.887 Y130.507 E0.00611
G1 X107.599 Y130.219 E0.01275
G1 X107.486 Y130.06 E0.00612
G1 X107.389 Y129.884 E0.00632
G1 X107.255 Y129.5 E0.01275
G1 X107.222 Y129.308 E0.00612
G1 X107.21 Y129.1 E0.00651
G1 X107.21 Y72.899 E1.76215
G1 X107.221 Y72.698 E0.0063
G1 X107.312 Y72.302 E0.01275
G1 X107.386 Y72.121 E0.00614
G1 X107.603 Y71.777 E0.01274
G1 X107.733 Y71.631 E0.00614
G1 X108.051 Y71.377 E0.01275
G1 X108.221 Y71.283 E0.00611
G1 X108.408 Y71.206 E0.00632
G1 X108.804 Y71.115 E0.01275
G1 X109.006 Y71.104 E0.00633
G1 X127.033 Y71.104 E0.56522
G1 X127.239 Y71.116 E0.00649
G1 X127.432 Y71.148 E0.00612
G1 X127.816 Y71.283 E0.01275
G1 X127.992 Y71.38 E0.00632
G1 X128.156 Y71.496 E0.00629
G1 X128.301 Y71.627 E0.00612
G1 X128.555 Y71.945 E0.01275
G1 X128.649 Y72.116 E0.00612
G1 X128.726 Y72.301 E0.00629
G1 X128.782 Y72.495 E0.00632
G1 X128.828 Y72.906 E0.01296
G1 X128.828 Y129.101 E1.76197
G1 X128.816 Y129.308 E0.00649
G1 X128.783 Y129.5 E0.00612
G1 X128.649 Y129.884 E0.01275
G1 X128.552 Y130.06 E0.00632
G1 X128.439 Y130.219 E0.00612
G1 X128.151 Y130.507 E0.01275
G1 X127.992 Y130.62 E0.00612
G1 X127.816 Y130.717 E0.00632
G1 X127.432 Y130.852 E0.01275
G1 X127.239 Y130.884 E0.00612
G1 X127.032 Y130.896 E0.00651
G1 X121.806 Y130.896 E0.16384
G1 X121.793 Y136.368 E0.17157
G1 X121.758 Y136.619 E0.00793
G1 X121.699 Y136.87 E0.00808
G1 X121.617 Y137.114 E0.00808
G1 X121.513 Y137.35 E0.00808
G1 X121.388 Y137.575 E0.00808
G1 X121.242 Y137.787 E0.00808
G1 X121.078 Y137.986 E0.00808
G1 X120.895 Y138.168 E0.00808
G1 X120.697 Y138.332 E0.00808
G1 X120.485 Y138.478 E0.00808
G1 X120.259 Y138.603 E0.00808
G1 X120.024 Y138.707 E0.00808
G1 X119.779 Y138.789 E0.00808
G1 X119.529 Y138.848 E0.00808
G1 X119.273 Y138.884 E0.00808
G1 X119.011 Y138.896 E0.00823
G1 X116.617 Y138.896 E0.07507
G1 X116.355 Y138.884 E0.00823
G1 X116.099 Y138.848 E0.00808
G1 X115.848 Y138.789 E0.00808
G1 X115.604 Y138.707 E0.00808
G1 X115.368 Y138.603 E0.00808
G1 X115.143 Y138.478 E0.00808
G1 X114.931 Y138.332 E0.00808
G1 X114.732 Y138.168 E0.00808
G1 X114.55 Y137.986 E0.00808
G1 X114.386 Y137.787 E0.00808
G1 X114.24 Y137.575 E0.00808
G1 X114.115 Y137.35 E0.00808
G1 X114.011 Y137.114 E0.00808
G1 X113.929 Y136.87 E0.00808
G1 X113.87 Y136.619 E0.00808
G1 X113.834 Y136.364 E0.00808
G1 X113.822 Y136.101 E0.00823
G1 X113.822 Y130.896 E0.1632
;WIPE_START
M204 S1000
G1 X113.822 Y130.496 F10800
;WIPE_END
G1 Z0.275
; acceleration to travel
M204 S1500
G1 X114.679 Y131.778
; decel to extrusion
M204 S800
G1 X115.137 Y132.461
; end travel
G1 Z0.2
;TYPE:Solid infill
;WIDTH:0.420349
G1 F1200
G1 X114.851 Y132.176 E0.01267
G1 X114.851 Y131.643 E0.01673
G1 X115.307 Y132.099 E0.02024
G1 X115.348 Y132.064 E0.00166
G1 X115.63 Y131.888 E0.01045
G1 X114.851 Y131.109 E0.03456
G1 X114.851 Y130.576 E0.01673
G1 X116.076 Y131.801 E0.05436
M204 S1000
G1 Z0.275 F10800
M204 S800
G1 X114.634 Y133.178
G1 Z0.2
;TYPE:Gap fill
;WIDTH:0.560636
G1 F1200
G1 X114.61 Y133.254 E0.00345
;WIDTH:0.493995
G1 X114.585 Y133.331 E0.00301
;WIDTH:0.435146
G1 X114.558 Y133.423 E0.00312
;WIDTH:0.408563
G1 X114.553 Y133.441 E0.00058
G1 X114.536 Y133.512 E0.00222
;WIDTH:0.362488
G1 X114.52 Y133.583 E0.00194
;WIDTH:0.32121
G1 X114.503 Y133.655 E0.00169
;WIDTH:0.279932
G1 X114.487 Y133.726 E0.00144
;WIDTH:0.238417
G1 X114.468 Y133.807 E0.00135
G1 X114.454 Y133.884 E0.00128
;WIDTH:0.197599
G1 X114.441 Y133.962 E0.00101
;WIDTH:0.16058
G1 X114.427 Y134.039 E0.00077
;WIDTH:0.12356
G1 X114.413 Y134.116 E0.00053
G1 X114.406 Y134.156 E0.00027
G1 X114.651 Y135.225 F10800
;WIDTH:0.554611
G1 F1200
G1 X114.408 Y135.225 E0.01035
;WIDTH:0.57667
G1 X114.129 Y135.225 E0.01239
;WIDTH:0.618857
G1 X113.995 Y135.225 E0.00639
G1 X114.436 Y136.385 F10800
;WIDTH:0.120273
G1 F1200
G1 X114.446 Y136.424 E0.00026
G1 X114.475 Y136.527 E0.00069
;WIDTH:0.159854
G1 X114.503 Y136.63 E0.00104
G1 X114.526 Y136.699 E0.00071
G1 X114.584 Y136.832 E0.00141
;WIDTH:0.204407
G1 X114.642 Y136.964 E0.00194
G1 X114.672 Y137.024 E0.00089
;WIDTH:0.227331
G1 X114.698 Y137.076 E0.00089
G1 X114.741 Y137.148 E0.00129
G1 X114.783 Y137.221 E0.00129
G1 X114.83 Y137.288 E0.00125
G1 X114.934 Y137.424 E0.00264
G1 X115.038 Y137.561 E0.00264
G1 X115.053 Y137.577 E0.00033
G1 X115.155 Y137.682 E0.00225
G1 X115.233 Y137.752 E0.00161
;WIDTH:0.192678
G1 X115.317 Y137.826 E0.0014
G1 X115.4 Y137.892 E0.00131
G1 X115.482 Y137.959 E0.00131
G1 X115.541 Y138 E0.00091
;WIDTH:0.149367
G1 X115.606 Y138.045 E0.00069
G1 X115.625 Y138.057 E0.0002
G1 X115.709 Y138.102 E0.00085
;WIDTH:0.119018
G1 X115.745 Y138.121 E0.00026
G1 X116.508 Y138.412 F10800
;WIDTH:0.602952
G1 F1200
G1 X116.557 Y138.422 E0.00233
;WIDTH:0.571816
G1 X116.616 Y138.435 E0.00264
G1 X116.665 Y138.444 E0.00222
G1 X116.767 Y138.46 E0.00455
G1 X116.848 Y138.473 E0.00359
;WIDTH:0.51793
G1 X116.928 Y138.485 E0.00322
G1 X116.952 Y138.488 E0.00095
G1 X117.111 Y138.504 E0.0063
;WIDTH:0.447268
G1 X117.27 Y138.52 E0.00536
G1 X117.29 Y138.522 E0.00069
G1 X117.449 Y138.53 E0.00534
;WIDTH:0.411962
G1 X117.608 Y138.538 E0.00488
G1 X117.626 Y138.539 E0.00057
G1 X117.944 Y138.539 E0.00974
G1 X117.963 Y138.538 E0.00057
G1 X118.121 Y138.53 E0.00488
;WIDTH:0.44416
G1 X118.28 Y138.522 E0.0053
G1 X118.3 Y138.52 E0.00068
G1 X118.459 Y138.504 E0.00532
;WIDTH:0.511834
G1 X118.618 Y138.488 E0.00622
G1 X118.642 Y138.485 E0.00094
G1 X118.717 Y138.474 E0.00296
;WIDTH:0.563936
G1 X118.792 Y138.462 E0.00329
G1 X118.869 Y138.45 E0.0034
