; generated by PrusaSlicer 2.7.0+win64 on 2024-04-08 at 22:34:47 UTC


;
;
; 

; external perimeters extrusion width = 0.60mm
; perimeters extrusion width = 0.50mm
; infill extrusion width = 0.50mm
; solid infill extrusion width = 0.50mm
; top infill extrusion width = 0.45mm
; support material extrusion width = 0.38mm
; first layer extrusion width = 0.42mm

M73 P0 R194
M73 Q0 S201
M201 X1000 Y1000 Z200 E5000 ; sets maximum accelerations, mm/sec^2
M203 X200 Y200 Z12 E120 ; sets maximum feedrates, mm / sec
M204 S1250 T1250 ; sets acceleration (S) and retract acceleration (R), mm/sec^2
M205 X8.00 Y8.00 Z0.40 E4.50 ; sets the jerk limits, mm/sec
M205 S0 T0 ; sets the minimum extruding and travel feed rate, mm/sec

; printing object Back.stl id:0 copy 0
; stop printing object Back.stl id:0 copy 0

;TYPE:Custom
M862.3 P "MK3S" ; printer model check
M862.1 P0.4 ; nozzle diameter check
M115 U3.13.2 ; tell printer latest fw version
G90 ; use absolute coordinates
M83 ; extruder relative mode
M104 S215 ; set extruder temp
M140 S60 ; set bed temp
M190 S60 ; wait for bed temp
M109 S215 ; wait for extruder temp
G28 W ; home all without mesh bed level
G80 X59.7602 Y56.9836 W125.531 H103.722 ; mesh bed levelling

G1 Z0.2 F720
G1 Y-3 F1000 ; go outside print area
G92 E0
G1 X60 E9 F1000 ; intro line
G1 X100 E12.5 F1000 ; intro line

G92 E0
M221 S95

; Don't change E values below. Excessive value can damage the printer.

M907 E538 ; set extruder motor current
G21 ; set units to millimeters
G90 ; use absolute coordinates
M83 ; use relative distances for extrusion
M900 K0.05 ; Filament gcode LA 1.5
M900 K30 ; Filament gcode LA 1.0

M107
;LAYER_CHANGE
;Z:0.2
;HEIGHT:0.2
;BEFORE_LAYER_CHANGE
G92 E0.0
;0.2


G1 E-.8 F2100
G1 Z.2 F720
;AFTER_LAYER_CHANGE
;0.2
G1 X61.156 Y59.16 F10800
G1 Z.2 F720
G1 E.8 F2100
M204 S800
;TYPE:Skirt/Brim
;WIDTH:0.42
G1 F1200
G1 X61.937 Y58.379 E.03463
G1 X62.565 Y57.939 E.02404
G1 X63.65 Y57.444 E.03739
G1 X64.394 Y57.257 E.02405
G1 X65.326 Y57.172 E.02934
G1 X179.895 Y57.178 E3.59223
G1 X181.076 Y57.348 E.03741
G1 X182.111 Y57.734 E.03464
G1 X182.797 Y58.141 E.02501
G1 X183.674 Y58.904 E.03645
G1 X184.152 Y59.503 E.02403
G1 X184.682 Y60.472 E.03463
G1 X185.018 Y61.617 E.03741
G1 X185.103 Y62.549 E.02934
G1 X185.103 Y150.578 E2.76009
G1 X184.927 Y151.929 E.04272
M73 P0 R193
G1 X184.541 Y152.964 E.03464
G1 X183.896 Y153.968 E.03742
G1 X183.115 Y154.749 E.03463
G1 X175.458 Y160.091 E.29273
G1 X174.102 Y160.517 E.04457
G1 X70.95 Y160.517 E3.23426
G1 X69.593 Y160.091 E.0446
G1 X62.279 Y155.005 E.27932
G1 X61.68 Y154.526 E.02405
G1 X61.156 Y153.967 E.02402
G1 X60.708 Y153.325 E.02455
G1 X60.22 Y152.254 E.0369
G1 X60.034 Y151.511 E.02402
G1 X59.949 Y150.578 E.02937
G1 X59.949 Y62.549 E2.76009
G1 X60.125 Y61.199 E.04269
G1 X60.511 Y60.164 E.03464
G1 X61.123 Y59.211 E.03551
M204 S1000
; printing object Back.stl id:0 copy 0
;WIPE_START
G1 F8640
G1 X61.156 Y59.16 E-.01403
G1 X61.937 Y58.379 E-.25503
G1 X62.565 Y57.939 E-.17706
G1 X63.65 Y57.444 E-.27537
G1 X63.98 Y57.361 E-.07851
;WIPE_END
G1 Z.6 F720
G1 X174.102 Y158.14 F10800
G1 Z.2 F720
G1 E.8 F2100
M204 S800
;TYPE:Support material
G1 F1200
G1 X163.575 Y158.14 E.33007
G1 X163.575 Y154.148 E.12517
G1 X174.102 Y154.148 E.33007
G1 X174.102 Y158.083 E.12338
M204 S1000
G1 X173.641 Y157.97 F10800
M204 S800
G1 F1200
G1 X173.641 Y154.488 E.10918
G1 X173.222 Y154.488 E.01314
G1 X173.222 Y157.8 E.10385
G1 X172.803 Y157.8 E.01314
G1 X172.803 Y154.488 E.10385
G1 X172.384 Y154.488 E.01314
G1 X172.384 Y157.8 E.10385
G1 X171.965 Y157.8 E.01314
G1 X171.965 Y154.488 E.10385
G1 X171.546 Y154.488 E.01314
G1 X171.546 Y157.8 E.10385
G1 X171.127 Y157.8 E.01314
G1 X171.127 Y154.488 E.10385
G1 X170.708 Y154.488 E.01314
G1 X170.708 Y157.8 E.10385
G1 X170.289 Y157.8 E.01314
G1 X170.289 Y154.488 E.10385
G1 X169.87 Y154.488 E.01314
G1 X169.87 Y157.8 E.10385
G1 X169.451 Y157.8 E.01314
G1 X169.451 Y154.488 E.10385
G1 X169.032 Y154.488 E.01314
G1 X169.032 Y157.8 E.10385
G1 X168.613 Y157.8 E.01314
G1 X168.613 Y154.488 E.10385
G1 X168.194 Y154.488 E.01314
G1 X168.194 Y157.8 E.10385
G1 X167.775 Y157.8 E.01314
G1 X167.775 Y154.488 E.10385
G1 X167.356 Y154.488 E.01314
G1 X167.356 Y157.8 E.10385
G1 X166.937 Y157.8 E.01314
G1 X166.937 Y154.488 E.10385
G1 X166.518 Y154.488 E.01314
G1 X166.518 Y157.8 E.10385
G1 X166.099 Y157.8 E.01314
G1 X166.099 Y154.488 E.10385
G1 X165.68 Y154.488 E.01314
G1 X165.68 Y157.8 E.10385
G1 X165.261 Y157.8 E.01314
G1 X165.261 Y154.488 E.10385
G1 X164.842 Y154.488 E.01314
G1 X164.842 Y157.8 E.10385
G1 X164.424 Y157.8 E.01311
G1 X164.424 Y154.488 E.10385
G1 X164.005 Y154.488 E.01314
G1 X164.005 Y157.97 E.10918
M204 S1000
;WIPE_START
G1 F8640
G1 X164.005 Y154.505 E-.8
;WIPE_END
G1 Z.6 F720
G1 X81.477 Y158.14 F10800
G1 Z.2 F720
G1 E.8 F2100
M204 S800
G1 F1200
G1 X70.95 Y158.14 E.33007
G1 X70.95 Y154.148 E.12517
G1 X81.477 Y154.148 E.33007
G1 X81.477 Y158.083 E.12338
M204 S1000
G1 X81.047 Y157.97 F10800
M204 S800
G1 F1200
G1 X81.047 Y154.488 E.10918
G1 X80.628 Y154.488 E.01314
G1 X80.628 Y157.8 E.10385
G1 X80.209 Y157.8 E.01314
G1 X80.209 Y154.488 E.10385
G1 X79.79 Y154.488 E.01314
G1 X79.79 Y157.8 E.10385
G1 X79.371 Y157.8 E.01314
G1 X79.371 Y154.488 E.10385
G1 X78.952 Y154.488 E.01314
G1 X78.952 Y157.8 E.10385
G1 X78.533 Y157.8 E.01314
G1 X78.533 Y154.488 E.10385
G1 X78.114 Y154.488 E.01314
G1 X78.114 Y157.8 E.10385
G1 X77.695 Y157.8 E.01314
G1 X77.695 Y154.488 E.10385
G1 X77.276 Y154.488 E.01314
G1 X77.276 Y157.8 E.10385
G1 X76.857 Y157.8 E.01314
G1 X76.857 Y154.488 E.10385
G1 X76.438 Y154.488 E.01314
G1 X76.438 Y157.8 E.10385
G1 X76.019 Y157.8 E.01314
G1 X76.019 Y154.488 E.10385
G1 X75.6 Y154.488 E.01314
G1 X75.6 Y157.8 E.10385
G1 X75.181 Y157.8 E.01314
G1 X75.181 Y154.488 E.10385
G1 X74.762 Y154.488 E.01314
G1 X74.762 Y157.8 E.10385
G1 X74.343 Y157.8 E.01314
G1 X74.343 Y154.488 E.10385
G1 X73.924 Y154.488 E.01314
G1 X73.924 Y157.8 E.10385
G1 X73.506 Y157.8 E.01311
G1 X73.506 Y154.488 E.10385
G1 X73.087 Y154.488 E.01314
G1 X73.087 Y157.8 E.10385
G1 X72.668 Y157.8 E.01314
G1 X72.668 Y154.488 E.10385
G1 X72.249 Y154.488 E.01314
G1 X72.249 Y157.8 E.10385
G1 X71.83 Y157.8 E.01314
G1 X71.83 Y154.488 E.10385
G1 X71.411 Y154.488 E.01314
G1 X71.411 Y157.97 E.10918
M204 S1000
;WIPE_START
G1 F8640
G1 X71.411 Y154.505 E-.8
;WIPE_END
G1 Z.6 F720
G1 X180.349 Y60.428 F10800
G1 Z.2 F720
G1 E.8 F2100
M204 S800
;TYPE:Perimeter
;WIDTH:0.419999
G1 F1200
G1 X180.921 Y60.689 E.01971
G1 X181.397 Y61.101 E.01974
G1 X181.737 Y61.631 E.01974
G1 X181.881 Y62.081 E.01481
G1 X181.939 Y62.66 E.01824
G1 X181.939 Y150.467 E2.75312
G1 X181.933 Y150.633 E.00521
G1 X181.847 Y151.201 E.01801
G1 X181.586 Y151.774 E.01974
G1 X181.174 Y152.249 E.01972
G1 X180.644 Y152.589 E.01974
G1 X180.195 Y152.733 E.01478
G1 X179.698 Y152.791 E.01569
G1 X65.437 Y152.791 E3.58257
G1 X65.271 Y152.785 E.00521
M73 Q0 S200
G1 X64.703 Y152.7 E.01801
G1 X64.131 Y152.438 E.01973
G1 X63.655 Y152.026 E.01974
G1 X63.315 Y151.497 E.01972
G1 X63.171 Y151.047 E.01481
G1 X63.113 Y150.55 E.01569
G1 X63.113 Y62.66 E2.75572
G1 X63.119 Y62.494 E.00521
G1 X63.204 Y61.926 E.01801
G1 X63.466 Y61.354 E.01973
G1 X63.878 Y60.878 E.01974
G1 X64.407 Y60.538 E.01972
G1 X64.857 Y60.394 E.01481
G1 X65.354 Y60.336 E.01569
G1 X179.615 Y60.336 E3.58257
G1 X179.781 Y60.342 E.00521
G1 X180.289 Y60.419 E.01611
M204 S1000
G1 X180.409 Y60.057 F10800
M204 S800
;TYPE:External perimeter
G1 F1200
G1 X180.455 Y60.065 E.00146
G1 X180.963 Y60.283 E.01733
G1 X181.421 Y60.593 E.01734
G1 X181.793 Y61.002 E.01733
G1 X182.081 Y61.474 E.01734
G1 X182.249 Y62 E.01731
G1 X182.316 Y62.66 E.0208
G1 X182.316 Y150.467 E2.75312
G1 X182.302 Y150.763 E.00929
G1 X182.21 Y151.308 E.01733
G1 X181.992 Y151.816 E.01733
G1 X181.682 Y152.274 E.01734
G1 X181.273 Y152.646 E.01733
G1 X180.801 Y152.933 E.01732
G1 X180.275 Y153.102 E.01732
G1 X179.711 Y153.168 E.0178
G1 X65.437 Y153.168 E3.58298
G1 X65.142 Y153.154 E.00926
G1 X64.596 Y153.062 E.01736
G1 X64.088 Y152.845 E.01732
G1 X63.63 Y152.535 E.01734
G1 X63.259 Y152.126 E.01731
G1 X62.971 Y151.654 E.01734
G1 X62.802 Y151.127 E.01735
G1 X62.736 Y150.564 E.01777
G1 X62.736 Y62.66 E2.75616
G1 X62.75 Y62.365 E.00926
M73 P0 R192
G1 X62.842 Y61.82 E.01733
G1 X63.059 Y61.312 E.01732
G1 X63.369 Y60.854 E.01734
G1 X63.778 Y60.482 E.01733
G1 X64.25 Y60.194 E.01734
G1 X64.777 Y60.026 E.01734
G1 X65.34 Y59.959 E.01778
G1 X179.615 Y59.959 E3.58301
G1 X179.91 Y59.973 E.00926
G1 X180.349 Y60.047 E.01396
M204 S1000
;WIPE_START
G1 F8640
G1 X180.409 Y60.057 E-.01405
G1 X180.455 Y60.065 E-.01078
G1 X180.963 Y60.283 E-.12764
G1 X181.421 Y60.593 E-.1277
G1 X181.793 Y61.002 E-.12766
G1 X182.081 Y61.474 E-.12767
G1 X182.249 Y62 E-.1275
G1 X182.309 Y62.591 E-.137
;WIPE_END
G1 Z.6 F720
G1 X109.97 Y138.644 F10800
G1 Z.2 F720
G1 E.8 F2100
M204 S800
;TYPE:Perimeter
G1 F1200
G1 X110.159 Y138.694 E.00613
G1 X110.362 Y138.888 E.0088
G1 X110.448 Y139.187 E.00976
G1 X110.448 Y147.63 E.26472
G1 X110.37 Y147.917 E.00933
G1 X110.181 Y148.11 E.00847
G1 X109.882 Y148.195 E.00975
G1 X86.739 Y148.195 E.72563
G1 X86.441 Y148.11 E.00972
G1 X86.252 Y147.917 E.00847
G1 X86.174 Y147.63 E.00933
G1 X86.182 Y139.089 E.2678
G1 X86.287 Y138.848 E.00824
G1 X86.498 Y138.676 E.00854
G1 X86.739 Y138.621 E.00775
G1 X109.882 Y138.621 E.72563
G1 X109.912 Y138.629 E.00097
M204 S1000
G1 X109.882 Y138.998 F10800
M204 S800
;TYPE:External perimeter
G1 F1200
G1 X110.029 Y139.069 E.00512
G1 X110.071 Y139.187 E.00393
G1 X110.071 Y147.63 E.26472
G1 X110.019 Y147.76 E.00439
G1 X109.882 Y147.818 E.00466
G1 X86.739 Y147.818 E.72563
G1 X86.603 Y147.76 E.00464
G1 X86.551 Y147.63 E.00439
G1 X86.554 Y139.154 E.26576
G1 X86.642 Y139.025 E.0049
G1 X86.739 Y138.998 E.00316
G1 X109.822 Y138.998 E.72375
M204 S1000
;WIPE_START
G1 F8640
G1 X109.882 Y138.998 E-.01385
G1 X110.029 Y139.069 E-.03769
G1 X110.071 Y139.187 E-.02892
G1 X110.071 Y142.303 E-.71954
;WIPE_END
G1 Z.6 F720
G1 X181.621 Y61.806 F10800
G1 Z.2 F720
G1 E.8 F2100
M204 S800
;TYPE:Solid infill
;WIDTH:0.420478
G1 F1200
G1 X180.949 Y61.134 E.02984
G1 X180.737 Y60.976 E.0083
G1 X180.503 Y60.848 E.00837
G1 X180.253 Y60.754 E.00838
G1 X179.978 Y60.697 E.00882
G1 X181.578 Y62.297 E.07104
G1 X181.599 Y62.852 E.01744
G1 X179.423 Y60.676 E.09661
G1 X178.889 Y60.676 E.01676
G1 X181.599 Y63.386 E.12032
G1 X181.599 Y63.92 E.01676
G1 X178.355 Y60.676 E.14403
G1 X177.821 Y60.676 E.01676
G1 X181.599 Y64.454 E.16774
G1 X181.599 Y64.988 E.01676
G1 X177.287 Y60.676 E.19144
G1 X176.753 Y60.676 E.01676
G1 X181.599 Y65.522 E.21515
G1 X181.599 Y66.056 E.01676
G1 X176.219 Y60.676 E.23886
G1 X175.685 Y60.676 E.01676
G1 X181.599 Y66.59 E.26257
G1 X181.599 Y67.124 E.01676
G1 X175.151 Y60.676 E.28628
G1 X174.617 Y60.676 E.01676
G1 X181.599 Y67.658 E.30999
G1 X181.599 Y68.192 E.01676
G1 X174.083 Y60.676 E.33369
G1 X173.549 Y60.676 E.01676
G1 X181.599 Y68.726 E.3574
G1 X181.599 Y69.26 E.01676
G1 X173.015 Y60.676 E.38111
G1 X172.481 Y60.676 E.01676
G1 X181.599 Y69.794 E.40482
G1 X181.599 Y70.328 E.01676
G1 X171.947 Y60.676 E.42853
G1 X171.414 Y60.676 E.01673
G1 X181.599 Y70.862 E.45222
G1 X181.599 Y71.395 E.01673
G1 X170.88 Y60.676 E.4759
G1 X170.346 Y60.676 E.01676
G1 X181.599 Y71.929 E.49961
G1 X181.599 Y72.463 E.01676
G1 X169.812 Y60.676 E.52332
G1 X169.278 Y60.676 E.01676
G1 X181.599 Y72.997 E.54703
G1 X181.599 Y73.531 E.01676
G1 X168.744 Y60.676 E.57074
G1 X168.21 Y60.676 E.01676
G1 X181.599 Y74.065 E.59444
G1 X181.599 Y74.599 E.01676
G1 X167.676 Y60.676 E.61815
G1 X167.142 Y60.676 E.01676
M73 Q0 S199
G1 X181.599 Y75.133 E.64186
G1 X181.599 Y75.667 E.01676
G1 X166.608 Y60.676 E.66557
G1 X166.074 Y60.676 E.01676
G1 X181.599 Y76.201 E.68928
G1 X181.599 Y76.735 E.01676
G1 X165.54 Y60.676 E.71299
G1 X165.006 Y60.676 E.01676
G1 X181.599 Y77.269 E.73669
G1 X181.599 Y77.803 E.01676
G1 X164.472 Y60.676 E.7604
G1 X163.938 Y60.676 E.01676
M73 P1 R192
G1 X181.599 Y78.337 E.78411
G1 X181.599 Y78.871 E.01676
G1 X163.404 Y60.676 E.80782
G1 X162.87 Y60.676 E.01676
G1 X181.599 Y79.405 E.83153
G1 X181.599 Y79.939 E.01676
M73 Q1 S199
G1 X162.336 Y60.676 E.85524
G1 X161.802 Y60.676 E.01676
G1 X181.599 Y80.473 E.87895
G1 X181.599 Y81.007 E.01676
G1 X161.269 Y60.676 E.90263
G1 X160.735 Y60.676 E.01676
G1 X181.599 Y81.54 E.92632
G1 X181.599 Y82.074 E.01676
G1 X160.201 Y60.676 E.95003
G1 X159.667 Y60.676 E.01676
G1 X181.599 Y82.608 E.97374
G1 X181.599 Y83.142 E.01676
G1 X159.133 Y60.676 E.99744
G1 X158.599 Y60.676 E.01676
G1 X181.599 Y83.676 E1.02115
G1 X181.599 Y84.21 E.01676
G1 X158.065 Y60.676 E1.04486
G1 X157.531 Y60.676 E.01676
G1 X181.599 Y84.744 E1.06857
G1 X181.599 Y85.278 E.01676
G1 X156.997 Y60.676 E1.09228
G1 X156.463 Y60.676 E.01676
M73 P1 R191
G1 X181.599 Y85.812 E1.11599
G1 X181.599 Y86.346 E.01676
G1 X155.929 Y60.676 E1.13969
G1 X155.395 Y60.676 E.01676
G1 X181.599 Y86.88 E1.1634
G1 X181.599 Y87.414 E.01676
G1 X154.861 Y60.676 E1.18711
G1 X154.327 Y60.676 E.01676
G1 X181.599 Y87.948 E1.21082
G1 X181.599 Y88.482 E.01676
G1 X153.793 Y60.676 E1.23453
G1 X153.259 Y60.676 E.01676
G1 X181.599 Y89.016 E1.25824
G1 X181.599 Y89.55 E.01676
G1 X152.725 Y60.676 E1.28195
G1 X152.191 Y60.676 E.01676
G1 X181.599 Y90.084 E1.30565
G1 X181.599 Y90.618 E.01676
G1 X151.657 Y60.676 E1.32936
G1 X151.124 Y60.676 E.01673
G1 X181.599 Y91.152 E1.35305
G1 X181.599 Y91.685 E.01673
G1 X150.59 Y60.676 E1.37674
G1 X150.056 Y60.676 E.01676
G1 X181.599 Y92.219 E1.40044
G1 X181.599 Y92.753 E.01676
G1 X149.522 Y60.676 E1.42415
G1 X148.988 Y60.676 E.01676
G1 X181.599 Y93.287 E1.44786
G1 X181.599 Y93.821 E.01676
M73 Q1 S198
G1 X148.454 Y60.676 E1.47157
G1 X147.92 Y60.676 E.01676
G1 X181.599 Y94.355 E1.49528
G1 X181.599 Y94.889 E.01676
G1 X147.386 Y60.676 E1.51899
G1 X146.852 Y60.676 E.01676
G1 X181.599 Y95.423 E1.54269
G1 X181.599 Y95.957 E.01676
G1 X146.318 Y60.676 E1.5664
G1 X145.784 Y60.676 E.01676
G1 X181.599 Y96.491 E1.59011
G1 X181.599 Y97.025 E.01676
G1 X145.25 Y60.676 E1.61382
G1 X144.716 Y60.676 E.01676
G1 X181.599 Y97.559 E1.63753
G1 X181.599 Y98.093 E.01676
G1 X144.182 Y60.676 E1.66124
G1 X143.648 Y60.676 E.01676
G1 X181.599 Y98.627 E1.68495
G1 X181.599 Y99.161 E.01676
G1 X143.114 Y60.676 E1.70865
G1 X142.58 Y60.676 E.01676
M73 P1 R190
G1 X181.599 Y99.695 E1.73236
G1 X181.599 Y100.229 E.01676
G1 X142.046 Y60.676 E1.75607
G1 X141.512 Y60.676 E.01676
G1 X181.599 Y100.763 E1.77978
G1 X181.599 Y101.297 E.01676
G1 X140.979 Y60.676 E1.80347
G1 X140.445 Y60.676 E.01676
G1 X181.599 Y101.83 E1.82715
G1 X181.599 Y102.364 E.01676
G1 X139.911 Y60.676 E1.85086
G1 X139.377 Y60.676 E.01676
G1 X181.599 Y102.898 E1.87457
G1 X181.599 Y103.432 E.01676
G1 X138.843 Y60.676 E1.89828
G1 X138.309 Y60.676 E.01676
G1 X181.599 Y103.966 E1.92199
G1 X181.599 Y104.5 E.01676
G1 X137.775 Y60.676 E1.94569
G1 X137.241 Y60.676 E.01676
G1 X181.599 Y105.034 E1.9694
G1 X181.599 Y105.568 E.01676
M73 Q1 S197
G1 X136.707 Y60.676 E1.99311
G1 X136.173 Y60.676 E.01676
M73 P2 R190
G1 X181.599 Y106.102 E2.01682
G1 X181.599 Y106.636 E.01676
G1 X135.639 Y60.676 E2.04053
G1 X135.105 Y60.676 E.01676
G1 X181.599 Y107.17 E2.06424
G1 X181.599 Y107.704 E.01676
M73 Q2 S197
G1 X134.571 Y60.676 E2.08795
G1 X134.037 Y60.676 E.01676
G1 X181.599 Y108.238 E2.11165
G1 X181.599 Y108.772 E.01676
G1 X133.503 Y60.676 E2.13536
G1 X132.969 Y60.676 E.01676
G1 X181.599 Y109.306 E2.15907
G1 X181.599 Y109.84 E.01676
M73 P2 R189
G1 X132.435 Y60.676 E2.18278
G1 X131.901 Y60.676 E.01676
G1 X181.599 Y110.374 E2.20649
G1 X181.599 Y110.908 E.01676
G1 X131.367 Y60.676 E2.2302
G1 X130.834 Y60.676 E.01673
G1 X181.599 Y111.442 E2.25388
G1 X181.599 Y111.975 E.01673
G1 X130.3 Y60.676 E2.27757
G1 X129.766 Y60.676 E.01676
G1 X181.599 Y112.509 E2.30128
G1 X181.599 Y113.043 E.01676
G1 X129.232 Y60.676 E2.32499
G1 X128.698 Y60.676 E.01676
G1 X181.599 Y113.577 E2.34869
G1 X181.599 Y114.111 E.01676
G1 X128.164 Y60.676 E2.3724
G1 X127.63 Y60.676 E.01676
M73 Q2 S196
G1 X181.599 Y114.645 E2.39611
G1 X181.599 Y115.179 E.01676
G1 X127.096 Y60.676 E2.41982
G1 X126.562 Y60.676 E.01676
G1 X181.599 Y115.713 E2.44353
G1 X181.599 Y116.247 E.01676
G1 X126.028 Y60.676 E2.46724
