; generated by PrusaSlicer 2.7.0+win64 on 2024-04-03 at 11:35:57 UTC


;
;
; 

; external perimeters extrusion width = 0.45mm
; perimeters extrusion width = 0.45mm
; infill extrusion width = 0.45mm
; solid infill extrusion width = 0.45mm
; top infill extrusion width = 0.40mm
; support material extrusion width = 0.35mm
; first layer extrusion width = 0.42mm

; external perimeters extrusion width = 0.45mm
; perimeters extrusion width = 0.45mm
; infill extrusion width = 0.45mm
; solid infill extrusion width = 0.45mm
; top infill extrusion width = 0.40mm
; support material extrusion width = 0.35mm
; first layer extrusion width = 0.42mm

M73 P0 R210
M73 Q0 S212
M201 X1000 Y1000 Z200 E5000 ; sets maximum accelerations, mm/sec^2
M203 X200 Y200 Z12 E120 ; sets maximum feedrates, mm / sec
M204 S1250 T1250 ; sets acceleration (S) and retract acceleration (R), mm/sec^2
M205 X8.00 Y8.00 Z0.40 E4.50 ; sets the jerk limits, mm/sec
M205 S0 T0 ; sets the minimum extruding and travel feed rate, mm/sec

; printing object BackPlate.stl id:0 copy 0
; stop printing object BackPlate.stl id:0 copy 0

;TYPE:Custom
M862.3 P "MK3S" ; printer model check
M862.1 P0.4 ; nozzle diameter check
M115 U3.13.2 ; tell printer latest fw version
G90 ; use absolute coordinates
M83 ; extruder relative mode
M104 S215 ; set extruder temp
M140 S60 ; set bed temp
M190 S60 ; wait for bed temp
M109 S215 ; wait for extruder temp
G28 W ; home all without mesh bed level
G80 X64.892 Y67.2535 W125.531 H80.1994 ; mesh bed levelling

G1 Z0.2 F720
G1 Y-3 F1000 ; go outside print area
G92 E0
G1 X60 E9 F1000 ; intro line
G1 X100 E12.5 F1000 ; intro line

G92 E0
M221 S95

; Don't change E values below. Excessive value can damage the printer.

M907 E538 ; set extruder motor current
G21 ; set units to millimeters
G90 ; use absolute coordinates
M83 ; use relative distances for extrusion
M900 K0.05 ; Filament gcode LA 1.5
M900 K30 ; Filament gcode LA 1.0

M107
;LAYER_CHANGE
;Z:0.2
;HEIGHT:0.2
;BEFORE_LAYER_CHANGE
G92 E0.0
;0.2


G1 E-.8 F2100
G1 Z.2 F720
;AFTER_LAYER_CHANGE
;0.2
G1 X67.129 Y68.734 F10800
G1 Z.2 F720
G1 E.8 F2100
M204 S800
;TYPE:Skirt/Brim
;WIDTH:0.42
G1 F1200
G1 X67.732 Y68.273 E.0238
G1 X68.4 Y67.902 E.02396
G1 X69.12 Y67.634 E.02409
G1 X70.458 Y67.442 E.04238
G1 X185.047 Y67.45 E3.59286
G1 X185.81 Y67.54 E.02409
G1 X186.916 Y67.902 E.03649
G1 X187.86 Y68.468 E.03451
G1 X188.716 Y69.269 E.03676
G1 X189.323 Y70.111 E.03255
G1 X189.833 Y71.19 E.03742
G1 X190.102 Y72.151 E.03129
G1 X190.231 Y73.354 E.03794
G1 X190.235 Y144.887 E2.24287
G1 X189.843 Y146.194 E.04278
M73 P0 R209
G1 X188.797 Y147.071 E.0428
G1 X187.858 Y147.264 E.03006
G1 X67.458 Y147.264 E3.77506
G1 X66.151 Y146.873 E.04277
G1 X65.274 Y145.827 E.0428
G1 X65.081 Y144.887 E.03009
G1 X65.084 Y73.354 E2.24287
G1 X65.27 Y71.897 E.04605
G1 X65.774 Y70.509 E.0463
G1 X66.599 Y69.269 E.0467
G1 X67.087 Y68.777 E.02173
M204 S1000
; printing object BackPlate.stl id:0 copy 0
;WIPE_START
G1 F8640
G1 X67.129 Y68.734 E-.01388
G1 X67.732 Y68.273 E-.17526
G1 X68.4 Y67.902 E-.17644
G1 X69.12 Y67.634 E-.17739
G1 X70.222 Y67.476 E-.25703
;WIPE_END
G1 Z.6 F720
G1 X187.071 Y144.1 F10800
G1 Z.2 F720
G1 E.8 F2100
M204 S800
;TYPE:Perimeter
;WIDTH:0.419999
G1 F1200
G1 X68.245 Y144.1 E3.7257
G1 X68.245 Y73.798 E2.20427
G1 X68.332 Y72.984 E.02567
G1 X68.486 Y72.529 E.01506
G1 X68.697 Y72.04 E.0167
G1 X69.019 Y71.594 E.01725
G1 X69.412 Y71.235 E.01669
G1 X69.926 Y70.974 E.01807
G1 X70.489 Y70.886 E.01787
G1 X184.238 Y70.886 E3.56651
G1 X185.124 Y70.91 E.02779
G1 X185.65 Y71.083 E.01736
G1 X186.057 Y71.36 E.01544
G1 X186.432 Y71.759 E.01717
G1 X186.735 Y72.254 E.0182
G1 X186.929 Y72.826 E.01894
G1 X187.005 Y73.192 E.01172
G1 X187.071 Y73.87 E.02136
G1 X187.071 Y144.04 E2.20013
M204 S1000
G1 X187.448 Y144.477 F10800
M204 S800
;TYPE:External perimeter
G1 F1200
G1 X67.868 Y144.477 E3.74934
G1 X67.868 Y73.778 E2.21671
G1 X67.962 Y72.902 E.02762
M73 Q0 S211
G1 X68.177 Y72.266 E.02105
G1 X68.366 Y71.859 E.01407
G1 X68.654 Y71.432 E.01615
G1 X69.02 Y71.068 E.01618
G1 X69.495 Y70.745 E.01801
G1 X69.973 Y70.575 E.01591
G1 X70.474 Y70.509 E.01584
G1 X184.238 Y70.509 E3.56698
G1 X185.184 Y70.537 E.02967
G1 X185.679 Y70.686 E.01621
G1 X186.121 Y70.926 E.01577
G1 X186.498 Y71.258 E.01575
G1 X186.818 Y71.65 E.01587
G1 X187.082 Y72.101 E.01639
G1 X187.354 Y72.902 E.02652
G1 X187.448 Y73.87 E.03049
G1 X187.448 Y144.417 E2.21195
M204 S1000
;WIPE_START
G1 F8640
G1 X187.448 Y144.477 E-.01385
G1 X184.043 Y144.477 E-.78615
;WIPE_END
G1 Z.6 F720
G1 X182.846 Y73.656 F10800
G1 Z.2 F720
G1 E.8 F2100
M204 S800
;TYPE:Perimeter
G1 F1200
G1 X182.914 Y73.65 E.00214
G1 X183.389 Y73.721 E.01506
G1 X183.858 Y73.92 E.01597
G1 X184.204 Y74.16 E.0132
G1 X184.524 Y74.495 E.01453
G1 X184.776 Y74.886 E.01459
G1 X184.958 Y75.322 E.01481
G1 X185.063 Y75.776 E.01461
G1 X185.094 Y76.249 E.01486
G1 X185.048 Y76.721 E.01487
G1 X184.927 Y77.175 E.01473
G1 X184.727 Y77.609 E.01498
G1 X184.455 Y77.995 E.01481
G1 X184.112 Y78.321 E.01484
G1 X183.709 Y78.567 E.0148
G1 X183.26 Y78.716 E.01483
G1 X182.79 Y78.757 E.01479
G1 X182.326 Y78.685 E.01472
G1 X181.894 Y78.51 E.01461
G1 X181.445 Y78.179 E.01749
G1 X181.191 Y77.911 E.01158
G1 X180.939 Y77.52 E.01459
G1 X180.736 Y76.997 E.01759
G1 X180.652 Y76.63 E.0118
G1 X180.622 Y76.158 E.01483
G1 X180.667 Y75.685 E.0149
G1 X180.788 Y75.232 E.0147
G1 X180.988 Y74.797 E.01501
G1 X181.261 Y74.411 E.01482
G1 X181.603 Y74.086 E.01479
G1 X182.006 Y73.839 E.01482
G1 X182.454 Y73.69 E.0148
G1 X182.786 Y73.661 E.01045
M204 S1000
G1 X182.829 Y74.029 F10800
M204 S800
;TYPE:External perimeter
G1 F1200
G1 X182.871 Y74.024 E.00133
G1 X183.258 Y74.074 E.01223
G1 X183.652 Y74.236 E.01336
G1 X183.937 Y74.426 E.01074
G1 X184.295 Y74.831 E.01695
G1 X184.43 Y75.038 E.00775
G1 X184.592 Y75.413 E.01281
G1 X184.687 Y75.807 E.01271
G1 X184.718 Y76.218 E.01292
G1 X184.682 Y76.63 E.01297
G1 X184.581 Y77.023 E.01272
G1 X184.414 Y77.398 E.01287
G1 X184.188 Y77.729 E.01257
G1 X183.906 Y78.005 E.01237
G1 X183.578 Y78.213 E.01218
G1 X183.215 Y78.342 E.01208
G1 X182.835 Y78.382 E.01198
G1 X182.457 Y78.332 E.01196
G1 X182.1 Y78.194 E.012
G1 X181.712 Y77.913 E.01502
G1 X181.504 Y77.701 E.00931
G1 X181.285 Y77.369 E.01247
G1 X181.102 Y76.906 E.01561
G1 X181.028 Y76.599 E.0099
G1 X180.998 Y76.188 E.01292
G1 X181.033 Y75.776 E.01296
G1 X181.134 Y75.383 E.01272
G1 X181.301 Y75.008 E.01287
G1 X181.527 Y74.678 E.01254
G1 X181.809 Y74.401 E.01239
G1 X182.137 Y74.193 E.01218
G1 X182.5 Y74.064 E.01208
G1 X182.77 Y74.035 E.00851
M204 S1000
;WIPE_START
G1 F8640
G1 X182.829 Y74.029 E-.01369
G1 X182.871 Y74.024 E-.00977
G1 X183.258 Y74.074 E-.0901
G1 X183.652 Y74.236 E-.09837
G1 X183.937 Y74.426 E-.07909
G1 X184.295 Y74.831 E-.12481
G1 X184.43 Y75.038 E-.05706
G1 X184.592 Y75.413 E-.09432
G1 X184.687 Y75.807 E-.09358
G1 X184.718 Y76.218 E-.09517
G1 X184.701 Y76.408 E-.04404
;WIPE_END
G1 Z.6 F720
G1 X173.724 Y86.595 F10800
G1 Z.2 F720
G1 E.8 F2100
M204 S800
;TYPE:Perimeter
G1 F1200
G1 X173.767 Y86.566 E.00163
G1 X174.17 Y86.399 E.01368
G1 X174.716 Y86.301 E.01739
G1 X175.238 Y86.325 E.01638
G1 X175.74 Y86.483 E.0165
G1 X176.242 Y86.783 E.01834
G1 X176.587 Y87.128 E.0153
G1 X176.804 Y87.452 E.01223
G1 X176.96 Y87.809 E.01222
G1 X177.053 Y88.188 E.01224
G1 X177.078 Y88.577 E.01222
G1 X177.036 Y88.964 E.01221
G1 X176.927 Y89.338 E.01221
G1 X176.754 Y89.688 E.01224
G1 X176.524 Y90.002 E.0122
G1 X176.242 Y90.272 E.01224
G1 X175.918 Y90.488 E.01221
G1 X175.561 Y90.645 E.01223
G1 X175.182 Y90.738 E.01224
G1 X174.793 Y90.763 E.01222
G1 X174.406 Y90.721 E.01221
G1 X174.032 Y90.611 E.01222
G1 X173.682 Y90.439 E.01223
G1 X173.368 Y90.208 E.01222
G1 X173.098 Y89.927 E.01222
G1 X172.882 Y89.603 E.01221
G1 X172.747 Y89.311 E.01009
G1 X172.632 Y88.867 E.01438
G1 X172.607 Y88.478 E.01222
G1 X172.649 Y88.091 E.01221
G1 X172.759 Y87.716 E.01225
G1 X172.931 Y87.367 E.0122
G1 X173.162 Y87.052 E.01225
G1 X173.443 Y86.783 E.0122
G1 X173.674 Y86.629 E.0087
M204 S1000
G1 X174.09 Y86.836 F10800
M204 S800
;TYPE:External perimeter
G1 F1200
G1 X174.237 Y86.77 E.00505
G1 X174.785 Y86.671 E.01746
G1 X175.182 Y86.698 E.01248
G1 X175.58 Y86.825 E.0131
G1 X176.026 Y87.092 E.0163
G1 X176.278 Y87.344 E.01117
G1 X176.462 Y87.611 E.01017
G1 X176.596 Y87.907 E.01019
G1 X176.677 Y88.22 E.01014
G1 X176.703 Y88.544 E.01019
G1 X176.672 Y88.866 E.01014
G1 X176.585 Y89.179 E.01019
G1 X176.445 Y89.472 E.01018
G1 X176.257 Y89.736 E.01016
G1 X176.026 Y89.963 E.01015
G1 X175.758 Y90.146 E.01018
G1 X175.463 Y90.281 E.01017
G1 X175.149 Y90.362 E.01017
G1 X174.826 Y90.387 E.01016
G1 X174.503 Y90.356 E.01017
G1 X174.191 Y90.27 E.01015
G1 X173.898 Y90.13 E.01018
G1 X173.634 Y89.942 E.01016
G1 X173.407 Y89.71 E.01018
G1 X173.224 Y89.443 E.01015
G1 X173.096 Y89.17 E.00945
G1 X173.008 Y88.834 E.01089
G1 X172.983 Y88.511 E.01016
G1 X173.014 Y88.188 E.01017
G1 X173.1 Y87.876 E.01015
G1 X173.24 Y87.583 E.01018
G1 X173.428 Y87.319 E.01016
G1 X173.66 Y87.092 E.01018
G1 X173.927 Y86.908 E.01017
G1 X174.035 Y86.86 E.00371
M204 S1000
;WIPE_START
G1 F8640
G1 X174.09 Y86.836 E-.01386
G1 X174.237 Y86.77 E-.03721
G1 X174.785 Y86.671 E-.12858
G1 X175.182 Y86.698 E-.09188
G1 X175.58 Y86.825 E-.09646
G1 X176.026 Y87.092 E-.12003
G1 X176.278 Y87.344 E-.08229
G1 X176.462 Y87.611 E-.07487
G1 X176.596 Y87.907 E-.07502
G1 X176.677 Y88.22 E-.07465
G1 X176.679 Y88.242 E-.00515
;WIPE_END
G1 Z.6 F720
G1 X173.724 Y134.615 F10800
G1 Z.2 F720
G1 E.8 F2100
M204 S800
;TYPE:Perimeter
G1 F1200
G1 X173.767 Y134.586 E.00163
G1 X174.17 Y134.419 E.01368
G1 X174.716 Y134.321 E.01739
G1 X175.243 Y134.346 E.01654
G1 X175.654 Y134.463 E.0134
G1 X176.003 Y134.636 E.01221
G1 X176.318 Y134.866 E.01223
G1 X176.587 Y135.148 E.01222
G1 X176.804 Y135.472 E.01223
G1 X176.96 Y135.829 E.01222
G1 X177.053 Y136.208 E.01224
G1 X177.078 Y136.597 E.01222
G1 X177.036 Y136.984 E.01221
G1 X176.904 Y137.402 E.01374
G1 X176.614 Y137.905 E.0182
G1 X176.242 Y138.292 E.01683
G1 X175.918 Y138.508 E.01221
G1 X175.561 Y138.665 E.01223
G1 X175.182 Y138.758 E.01224
G1 X174.793 Y138.783 E.01222
G1 X174.406 Y138.741 E.01221
G1 X174.032 Y138.631 E.01222
G1 X173.682 Y138.459 E.01223
G1 X173.368 Y138.228 E.01222
G1 X173.098 Y137.947 E.01222
G1 X172.882 Y137.623 E.01221
G1 X172.725 Y137.266 E.01223
G1 X172.632 Y136.887 E.01224
G1 X172.607 Y136.498 E.01222
G1 X172.649 Y136.111 E.01221
G1 X172.759 Y135.736 E.01225
G1 X172.931 Y135.387 E.0122
G1 X173.162 Y135.072 E.01225
G1 X173.443 Y134.803 E.0122
G1 X173.674 Y134.649 E.0087
M204 S1000
G1 X174.09 Y134.856 F10800
M204 S800
;TYPE:External perimeter
G1 F1200
G1 X174.237 Y134.79 E.00505
G1 X174.783 Y134.692 E.01739
G1 X175.182 Y134.718 E.01254
G1 X175.494 Y134.805 E.01016
G1 X175.787 Y134.945 E.01018
G1 X176.051 Y135.133 E.01016
G1 X176.278 Y135.364 E.01015
G1 X176.462 Y135.631 E.01017
G1 X176.596 Y135.927 E.01019
G1 X176.677 Y136.24 E.01014
G1 X176.703 Y136.564 E.01019
G1 X176.672 Y136.886 E.01014
G1 X176.577 Y137.214 E.01071
G1 X176.287 Y137.716 E.01818
G1 X176.026 Y137.983 E.01171
G1 X175.758 Y138.166 E.01018
G1 X175.463 Y138.301 E.01017
G1 X175.149 Y138.382 E.01017
G1 X174.826 Y138.407 E.01016
G1 X174.503 Y138.376 E.01017
G1 X174.191 Y138.29 E.01015
G1 X173.898 Y138.15 E.01018
G1 X173.634 Y137.962 E.01016
G1 X173.407 Y137.73 E.01018
G1 X173.224 Y137.463 E.01015
G1 X173.089 Y137.168 E.01017
G1 X173.008 Y136.854 E.01017
G1 X172.983 Y136.531 E.01016
G1 X173.014 Y136.208 E.01017
G1 X173.1 Y135.896 E.01015
G1 X173.24 Y135.603 E.01018
G1 X173.428 Y135.339 E.01016
G1 X173.66 Y135.112 E.01018
G1 X173.927 Y134.928 E.01017
G1 X174.035 Y134.88 E.00371
M204 S1000
;WIPE_START
G1 F8640
G1 X174.09 Y134.856 E-.01386
G1 X174.237 Y134.79 E-.03721
G1 X174.783 Y134.692 E-.12809
G1 X175.182 Y134.718 E-.09233
G1 X175.494 Y134.805 E-.07479
G1 X175.787 Y134.945 E-.07498
G1 X176.051 Y135.133 E-.07484
G1 X176.278 Y135.364 E-.07478
G1 X176.462 Y135.631 E-.07487
G1 X176.596 Y135.927 E-.07502
G1 X176.677 Y136.24 E-.07465
G1 X176.679 Y136.26 E-.00458
;WIPE_END
G1 Z.6 F720
G1 X80.33 Y138.745 F10800
G1 Z.2 F720
M73 P0 R208
G1 E.8 F2100
M204 S800
;TYPE:Perimeter
G1 F1200
G1 X80.266 Y138.741 E.00201
G1 X79.848 Y138.609 E.01374
G1 X79.345 Y138.318 E.01822
G1 X78.958 Y137.947 E.01681
G1 X78.742 Y137.622 E.01224
G1 X78.585 Y137.266 E.0122
G1 X78.492 Y136.887 E.01224
G1 X78.467 Y136.498 E.01222
G1 X78.509 Y136.11 E.01224
G1 X78.619 Y135.736 E.01222
G1 X78.791 Y135.387 E.0122
G1 X79.022 Y135.072 E.01225
G1 X79.303 Y134.803 E.0122
G1 X79.627 Y134.586 E.01223
G1 X80.03 Y134.419 E.01368
G1 X80.576 Y134.321 E.01739
G1 X81.09 Y134.343 E.01613
G1 X81.514 Y134.463 E.01382
G1 X81.863 Y134.636 E.01221
G1 X82.178 Y134.866 E.01223
G1 X82.447 Y135.148 E.01222
G1 X82.664 Y135.472 E.01223
G1 X82.82 Y135.829 E.01222
G1 X82.913 Y136.208 E.01224
G1 X82.938 Y136.597 E.01222
G1 X82.896 Y136.984 E.01221
G1 X82.787 Y137.358 E.01221
G1 X82.614 Y137.708 E.01224
G1 X82.384 Y138.022 E.0122
G1 X82.102 Y138.292 E.01224
G1 X81.778 Y138.508 E.01221
G1 X81.373 Y138.676 E.01375
G1 X80.801 Y138.777 E.01821
G1 X80.39 Y138.749 E.01292
M204 S1000
G1 X80.179 Y138.323 F10800
M204 S800
;TYPE:External perimeter
G1 F1200
G1 X80.036 Y138.282 E.00466
G1 X79.534 Y137.992 E.01818
G1 X79.267 Y137.73 E.01173
G1 X79.083 Y137.463 E.01017
G1 X78.949 Y137.168 E.01016
G1 X78.868 Y136.854 E.01017
G1 X78.843 Y136.531 E.01016
G1 X78.874 Y136.208 E.01017
G1 X78.96 Y135.896 E.01015
G1 X79.1 Y135.603 E.01018
G1 X79.288 Y135.339 E.01016
G1 X79.52 Y135.112 E.01018
G1 X79.787 Y134.928 E.01017
G1 X80.097 Y134.79 E.01064
G1 X80.643 Y134.692 E.01739
G1 X81.042 Y134.718 E.01254
G1 X81.354 Y134.805 E.01016
G1 X81.647 Y134.945 E.01018
G1 X81.911 Y135.133 E.01016
G1 X82.138 Y135.364 E.01015
G1 X82.322 Y135.631 E.01017
G1 X82.456 Y135.927 E.01019
G1 X82.537 Y136.24 E.01014
G1 X82.563 Y136.564 E.01019
G1 X82.532 Y136.886 E.01014
G1 X82.445 Y137.199 E.01019
G1 X82.305 Y137.492 E.01018
G1 X82.117 Y137.756 E.01016
G1 X81.886 Y137.983 E.01015
G1 X81.618 Y138.166 E.01018
G1 X81.307 Y138.304 E.01067
G1 X80.735 Y138.405 E.01821
G1 X80.363 Y138.376 E.0117
G1 X80.237 Y138.34 E.00411
M204 S1000
;WIPE_START
G1 F8640
G1 X80.179 Y138.323 E-.01396
G1 X80.036 Y138.282 E-.03435
G1 X79.534 Y137.992 E-.13386
G1 X79.267 Y137.73 E-.08638
G1 X79.083 Y137.463 E-.07487
G1 X78.949 Y137.168 E-.07481
G1 X78.868 Y136.854 E-.07488
G1 X78.843 Y136.531 E-.0748
G1 X78.874 Y136.208 E-.07492
G1 X78.96 Y135.896 E-.07473
G1 X79.1 Y135.603 E-.07498
G1 X79.119 Y135.577 E-.00746
;WIPE_END
G1 Z.6 F720
G1 X82.903 Y88.897 F10800
G1 Z.2 F720
G1 E.8 F2100
M204 S800
;TYPE:Perimeter
G1 F1200
G1 X82.9 Y88.946 E.00154
G1 X82.787 Y89.338 E.01279
G1 X82.614 Y89.688 E.01224
G1 X82.384 Y90.002 E.0122
G1 X82.102 Y90.272 E.01224
G1 X81.778 Y90.488 E.01221
G1 X81.421 Y90.645 E.01223
G1 X81.042 Y90.738 E.01224
G1 X80.653 Y90.763 E.01222
G1 X80.266 Y90.721 E.01221
G1 X79.892 Y90.611 E.01222
G1 X79.542 Y90.439 E.01223
G1 X79.228 Y90.208 E.01222
G1 X78.958 Y89.927 E.01222
G1 X78.742 Y89.602 E.01224
G1 X78.574 Y89.198 E.01372
G1 X78.473 Y88.625 E.01824
G1 X78.509 Y88.09 E.01681
G1 X78.619 Y87.716 E.01222
G1 X78.791 Y87.367 E.0122
G1 X79.022 Y87.052 E.01225
G1 X79.391 Y86.721 E.01554
G1 X79.892 Y86.443 E.01796
G1 X80.576 Y86.301 E.0219
G1 X81.139 Y86.334 E.01768
G1 X81.514 Y86.443 E.01224
G1 X81.863 Y86.616 E.01221
G1 X82.178 Y86.846 E.01223
G1 X82.447 Y87.128 E.01222
G1 X82.664 Y87.452 E.01223
G1 X82.831 Y87.857 E.01374
G1 X82.932 Y88.429 E.01821
G1 X82.907 Y88.837 E.01282
M204 S1000
G1 X82.511 Y88.94 F10800
M204 S800
;TYPE:External perimeter
G1 F1200
G1 X82.445 Y89.179 E.00777
G1 X82.305 Y89.472 E.01018
G1 X82.117 Y89.736 E.01016
G1 X81.886 Y89.963 E.01015
G1 X81.618 Y90.146 E.01018
G1 X81.323 Y90.281 E.01017
G1 X81.009 Y90.362 E.01017
G1 X80.686 Y90.387 E.01016
G1 X80.363 Y90.356 E.01017
G1 X80.051 Y90.27 E.01015
G1 X79.758 Y90.13 E.01018
G1 X79.494 Y89.942 E.01016
G1 X79.267 Y89.71 E.01018
G1 X79.084 Y89.443 E.01015
G1 X78.946 Y89.132 E.01067
G1 X78.845 Y88.56 E.01821
G1 X78.874 Y88.188 E.0117
G1 X78.96 Y87.876 E.01015
G1 X79.1 Y87.583 E.01018
G1 X79.288 Y87.319 E.01016
G1 X79.607 Y87.03 E.0135
