; generated by PrusaSlicer 2.6.1+win64 on 2023-10-20 at 14:55:10 UTC


;
;
; 

; external perimeters extrusion width = 0.45mm
; perimeters extrusion width = 0.45mm
; infill extrusion width = 0.45mm
; solid infill extrusion width = 0.45mm
; top infill extrusion width = 0.40mm
; first layer extrusion width = 0.42mm

M73 P0 R103
M73 Q0 S107
M201 X1000 Y1000 Z200 E5000 ; sets maximum accelerations, mm/sec^2
M203 X200 Y200 Z12 E120 ; sets maximum feedrates, mm / sec
M204 S1250 T1250 ; sets acceleration (S) and retract acceleration (R), mm/sec^2
M205 X8.00 Y8.00 Z0.40 E4.50 ; sets the jerk limits, mm/sec
M205 S0 T0 ; sets the minimum extruding and travel feed rate, mm/sec
;TYPE:Custom
M862.3 P "MK3S" ; printer model check
M862.1 P0.4 ; nozzle diameter check
M115 U3.12.2 ; tell printer latest fw version
G90 ; use absolute coordinates
M83 ; extruder relative mode
M104 S215 ; set extruder temp
M140 S80 ; set bed temp
M190 S80 ; wait for bed temp
M109 S215 ; wait for extruder temp
G28 W ; home all without mesh bed level
G80 ; mesh bed leveling

G1 Z0.2 F720
G1 Y-3 F1000 ; go outside print area
G92 E0
G1 X60 E9 F1000 ; intro line
G1 X100 E12.5 F1000 ; intro line

G92 E0
M221 S95

; Don't change E values below. Excessive value can damage the printer.

M907 E538 ; set extruder motor current
G21 ; set units to millimeters
G90 ; use absolute coordinates
M83 ; use relative distances for extrusion
M900 K0.05 ; Filament gcode LA 1.5
M900 K30 ; Filament gcode LA 1.0
M107
;LAYER_CHANGE
;Z:0.2
;HEIGHT:0.2
;BEFORE_LAYER_CHANGE
G92 E0.0
;0.2


G1 E-.8 F2100
G1 Z.4 F720
;AFTER_LAYER_CHANGE
;0.2
G1 X48.609 Y74.215 F10800
G1 Z.2 F720
G1 E.8 F2100
M204 S800
;TYPE:Skirt/Brim
;WIDTH:0.42
G1 F1200
G1 X49.237 Y73.803 E.02355
G1 X50.893 Y73.031 E.05729
G1 X52.911 Y72.475 E.06563
G1 X54.974 Y72.288 E.06495
G1 X195.052 Y72.288 E4.39205
G1 X197.14 Y72.485 E.06576
G1 X198.419 Y72.798 E.04129
G1 X199.383 Y73.139 E.03206
G1 X201.246 Y74.092 E.06561
G1 X202.174 Y74.742 E.03552
G1 X202.992 Y75.438 E.03368
G1 X203.903 Y76.389 E.04129
G1 X204.532 Y77.194 E.03203
G1 X205.115 Y78.095 E.03365
G1 X205.639 Y79.101 E.03556
G1 X206.341 Y81.073 E.06563
G1 X206.58 Y82.251 E.03769
G1 X206.696 Y83.382 E.03565
G1 X206.712 Y126.026 E1.33707
G1 X206.605 Y127.584 E.04897
G1 X206.299 Y129.085 E.04803
G1 X205.8 Y130.533 E.04802
G1 X205.115 Y131.905 E.04808
G1 X204.226 Y133.215 E.04964
G1 X203.243 Y134.321 E.0464
G1 X202.044 Y135.357 E.04968
G1 X200.763 Y136.197 E.04803
G1 X199.107 Y136.969 E.05729
G1 X197.089 Y137.525 E.06563
G1 X195.026 Y137.712 E.06495
G1 X54.434 Y137.699 E4.40816
G1 X52.86 Y137.515 E.04969
G1 X51.095 Y137.042 E.05729
G1 X49.641 Y136.415 E.04965
G1 X48.194 Y135.532 E.05315
G1 X46.794 Y134.358 E.05729
G1 X45.742 Y133.174 E.04966
G1 X44.803 Y131.763 E.05314
G1 X44.031 Y130.107 E.05729
G1 X43.475 Y128.089 E.06563
G1 X43.288 Y126.107 E.06242
G1 X43.288 Y83.974 E1.32105
G1 X43.374 Y82.578 E.04385
G1 X43.672 Y81.023 E.04964
G1 X44.158 Y79.569 E.04807
G1 X44.885 Y78.095 E.05153
G1 X45.774 Y76.785 E.04964
G1 X46.757 Y75.679 E.0464
G1 X47.956 Y74.643 E.04968
G1 X48.559 Y74.248 E.0226
M204 S1000
;WIPE_START
G1 F8640
G1 X49.237 Y73.803 E-.18726
G1 X50.893 Y73.031 E-.42188
G1 X51.69 Y72.811 E-.19086
;WIPE_END
G1 Z.6 F720
G1 X49.936 Y76.517 F10800
G1 Z.2 F720
G1 E.8 F2100
M204 S800
G1 F1200
G1 X50.906 Y75.929 E.03557
G1 X51.513 Y75.65 E.02095
G1 X52.152 Y75.411 E.02139
G1 X52.916 Y75.195 E.02489
G1 X53.702 Y75.044 E.0251
G1 X54.922 Y74.951 E.03836
G1 X195.055 Y74.951 E4.39377
G1 X195.894 Y74.996 E.02634
G1 X196.728 Y75.118 E.02643
G1 X197.558 Y75.321 E.02679
G1 X198.451 Y75.635 E.02968
G1 X199.225 Y75.998 E.0268
G1 X199.963 Y76.434 E.02688
G1 X200.655 Y76.936 E.02681
G1 X201.302 Y77.507 E.02706
G1 X201.887 Y78.131 E.02682
G1 X202.415 Y78.814 E.02707
G1 X202.876 Y79.544 E.02707
G1 X203.265 Y80.317 E.02713
G1 X203.571 Y81.101 E.02639
G1 X203.814 Y81.955 E.02784
G1 X203.969 Y82.804 E.02706
G1 X204.042 Y83.653 E.02672
G1 X204.028 Y126.612 E1.34695
G1 X203.893 Y127.678 E.03369
M73 Q0 S106
G1 X203.738 Y128.35 E.02162
G1 X203.537 Y129.005 E.02148
G1 X202.982 Y130.266 E.0432
G1 X202.628 Y130.868 E.0219
G1 X202.239 Y131.432 E.02148
G1 X201.33 Y132.468 E.04321
G1 X200.822 Y132.927 E.02147
G1 X200.27 Y133.357 E.02194
G1 X199.094 Y134.071 E.04314
G1 X198.487 Y134.35 E.02095
G1 X197.848 Y134.589 E.02139
G1 X197.084 Y134.805 E.02489
G1 X196.298 Y134.956 E.0251
G1 X195.078 Y135.049 E.03836
G1 X54.893 Y135.048 E4.3954
G1 X53.715 Y134.958 E.03704
G1 X53.002 Y134.825 E.02274
G1 X52.284 Y134.632 E.02331
G1 X51.074 Y134.154 E.04079
G1 X50.368 Y133.773 E.02515
G1 X49.702 Y133.336 E.02498
G1 X49.165 Y132.916 E.02138
G1 X48.669 Y132.467 E.02098
G1 X47.759 Y131.428 E.04331
G1 X47.349 Y130.831 E.02271
G1 X46.979 Y130.189 E.02323
G1 X46.67 Y129.533 E.02274
G1 X46.413 Y128.854 E.02276
G1 X46.195 Y128.085 E.02506
G1 X46.044 Y127.299 E.0251
G1 X45.951 Y126.077 E.03843
G1 X45.972 Y83.388 E1.33848
G1 X46.107 Y82.322 E.03369
G1 X46.262 Y81.65 E.02162
G1 X46.463 Y80.995 E.02148
G1 X47.017 Y79.736 E.04313
G1 X47.372 Y79.133 E.02194
G1 X47.76 Y78.569 E.02146
G1 X48.67 Y77.532 E.04326
G1 X49.178 Y77.073 E.02147
G1 X49.73 Y76.643 E.02194
G1 X49.885 Y76.549 E.00568
M204 S1000
G1 X50.08 Y76.87 F10800
M204 S800
G1 F1200
G1 X51.073 Y76.267 E.03643
G1 X51.664 Y75.996 E.02039
G1 X52.276 Y75.767 E.02049
G1 X53.01 Y75.56 E.02391
G1 X53.762 Y75.416 E.02401
G1 X54.929 Y75.328 E.03669
G1 X195.05 Y75.328 E4.3934
G1 X195.865 Y75.372 E.02559
M73 P0 R102
G1 X196.647 Y75.486 E.02478
G1 X197.442 Y75.68 E.02566
G1 X198.316 Y75.987 E.02905
G1 X199.056 Y76.336 E.02565
G1 X199.763 Y76.754 E.02575
G1 X200.425 Y77.236 E.02568
G1 X201.046 Y77.784 E.02597
G1 X201.605 Y78.382 E.02567
G1 X202.111 Y79.037 E.02595
G1 X202.552 Y79.737 E.02594
G1 X202.917 Y80.463 E.02548
G1 X203.211 Y81.213 E.02526
G1 X203.449 Y82.05 E.02728
G1 X203.597 Y82.863 E.02591
G1 X203.666 Y83.677 E.02561
G1 X203.652 Y126.577 E1.3451
G1 X203.523 Y127.603 E.03242
G1 X203.376 Y128.245 E.02065
G1 X203.18 Y128.883 E.02093
G1 X202.651 Y130.084 E.04115
G1 X202.314 Y130.659 E.0209
G1 X201.934 Y131.209 E.02096
G1 X201.069 Y132.196 E.04115
G1 X200.574 Y132.643 E.02091
G1 X200.047 Y133.053 E.02094
G1 X198.927 Y133.733 E.04108
G1 X198.336 Y134.004 E.02039
G1 X197.724 Y134.233 E.02049
G1 X196.99 Y134.44 E.02391
G1 X196.238 Y134.584 E.02401
G1 X195.071 Y134.672 E.03669
G1 X54.914 Y134.671 E4.39452
G1 X53.773 Y134.586 E.03587
M73 P1 R102
M73 Q1 S106
G1 X53.092 Y134.459 E.02172
G1 X52.412 Y134.277 E.02207
G1 X51.243 Y133.817 E.03939
G1 X50.568 Y133.453 E.02405
G1 X49.928 Y133.034 E.02398
G1 X49.412 Y132.632 E.02051
G1 X48.93 Y132.194 E.02042
G1 X48.063 Y131.206 E.04121
G1 X47.664 Y130.624 E.02212
G1 X47.31 Y130.008 E.02228
G1 X47.014 Y129.38 E.02177
G1 X46.769 Y128.729 E.02181
G1 X46.56 Y127.99 E.02408
G1 X46.416 Y127.239 E.02398
G1 X46.328 Y126.07 E.03676
G1 X46.348 Y83.423 E1.33717
G1 X46.477 Y82.397 E.03242
G1 X46.624 Y81.755 E.02065
G1 X46.82 Y81.117 E.02093
G1 X47.348 Y79.917 E.04111
G1 X47.686 Y79.342 E.02091
G1 X48.065 Y78.792 E.02094
G1 X48.931 Y77.804 E.04119
G1 X49.426 Y77.357 E.02091
G1 X50.029 Y76.901 E.0237
M204 S1000
G1 X50.224 Y77.222 F10800
M204 S800
G1 F1200
G1 X51.24 Y76.605 E.03727
G1 X51.815 Y76.341 E.01984
G1 X52.401 Y76.123 E.0196
G1 X53.104 Y75.925 E.0229
G1 X53.821 Y75.789 E.02288
G1 X54.936 Y75.705 E.03506
G1 X195.045 Y75.705 E4.39302
G1 X195.82 Y75.746 E.02433
G1 X196.567 Y75.855 E.02367
G1 X197.326 Y76.039 E.02449
G1 X198.182 Y76.34 E.02845
G1 X198.887 Y76.673 E.02445
G1 X199.563 Y77.074 E.02464
G1 X200.182 Y77.524 E.02399
G1 X200.789 Y78.061 E.02541
G1 X201.324 Y78.632 E.02453
G1 X201.797 Y79.245 E.02428
G1 X202.219 Y79.915 E.02483
G1 X202.57 Y80.609 E.02438
G1 X202.851 Y81.325 E.02412
G1 X203.084 Y82.144 E.0267
G1 X203.224 Y82.921 E.02475
G1 X203.289 Y83.701 E.02454
G1 X203.276 Y126.542 E1.34325
G1 X203.153 Y127.528 E.03115
G1 X203.01 Y128.154 E.02013
G1 X202.823 Y128.762 E.01994
G1 X202.32 Y129.903 E.0391
G1 X201.999 Y130.451 E.01991
G1 X201.63 Y130.986 E.02038
G1 X200.808 Y131.923 E.03908
G1 X200.327 Y132.358 E.02033
G1 X199.824 Y132.749 E.01998
G1 X198.76 Y133.395 E.03903
G1 X198.185 Y133.659 E.01984
G1 X197.599 Y133.877 E.0196
G1 X196.896 Y134.075 E.0229
G1 X196.179 Y134.211 E.02288
G1 X195.064 Y134.295 E.03506
G1 X54.935 Y134.295 E4.39365
G1 X53.832 Y134.213 E.03468
G1 X53.182 Y134.093 E.02072
G1 X52.54 Y133.922 E.02083
G1 X51.411 Y133.479 E.03803
G1 X50.767 Y133.133 E.02292
G1 X50.153 Y132.731 E.02301
G1 X49.66 Y132.347 E.01959
G1 X49.191 Y131.922 E.01984
G1 X48.368 Y130.983 E.03915
G1 X47.987 Y130.429 E.02108
G1 X47.648 Y129.84 E.02131
G1 X47.364 Y129.239 E.02084
G1 X47.124 Y128.603 E.02131
G1 X46.929 Y127.912 E.02251
G1 X46.789 Y127.179 E.0234
G1 X46.705 Y126.063 E.03509
G1 X46.724 Y83.458 E1.33585
G1 X46.847 Y82.472 E.03115
G1 X46.99 Y81.846 E.02013
G1 X47.177 Y81.238 E.01994
G1 X47.679 Y80.098 E.03906
G1 X48 Y79.55 E.01991
G1 X48.369 Y79.015 E.02038
G1 X49.192 Y78.076 E.03915
G1 X49.663 Y77.65 E.01991
G1 X50.173 Y77.254 E.02025
M204 S1000
G1 X50.399 Y77.556 F10800
M204 S800
G1 F1200
G1 X51.408 Y76.943 E.03702
G1 X51.953 Y76.692 E.01881
G1 X52.525 Y76.479 E.01914
G1 X53.183 Y76.294 E.02143
G1 X53.881 Y76.161 E.02228
G1 X54.943 Y76.082 E.03339
G1 X195.04 Y76.082 E4.39264
G1 X195.774 Y76.12 E.02304
M73 Q1 S105
G1 X196.487 Y76.224 E.02259
G1 X197.21 Y76.398 E.02332
G1 X198.048 Y76.692 E.02785
G1 X198.718 Y77.01 E.02325
G1 X199.349 Y77.384 E.023
G1 X199.939 Y77.813 E.02287
G1 X200.533 Y78.337 E.02484
G1 X201.042 Y78.883 E.0234
G1 X201.492 Y79.468 E.02314
G1 X201.887 Y80.094 E.02321
G1 X202.222 Y80.756 E.02326
G1 X202.491 Y81.437 E.02296
G1 X202.715 Y82.22 E.02554
G1 X202.849 Y82.961 E.02361
G1 X202.913 Y83.724 E.02401
G1 X202.901 Y126.507 E1.34143
G1 X202.784 Y127.453 E.02989
G1 X202.648 Y128.05 E.0192
G1 X202.465 Y128.64 E.01937
G1 X201.989 Y129.722 E.03706
G1 X201.677 Y130.254 E.01934
G1 X201.326 Y130.762 E.01936
G1 X200.547 Y131.651 E.03706
G1 X200.09 Y132.065 E.01933
G1 X199.602 Y132.444 E.01937
G1 X198.592 Y133.057 E.03704
G1 X198.047 Y133.308 E.01881
G1 X197.475 Y133.521 E.01914
G1 X196.817 Y133.706 E.02143
G1 X196.119 Y133.839 E.02228
G1 X195.057 Y133.918 E.03339
G1 X54.942 Y133.918 E4.39321
G1 X53.89 Y133.84 E.03308
G1 X53.272 Y133.727 E.0197
G1 X52.647 Y133.56 E.02028
G1 X51.579 Y133.141 E.03597
G1 X50.966 Y132.813 E.0218
G1 X50.379 Y132.429 E.02199
G1 X49.898 Y132.054 E.01912
G1 X49.452 Y131.65 E.01887
G1 X48.672 Y130.76 E.03711
G1 X48.31 Y130.234 E.02002
G1 X47.986 Y129.672 E.02034
G1 X47.708 Y129.085 E.02036
G1 X47.48 Y128.478 E.02033
G1 X47.294 Y127.817 E.02153
G1 X47.161 Y127.119 E.02228
G1 X47.082 Y126.057 E.03339
G1 X47.099 Y83.493 E1.33456
G1 X47.216 Y82.547 E.02989
G1 X47.352 Y81.95 E.0192
G1 X47.535 Y81.36 E.01937
G1 X48.01 Y80.279 E.03702
G1 X48.322 Y79.746 E.01936
G1 X48.673 Y79.239 E.01933
G1 X49.453 Y78.349 E.03711
G1 X49.911 Y77.935 E.01936
G1 X50.351 Y77.593 E.01747
M204 S1000
G1 X50.583 Y77.89 F10800
M204 S800
G1 F1200
G1 X51.575 Y77.281 E.0365
G1 X52.104 Y77.038 E.01825
G1 X52.649 Y76.835 E.01823
G1 X53.277 Y76.659 E.02045
G1 X53.941 Y76.534 E.02118
G1 X54.95 Y76.459 E.03172
G1 X195.035 Y76.459 E4.39227
G1 X195.729 Y76.495 E.02179
M73 P1 R101
G1 X196.408 Y76.592 E.02151
G1 X197.094 Y76.757 E.02212
G1 X197.913 Y77.045 E.02722
G1 X198.533 Y77.339 E.02151
G1 X199.135 Y77.694 E.02191
G1 X199.697 Y78.102 E.02178
G1 X200.276 Y78.614 E.02423
G1 X200.748 Y79.12 E.0217
G1 X201.178 Y79.678 E.02209
G1 X201.555 Y80.273 E.02209
G1 X201.875 Y80.903 E.02216
G1 X202.131 Y81.55 E.02182
G1 X202.349 Y82.315 E.02494
G1 X202.476 Y83.019 E.02243
G1 X202.536 Y83.747 E.0229
G1 X202.525 Y126.473 E1.33964
G1 X202.414 Y127.379 E.02862
G1 X202.282 Y127.959 E.01865
G1 X202.108 Y128.518 E.01836
G1 X201.658 Y129.541 E.03504
G1 X201.363 Y130.046 E.01834
G1 X201.022 Y130.539 E.0188
G1 X200.285 Y131.379 E.03504
G1 X199.853 Y131.772 E.01831
G1 X199.379 Y132.14 E.01882
G1 X198.425 Y132.719 E.03499
G1 X197.896 Y132.962 E.01825
G1 X197.351 Y133.165 E.01823
G1 X196.723 Y133.341 E.02045
G1 X196.059 Y133.466 E.02118
G1 X195.05 Y133.541 E.03172
G1 X54.949 Y133.541 E4.39277
G1 X53.947 Y133.467 E.0315
M73 P2 R101
M73 Q2 S105
G1 X53.361 Y133.36 E.01868
G1 X52.774 Y133.205 E.01904
G1 X51.747 Y132.804 E.03457
G1 X51.152 Y132.484 E.02118
G1 X50.604 Y132.127 E.02051
G1 X50.146 Y131.77 E.01821
G1 X49.714 Y131.378 E.01829
G1 X48.976 Y130.537 E.03508
G1 X48.625 Y130.027 E.01941
G1 X48.316 Y129.491 E.0194
G1 X48.053 Y128.932 E.01937
G1 X47.836 Y128.353 E.01939
G1 X47.659 Y127.723 E.02052
G1 X47.534 Y127.059 E.02118
G1 X47.459 Y126.05 E.03172
G1 X47.475 Y83.527 E1.33328
G1 X47.586 Y82.621 E.02862
G1 X47.718 Y82.041 E.01865
G1 X47.892 Y81.482 E.01836
G1 X48.341 Y80.46 E.035
G1 X48.636 Y79.955 E.01834
G1 X48.977 Y79.462 E.0188
G1 X49.715 Y78.621 E.03508
G1 X50.148 Y78.228 E.01833
G1 X50.535 Y77.927 E.01537
M204 S1000
G1 X50.766 Y78.225 F10800
M204 S800
G1 F1200
G1 X51.743 Y77.619 E.03605
G1 X52.242 Y77.389 E.01723
G1 X52.773 Y77.192 E.01776
G1 X53.37 Y77.025 E.01944
G1 X54 Y76.906 E.0201
G1 X54.956 Y76.836 E.03005
G1 X195.03 Y76.837 E4.39192
G1 X195.685 Y76.87 E.02056
G1 X196.329 Y76.961 E.02039
G1 X196.979 Y77.116 E.02095
G1 X197.761 Y77.39 E.02598
G1 X198.349 Y77.668 E.02039
G1 X198.921 Y78.005 E.02082
G1 X199.454 Y78.391 E.02063
G1 X200.007 Y78.878 E.0231
G1 X200.456 Y79.358 E.02061
G1 X200.865 Y79.887 E.02097
G1 X201.223 Y80.452 E.02097
G1 X201.528 Y81.05 E.02105
G1 X201.771 Y81.663 E.02068
G1 X201.98 Y82.392 E.02378
G1 X202.101 Y83.06 E.02129
G1 X202.159 Y83.755 E.02187
G1 X202.149 Y126.439 E1.33833
G1 X202.044 Y127.305 E.02735
G1 X201.919 Y127.854 E.01765
G1 X201.751 Y128.396 E.01779
G1 X201.327 Y129.36 E.03302
G1 X201.041 Y129.849 E.01776
G1 X200.718 Y130.316 E.0178
G1 X200.024 Y131.107 E.03299
G1 X199.605 Y131.487 E.01774
G1 X199.156 Y131.835 E.01781
G1 X198.257 Y132.381 E.03298
G1 X197.758 Y132.611 E.01723
G1 X197.227 Y132.808 E.01776
G1 X196.63 Y132.975 E.01944
G1 X196 Y133.094 E.0201
G1 X195.044 Y133.164 E.03005
G1 X54.955 Y133.163 E4.39239
G1 X54.005 Y133.094 E.02987
G1 X53.449 Y132.993 E.01772
G1 X52.901 Y132.85 E.01776
G1 X51.915 Y132.466 E.03318
G1 X51.351 Y132.164 E.02006
G1 X50.829 Y131.824 E.01953
G1 X50.383 Y131.477 E.01772
G1 X49.975 Y131.106 E.01729
G1 X49.28 Y130.314 E.03304
G1 X48.948 Y129.832 E.01835
G1 X48.647 Y129.31 E.01889
G1 X48.398 Y128.779 E.01839
G1 X48.192 Y128.229 E.01841
G1 X48.025 Y127.63 E.0195
G1 X47.906 Y127 E.0201
G1 X47.836 Y126.043 E.03009
G1 X47.851 Y83.561 E1.33199
G1 X47.956 Y82.695 E.02735
G1 X48.081 Y82.146 E.01765
G1 X48.249 Y81.604 E.01779
G1 X48.672 Y80.641 E.03298
G1 X48.958 Y80.151 E.01779
G1 X49.281 Y79.686 E.01775
G1 X49.976 Y78.893 E.03306
G1 X50.396 Y78.512 E.01778
G1 X50.719 Y78.262 E.01281
M204 S1000
G1 X50.95 Y78.56 F10800
M204 S800
G1 F1200
G1 X51.066 Y78.469 E.00462
G1 X51.91 Y77.957 E.03095
G1 X52.394 Y77.734 E.01671
G1 X52.896 Y77.548 E.01679
G1 X53.463 Y77.39 E.01846
G1 X54.058 Y77.279 E.01898
G1 X54.963 Y77.214 E.02845
G1 X195.026 Y77.214 E4.39158
G1 X195.641 Y77.244 E.01931
M73 Q2 S104
G1 X196.251 Y77.33 E.01932
G1 X196.864 Y77.476 E.01976
G1 X197.61 Y77.736 E.02477
G1 X198.166 Y77.997 E.01926
G1 X198.708 Y78.316 E.01972
G1 X199.212 Y78.68 E.01949
G1 X199.738 Y79.143 E.02197
G1 X200.163 Y79.596 E.01948
G1 X200.551 Y80.097 E.01987
G1 X200.891 Y80.632 E.01988
G1 X201.181 Y81.198 E.01994
G1 X201.411 Y81.777 E.01953
G1 X201.611 Y82.469 E.02259
G1 X201.726 Y83.101 E.02014
G1 X201.782 Y83.763 E.02083
G1 X201.774 Y126.405 E1.33701
G1 X201.674 Y127.231 E.02609
G1 X201.553 Y127.764 E.01714
G1 X201.395 Y128.274 E.01674
G1 X200.996 Y129.179 E.03101
G1 X200.72 Y129.652 E.01717
G1 X200.415 Y130.092 E.01679
G1 X199.763 Y130.835 E.03099
G1 X199.368 Y131.194 E.01674
G1 X198.934 Y131.531 E.01723
G1 X198.09 Y132.043 E.03095
G1 X197.606 Y132.266 E.01671
G1 X197.104 Y132.452 E.01679
G1 X196.537 Y132.61 E.01846
G1 X195.942 Y132.721 E.01898
G1 X195.037 Y132.786 E.02845
G1 X54.962 Y132.786 E4.39195
G1 X54.062 Y132.722 E.02829
G1 X53.524 Y132.624 E.01715
G1 X53.007 Y132.488 E.01676
