; generated by PrusaSlicer 2.7.0+win64 on 2024-04-04 at 13:59:26 UTC


;
;
; 

; external perimeters extrusion width = 0.45mm
; perimeters extrusion width = 0.45mm
; infill extrusion width = 0.45mm
; solid infill extrusion width = 0.45mm
; top infill extrusion width = 0.40mm
; first layer extrusion width = 0.42mm

M73 P0 R289
M73 Q0 S294
M201 X1000 Y1000 Z200 E5000 ; sets maximum accelerations, mm/sec^2
M203 X200 Y200 Z12 E120 ; sets maximum feedrates, mm / sec
M204 S1250 T1250 ; sets acceleration (S) and retract acceleration (R), mm/sec^2
M205 X8.00 Y8.00 Z0.40 E4.50 ; sets the jerk limits, mm/sec
M205 S0 T0 ; sets the minimum extruding and travel feed rate, mm/sec

; printing object BackPlatev2.stl id:0 copy 0
; stop printing object BackPlatev2.stl id:0 copy 0

;TYPE:Custom
M862.3 P "MK3S" ; printer model check
M862.1 P0.4 ; nozzle diameter check
M115 U3.13.2 ; tell printer latest fw version
G90 ; use absolute coordinates
M83 ; extruder relative mode
M104 S215 ; set extruder temp
M140 S60 ; set bed temp
M190 S60 ; wait for bed temp
M109 S215 ; wait for extruder temp
G28 W ; home all without mesh bed level
G80 X62.2344 Y67.4353 W125.531 H80.0944 ; mesh bed levelling

G1 Z0.2 F720
G1 Y-3 F1000 ; go outside print area
G92 E0
G1 X60 E9 F1000 ; intro line
G1 X100 E12.5 F1000 ; intro line

G92 E0
M221 S95

; Don't change E values below. Excessive value can damage the printer.
M907 E430 ; set extruder motor current
G21 ; set units to millimeters
G90 ; use absolute coordinates
M83 ; use relative distances for extrusion
M900 K0.05 ; Filament gcode LA 1.5
M900 K30 ; Filament gcode LA 1.0

M107
;LAYER_CHANGE
;Z:0.2
;HEIGHT:0.2
;BEFORE_LAYER_CHANGE
G92 E0.0
;0.2


G1 E-.8 F2100
G1 Z.2 F720
;AFTER_LAYER_CHANGE
;0.2
G1 X64.471 Y68.916 F10800
G1 Z.2 F720
G1 E.8 F2100
M204 S800
;TYPE:Skirt/Brim
;WIDTH:0.42
G1 F1200
G1 X65.074 Y68.455 E.0238
G1 X65.742 Y68.084 E.02396
G1 X66.463 Y67.816 E.02412
G1 X67.8 Y67.624 E.04235
G1 X182.389 Y67.631 E3.59286
G1 X183.152 Y67.722 E.02409
G1 X184.258 Y68.084 E.03649
G1 X185.202 Y68.649 E.03449
G1 X186.059 Y69.451 E.0368
G1 X186.665 Y70.292 E.0325
G1 X187.176 Y71.371 E.03743
G1 X187.444 Y72.333 E.03131
G1 X187.574 Y73.536 E.03794
G1 X187.577 Y144.964 E2.23957
G1 X187.185 Y146.271 E.04278
G1 X186.14 Y147.148 E.04277
G1 X185.2 Y147.341 E.03009
G1 X64.8 Y147.341 E3.77506
G1 X63.493 Y146.95 E.04277
G1 X62.617 Y145.904 E.04278
G1 X62.423 Y144.964 E.03009
G1 X62.426 Y73.536 E2.23957
G1 X62.612 Y72.079 E.04605
G1 X63.117 Y70.691 E.04631
G1 X63.942 Y69.451 E.0467
G1 X64.429 Y68.958 E.02173
M204 S1000
; printing object BackPlatev2.stl id:0 copy 0
;WIPE_START
G1 F8640
G1 X64.471 Y68.916 E-.01371
G1 X65.074 Y68.455 E-.17526
G1 X65.742 Y68.084 E-.17644
G1 X66.463 Y67.816 E-.17761
G1 X67.565 Y67.658 E-.25698
;WIPE_END
G1 Z.6 F720
G1 X65.964 Y143.8 F10800
G1 Z.2 F720
G1 E.8 F2100
M204 S800
;TYPE:Perimeter
;WIDTH:0.419999
G1 F1200
G1 X65.964 Y73.895 E2.19182
G1 X66.045 Y73.142 E.02375
G1 X66.269 Y72.483 E.02182
G1 X66.581 Y71.989 E.01832
G1 X66.972 Y71.621 E.01684
G1 X67.386 Y71.411 E.01456
G1 X67.846 Y71.34 E.01459
G1 X182.304 Y71.352 E3.58874
G1 X182.707 Y71.449 E.013
G1 X183.101 Y71.68 E.01432
G1 X183.468 Y72.056 E.01647
G1 X183.731 Y72.483 E.01572
G1 X183.915 Y73.023 E.01789
G1 X183.973 Y73.309 E.00915
G1 X184.036 Y73.947 E.0201
G1 X184.036 Y143.8 E2.19019
G1 X66.024 Y143.8 E3.70018
M204 S1000
G1 X65.587 Y144.177 F10800
M204 S800
G1 F1200
G1 X65.587 Y73.875 E2.20427
G1 X65.675 Y73.061 E.02567
M73 Q0 S293
G1 X65.829 Y72.606 E.01506
G1 X66.039 Y72.117 E.01669
G1 X66.361 Y71.671 E.01725
G1 X66.754 Y71.312 E.01669
G1 X67.269 Y71.051 E.0181
G1 X67.831 Y70.963 E.01784
G1 X181.58 Y70.963 E3.56651
G1 X182.467 Y70.987 E.02782
M73 P0 R288
G1 X182.992 Y71.159 E.01732
G1 X183.399 Y71.437 E.01545
G1 X183.774 Y71.836 E.01717
G1 X184.078 Y72.33 E.01819
G1 X184.272 Y72.902 E.01894
G1 X184.348 Y73.269 E.01175
G1 X184.413 Y73.947 E.02136
G1 X184.413 Y144.177 E2.20201
G1 X65.647 Y144.177 E3.72382
M204 S1000
G1 X65.21 Y144.554 F10800
M204 S800
;TYPE:External perimeter
G1 F1200
G1 X65.21 Y73.854 E2.21675
G1 X65.304 Y72.979 E.02759
G1 X65.52 Y72.343 E.02106
G1 X65.708 Y71.936 E.01406
G1 X65.996 Y71.509 E.01615
G1 X66.362 Y71.145 E.01618
G1 X66.837 Y70.822 E.01801
G1 X67.315 Y70.652 E.01591
G1 X67.816 Y70.586 E.01584
G1 X181.58 Y70.586 E3.56698
G1 X182.526 Y70.613 E.02967
G1 X183.021 Y70.763 E.01622
G1 X183.463 Y71.003 E.01577
G1 X183.841 Y71.335 E.01577
G1 X184.16 Y71.727 E.01585
G1 X184.424 Y72.178 E.01639
G1 X184.696 Y72.979 E.02652
G1 X184.79 Y73.947 E.03049
G1 X184.79 Y144.554 E2.21383
G1 X65.27 Y144.554 E3.74746
M204 S1000
;WIPE_START
G1 F8640
G1 X65.21 Y144.554 E-.01385
G1 X65.21 Y141.149 E-.78615
;WIPE_END
G1 Z.6 F720
G1 X178.27 Y74.314 F10800
G1 Z.2 F720
G1 E.8 F2100
M204 S800
;TYPE:Perimeter
G1 F1200
G1 X178.336 Y74.221 E.00358
G1 X178.739 Y73.846 E.01726
G1 X179.218 Y73.562 E.01746
G1 X179.702 Y73.4 E.016
G1 X180.288 Y73.352 E.01844
G1 X180.862 Y73.444 E.01823
G1 X181.37 Y73.657 E.01727
G1 X181.813 Y73.97 E.01701
G1 X182.179 Y74.361 E.01679
G1 X182.464 Y74.812 E.01673
G1 X182.666 Y75.308 E.01679
G1 X182.78 Y75.82 E.01645
G1 X182.811 Y76.365 E.01712
G1 X182.754 Y76.9 E.01687
G1 X182.617 Y77.394 E.01607
G1 X182.383 Y77.895 E.01734
G1 X182.062 Y78.341 E.01723
G1 X181.656 Y78.717 E.01735
G1 X181.194 Y78.991 E.01684
G1 X180.653 Y79.166 E.01783
G1 X180.086 Y79.208 E.01783
G1 X179.581 Y79.131 E.01602
G1 X179.091 Y78.939 E.0165
G1 X178.99 Y78.878 E.0037
G1 X178.594 Y78.595 E.01526
G1 X178.229 Y78.211 E.01661
G1 X177.943 Y77.763 E.01667
G1 X177.732 Y77.246 E.01751
G1 X177.622 Y76.752 E.01587
G1 X177.589 Y76.21 E.01703
G1 X177.645 Y75.667 E.01712
G1 X177.785 Y75.157 E.01658
G1 X178.018 Y74.664 E.0171
G1 X178.235 Y74.362 E.01166
M204 S1000
G1 X178.568 Y74.537 F10800
M204 S800
G1 F1200
G1 X178.603 Y74.488 E.00189
G1 X178.945 Y74.162 E.01481
G1 X179.349 Y73.916 E.01483
G1 X179.795 Y73.767 E.01474
G1 X180.246 Y73.727 E.0142
G1 X180.731 Y73.798 E.01537
G1 X181.201 Y73.997 E.016
G1 X181.546 Y74.236 E.01316
G1 X181.866 Y74.572 E.01455
G1 X182.118 Y74.963 E.01459
G1 X182.3 Y75.399 E.01481
G1 X182.404 Y75.85 E.01451
G1 X182.435 Y76.333 E.01518
G1 X182.388 Y76.809 E.015
G1 X182.272 Y77.244 E.01412
G1 X182.07 Y77.684 E.01518
G1 X181.795 Y78.074 E.01496
G1 X181.45 Y78.401 E.0149
G1 X181.062 Y78.638 E.01426
G1 X180.608 Y78.792 E.01503
G1 X180.131 Y78.833 E.01501
G1 X179.662 Y78.76 E.01488
G1 X179.196 Y78.562 E.01588
G1 X178.778 Y78.247 E.01641
G1 X178.534 Y77.988 E.01116
G1 X178.281 Y77.594 E.01468
G1 X178.079 Y77.079 E.01735
G1 X177.998 Y76.72 E.01154
G1 X177.964 Y76.24 E.01509
G1 X178.011 Y75.758 E.01518
G1 X178.131 Y75.308 E.0146
G1 X178.331 Y74.874 E.01498
G1 X178.534 Y74.586 E.01105
M204 S1000
G1 X178.754 Y74.923 F10800
M204 S800
;TYPE:External perimeter
G1 F1200
G1 X178.87 Y74.754 E.00643
G1 X179.151 Y74.478 E.01235
G1 X179.48 Y74.27 E.0122
G1 X179.842 Y74.141 E.01205
G1 X180.204 Y74.101 E.01142
G1 X180.601 Y74.151 E.01255
G1 X180.995 Y74.312 E.01335
G1 X181.279 Y74.503 E.01073
G1 X181.638 Y74.908 E.01697
G1 X181.773 Y75.114 E.00772
G1 X181.934 Y75.49 E.01282
G1 X182.028 Y75.88 E.01258
G1 X182.06 Y76.301 E.01324
G1 X182.022 Y76.718 E.01313
G1 X181.926 Y77.094 E.01217
G1 X181.757 Y77.474 E.01304
G1 X181.529 Y77.806 E.01263
G1 X181.244 Y78.085 E.01251
G1 X180.929 Y78.285 E.0117
G1 X180.562 Y78.418 E.01224
G1 X180.177 Y78.459 E.01214
G1 X179.794 Y78.407 E.01212
G1 X179.402 Y78.246 E.01329
G1 X179.044 Y77.98 E.01398
G1 X178.847 Y77.778 E.00885
G1 X178.626 Y77.444 E.01256
G1 X178.445 Y76.988 E.01538
G1 X178.373 Y76.688 E.00967
G1 X178.34 Y76.27 E.01315
G1 X178.377 Y75.849 E.01325
G1 X178.476 Y75.459 E.01262
G1 X178.643 Y75.085 E.01284
G1 X178.72 Y74.972 E.00429
M204 S1000
;WIPE_START
G1 F8640
G1 X178.754 Y74.923 E-.01377
G1 X178.87 Y74.754 E-.04733
G1 X179.151 Y74.478 E-.09095
G1 X179.48 Y74.27 E-.08988
G1 X179.842 Y74.141 E-.08874
G1 X180.204 Y74.101 E-.0841
G1 X180.601 Y74.151 E-.09239
G1 X180.995 Y74.312 E-.09828
G1 X181.279 Y74.503 E-.07903
G1 X181.611 Y74.877 E-.11553
;WIPE_END
G1 Z.6 F720
G1 X173.263 Y86.239 F10800
G1 Z.2 F720
G1 E.8 F2100
M204 S800
;TYPE:Perimeter
G1 F1200
G1 X173.561 Y86.383 E.01038
G1 X173.927 Y86.656 E.01432
G1 X174.238 Y86.988 E.01426
G1 X174.488 Y87.37 E.01431
G1 X174.667 Y87.788 E.01426
G1 X174.771 Y88.231 E.01427
G1 X174.796 Y88.686 E.01429
G1 X174.742 Y89.138 E.01427
G1 X174.611 Y89.574 E.01427
G1 X174.405 Y89.981 E.0143
G1 X174.133 Y90.346 E.01427
G1 X173.801 Y90.657 E.01426
G1 X173.42 Y90.907 E.01429
G1 X173.001 Y91.086 E.01429
G1 X172.558 Y91.19 E.01427
G1 X172.103 Y91.216 E.01429
G1 X171.651 Y91.162 E.01427
G1 X171.215 Y91.03 E.01428
G1 X170.808 Y90.824 E.0143
G1 X170.443 Y90.552 E.01427
G1 X170.132 Y90.22 E.01426
G1 X169.882 Y89.839 E.01429
G1 X169.703 Y89.42 E.01429
G1 X169.599 Y88.977 E.01427
G1 X169.574 Y88.522 E.01429
G1 X169.628 Y88.07 E.01427
G1 X169.703 Y87.788 E.00915
G1 X169.906 Y87.322 E.01594
G1 X170.237 Y86.863 E.01774
G1 X170.569 Y86.551 E.01428
G1 X170.95 Y86.301 E.01429
G1 X171.446 Y86.105 E.01672
G1 X171.994 Y86.006 E.01746
G1 X172.545 Y86.017 E.01728
G1 X173.059 Y86.14 E.01657
G1 X173.209 Y86.212 E.00522
M204 S1000
G1 X173.065 Y86.557 F10800
M204 S800
G1 F1200
G1 X173.1 Y86.569 E.00116
G1 X173.584 Y86.86 E.01771
G1 X173.929 Y87.205 E.0153
G1 X174.146 Y87.529 E.01223
G1 X174.303 Y87.886 E.01223
G1 X174.395 Y88.264 E.0122
G1 X174.421 Y88.653 E.01222
G1 X174.378 Y89.041 E.01224
G1 X174.269 Y89.415 E.01221
G1 X174.097 Y89.765 E.01223
G1 X173.866 Y90.079 E.01222
G1 X173.584 Y90.348 E.01222
G1 X173.26 Y90.565 E.01223
G1 X172.903 Y90.722 E.01223
G1 X172.525 Y90.814 E.0122
G1 X172.136 Y90.84 E.01222
G1 X171.748 Y90.797 E.01224
G1 X171.374 Y90.688 E.01221
G1 X171.024 Y90.516 E.01223
G1 X170.71 Y90.285 E.01222
G1 X170.441 Y90.003 E.01222
G1 X170.224 Y89.679 E.01223
G1 X170.067 Y89.322 E.01223
G1 X169.975 Y88.944 E.0122
G1 X169.949 Y88.555 E.01222
G1 X169.992 Y88.167 E.01224
G1 X170.067 Y87.886 E.00912
G1 X170.273 Y87.444 E.01529
G1 X170.504 Y87.129 E.01225
G1 X170.786 Y86.86 E.01222
G1 X171.11 Y86.643 E.01223
G1 X171.513 Y86.476 E.01368
G1 X172.066 Y86.376 E.01762
G1 X172.581 Y86.401 E.01617
G1 X173.008 Y86.539 E.01407
M204 S1000
G1 X172.797 Y86.864 F10800
M204 S800
;TYPE:External perimeter
G1 F1200
G1 X172.941 Y86.91 E.00474
G1 X173.369 Y87.169 E.01569
G1 X173.62 Y87.421 E.01115
G1 X173.804 Y87.688 E.01017
G1 X173.939 Y87.983 E.01017
G1 X174.02 Y88.297 E.01017
G1 X174.045 Y88.621 E.01019
G1 X174.014 Y88.943 E.01014
G1 X173.927 Y89.256 E.01019
G1 X173.788 Y89.548 E.01014
G1 X173.599 Y89.812 E.01018
G1 X173.368 Y90.04 E.01018
G1 X173.101 Y90.223 E.01015
G1 X172.806 Y90.358 E.01017
G1 X172.492 Y90.439 E.01017
G1 X172.169 Y90.464 E.01016
G1 X171.846 Y90.433 E.01017
G1 X171.533 Y90.346 E.01019
G1 X171.241 Y90.207 E.01014
G1 X170.977 Y90.018 E.01018
G1 X170.749 Y89.787 E.01018
G1 X170.566 Y89.52 E.01015
G1 X170.431 Y89.225 E.01017
G1 X170.35 Y88.911 E.01017
G1 X170.325 Y88.588 E.01016
G1 X170.356 Y88.265 E.01017
G1 X170.431 Y87.983 E.00915
G1 X170.582 Y87.66 E.01118
G1 X170.771 Y87.396 E.01018
G1 X171.002 Y87.169 E.01015
G1 X171.269 Y86.985 E.01017
G1 X171.58 Y86.847 E.01067
G1 X172.13 Y86.748 E.01752
G1 X172.524 Y86.775 E.01238
G1 X172.74 Y86.845 E.00712
M204 S1000
;WIPE_START
G1 F8640
G1 X172.797 Y86.864 E-.01387
G1 X172.941 Y86.91 E-.03491
G1 X173.369 Y87.169 E-.11551
G1 X173.62 Y87.421 E-.08213
G1 X173.804 Y87.688 E-.07487
G1 X173.939 Y87.983 E-.07491
G1 X174.02 Y88.297 E-.07488
G1 X174.045 Y88.621 E-.07503
G1 X174.014 Y88.943 E-.07469
G1 X173.927 Y89.256 E-.07501
G1 X173.788 Y89.548 E-.07467
G1 X173.714 Y89.652 E-.02952
;WIPE_END
G1 Z.6 F720
G1 X173.06 Y134.169 F10800
G1 Z.2 F720
G1 E.8 F2100
M204 S800
;TYPE:Perimeter
G1 F1200
G1 X173.155 Y134.198 E.00311
G1 X173.562 Y134.404 E.0143
G1 X173.927 Y134.676 E.01427
G1 X174.238 Y135.008 E.01426
G1 X174.488 Y135.39 E.01431
G1 X174.667 Y135.808 E.01426
G1 X174.771 Y136.251 E.01427
G1 X174.796 Y136.706 E.01429
G1 X174.742 Y137.158 E.01427
G1 X174.611 Y137.594 E.01427
G1 X174.405 Y138.001 E.0143
G1 X174.072 Y138.421 E.01681
G1 X173.627 Y138.794 E.01821
G1 X173.155 Y139.05 E.01684
G1 X172.638 Y139.199 E.01687
G1 X172.103 Y139.236 E.01681
G1 X171.651 Y139.182 E.01427
G1 X171.215 Y139.05 E.01428
G1 X170.808 Y138.845 E.01429
G1 X170.443 Y138.572 E.01429
G1 X170.132 Y138.24 E.01426
G1 X169.851 Y137.783 E.01682
G1 X169.652 Y137.237 E.01822
G1 X169.574 Y136.706 E.01683
G1 X169.61 Y136.166 E.01697
G1 X169.759 Y135.654 E.01672
G1 X169.965 Y135.247 E.0143
G1 X170.237 Y134.883 E.01425
G1 X170.57 Y134.571 E.01431
G1 X170.95 Y134.321 E.01426
G1 X171.446 Y134.125 E.01672
G1 X171.994 Y134.026 E.01746
G1 X172.545 Y134.037 E.01728
G1 X172.719 Y134.067 E.00554
G1 X173.002 Y134.152 E.00926
M204 S1000
G1 X172.946 Y134.525 F10800
M204 S800
G1 F1200
G1 X172.996 Y134.54 E.00164
G1 X173.346 Y134.712 E.01223
G1 X173.66 Y134.943 E.01222
G1 X173.929 Y135.225 E.01222
G1 X174.146 Y135.549 E.01223
G1 X174.303 Y135.906 E.01223
G1 X174.395 Y136.284 E.0122
G1 X174.421 Y136.673 E.01222
G1 X174.378 Y137.061 E.01224
G1 X174.269 Y137.435 E.01221
G1 X174.097 Y137.785 E.01223
G1 X173.83 Y138.132 E.01373
G1 X173.385 Y138.506 E.01823
G1 X172.903 Y138.742 E.01683
G1 X172.525 Y138.834 E.0122
G1 X172.136 Y138.86 E.01222
G1 X171.748 Y138.817 E.01224
G1 X171.374 Y138.708 E.01221
G1 X171.024 Y138.536 E.01223
G1 X170.71 Y138.305 E.01222
G1 X170.441 Y138.023 E.01222
G1 X170.205 Y137.654 E.01373
G1 X170.007 Y137.108 E.01821
G1 X169.949 Y136.575 E.01681
G1 X169.992 Y136.187 E.01224
G1 X170.101 Y135.813 E.01221
G1 X170.273 Y135.464 E.0122
G1 X170.504 Y135.149 E.01225
G1 X170.786 Y134.88 E.01222
G1 X171.11 Y134.663 E.01223
G1 X171.513 Y134.496 E.01368
G1 X172.061 Y134.397 E.01746
G1 X172.622 Y134.431 E.01762
G1 X172.888 Y134.509 E.00869
M204 S1000
G1 X172.799 Y134.871 F10800
M204 S800
;TYPE:External perimeter
G1 F1200
G1 X172.837 Y134.882 E.00124
G1 X173.129 Y135.021 E.01014
G1 X173.393 Y135.21 E.01018
G1 X173.62 Y135.441 E.01015
G1 X173.804 Y135.708 E.01017
G1 X173.939 Y136.003 E.01017
G1 X174.02 Y136.317 E.01017
G1 X174.045 Y136.641 E.01019
G1 X174.014 Y136.963 E.01014
G1 X173.927 Y137.276 E.01019
G1 X173.788 Y137.568 E.01014
G1 X173.587 Y137.843 E.01068
G1 X173.142 Y138.217 E.01823
G1 X172.806 Y138.378 E.01168
G1 X172.492 Y138.459 E.01017
G1 X172.169 Y138.484 E.01016
G1 X171.846 Y138.453 E.01017
G1 X171.533 Y138.366 E.01019
G1 X171.241 Y138.227 E.01014
G1 X170.977 Y138.038 E.01018
G1 X170.749 Y137.807 E.01018
G1 X170.56 Y137.525 E.01064
G1 X170.361 Y136.979 E.01822
G1 X170.325 Y136.608 E.01169
G1 X170.356 Y136.285 E.01017
G1 X170.443 Y135.972 E.01019
G1 X170.582 Y135.68 E.01014
G1 X170.771 Y135.416 E.01018
G1 X171.002 Y135.188 E.01018
G1 X171.269 Y135.005 E.01015
G1 X171.58 Y134.867 E.01067
G1 X172.128 Y134.768 E.01746
G1 X172.524 Y134.795 E.01245
G1 X172.741 Y134.855 E.00706
M204 S1000
;WIPE_START
G1 F8640
G1 X172.799 Y134.871 E-.01389
G1 X172.837 Y134.882 E-.00913
G1 X173.129 Y135.021 E-.07467
G1 X173.393 Y135.21 E-.07497
G1 X173.62 Y135.441 E-.07478
G1 X173.804 Y135.708 E-.07487
G1 X173.939 Y136.003 E-.07491
G1 X174.02 Y136.317 E-.07488
G1 X174.045 Y136.641 E-.07503
G1 X174.014 Y136.963 E-.07469
G1 X173.927 Y137.276 E-.07501
G1 X173.788 Y137.568 E-.07467
G1 X173.715 Y137.668 E-.0285
;WIPE_END
G1 Z.6 F720
G1 X75.476 Y136.189 F10800
G1 Z.2 F720
G1 E.8 F2100
M204 S800
;TYPE:Perimeter
G1 F1200
G1 X75.488 Y136.09 E.00313
G1 X75.619 Y135.654 E.01427
G1 X75.825 Y135.247 E.0143
G1 X76.097 Y134.883 E.01425
G1 X76.429 Y134.571 E.01428
G1 X76.81 Y134.321 E.01429
G1 X77.306 Y134.125 E.01672
G1 X77.854 Y134.026 E.01746
G1 X78.405 Y134.037 E.01728
G1 X78.896 Y134.152 E.01581
G1 X79.368 Y134.369 E.01629
G1 X79.773 Y134.664 E.01571
G1 X80.098 Y135.008 E.01484
G1 X80.348 Y135.39 E.01431
G1 X80.51 Y135.751 E.01241
G1 X80.631 Y136.252 E.01616
G1 X80.656 Y136.706 E.01426
G1 X80.602 Y137.159 E.0143
G1 X80.471 Y137.594 E.01424
G1 X80.265 Y138.001 E.0143
G1 X79.993 Y138.366 E.01427
G1 X79.661 Y138.677 E.01426
G1 X79.28 Y138.927 E.01429
G1 X78.861 Y139.106 E.01429
G1 X78.418 Y139.21 E.01427
