; generated by SuperSlicer 2.4 on 2023-03-29 at 16:22:05 UTC


;
;

;
;
; 

; external perimeters extrusion width = 0.60mm
; perimeters extrusion width = 0.50mm
; infill extrusion width = 0.50mm
; solid infill extrusion width = 0.50mm
; top infill extrusion width = 0.40mm
; support material extrusion width = 0.38mm
; first layer extrusion width = 0.42mm

; object:{"name":"Backv1","id":"Backv1.stl id:0 copy 0","object_center":[105.000000,105.000000,0.000000],"boundingbox_center":[105.000000,105.000000,5.000000],"boundingbox_size":[150.000000,52.000004,10.000000]}
; Total objects to print: 1
M486 T1
; plater:{"center":[105.000000,105.000000,0.000000],"boundingbox_center":[105.000000,105.000000,5.000000],"boundingbox_size":[150.000000,52.000004,10.000000]}

M73 P0 R104
;TYPE:Custom
G90 ; use absolute coordinates
M83 ; extruder relative mode
M204 S1250 T1250
M104 S230 ; set extruder temp
M140 S90 ; set bed temp
G28 ; home all
G29 ; AutoBed Leveling I think
G1 Y1.0 Z0.3 F1000 ; move print head up
M190 S90 ; wait for bed temp
M109 S230 ; wait for extruder temp
G92 E0.0
; initial load
G1 X205.0 E19 F1000
G1 Y1.6
M73 P0 R103
G1 X5.0 E19 F1000
G92 E0.0
; intro line
G1 Y2.0 Z0.2 F1000
G1 X65.0 E9.0 F1000
G1 X105.0 E12.5 F1000
G92 E0.0
M107
G21 ; set units to millimeters
G90 ; use absolute coordinates
M83 ; use relative distances for extrusion
; Filament gcode
;_TOOLCHANGE 0
M107
;LAYER_CHANGE
;Z:0.2
;HEIGHT:0.2
;BEFORE_LAYER_CHANGE
G92 E0.0
;0.2
G1 E-6 F1800
G1 Z0.075 F10800
G1 Z0.2
;AFTER_LAYER_CHANGE
;0.2
G1 Z0.275
M204 S800
G1 X28.181 Y68.772
G1 Z0.2
G1 E6 F1800
;TYPE:Skirt
;WIDTH:0.52
G1 F1200
G1 X26.744 Y69.505 E0.064
G1 X25.221 Y70.48 E0.07173
G1 X23.736 Y71.69 E0.076
G1 X22.635 Y72.802 E0.06207
G1 X21.755 Y73.851 E0.05433
G1 X20.68 Y75.437 E0.076
G1 X19.84 Y77.039 E0.07174
G1 X19.291 Y78.386 E0.05773
G1 X18.912 Y79.588 E0.04999
G1 X18.526 Y81.355 E0.07174
G1 X18.33 Y83.26 E0.07597
G1 X18.328 Y126.315 E1.70798
G1 X18.391 Y127.551 E0.04908
G1 X18.614 Y129.149 E0.064
G1 X19.038 Y130.879 E0.07067
G1 X19.772 Y132.819 E0.08227
G1 X20.602 Y134.425 E0.07174
G1 X21.279 Y135.488 E0.04999
G1 X22.159 Y136.648 E0.05773
G1 X23.384 Y137.978 E0.07173
G1 X24.956 Y139.331 E0.08227
G1 X26.647 Y140.445 E0.08035
G1 X27.862 Y141.077 E0.05433
G1 X29.203 Y141.642 E0.05773
G1 X30.777 Y142.138 E0.06547
G1 X32.199 Y142.445 E0.05773
G1 X33.643 Y142.626 E0.05773
G1 X175.327 Y142.674 E5.62051
G1 X177.166 Y142.545 E0.07313
M73 P1 R103
G1 X178.706 Y142.265 E0.06207
G1 X180.261 Y141.834 E0.064
G1 X181.819 Y141.228 E0.06633
G1 X183.256 Y140.495 E0.064
G1 X184.779 Y139.52 E0.07173
G1 X186.264 Y138.31 E0.076
G1 X187.365 Y137.198 E0.06207
G1 X188.245 Y136.149 E0.05433
G1 X189.381 Y134.472 E0.08035
G1 X190.364 Y132.522 E0.08661
G1 X191.049 Y130.565 E0.08227
G1 X191.445 Y128.8 E0.07174
G1 X191.609 Y127.551 E0.04999
G1 X191.674 Y126.218 E0.05297
G1 X191.661 Y83.174 E1.70749
G1 X191.507 Y81.569 E0.06398
G1 X191.181 Y79.929 E0.06634
G1 X190.709 Y78.386 E0.064
G1 X190.16 Y77.039 E0.05773
G1 X189.495 Y75.744 E0.05773
G1 X188.721 Y74.512 E0.05773
G1 X187.716 Y73.203 E0.06547
G1 X186.726 Y72.135 E0.05773
G1 X185.648 Y71.159 E0.05773
G1 X184.488 Y70.279 E0.05773
G1 X183.256 Y69.505 E0.05773
G1 X181.961 Y68.84 E0.05773
G1 X180.614 Y68.291 E0.05773
G1 X179.071 Y67.819 E0.064
G1 X177.189 Y67.458 E0.076
G1 X175.63 Y67.33 E0.06206
G1 X34.673 Y67.326 E5.59169
G1 X32.834 Y67.455 E0.07314
G1 X31.294 Y67.735 E0.06207
G1 X29.739 Y68.166 E0.064
G1 X28.181 Y68.772 E0.06633
G1 E-3.6 F1800
;WIPE_START
G1 F8640
M204 S1000
G1 X26.744 Y69.505 E-0.31929
G1 X25.221 Y70.48 E-0.35789
G1 X23.736 Y71.69 E-0.37918
G1 X22.635 Y72.802 E-0.30966
G1 X21.755 Y73.851 E-0.27104
G1 X20.68 Y75.437 E-0.37919
G1 X20.061 Y76.617 E-0.26374
;WIPE_END
G1 E-0.12 F1800
G1 Z0.275 F10800
; acceleration to travel
M204 S1500
G1 X27.715 Y72.097
; decel to extrusion
M204 S800
G1 X29.203 Y71.218
; end travel
G1 Z0.2
G1 E6 F1800
;WIDTH:0.42
G1 F1200
G1 X30.29 Y70.764 E0.03692
G1 X31.593 Y70.369 E0.04271
G1 X32.88 Y70.108 E0.04118
G1 X34.823 Y69.949 E0.06113
G1 X175.393 Y69.953 E4.40745
G1 X176.804 Y70.066 E0.0444
G1 X178.193 Y70.318 E0.04426
G1 X179.461 Y70.676 E0.04132
G1 X180.62 Y71.122 E0.03893
G1 X181.773 Y71.689 E0.04026
G1 X182.856 Y72.35 E0.0398
G1 X183.888 Y73.117 E0.04032
G1 X184.835 Y73.965 E0.03984
G1 X185.738 Y74.938 E0.04162
G1 X186.538 Y75.981 E0.04121
G1 X187.237 Y77.095 E0.04126
G1 X187.834 Y78.281 E0.04162
G1 X188.311 Y79.502 E0.04111
G1 X188.672 Y80.76 E0.04103
G1 X188.915 Y82.052 E0.04121
G1 X189.036 Y83.352 E0.04094
G1 X189.051 Y126.11 E1.34067
G1 X188.997 Y127.231 E0.03517
G1 X188.858 Y128.319 E0.03439
G1 X188.581 Y129.604 E0.04121
G1 X188.015 Y131.295 E0.05591
G1 X187.128 Y133.096 E0.06297
G1 X186.016 Y134.727 E0.06188
G1 X185.355 Y135.498 E0.03186
G1 X184.649 Y136.218 E0.03161
G1 X182.968 Y137.576 E0.06776
G1 X182.08 Y138.137 E0.03292
G1 X181.164 Y138.629 E0.03259
G1 X179.71 Y139.236 E0.04941
G1 X178.407 Y139.631 E0.04271
G1 X177.12 Y139.892 E0.04118
G1 X175.177 Y140.051 E0.06112
G1 X34.602 Y140.043 E4.40763
G1 X33.56 Y139.977 E0.03273
M73 P1 R102
G1 X32.516 Y139.83 E0.03305
G1 X31.489 Y139.605 E0.03297
G1 X30.475 Y139.303 E0.0332
G1 X29.343 Y138.862 E0.03806
G1 X28.229 Y138.314 E0.03895
G1 X26.788 Y137.404 E0.05343
G1 X24.927 Y135.801 E0.07702
G1 X24.261 Y135.061 E0.0312
G1 X23.654 Y134.289 E0.03081
G1 X22.979 Y133.275 E0.03819
G1 X22.39 Y132.202 E0.03838
G1 X21.731 Y130.631 E0.05342
G1 X21.124 Y128.236 E0.07747
G1 X20.998 Y127.171 E0.03363
G1 X20.949 Y126.102 E0.03353
G1 X20.984 Y83.016 E1.35094
G1 X21.199 Y81.353 E0.05257
G1 X21.51 Y80.07 E0.04141
G1 X21.873 Y78.987 E0.0358
G1 X22.288 Y78.014 E0.03315
G1 X22.772 Y77.076 E0.03312
G1 X23.911 Y75.368 E0.06436
G1 X24.612 Y74.539 E0.03405
G1 X25.415 Y73.724 E0.03584
G1 X27.048 Y72.413 E0.0657
G1 X27.918 Y71.864 E0.03223
G1 X28.835 Y71.372 E0.03264
G1 X29.203 Y71.218 E0.01252
G1 X29.348 Y71.565 F10800
G1 F1200
G1 X30.426 Y71.115 E0.03661
G1 X31.694 Y70.732 E0.04153
G1 X32.944 Y70.479 E0.04
G1 X34.831 Y70.326 E0.05936
G1 X175.385 Y70.33 E4.40698
G1 X176.746 Y70.438 E0.04281
G1 X178.117 Y70.687 E0.04367
G1 X179.35 Y71.037 E0.04019
G1 X180.477 Y71.471 E0.03786
G1 X181.598 Y72.023 E0.0392
G1 X182.652 Y72.668 E0.03872
G1 X183.656 Y73.415 E0.03924
G1 X184.577 Y74.24 E0.03876
G1 X185.455 Y75.187 E0.04052
G1 X186.233 Y76.203 E0.0401
G1 X186.913 Y77.288 E0.04016
G1 X187.494 Y78.442 E0.04051
G1 X187.957 Y79.631 E0.04
G1 X188.307 Y80.855 E0.03993
G1 X188.543 Y82.113 E0.04011
G1 X188.66 Y83.378 E0.03984
G1 X188.674 Y126.106 E1.33971
G1 X188.621 Y127.205 E0.0345
G1 X188.485 Y128.263 E0.03344
G1 X188.22 Y129.494 E0.03949
G1 X187.671 Y131.14 E0.05439
G1 X186.808 Y132.895 E0.06132
G1 X185.723 Y134.489 E0.06048
G1 X185.081 Y135.239 E0.03094
G1 X184.387 Y135.947 E0.03107
G1 X182.757 Y137.263 E0.0657
G1 X181.884 Y137.814 E0.03237
G1 X180.994 Y138.292 E0.03167
G1 X179.574 Y138.885 E0.04825
G1 X178.306 Y139.268 E0.04153
G1 X177.056 Y139.521 E0.04
G1 X175.169 Y139.674 E0.05936
G1 X34.62 Y139.667 E4.40683
G1 X33.605 Y139.603 E0.03186
G1 X32.59 Y139.46 E0.03215
G1 X31.577 Y139.238 E0.03252
G1 X30.59 Y138.944 E0.03229
G1 X29.488 Y138.514 E0.03709
G1 X28.404 Y137.98 E0.03787
G1 X27.001 Y137.093 E0.05205
G1 X25.199 Y135.54 E0.07459
G1 X24.554 Y134.823 E0.03023
G1 X23.955 Y134.062 E0.03038
G1 X23.297 Y133.073 E0.03723
G1 X22.725 Y132.03 E0.03731
G1 X22.085 Y130.498 E0.05205
G1 X21.497 Y128.179 E0.07501
G1 X21.374 Y127.146 E0.03261
G1 X21.326 Y126.098 E0.0329
G1 X21.361 Y83.029 E1.35042
G1 X21.572 Y81.412 E0.05111
G1 X21.87 Y80.182 E0.03969
G1 X22.228 Y79.114 E0.03531
G1 X22.626 Y78.181 E0.03181
G1 X23.092 Y77.276 E0.0319
G1 X24.219 Y75.586 E0.06368
G1 X24.895 Y74.788 E0.03282
G1 X25.659 Y74.011 E0.03415
G1 X27.259 Y72.726 E0.06434
G1 X28.113 Y72.187 E0.03168
G1 X29.005 Y71.708 E0.03173
G1 X29.348 Y71.565 E0.01166
G1 X29.493 Y71.913 F10800
G1 F1200
G1 X30.562 Y71.467 E0.03631
G1 X31.794 Y71.096 E0.04035
G1 X33.008 Y70.851 E0.03882
G1 X34.839 Y70.703 E0.0576
G1 X175.378 Y70.707 E4.4065
G1 X176.707 Y70.813 E0.04181
M73 P2 R102
G1 X178.04 Y71.056 E0.04249
G1 X179.239 Y71.397 E0.03907
G1 X180.333 Y71.82 E0.03678
G1 X181.424 Y72.358 E0.03813
G1 X182.448 Y72.985 E0.03765
G1 X183.424 Y73.712 E0.03817
G1 X184.318 Y74.514 E0.03768
G1 X185.173 Y75.437 E0.03942
G1 X185.928 Y76.425 E0.03899
G1 X186.589 Y77.48 E0.03905
G1 X187.153 Y78.603 E0.03939
G1 X187.602 Y79.759 E0.03889
G1 X187.942 Y80.95 E0.03883
G1 X188.17 Y82.173 E0.03902
G1 X188.283 Y83.404 E0.03874
G1 X188.297 Y126.101 E1.33876
G1 X188.244 Y127.179 E0.03384
G1 X188.112 Y128.207 E0.03249
G1 X187.859 Y129.385 E0.03778
G1 X187.327 Y130.985 E0.05288
G1 X186.489 Y132.694 E0.05967
G1 X185.43 Y134.252 E0.05908
G1 X184.799 Y134.989 E0.03041
G1 X184.126 Y135.675 E0.03013
G1 X182.529 Y136.963 E0.06433
G1 X181.689 Y137.492 E0.03113
G1 X180.824 Y137.955 E0.03076
G1 X179.438 Y138.533 E0.04709
G1 X178.206 Y138.904 E0.04035
G1 X176.992 Y139.149 E0.03882
G1 X175.161 Y139.297 E0.05759
G1 X34.637 Y139.29 E4.40603
G1 X33.636 Y139.227 E0.03145
G1 X32.65 Y139.087 E0.03125
G1 X31.664 Y138.872 E0.03163
G1 X30.706 Y138.585 E0.03138
G1 X29.633 Y138.165 E0.03611
G1 X28.58 Y137.646 E0.0368
G1 X27.214 Y136.782 E0.05068
G1 X25.471 Y135.279 E0.07217
G1 X24.838 Y134.576 E0.02966
G1 X24.256 Y133.835 E0.02954
G1 X23.616 Y132.871 E0.03627
G1 X23.061 Y131.857 E0.03624
G1 X22.438 Y130.366 E0.05068
G1 X21.87 Y128.122 E0.07256
G1 X21.749 Y127.109 E0.03201
G1 X21.703 Y126.094 E0.03184
G1 X21.738 Y83.041 E1.3499
G1 X21.944 Y81.472 E0.04964
G1 X22.23 Y80.294 E0.03798
G1 X22.584 Y79.241 E0.03482
G1 X22.965 Y78.347 E0.03048
G1 X23.411 Y77.476 E0.03068
G1 X24.526 Y75.805 E0.063
G1 X25.178 Y75.037 E0.03158
G1 X25.904 Y74.298 E0.03247
G1 X27.469 Y73.039 E0.06297
G1 X28.309 Y72.509 E0.03113
G1 X29.175 Y72.045 E0.03082
G1 X29.493 Y71.913 E0.0108
G1 X29.638 Y72.26 F10800
G1 F1200
G1 X30.698 Y71.819 E0.03601
G1 X31.894 Y71.459 E0.03917
G1 X33.071 Y71.223 E0.03763
G1 X34.846 Y71.08 E0.05584
G1 X175.37 Y71.085 E4.40603
G1 X176.667 Y71.188 E0.0408
M73 P2 R101
G1 X177.963 Y71.426 E0.04131
G1 X179.127 Y71.757 E0.03794
G1 X180.189 Y72.168 E0.03571
G1 X181.249 Y72.692 E0.03706
G1 X182.243 Y73.302 E0.03657
G1 X183.192 Y74.009 E0.03709
G1 X184.06 Y74.789 E0.0366
G1 X184.89 Y75.687 E0.03832
G1 X185.623 Y76.647 E0.03788
G1 X186.264 Y77.673 E0.03794
G1 X186.812 Y78.764 E0.03828
G1 X187.242 Y79.871 E0.03724
G1 X187.573 Y81.028 E0.03773
G1 X187.796 Y82.217 E0.03791
G1 X187.907 Y83.429 E0.03819
G1 X187.92 Y126.097 E1.33781
G1 X187.868 Y127.153 E0.03317
G1 X187.739 Y128.151 E0.03154
G1 X187.498 Y129.276 E0.03608
G1 X186.983 Y130.831 E0.05136
G1 X186.17 Y132.493 E0.05802
G1 X185.136 Y134.015 E0.05767
G1 X184.525 Y134.729 E0.02948
G1 X183.864 Y135.403 E0.02959
G1 X182.318 Y136.649 E0.06227
G1 X181.505 Y137.163 E0.03016
G1 X180.654 Y137.619 E0.03026
G1 X179.302 Y138.181 E0.04592
G1 X178.106 Y138.541 E0.03917
G1 X176.929 Y138.777 E0.03763
G1 X175.154 Y138.92 E0.05584
G1 X34.655 Y138.913 E4.40524
G1 X33.682 Y138.852 E0.03058
G1 X32.723 Y138.718 E0.03035
G1 X31.766 Y138.508 E0.03074
G1 X30.821 Y138.226 E0.03091
G1 X29.778 Y137.817 E0.03513
G1 X28.756 Y137.313 E0.03573
G1 X27.428 Y136.471 E0.04931
G1 X25.744 Y135.017 E0.06975
G1 X25.123 Y134.328 E0.02909
G1 X24.557 Y133.608 E0.02871
G1 X23.943 Y132.683 E0.03482
G1 X23.396 Y131.685 E0.03568
G1 X22.791 Y130.234 E0.0493
G1 X22.243 Y128.065 E0.07012
G1 X22.126 Y127.084 E0.03098
G1 X22.08 Y126.09 E0.03121
G1 X22.115 Y83.054 E1.34937
G1 X22.317 Y81.531 E0.04816
G1 X22.59 Y80.407 E0.03628
G1 X22.939 Y79.368 E0.03434
G1 X23.303 Y78.513 E0.02916
G1 X23.731 Y77.677 E0.02945
G1 X24.834 Y76.023 E0.06232
G1 X25.461 Y75.286 E0.03033
G1 X26.149 Y74.585 E0.03081
G1 X27.679 Y73.352 E0.06161
G1 X28.493 Y72.839 E0.03016
G1 X29.345 Y72.382 E0.03032
G1 X29.638 Y72.26 E0.00993
G1 X29.782 Y72.608 F10800
G1 F1200
G1 X30.834 Y72.171 E0.03571
G1 X31.994 Y71.823 E0.03798
G1 X33.134 Y71.595 E0.03646
G1 X34.854 Y71.457 E0.05409
G1 X175.363 Y71.462 E4.40556
G1 X176.628 Y71.564 E0.03979
G1 X177.886 Y71.795 E0.04013
G1 X179.015 Y72.118 E0.03681
G1 X180.045 Y72.517 E0.03463
G1 X181.074 Y73.026 E0.036
G1 X182.039 Y73.619 E0.0355
G1 X182.959 Y74.306 E0.03602
G1 X183.801 Y75.064 E0.03552
G1 X184.607 Y75.936 E0.03723
G1 X185.318 Y76.868 E0.03677
G1 X185.94 Y77.865 E0.03683
G1 X186.47 Y78.925 E0.03718
G1 X186.882 Y79.983 E0.0356
G1 X187.204 Y81.107 E0.03663
G1 X187.424 Y82.277 E0.03735
G1 X187.531 Y83.455 E0.03708
G1 X187.543 Y126.092 E1.33686
G1 X187.492 Y127.127 E0.03249
G1 X187.367 Y128.095 E0.03059
G1 X187.137 Y129.167 E0.03439
G1 X186.638 Y130.677 E0.04985
G1 X185.85 Y132.293 E0.05636
G1 X184.843 Y133.778 E0.05625
G1 X184.243 Y134.479 E0.02895
G1 X183.603 Y135.131 E0.02864
G1 X182.108 Y136.336 E0.06021
G1 X181.309 Y136.84 E0.02961
G1 X180.484 Y137.282 E0.02934
G1 X179.166 Y137.829 E0.04475
G1 X178.006 Y138.177 E0.03798
G1 X176.866 Y138.405 E0.03646
G1 X175.146 Y138.543 E0.05409
G1 X34.673 Y138.537 E4.40445
G1 X33.727 Y138.478 E0.0297
G1 X32.783 Y138.345 E0.02989
G1 X31.853 Y138.142 E0.02984
G1 X30.937 Y137.867 E0.03
G1 X29.923 Y137.469 E0.03415
G1 X28.932 Y136.979 E0.03465
G1 X27.642 Y136.16 E0.04793
G1 X26.016 Y134.756 E0.06735
G1 X25.415 Y134.09 E0.02811
G1 X24.859 Y133.381 E0.02827
G1 X24.262 Y132.481 E0.03386
G1 X23.732 Y131.513 E0.03461
G1 X23.145 Y130.101 E0.04793
G1 X22.616 Y128.009 E0.06768
G1 X22.501 Y127.047 E0.03038
G1 X22.457 Y126.086 E0.03015
G1 X22.492 Y83.067 E1.34884
G1 X22.689 Y81.591 E0.04668
G1 X22.95 Y80.519 E0.03459
G1 X23.294 Y79.496 E0.03385
G1 X23.642 Y78.678 E0.02786
G1 X24.051 Y77.877 E0.02821
G1 X25.141 Y76.242 E0.06162
M73 P3 R101
G1 X25.744 Y75.536 E0.02908
G1 X26.395 Y74.872 E0.02917
G1 X27.89 Y73.665 E0.06024
G1 X28.689 Y73.161 E0.02961
G1 X29.515 Y72.719 E0.02939
G1 X29.782 Y72.608 E0.00906
G1 X29.926 Y72.955 F10800
G1 F1200
G1 X30.969 Y72.523 E0.03541
G1 X32.094 Y72.187 E0.0368
G1 X33.197 Y71.967 E0.03528
G1 X34.861 Y71.834 E0.05234
G1 X175.355 Y71.839 E4.40508
G1 X176.588 Y71.939 E0.03877
G1 X177.809 Y72.164 E0.03894
G1 X178.903 Y72.478 E0.03568
G1 X179.901 Y72.865 E0.03356
G1 X180.899 Y73.36 E0.03493
G1 X181.834 Y73.935 E0.03442
G1 X182.726 Y74.603 E0.03494
G1 X183.542 Y75.338 E0.03444
G1 X184.323 Y76.185 E0.03613
G1 X185.013 Y77.09 E0.03566
G1 X185.615 Y78.057 E0.03573
G1 X186.129 Y79.086 E0.03607
G1 X186.522 Y80.096 E0.03397
G1 X186.835 Y81.185 E0.03554
G1 X187.049 Y82.321 E0.03623
G1 X187.154 Y83.481 E0.03653
G1 X187.166 Y126.088 E1.33591
G1 X187.116 Y127.101 E0.03182
G1 X186.994 Y128.039 E0.02963
G1 X186.775 Y129.059 E0.03273
G1 X186.293 Y130.524 E0.04834
G1 X185.53 Y132.092 E0.0547
G1 X184.55 Y133.54 E0.05484
G1 X183.969 Y134.219 E0.02801
G1 X183.341 Y134.859 E0.02809
G1 X181.88 Y136.036 E0.05883
G1 X181.114 Y136.518 E0.02836
G1 X180.315 Y136.945 E0.02842
G1 X179.031 Y137.477 E0.04358
G1 X177.906 Y137.813 E0.0368
G1 X176.803 Y138.033 E0.03528
G1 X175.139 Y138.166 E0.05234
G1 X34.69 Y138.16 E4.40368
G1 X33.772 Y138.104 E0.02883
G1 X32.857 Y137.975 E0.02899
G1 X31.941 Y137.775 E0.02939
G1 X31.053 Y137.508 E0.02908
G1 X30.068 Y137.121 E0.03317
G1 X29.109 Y136.646 E0.03357
G1 X27.856 Y135.849 E0.04656
G1 X26.288 Y134.495 E0.06495
G1 X25.7 Y133.843 E0.02754
G1 X25.16 Y133.154 E0.02743
G1 X24.58 Y132.28 E0.0329
G1 X24.068 Y131.341 E0.03353
G1 X23.498 Y129.97 E0.04655
G1 X22.989 Y127.952 E0.06525
G1 X22.877 Y127.022 E0.02935
G1 X22.834 Y126.082 E0.02952
G1 X22.867 Y83.104 E1.34754
G1 X23.058 Y81.67 E0.04536
M73 P3 R100
G1 X23.31 Y80.631 E0.03352
G1 X23.644 Y79.637 E0.03289
G1 X23.987 Y78.832 E0.02742
G1 X24.382 Y78.058 E0.02726
G1 X25.435 Y76.478 E0.05954
G1 X26.026 Y75.786 E0.02853
G1 X26.656 Y75.143 E0.02822
G1 X28.101 Y73.978 E0.05819
G1 X28.872 Y73.49 E0.02863
G1 X29.685 Y73.055 E0.02889
G1 X29.926 Y72.955 E0.00818
G1 X30.07 Y73.303 F10800
G1 F1200
G1 X31.104 Y72.875 E0.0351
G1 X32.193 Y72.551 E0.03561
G1 X33.26 Y72.339 E0.0341
G1 X34.869 Y72.212 E0.05061
G1 X175.347 Y72.216 E4.40461
G1 X176.547 Y72.314 E0.03775
G1 X177.731 Y72.533 E0.03775
G1 X178.79 Y72.838 E0.03456
G1 X179.756 Y73.214 E0.03249
