; generated by PrusaSlicer 2.7.0+win64 on 2024-01-14 at 00:42:06 UTC


;
;
; 

; external perimeters extrusion width = 0.45mm
; perimeters extrusion width = 0.45mm
; infill extrusion width = 0.45mm
; solid infill extrusion width = 0.45mm
; top infill extrusion width = 0.40mm
; first layer extrusion width = 0.42mm

M73 P0 R29
M73 Q0 S29
M201 X1000 Y1000 Z200 E5000 ; sets maximum accelerations, mm/sec^2
M203 X200 Y200 Z12 E120 ; sets maximum feedrates, mm / sec
M204 S1250 T1250 ; sets acceleration (S) and retract acceleration (R), mm/sec^2
M205 X8.00 Y8.00 Z0.40 E4.50 ; sets the jerk limits, mm/sec
M205 S0 T0 ; sets the minimum extruding and travel feed rate, mm/sec

; printing object Bed_Level_test_Speed_Print_Test_1.stl id:0 copy 0
; stop printing object Bed_Level_test_Speed_Print_Test_1.stl id:0 copy 0

;TYPE:Custom
M862.3 P "MK3S" ; printer model check
M862.1 P0.4 ; nozzle diameter check
M115 U3.13.2 ; tell printer latest fw version
G90 ; use absolute coordinates
M83 ; extruder relative mode
M104 S215 ; set extruder temp
M140 S60 ; set bed temp
M190 S60 ; wait for bed temp
M109 S215 ; wait for extruder temp
G28 W ; home all without mesh bed level
G80 X10.0416 Y6.73438 W229.917 H196.531 ; mesh bed levelling

G1 Z0.2 F720
G1 Y-3 F1000 ; go outside print area
G92 E0
G1 X60 E9 F1000 ; intro line
G1 X100 E12.5 F1000 ; intro line

G92 E0
M221 S95

; Don't change E values below. Excessive value can damage the printer.

M907 E538 ; set extruder motor current
G21 ; set units to millimeters
G90 ; use absolute coordinates
M83 ; use relative distances for extrusion
M900 K0.05 ; Filament gcode LA 1.5
M900 K30 ; Filament gcode LA 1.0

M107
;LAYER_CHANGE
;Z:0.2
;HEIGHT:0.2
;BEFORE_LAYER_CHANGE
G92 E0.0
;0.2


G1 E-.8 F2100
G1 Z.2 F720
;AFTER_LAYER_CHANGE
;0.2
G1 X10.622 Y7.993 F10800
G1 Z.2 F720
G1 E.8 F2100
M204 S800
;TYPE:Skirt/Brim
;WIDTH:0.42
G1 F1200
G1 X11.667 Y7.117 E.04275
G1 X12.607 Y6.923 E.03009
G1 X237.393 Y6.923 E7.04801
G1 X238.7 Y7.315 E.04278
M73 P1 R29
M73 Q1 S29
G1 X239.576 Y8.36 E.04275
G1 X239.77 Y9.3 E.03009
G1 X239.77 Y200.7 E6.00121
G1 X239.378 Y202.007 E.04278
M73 P1 R28
M73 Q1 S28
G1 X238.333 Y202.883 E.04275
G1 X237.393 Y203.077 E.03009
G1 X12.607 Y203.077 E7.04801
G1 X11.3 Y202.685 E.04278
M73 P2 R28
M73 Q2 S28
G1 X10.424 Y201.64 E.04275
G1 X10.23 Y200.7 E.03009
G1 X10.23 Y9.3 E6.00121
G1 X10.604 Y8.05 E.04091
M204 S1000
; printing object Bed_Level_test_Speed_Print_Test_1.stl id:0 copy 0
;WIPE_START
G1 F8640
G1 X10.622 Y7.993 E-.0138
G1 X11.667 Y7.117 E-.31486
G1 X12.607 Y6.923 E-.22162
G1 X13.688 Y6.923 E-.24972
;WIPE_END
G1 Z.6 F720
G1 X154.799 Y53.748 F10800
G1 Z.2 F720
G1 E.8 F2100
M204 S800
;TYPE:External perimeter
;WIDTH:0.463781
G1 F1200
G1 X154.702 Y53.122 E.02217
G1 X154.702 Y52.928 E.00679
G1 X154.794 Y52.334 E.02103
G1 X154.879 Y52.121 E.00803
;WIDTH:0.44922
G1 X155.116 Y51.64 E.01812
G1 X155.297 Y51.408 E.00994
;WIDTH:0.435471
G1 X155.651 Y51.02 E.01714
G1 X155.882 Y50.843 E.0095
;WIDTH:0.430771
G1 X156.359 Y50.527 E.01845
G1 X156.588 Y50.428 E.00805
;WIDTH:0.41718
G1 X157.376 Y50.176 E.02575
;WIDTH:0.419249
G1 X158.213 Y50.094 E.02632
;WIDTH:0.426045
G1 X159.093 Y50.205 E.02826
;WIDTH:0.43077
G1 X159.941 Y50.527 E.02925
;WIDTH:0.435492
G1 X160.649 Y51.02 E.02816
;WIDTH:0.449218
G1 X161.184 Y51.64 E.02767
;WIDTH:0.463779
G1 X161.506 Y52.334 E.02677
;WIDTH:0.466271
G1 X161.607 Y53.057 E.0257
G1 X161.598 Y53.122 E.00231
;WIDTH:0.463779
G1 X161.506 Y53.716 E.02103
G1 X161.421 Y53.929 E.00803
;WIDTH:0.44922
G1 X161.184 Y54.41 E.01812
G1 X161.003 Y54.642 E.00994
;WIDTH:0.435471
G1 X160.649 Y55.031 E.01717
G1 X160.418 Y55.207 E.00948
;WIDTH:0.43079
G1 X159.941 Y55.523 E.01845
G1 X159.712 Y55.622 E.00805
;WIDTH:0.417179
G1 X158.924 Y55.874 E.02575
;WIDTH:0.419222
G1 X158.087 Y55.956 E.02631
;WIDTH:0.426049
G1 X157.206 Y55.845 E.02829
;WIDTH:0.430775
G1 X156.359 Y55.523 E.02922
;WIDTH:0.435492
G1 X155.651 Y55.03 E.02816
;WIDTH:0.449219
G1 X155.116 Y54.41 E.02767
;WIDTH:0.463781
G1 X154.825 Y53.802 E.02359
M204 S1000
G1 X155.118 Y53.057 F10800
M204 S800
;WIDTH:0.463762
G1 F1200
G1 X155.21 Y52.399 E.02325
G1 X155.48 Y51.819 E.02239
;WIDTH:0.44922
G1 X155.578 Y51.668 E.00608
;WIDTH:0.435471
G1 X155.938 Y51.286 E.01713
G1 X156.085 Y51.157 E.00638
;WIDTH:0.430771
G1 X156.569 Y50.853 E.01843
G1 X157.334 Y50.567 E.02634
;WIDTH:0.426037
G1 X158.129 Y50.467 E.02553
;WIDTH:0.419221
G1 X158.882 Y50.547 E.02369
;WIDTH:0.417249
G1 X159.589 Y50.78 E.02317
;WIDTH:0.416382
G1 X160.215 Y51.157 E.02269
;WIDTH:0.425925
G1 X160.722 Y51.668 E.02292
;WIDTH:0.447862
G1 X161.056 Y52.298 E.02401
;WIDTH:0.463761
G1 X161.182 Y52.993 E.02472
G1 X161.09 Y53.651 E.02325
G1 X160.82 Y54.231 E.02239
M73 Q3 S28
;WIDTH:0.44922
G1 X160.722 Y54.382 E.00608
;WIDTH:0.435471
G1 X160.362 Y54.764 E.01713
G1 X159.731 Y55.197 E.02498
;WIDTH:0.43079
G1 X158.966 Y55.483 E.02634
;WIDTH:0.426048
G1 X158.171 Y55.583 E.02553
;WIDTH:0.419223
G1 X157.418 Y55.503 E.02369
;WIDTH:0.417179
G1 X156.711 Y55.27 E.02317
;WIDTH:0.416383
G1 X156.085 Y54.893 E.02269
;WIDTH:0.425926
G1 X155.578 Y54.382 E.02292
;WIDTH:0.447862
G1 X155.244 Y53.752 E.02401
;WIDTH:0.463762
G1 X155.129 Y53.116 E.02262
M204 S1000
;WIPE_START
G1 F8640
G1 X155.118 Y53.057 E-.01386
G1 X155.21 Y52.399 E-.15341
G1 X155.48 Y51.819 E-.14772
;WIPE_END
G1 E-.48501 F2100
G1 Z.6 F720
G1 X188.599 Y78.498 F10800
G1 Z.2 F720
M73 P3 R28
G1 E.8 F2100
M204 S800
;WIDTH:0.463779
G1 F1200
G1 X188.502 Y77.872 E.02217
G1 X188.502 Y77.678 E.00679
G1 X188.594 Y77.084 E.02103
G1 X188.679 Y76.871 E.00803
;WIDTH:0.449221
G1 X188.916 Y76.39 E.01812
G1 X189.097 Y76.158 E.00994
;WIDTH:0.43547
G1 X189.451 Y75.77 E.01714
G1 X189.682 Y75.593 E.0095
;WIDTH:0.43077
G1 X190.159 Y75.277 E.01845
G1 X190.388 Y75.178 E.00805
;WIDTH:0.417181
G1 X191.176 Y74.926 E.02575
;WIDTH:0.419232
G1 X192.013 Y74.844 E.02632
;WIDTH:0.426038
G1 X192.893 Y74.955 E.02826
;WIDTH:0.43077
G1 X193.741 Y75.277 E.02925
;WIDTH:0.435491
G1 X194.449 Y75.77 E.02816
;WIDTH:0.449219
G1 X194.984 Y76.39 E.02767
;WIDTH:0.463779
G1 X195.306 Y77.084 E.02677
;WIDTH:0.466271
G1 X195.407 Y77.807 E.0257
G1 X195.398 Y77.872 E.00231
;WIDTH:0.463779
G1 X195.306 Y78.466 E.02103
G1 X195.221 Y78.679 E.00803
;WIDTH:0.449221
G1 X194.984 Y79.16 E.01812
G1 X194.803 Y79.392 E.00994
;WIDTH:0.43547
G1 X194.449 Y79.781 E.01717
G1 X194.218 Y79.957 E.00948
;WIDTH:0.430787
G1 X193.741 Y80.273 E.01845
G1 X193.512 Y80.372 E.00805
;WIDTH:0.417197
G1 X192.724 Y80.624 E.02575
;WIDTH:0.419222
G1 X191.887 Y80.706 E.02631
;WIDTH:0.426038
G1 X191.007 Y80.595 E.02826
;WIDTH:0.430781
G1 X190.159 Y80.273 E.02925
;WIDTH:0.435493
G1 X189.451 Y79.781 E.02814
;WIDTH:0.44922
G1 X188.916 Y79.16 E.02769
;WIDTH:0.463779
G1 X188.625 Y78.552 E.02359
M204 S1000
G1 X188.918 Y77.807 F10800
M204 S800
;WIDTH:0.463762
G1 F1200
G1 X189.01 Y77.149 E.02325
G1 X189.28 Y76.569 E.02239
;WIDTH:0.449221
G1 X189.378 Y76.418 E.00608
;WIDTH:0.43547
G1 X189.738 Y76.036 E.01713
G1 X189.885 Y75.907 E.00638
;WIDTH:0.43077
G1 X190.369 Y75.603 E.01843
G1 X191.134 Y75.317 E.02634
;WIDTH:0.426037
G1 X191.929 Y75.217 E.02553
;WIDTH:0.419222
G1 X192.682 Y75.297 E.02369
;WIDTH:0.417186
G1 X193.389 Y75.53 E.02317
;WIDTH:0.416383
G1 X194.015 Y75.907 E.02269
;WIDTH:0.425924
G1 X194.522 Y76.418 E.02292
;WIDTH:0.447861
G1 X194.856 Y77.048 E.02401
;WIDTH:0.463761
G1 X194.982 Y77.743 E.02472
G1 X194.89 Y78.401 E.02325
G1 X194.62 Y78.981 E.02239
;WIDTH:0.449221
G1 X194.522 Y79.132 E.00608
;WIDTH:0.43547
G1 X194.162 Y79.514 E.01713
G1 X193.531 Y79.947 E.02498
;WIDTH:0.430787
G1 X192.766 Y80.233 E.02634
;WIDTH:0.426042
G1 X191.971 Y80.333 E.02553
;WIDTH:0.419233
G1 X191.218 Y80.253 E.02369
;WIDTH:0.417179
G1 X190.511 Y80.02 E.02317
;WIDTH:0.416394
G1 X189.885 Y79.643 E.02269
;WIDTH:0.425927
G1 X189.378 Y79.132 E.02292
;WIDTH:0.447862
G1 X189.044 Y78.502 E.02401
;WIDTH:0.463762
G1 X188.929 Y77.866 E.02262
M204 S1000
;WIPE_START
G1 F8640
G1 X188.918 Y77.807 E-.01386
G1 X189.01 Y77.149 E-.15341
G1 X189.28 Y76.569 E-.14772
;WIPE_END
G1 E-.48501 F2100
G1 Z.6 F720
G1 X187.299 Y136.523 F10800
G1 Z.2 F720
G1 E.8 F2100
M204 S800
;WIDTH:0.463779
G1 F1200
G1 X187.202 Y135.897 E.02217
G1 X187.202 Y135.703 E.00679
G1 X187.294 Y135.109 E.02103
G1 X187.379 Y134.896 E.00803
;WIDTH:0.44922
G1 X187.616 Y134.415 E.01812
G1 X187.797 Y134.183 E.00994
;WIDTH:0.435469
G1 X188.151 Y133.795 E.01714
G1 X188.382 Y133.618 E.0095
;WIDTH:0.430771
G1 X188.859 Y133.302 E.01845
G1 X189.088 Y133.203 E.00805
;WIDTH:0.417179
G1 X189.876 Y132.951 E.02575
;WIDTH:0.419251
G1 X190.713 Y132.869 E.02632
;WIDTH:0.426046
G1 X191.593 Y132.98 E.02826
;WIDTH:0.43077
G1 X192.441 Y133.302 E.02925
;WIDTH:0.435492
G1 X193.149 Y133.795 E.02816
;WIDTH:0.449219
G1 X193.684 Y134.415 E.02767
;WIDTH:0.463779
G1 X194.006 Y135.109 E.02677
;WIDTH:0.466271
G1 X194.107 Y135.832 E.0257
G1 X194.098 Y135.897 E.00231
;WIDTH:0.463779
G1 X194.006 Y136.491 E.02103
G1 X193.921 Y136.704 E.00803
;WIDTH:0.44922
G1 X193.684 Y137.185 E.01812
G1 X193.503 Y137.417 E.00994
;WIDTH:0.43547
G1 X193.149 Y137.806 E.01717
G1 X192.918 Y137.982 E.00948
;WIDTH:0.43079
G1 X192.441 Y138.298 E.01845
G1 X192.212 Y138.397 E.00805
;WIDTH:0.41718
G1 X191.424 Y138.649 E.02575
;WIDTH:0.419222
G1 X190.587 Y138.731 E.02631
;WIDTH:0.426048
G1 X189.706 Y138.62 E.02829
;WIDTH:0.430773
G1 X188.859 Y138.298 E.02922
;WIDTH:0.435492
G1 X188.151 Y137.805 E.02816
;WIDTH:0.449221
G1 X187.616 Y137.185 E.02767
;WIDTH:0.463779
G1 X187.325 Y136.577 E.02359
M204 S1000
G1 X187.618 Y135.832 F10800
M204 S800
;WIDTH:0.463762
G1 F1200
G1 X187.71 Y135.174 E.02325
G1 X187.98 Y134.594 E.02239
;WIDTH:0.44922
G1 X188.078 Y134.443 E.00608
;WIDTH:0.435469
G1 X188.438 Y134.061 E.01713
G1 X188.585 Y133.932 E.00638
;WIDTH:0.430771
G1 X189.069 Y133.628 E.01843
G1 X189.834 Y133.342 E.02634
;WIDTH:0.426038
G1 X190.629 Y133.242 E.02553
;WIDTH:0.419222
G1 X191.382 Y133.322 E.02369
;WIDTH:0.417249
G1 X192.089 Y133.555 E.02317
;WIDTH:0.416383
G1 X192.715 Y133.932 E.02269
;WIDTH:0.425925
G1 X193.222 Y134.443 E.02292
;WIDTH:0.447861
G1 X193.556 Y135.073 E.02401
;WIDTH:0.463761
G1 X193.682 Y135.768 E.02472
G1 X193.59 Y136.426 E.02325
G1 X193.32 Y137.006 E.02239
;WIDTH:0.44922
G1 X193.222 Y137.157 E.00608
;WIDTH:0.43547
G1 X192.862 Y137.539 E.01713
G1 X192.231 Y137.972 E.02498
;WIDTH:0.43079
G1 X191.466 Y138.258 E.02634
;WIDTH:0.426048
G1 X190.671 Y138.358 E.02553
;WIDTH:0.419222
G1 X189.918 Y138.278 E.02369
;WIDTH:0.417181
G1 X189.211 Y138.045 E.02317
;WIDTH:0.416383
G1 X188.585 Y137.668 E.02269
;WIDTH:0.425927
G1 X188.078 Y137.157 E.02292
;WIDTH:0.447861
G1 X187.744 Y136.527 E.02401
;WIDTH:0.463762
G1 X187.629 Y135.891 E.02262
M204 S1000
;WIPE_START
G1 F8640
G1 X187.618 Y135.832 E-.01386
G1 X187.71 Y135.174 E-.15341
G1 X187.98 Y134.594 E-.14772
;WIPE_END
G1 E-.48501 F2100
G1 Z.6 F720
G1 X164.756 Y163.709 F10800
G1 Z.2 F720
G1 E.8 F2100
M204 S800
;WIDTH:0.466271
G1 F1200
G1 X164.857 Y164.432 E.0257
G1 X164.848 Y164.497 E.00231
;WIDTH:0.463779
G1 X164.756 Y165.091 E.02103
G1 X164.671 Y165.304 E.00803
;WIDTH:0.449219
G1 X164.434 Y165.785 E.01812
G1 X164.253 Y166.017 E.00994
;WIDTH:0.43547
G1 X163.899 Y166.406 E.01717
G1 X163.668 Y166.582 E.00948
;WIDTH:0.430787
G1 X163.191 Y166.898 E.01845
G1 X162.962 Y166.997 E.00805
;WIDTH:0.417197
G1 X162.174 Y167.249 E.02575
;WIDTH:0.419222
G1 X161.337 Y167.331 E.02631
;WIDTH:0.426038
G1 X160.457 Y167.22 E.02826
;WIDTH:0.430781
G1 X159.609 Y166.898 E.02925
;WIDTH:0.435494
G1 X158.901 Y166.406 E.02814
;WIDTH:0.44922
G1 X158.366 Y165.785 E.02769
;WIDTH:0.46378
G1 X158.049 Y165.123 E.02569
G1 X157.952 Y164.497 E.02217
G1 X157.952 Y164.303 E.00679
G1 X158.044 Y163.709 E.02103
G1 X158.129 Y163.496 E.00803
;WIDTH:0.449219
G1 X158.366 Y163.015 E.01812
G1 X158.547 Y162.783 E.00994
;WIDTH:0.43547
G1 X158.901 Y162.395 E.01714
G1 X159.132 Y162.218 E.0095
;WIDTH:0.430771
G1 X159.609 Y161.902 E.01845
G1 X159.838 Y161.803 E.00805
;WIDTH:0.417179
G1 X160.626 Y161.551 E.02575
;WIDTH:0.419234
G1 X161.463 Y161.469 E.02632
;WIDTH:0.426039
G1 X162.343 Y161.58 E.02826
;WIDTH:0.430771
G1 X163.191 Y161.902 E.02925
;WIDTH:0.435492
G1 X163.899 Y162.395 E.02816
;WIDTH:0.449218
G1 X164.434 Y163.015 E.02767
;WIDTH:0.463779
G1 X164.73 Y163.655 E.02468
M204 S1000
G1 X164.306 Y163.673 F10800
M204 S800
;WIDTH:0.463761
G1 F1200
G1 X164.432 Y164.368 E.02472
G1 X164.34 Y165.026 E.02325
G1 X164.07 Y165.606 E.02239
;WIDTH:0.449219
G1 X163.972 Y165.757 E.00608
;WIDTH:0.43547
G1 X163.612 Y166.139 E.01713
G1 X162.981 Y166.572 E.02498
;WIDTH:0.430787
G1 X162.216 Y166.858 E.02634
;WIDTH:0.42604
G1 X161.421 Y166.958 E.02553
;WIDTH:0.419231
G1 X160.668 Y166.878 E.02369
;WIDTH:0.417181
G1 X159.961 Y166.645 E.02317
;WIDTH:0.416395
G1 X159.335 Y166.268 E.02269
;WIDTH:0.425927
G1 X158.828 Y165.757 E.02292
;WIDTH:0.447861
G1 X158.494 Y165.127 E.02401
;WIDTH:0.463761
G1 X158.368 Y164.432 E.02472
G1 X158.46 Y163.774 E.02325
G1 X158.73 Y163.194 E.02239
;WIDTH:0.449219
G1 X158.828 Y163.043 E.00608
;WIDTH:0.43547
G1 X159.188 Y162.661 E.01713
G1 X159.335 Y162.532 E.00638
;WIDTH:0.430771
G1 X159.819 Y162.228 E.01843
G1 X160.584 Y161.942 E.02634
;WIDTH:0.426038
G1 X161.379 Y161.842 E.02553
;WIDTH:0.419222
G1 X162.132 Y161.922 E.02369
;WIDTH:0.417186
G1 X162.839 Y162.155 E.02317
;WIDTH:0.416384
G1 X163.465 Y162.532 E.02269
;WIDTH:0.425926
G1 X163.972 Y163.043 E.02292
;WIDTH:0.447862
G1 X164.278 Y163.62 E.02199
M204 S1000
;WIPE_START
G1 F8640
G1 X164.306 Y163.673 E-.01384
G1 X164.432 Y164.368 E-.16309
G1 X164.34 Y165.026 E-.15341
G1 X164.07 Y165.606 E-.14772
;WIPE_END
G1 E-.32194 F2100
G1 Z.6 F720
G1 X97.481 Y161.784 F10800
G1 Z.2 F720
G1 E.8 F2100
M204 S800
;WIDTH:0.466272
G1 F1200
G1 X97.582 Y162.507 E.0257
G1 X97.573 Y162.572 E.00231
;WIDTH:0.463781
G1 X97.481 Y163.166 E.02103
G1 X97.396 Y163.379 E.00803
;WIDTH:0.44922
G1 X97.159 Y163.86 E.01812
G1 X96.978 Y164.092 E.00994
;WIDTH:0.435472
G1 X96.624 Y164.481 E.01717
G1 X96.393 Y164.657 E.00948
;WIDTH:0.43079
G1 X95.916 Y164.973 E.01845
G1 X95.687 Y165.072 E.00805
;WIDTH:0.417179
G1 X94.899 Y165.324 E.02575
;WIDTH:0.419222
G1 X94.062 Y165.406 E.02631
;WIDTH:0.426048
G1 X93.181 Y165.295 E.02829
;WIDTH:0.430773
G1 X92.334 Y164.973 E.02922
;WIDTH:0.435494
G1 X91.626 Y164.48 E.02816
;WIDTH:0.449221
G1 X91.091 Y163.86 E.02767
;WIDTH:0.463781
G1 X90.774 Y163.198 E.02569
G1 X90.677 Y162.572 E.02217
G1 X90.677 Y162.378 E.00679
G1 X90.769 Y161.784 E.02103
G1 X90.854 Y161.571 E.00803
;WIDTH:0.44922
G1 X91.091 Y161.09 E.01812
G1 X91.272 Y160.858 E.00994
;WIDTH:0.435471
G1 X91.626 Y160.47 E.01714
G1 X91.857 Y160.293 E.0095
;WIDTH:0.430771
G1 X92.334 Y159.977 E.01845
G1 X92.563 Y159.878 E.00805
;WIDTH:0.417179
G1 X93.351 Y159.626 E.02575
;WIDTH:0.419251
G1 X94.188 Y159.544 E.02632
;WIDTH:0.426046
G1 X95.068 Y159.655 E.02826
;WIDTH:0.430772
G1 X95.916 Y159.977 E.02925
;WIDTH:0.435493
G1 X96.624 Y160.47 E.02816
;WIDTH:0.44922
G1 X97.159 Y161.09 E.02767
;WIDTH:0.463781
G1 X97.455 Y161.73 E.02468
M204 S1000
G1 X97.157 Y162.443 F10800
M204 S800
;WIDTH:0.463762
G1 F1200
G1 X97.065 Y163.101 E.02325
G1 X96.795 Y163.681 E.02239
;WIDTH:0.44922
G1 X96.697 Y163.832 E.00608
;WIDTH:0.435472
G1 X96.337 Y164.214 E.01713
G1 X95.706 Y164.647 E.02498
;WIDTH:0.43079
G1 X94.941 Y164.933 E.02634
;WIDTH:0.426048
G1 X94.146 Y165.033 E.02553
;WIDTH:0.419221
G1 X93.393 Y164.953 E.02369
;WIDTH:0.417181
G1 X92.686 Y164.72 E.02317
;WIDTH:0.416384
G1 X92.06 Y164.343 E.02269
;WIDTH:0.425927
G1 X91.553 Y163.832 E.02292
;WIDTH:0.447863
G1 X91.219 Y163.202 E.02401
;WIDTH:0.463763
G1 X91.093 Y162.507 E.02472
G1 X91.185 Y161.849 E.02325
G1 X91.455 Y161.269 E.02239
;WIDTH:0.44922
G1 X91.553 Y161.118 E.00608
;WIDTH:0.435471
G1 X91.913 Y160.736 E.01713
G1 X92.06 Y160.607 E.00638
;WIDTH:0.430771
G1 X92.544 Y160.303 E.01843
G1 X93.309 Y160.017 E.02634
;WIDTH:0.426038
G1 X94.104 Y159.917 E.02553
;WIDTH:0.419222
G1 X94.857 Y159.997 E.02369
;WIDTH:0.417249
G1 X95.564 Y160.23 E.02317
;WIDTH:0.416384
G1 X96.19 Y160.607 E.02269
;WIDTH:0.425926
G1 X96.697 Y161.118 E.02292
;WIDTH:0.447863
G1 X97.031 Y161.748 E.02401
;WIDTH:0.463762
G1 X97.146 Y162.384 E.02262
M204 S1000
