; generated by PrusaSlicer 2.6.0+win64 on 2023-08-06 at 01:39:29 UTC


;
;
; 

; external perimeters extrusion width = 0.45mm
; perimeters extrusion width = 0.45mm
; infill extrusion width = 0.45mm
; solid infill extrusion width = 0.45mm
; top infill extrusion width = 0.40mm
; first layer extrusion width = 0.42mm

M73 P0 R8
M73 Q0 S8
M201 X1000 Y1000 Z200 E5000 ; sets maximum accelerations, mm/sec^2
M203 X200 Y200 Z12 E120 ; sets maximum feedrates, mm / sec
M204 S1250 T1250 ; sets acceleration (S) and retract acceleration (R), mm/sec^2
M205 X8.00 Y8.00 Z0.40 E4.50 ; sets the jerk limits, mm/sec
M205 S0 T0 ; sets the minimum extruding and travel feed rate, mm/sec
;TYPE:Custom
M862.3 P "MK3S" ; printer model check
M862.1 P0.4 ; nozzle diameter check
M115 U3.12.2 ; tell printer latest fw version
G90 ; use absolute coordinates
M83 ; extruder relative mode
M104 S215 ; set extruder temp
M140 S60 ; set bed temp
M190 S60 ; wait for bed temp
M109 S215 ; wait for extruder temp
G28 W ; home all without mesh bed level
G80 ; mesh bed leveling

G1 Z0.2 F720
G1 Y-3 F1000 ; go outside print area
G92 E0
G1 X60 E9 F1000 ; intro line
G1 X100 E12.5 F1000 ; intro line

G92 E0
M221 S95

; Don't change E values below. Excessive value can damage the printer.
M907 E430 ; set extruder motor current
G21 ; set units to millimeters
G90 ; use absolute coordinates
M83 ; use relative distances for extrusion
M900 K0.05 ; Filament gcode LA 1.5
M900 K30 ; Filament gcode LA 1.0
M107
;LAYER_CHANGE
;Z:0.2
;HEIGHT:0.2
;BEFORE_LAYER_CHANGE
G92 E0.0
;0.2


G1 E-.8 F2100
M73 P1 R8
M73 Q1 S8
G1 Z.4 F720
;AFTER_LAYER_CHANGE
;0.2
G1 X1.96 Y2.433 F10800
G1 Z.2 F720
G1 E.8 F2100
M204 S800
;TYPE:Skirt/Brim
;WIDTH:0.42
G1 F1200
G1 X2.899 Y2.239 E.03006
G1 X247.101 Y2.239 E7.65678
G1 X248.408 Y2.631 E.04278
M73 P3 R8
M73 Q3 S8
G1 X249.284 Y3.677 E.04278
G1 X249.478 Y4.616 E.03006
G1 X249.478 Y205.384 E6.29494
G1 X249.086 Y206.691 E.04278
M73 P5 R7
M73 Q5 S7
G1 X248.04 Y207.567 E.04278
G1 X247.101 Y207.761 E.03006
G1 X2.899 Y207.761 E7.65678
G1 X1.592 Y207.369 E.04278
M73 P8 R7
M73 Q8 S7
G1 X.716 Y206.323 E.04278
G1 X.522 Y205.384 E.03006
G1 X.522 Y4.616 E6.29494
G1 X.914 Y3.309 E.04278
M73 P10 R7
M73 Q10 S7
G1 X1.914 Y2.471 E.04091
M204 S1000
; printing object Bed_Level_Test.stl id:0 copy 0
;WIPE_START
G1 F8640
G1 X2.899 Y2.239 E-.23366
G1 X5.352 Y2.239 E-.56634
;WIPE_END
G1 Z.6 F720
G1 X125 Y115.195 F10800
G1 Z.2 F720
G1 E.8 F2100
M204 S800
;TYPE:Perimeter
;WIDTH:0.419999
G1 F1200
G1 X125.006 Y115.193 E.0002
M204 S1000
;WIPE_START
G1 F8640
G1 X125 Y115.195 E-.00146
;WIPE_END
G1 E-.79854 F2100
G1 Z.6 F720
G1 X112.705 Y114.968 F10800
G1 Z.2 F720
G1 E.8 F2100
M204 S800
G1 F1200
G1 X112.704 Y106.59 E.26269
G1 X112.626 Y105.504 E.03414
G1 X112.487 Y105 E.01639
G1 X112.643 Y104.322 E.02181
G1 X112.704 Y103.41 E.02866
G1 X112.705 Y95.032 E.26269
G1 X123.389 Y95.029 E.33499
M73 P11 R7
G1 X124.48 Y94.946 E.03431
M73 Q11 S7
G1 X125 Y94.805 E.01689
G1 X125.604 Y94.961 E.01956
G1 X126.154 Y95.021 E.01735
G1 X126.664 Y95.031 E.01599
G1 X137.295 Y95.032 E.33333
G1 X137.296 Y103.41 E.26269
G1 X137.374 Y104.496 E.03414
G1 X137.513 Y105 E.01639
G1 X137.357 Y105.678 E.02181
G1 X137.296 Y106.59 E.02866
G1 X137.295 Y114.968 E.26269
G1 X126.611 Y114.971 E.33499
G1 X125.52 Y115.054 E.03431
G1 X124.994 Y115.193 E.01706
G1 X124.396 Y115.039 E.01936
G1 X123.846 Y114.979 E.01735
G1 X123.336 Y114.969 E.01599
G1 X112.765 Y114.968 E.33145
M204 S1000
;WIPE_START
G1 F8640
G1 X112.74 Y111.503 E-.8
;WIPE_END
G1 Z.6 F720
G1 X125 Y94.274 F10800
G1 Z.2 F720
G1 E.8 F2100
M204 S800
;TYPE:External perimeter
;WIDTH:0.38292
G1 F1200
G1 X125 Y15.563 E2.22525
M204 S1000
;WIPE_START
G1 F8640
M73 P12 R7
M73 Q12 S7
G1 X125 Y19.028 E-.8
;WIPE_END
G1 Z.6 F720
G1 X112.328 Y115.345 F10800
G1 Z.2 F720
G1 E.8 F2100
M204 S800
;WIDTH:0.419999
G1 F1200
G1 X112.327 Y106.577 E.27491
G1 X112.254 Y105.571 E.03163
G1 X112.116 Y105.072 E.01623
G1 X111.934 Y105 E.00614
G1 X112.116 Y104.928 E.00614
G1 X112.267 Y104.296 E.02037
G1 X112.327 Y103.41 E.02784
G1 X112.328 Y94.655 E.27451
G1 X123.364 Y94.653 E.34603
M73 P13 R7
M73 Q13 S7
G1 X124.382 Y94.581 E.032
G1 X124.896 Y94.443 E.01669
G1 X125 Y94.274 E.00622
G1 X125.104 Y94.443 E.00622
G1 X125.646 Y94.587 E.01758
G1 X126.162 Y94.644 E.01628
G1 X137.672 Y94.655 E.36089
G1 X137.673 Y103.423 E.27491
G1 X137.746 Y104.429 E.03163
G1 X137.884 Y104.928 E.01623
G1 X138.055 Y105 E.00582
G1 X137.884 Y105.072 E.00582
G1 X137.733 Y105.704 E.02037
G1 X137.673 Y106.59 E.02784
G1 X137.672 Y115.345 E.27451
G1 X126.636 Y115.348 E.34603
G1 X125.618 Y115.419 E.032
G1 X125.104 Y115.557 E.01669
G1 X125 Y115.739 E.00657
G1 X124.896 Y115.557 E.00657
G1 X124.354 Y115.413 E.01758
G1 X123.838 Y115.356 E.01628
G1 X112.388 Y115.345 E.35901
M204 S1000
G1 X112.528 Y114.999 F10800
;WIPE_START
G1 F8640
G1 X112.364 Y111.88 E-.8
;WIPE_END
G1 Z.6 F720
G1 X125 Y194.724 F10800
G1 Z.2 F720
G1 E.8 F2100
M204 S800
;WIDTH:0.38292
M73 Q14 S7
G1 F1200
G1 X125 Y115.739 E2.23299
M204 S1000
;WIPE_START
G1 F8640
M73 P14 R7
G1 X125 Y119.204 E-.8
;WIPE_END
G1 Z.6 F720
G1 X233.994 Y105 F10800
G1 Z.2 F720
M73 Q15 S7
G1 E.8 F2100
M204 S800
;WIDTH:0.397456
G1 F1200
G1 X233.865 Y105 E.0038
;WIDTH:0.38292
G1 X138.055 Y105 E2.70866
M204 S1000
;WIPE_START
G1 F8640
M73 P15 R7
M73 Q16 S7
G1 X141.52 Y105 E-.8
;WIPE_END
G1 Z.6 F720
G1 X220.953 Y194.772 F10800
G1 Z.2 F720
M73 P16 R7
G1 E.8 F2100
M204 S800
G1 F1200
G1 X125.153 Y194.772 E2.70837
G1 X125 Y194.724 E.00453
M73 P17 R6
M73 Q17 S7
G1 X124.847 Y194.772 E.00453
G1 X29.047 Y194.772 E2.70837
M204 S1000
;WIPE_START
G1 F8640
M73 P18 R6
M73 Q18 S6
G1 X32.512 Y194.772 E-.8
;WIPE_END
G1 Z.6 F720
G1 X28.277 Y184.66 F10800
G1 Z.2 F720
G1 E.8 F2100
M204 S800
;TYPE:Perimeter
;WIDTH:0.419999
G1 F1200
G1 X28.277 Y193.162 E.26657
G1 X28.354 Y194.254 E.03432
G1 X28.494 Y194.772 E.01682
G1 X28.347 Y195.347 E.01861
G1 X28.288 Y195.899 E.01741
G1 X28.277 Y204.597 E.27272
G1 X3.687 Y204.597 E.771
G1 X3.687 Y184.66 E.62511
G1 X14.202 Y184.658 E.32969
G1 X15.303 Y184.572 E.03463
M73 Q19 S6
G1 X15.807 Y184.433 E.01639
G1 X16.482 Y184.596 E.02177
G1 X17.435 Y184.659 E.02995
G1 X28.217 Y184.66 E.33806
M204 S1000
;WIPE_START
G1 F8640
M73 P19 R6
G1 X28.241 Y188.125 E-.8
;WIPE_END
G1 Z.6 F720
G1 X15.807 Y183.903 F10800
G1 Z.2 F720
G1 E.8 F2100
M204 S800
;TYPE:External perimeter
;WIDTH:0.38292
G1 F1200
G1 X15.807 Y26.111 E4.46096
M204 S1000
;WIPE_START
G1 F8640
M73 P20 R6
M73 Q20 S6
G1 X15.807 Y29.576 E-.8
;WIPE_END
G1 Z.6 F720
G1 X28.277 Y25.34 F10800
G1 Z.2 F720
G1 E.8 F2100
M204 S800
;TYPE:Perimeter
;WIDTH:0.419999
G1 F1200
G1 X17.397 Y25.342 E.34113
G1 X16.312 Y25.427 E.03412
M73 Q21 S6
G1 X15.803 Y25.565 E.01654
G1 X15.134 Y25.405 E.02157
G1 X14.164 Y25.341 E.03048
G1 X3.687 Y25.34 E.3285
G1 X3.687 Y5.403 E.62511
M73 P21 R6
G1 X28.277 Y5.403 E.771
G1 X28.277 Y13.416 E.25124
G1 X28.291 Y14.459 E.03271
G1 X28.355 Y14.998 E.01702
G1 X28.494 Y15.515 E.01679
G1 X28.347 Y16.09 E.01861
G1 X28.288 Y16.643 E.01744
G1 X28.277 Y25.28 E.27081
M204 S1000
;WIPE_START
G1 F8640
G1 X24.812 Y25.3 E-.8
;WIPE_END
G1 Z.6 F720
G1 X29.047 Y15.515 F10800
G1 Z.2 F720
G1 E.8 F2100
M204 S800
;TYPE:External perimeter
;WIDTH:0.38292
G1 F1200
G1 X124.847 Y15.515 E2.70837
G1 X125 Y15.563 E.00453
M73 P22 R6
M73 Q22 S6
G1 X125.153 Y15.515 E.00453
G1 X220.953 Y15.515 E2.70837
M204 S1000
;WIPE_START
G1 F8640
M73 P23 R6
M73 Q23 S6
G1 X217.488 Y15.515 E-.8
;WIPE_END
G1 Z.6 F720
G1 X246.313 Y5.403 F10800
G1 Z.2 F720
G1 E.8 F2100
M204 S800
;TYPE:Perimeter
;WIDTH:0.419999
G1 F1200
G1 X246.313 Y25.34 E.62511
G1 X235.645 Y25.342 E.33449
M73 P24 R6
M73 Q24 S6
G1 X234.538 Y25.426 E.03481
G1 X234.018 Y25.567 E.01689
G1 X233.414 Y25.41 E.01957
G1 X232.864 Y25.351 E.01734
G1 X232.355 Y25.341 E.01596
G1 X221.723 Y25.34 E.33336
G1 X221.723 Y17.154 E.25667
G1 X221.637 Y16.007 E.03606
G1 X221.506 Y15.515 E.01596
G1 X221.636 Y15.036 E.01556
G1 X221.723 Y13.905 E.03557
G1 X221.723 Y5.403 E.26657
G1 X246.253 Y5.403 E.76912
M204 S1000
;WIPE_START
G1 F8640
G1 X246.263 Y8.868 E-.8
;WIPE_END
G1 Z.6 F720
G1 X234.018 Y26.111 F10800
G1 Z.2 F720
G1 E.8 F2100
M204 S800
;TYPE:External perimeter
;WIDTH:0.38292
G1 F1200
G1 X234.018 Y183.903 E4.46096
M204 S1000
;WIPE_START
G1 F8640
M73 P26 R6
M73 Q26 S6
G1 X234.018 Y180.438 E-.8
;WIPE_END
G1 Z.6 F720
G1 X221.723 Y204.597 F10800
G1 Z.2 F720
G1 E.8 F2100
M204 S800
;TYPE:Perimeter
;WIDTH:0.419999
G1 F1200
G1 X221.723 Y196.41 E.2567
G1 X221.637 Y195.263 E.03606
G1 X221.506 Y194.772 E.01593
G1 X221.636 Y194.293 E.01556
G1 X221.723 Y193.162 E.03557
G1 X221.723 Y184.66 E.26657
G1 X232.392 Y184.658 E.33452
G1 X233.498 Y184.574 E.03478
G1 X234.024 Y184.436 E.01705
G1 X234.622 Y184.59 E.01936
G1 X235.173 Y184.649 E.01737
G1 X235.682 Y184.659 E.01596
G1 X246.313 Y184.66 E.33333
G1 X246.313 Y204.597 E.62511
M73 P27 R6
M73 Q27 S6
G1 X221.783 Y204.597 E.76912
M204 S1000
G1 X221.346 Y204.974 F10800
M204 S800
;TYPE:External perimeter
G1 F1200
G1 X221.345 Y196.398 E.26889
G1 X221.273 Y195.361 E.03259
G1 X221.135 Y194.845 E.01675
G1 X220.953 Y194.772 E.00615
G1 X221.134 Y194.699 E.00612
G1 X221.273 Y194.193 E.01645
G1 X221.345 Y193.162 E.0324
G1 X221.346 Y184.283 E.27839
G1 X232.367 Y184.282 E.34556
G1 X233.4 Y184.21 E.03247
G1 X233.914 Y184.071 E.01669
G1 X234.018 Y183.903 E.0062
G1 X234.122 Y184.071 E.0062
G1 X234.664 Y184.215 E.01758
G1 X235.18 Y184.272 E.01628
G1 X246.691 Y184.283 E.36092
G1 X246.691 Y204.974 E.64875
G1 X221.406 Y204.974 E.79279
M204 S1000
M73 P28 R6
M73 Q28 S6
G1 X221.463 Y204.591 F10800
;WIPE_START
M73 P28 R5
G1 F8640
G1 X221.381 Y201.509 E-.8
;WIPE_END
G1 Z.6 F720
G1 X246.691 Y5.026 F10800
G1 Z.2 F720
G1 E.8 F2100
M204 S800
G1 F1200
G1 X246.691 Y25.717 E.64875
G1 X235.669 Y25.718 E.34559
M73 Q29 S6
G1 X234.636 Y25.79 E.03247
M73 P29 R5
M73 Q29 S5
G1 X234.122 Y25.929 E.01669
G1 X234.018 Y26.111 E.00657
G1 X233.914 Y25.929 E.00657
G1 X233.372 Y25.785 E.01758
G1 X232.856 Y25.728 E.01628
G1 X221.346 Y25.717 E.36089
G1 X221.345 Y17.141 E.26889
G1 X221.273 Y16.104 E.03259
G1 X221.135 Y15.588 E.01675
G1 X220.953 Y15.515 E.00615
G1 X221.134 Y15.443 E.00611
G1 X221.273 Y14.937 E.01645
G1 X221.345 Y13.905 E.03244
G1 X221.346 Y5.026 E.27839
G1 X246.631 Y5.026 E.79279
M204 S1000
G1 X246.531 Y5.393 F10800
;WIPE_START
G1 F8640
G1 X246.641 Y8.491 E-.8
;WIPE_END
G1 Z.6 F720
G1 X28.654 Y25.717 F10800
G1 Z.2 F720
M73 Q30 S5
G1 E.8 F2100
M204 S800
G1 F1200
G1 X17.422 Y25.718 E.35217
G1 X16.412 Y25.79 E.03175
M73 P30 R5
G1 X15.912 Y25.929 E.01627
G1 X15.807 Y26.111 E.00659
G1 X15.704 Y25.929 E.00656
G1 X15.108 Y25.781 E.01925
G1 X14.164 Y25.718 E.02966
G1 X3.309 Y25.717 E.34035
G1 X3.309 Y5.026 E.64875
G1 X28.654 Y5.026 E.79467
G1 X28.666 Y14.417 E.29445
M73 Q31 S5
G1 X28.727 Y14.936 E.01638
G1 X28.865 Y15.44 E.01638
G1 X29.047 Y15.515 E.00617
G1 X28.865 Y15.588 E.00615
G1 X28.722 Y16.132 E.01764
G1 X28.665 Y16.65 E.01634
G1 X28.654 Y25.657 E.28241
M204 S1000
G1 X28.308 Y25.516 F10800
;WIPE_START
G1 F8640
G1 X25.189 Y25.676 E-.8
;WIPE_END
G1 Z.6 F720
G1 X15.832 Y105 F10800
G1 Z.2 F720
M73 P31 R5
G1 E.8 F2100
M204 S800
;WIDTH:0.397468
G1 F1200
G1 X15.96 Y105 E.00377
;WIDTH:0.38292
G1 X111.934 Y105 E2.71329
M204 S1000
;WIPE_START
G1 F8640
M73 P32 R5
M73 Q32 S5
G1 X108.469 Y105 E-.8
;WIPE_END
G1 Z.6 F720
G1 X28.654 Y184.283 F10800
G1 Z.2 F720
G1 E.8 F2100
M204 S800
;WIDTH:0.419999
G1 F1200
G1 X28.655 Y193.174 E.27877
G1 X28.727 Y194.192 E.032
G1 X28.865 Y194.697 E.01641
G1 X29.047 Y194.772 E.00617
G1 X28.865 Y194.845 E.00615
G1 X28.722 Y195.389 E.01764
G1 X28.665 Y195.907 E.01634
G1 X28.654 Y204.974 E.28429
G1 X3.309 Y204.974 E.79467
G1 X3.309 Y184.283 E.64875
M73 Q33 S5
G1 X14.176 Y184.282 E.34073
G1 X15.197 Y184.21 E.03209
M73 P33 R5
G1 X15.704 Y184.071 E.01648
G1 X15.807 Y183.903 E.00618
G1 X15.912 Y184.071 E.00621
G1 X16.508 Y184.22 E.01926
G1 X17.435 Y184.282 E.02913
G1 X28.594 Y184.283 E.34988
M204 S1000
G1 X28.453 Y184.629 F10800
;WIPE_START
G1 F8640
G1 X28.618 Y187.748 E-.8
;WIPE_END
G1 Z.6 F720
G1 X28.107 Y185.595 F10800
G1 Z.2 F720
G1 E.8 F2100
M204 S800
;TYPE:Solid infill
;WIDTH:0.421685
G1 F1200
G1 X27.511 Y184.999 E.02655
G1 X26.975 Y184.999 E.01688
G1 X27.938 Y185.961 E.04287
G1 X27.938 Y186.497 E.01688
G1 X26.44 Y184.999 E.06672
G1 X25.904 Y184.999 E.01688
G1 X27.938 Y187.033 E.09059
G1 X27.938 Y187.569 E.01688
G1 X25.368 Y184.999 E.11447
G1 X24.833 Y184.999 E.01685
G1 X27.938 Y188.104 E.1383
G1 X27.938 Y188.64 E.01688
G1 X24.297 Y184.999 E.16217
G1 X23.761 Y184.999 E.01688
G1 X27.938 Y189.176 E.18604
G1 X27.938 Y189.711 E.01685
G1 X23.226 Y184.999 E.20987
G1 X22.69 Y184.999 E.01688
M73 Q34 S5
G1 X27.938 Y190.247 E.23375
G1 X27.938 Y190.783 E.01688
G1 X22.154 Y184.999 E.25762
G1 X21.618 Y184.999 E.01688
G1 X27.938 Y191.318 E.28147
G1 X27.938 Y191.854 E.01688
G1 X21.083 Y184.999 E.30532
G1 X20.547 Y184.999 E.01688
M73 P34 R5
G1 X27.938 Y192.39 E.32919
G1 X27.938 Y192.926 E.01688
G1 X20.011 Y184.999 E.35307
G1 X19.476 Y184.999 E.01685
G1 X27.959 Y193.482 E.37783
G1 X27.998 Y194.056 E.01812
G1 X18.94 Y184.999 E.40342
G1 X18.404 Y184.999 E.01688
G1 X28.131 Y194.726 E.43324
G1 X28.143 Y194.772 E.0015
M73 Q35 S5
G1 X28.038 Y195.168 E.0129
G1 X17.869 Y184.999 E.45293
G1 X17.326 Y184.992 E.0171
G1 X27.976 Y195.641 E.47433
G1 X27.948 Y195.887 E.0078
M73 P35 R5
G1 X27.948 Y196.149 E.00825
G1 X16.752 Y184.954 E.49865
G1 X16.384 Y184.929 E.01162
G1 X16.141 Y184.878 E.00782
G1 X27.947 Y196.684 E.52584
G1 X27.947 Y197.219 E.01685
G1 X15.573 Y184.846 E.55111
G1 X15.264 Y184.926 E.01005
G1 X15.127 Y184.935 E.00432
G1 X27.946 Y197.754 E.57096
G1 X27.945 Y198.289 E.01685
M73 Q36 S5
G1 X14.624 Y184.968 E.59332
G1 X14.119 Y184.999 E.01593
G1 X27.945 Y198.824 E.61579
G1 X27.944 Y199.359 E.01685
M73 P36 R5
G1 X13.583 Y184.999 E.63961
G1 X13.048 Y184.999 E.01685
G1 X27.943 Y199.894 E.66342
G1 X27.943 Y200.429 E.01685
G1 X12.512 Y184.999 E.68727
G1 X11.977 Y184.999 E.01685
M73 Q37 S5
G1 X27.942 Y200.964 E.71108
G1 X27.941 Y201.499 E.01685
G1 X11.441 Y184.999 E.73491
M73 P37 R5
G1 X10.905 Y184.999 E.01688
G1 X27.941 Y202.034 E.75876
G1 X27.94 Y202.569 E.01685
G1 X10.37 Y184.999 E.78257
G1 X9.834 Y184.999 E.01688
M73 Q38 S5
G1 X27.939 Y203.104 E.80639
G1 X27.938 Y203.639 E.01685
M73 P38 R5
G1 X9.298 Y184.999 E.83022
G1 X8.763 Y184.999 E.01685
G1 X27.938 Y204.174 E.85405
G1 X27.938 Y204.257 E.00261
G1 X27.485 Y204.257 E.01427
G1 X8.227 Y184.999 E.85775
G1 X7.692 Y184.999 E.01685
M73 Q39 S5
G1 X26.95 Y204.257 E.85775
G1 X26.414 Y204.257 E.01688
M73 P39 R5
G1 X7.156 Y184.999 E.85775
G1 X6.62 Y184.999 E.01688
G1 X25.878 Y204.257 E.85775
G1 X25.343 Y204.257 E.01685
G1 X6.085 Y184.999 E.85775
G1 X5.549 Y184.999 E.01688
M73 Q40 S5
G1 X24.807 Y204.257 E.85775
G1 X24.271 Y204.257 E.01688
M73 P40 R5
G1 X5.013 Y184.999 E.85775
G1 X4.478 Y184.999 E.01685
M73 P40 R4
G1 X23.736 Y204.257 E.85775
G1 X23.2 Y204.257 E.01688
M73 Q41 S4
G1 X4.026 Y185.083 E.85401
G1 X4.026 Y185.619 E.01688
M73 P41 R4
G1 X22.665 Y204.257 E.83016
G1 X22.129 Y204.257 E.01688
G1 X4.026 Y186.154 E.80631
G1 X4.026 Y186.69 E.01688
G1 X21.593 Y204.257 E.78243
G1 X21.058 Y204.257 E.01685
M73 Q42 S4
G1 X4.026 Y187.226 E.75858
G1 X4.026 Y187.761 E.01685
M73 P42 R4
G1 X20.522 Y204.257 E.73473
G1 X19.986 Y204.257 E.01688
G1 X4.026 Y188.297 E.71086
G1 X4.026 Y188.833 E.01688
G1 X19.451 Y204.257 E.68701
G1 X18.915 Y204.257 E.01688
M73 Q43 S4
G1 X4.026 Y189.368 E.66315
G1 X4.026 Y189.904 E.01688
M73 P43 R4
G1 X18.379 Y204.257 E.63928
G1 X17.844 Y204.257 E.01685
G1 X4.026 Y190.44 E.61543
G1 X4.026 Y190.975 E.01685
G1 X17.308 Y204.257 E.59158
G1 X16.772 Y204.257 E.01688
G1 X4.026 Y191.511 E.56771
G1 X4.026 Y192.046 E.01685
M73 Q44 S4
G1 X16.237 Y204.257 E.54388
G1 X15.701 Y204.257 E.01688
M73 P44 R4
G1 X4.026 Y192.582 E.52
G1 X4.026 Y193.118 E.01688
G1 X15.165 Y204.257 E.49613
G1 X14.63 Y204.257 E.01685
G1 X4.026 Y193.653 E.4723
G1 X4.026 Y194.189 E.01688
G1 X14.094 Y204.257 E.44843
G1 X13.558 Y204.257 E.01688
G1 X4.026 Y194.725 E.42455
G1 X4.026 Y195.26 E.01685
M73 Q45 S4
G1 X13.023 Y204.257 E.40073
G1 X12.487 Y204.257 E.01688
G1 X4.026 Y195.796 E.37685
