; generated by SuperSlicer 2.4 on 2022-11-19 at 22:27:05 UTC


;
;

;
;
; 

; external perimeters extrusion width = 0.60mm
; perimeters extrusion width = 0.50mm
; infill extrusion width = 0.50mm
; solid infill extrusion width = 0.50mm
; top infill extrusion width = 0.40mm
; support material extrusion width = 0.38mm
; first layer extrusion width = 0.42mm

; object:{"name":"beak_with_hole","id":"beak_with_hole.stl id:0 copy 0","object_center":[105.000000,105.000000,0.000000],"boundingbox_center":[105.000000,105.000000,14.533617],"boundingbox_size":[33.518284,53.823589,29.067235]}
; Total objects to print: 1
M486 T1
; plater:{"center":[105.000000,105.000000,0.000000],"boundingbox_center":[105.000000,105.000000,14.533617],"boundingbox_size":[33.518284,53.823589,29.067235]}

M73 P0 R44
;TYPE:Custom
G90 ; use absolute coordinates
M83 ; extruder relative mode
M204 S1250 T1250
M104 S215 ; set extruder temp
M140 S65 ; set bed temp
G28 ; home all
G29 ; AutoBed Leveling I think
G1 Y1.0 Z0.3 F1000 ; move print head up
M190 S65 ; wait for bed temp
M109 S215 ; wait for extruder temp
G92 E0.0
; initial load
G1 X205.0 E19 F1000
G1 Y1.6
M73 P1 R44
G1 X5.0 E19 F1000
G92 E0.0
; intro line
G1 Y2.0 Z0.2 F1000
G1 X65.0 E9.0 F1000
G1 X105.0 E12.5 F1000
G92 E0.0
M107
G21 ; set units to millimeters
G90 ; use absolute coordinates
M83 ; use relative distances for extrusion
; Filament gcode
;_TOOLCHANGE 0
M107
;LAYER_CHANGE
;Z:0.2
;HEIGHT:0.2
;BEFORE_LAYER_CHANGE
G92 E0.0
;0.2
M73 P1 R43
G1 Z0.075 F10800
G1 Z0.2
;AFTER_LAYER_CHANGE
;0.2
G1 Z0.275
M204 S800
G1 X98.238 Y79.411
G1 Z0.2
;TYPE:Skirt
;WIDTH:0.52
G1 F1200
G1 X97.211 Y81.133 E0.07953
G1 X84.298 Y106.542 E1.13067
G1 X84.055 Y107.556 E0.04137
G1 X84.055 Y134.337 E1.06238
G1 X84.511 Y135.69 E0.05662
M73 P2 R43
G1 X85.586 Y136.461 E0.05249
G1 X101.533 Y141.777 E0.66682
G1 X102.241 Y141.891 E0.02845
G1 X118.39 Y141.891 E0.64064
G1 X119.743 Y141.436 E0.05662
G1 X120.514 Y140.361 E0.05249
G1 X125.83 Y124.414 E0.66682
G1 X125.945 Y123.706 E0.02845
G1 X125.892 Y112.39 E0.44891
G1 X120.217 Y86.662 E1.04513
G1 X119.511 Y84.051 E0.10731
G1 X118.528 Y81.69 E0.10145
G1 X118.171 Y81.114 E0.02686
G1 X116.413 Y79.056 E0.10739
G1 X115.796 Y78.551 E0.03163
G1 X113.657 Y77.366 E0.097
G1 X112.988 Y77.125 E0.02822
G1 X107.76 Y76.159 E0.21089
G1 X104.404 Y76.003 E0.13327
G1 X103.028 Y76.203 E0.05516
G1 X102.031 Y76.483 E0.04109
G1 X101.527 Y76.699 E0.02173
G1 X99.937 Y77.67 E0.07391
G1 X99.044 Y78.471 E0.04758
G1 X98.238 Y79.411 E0.04912
M204 S1000
G1 Z0.275 F10800
; printing object beak_with_hole.stl id:0 copy 0
M486 S0
; acceleration to travel
M204 S1500
G1 X96.392 Y97.767
; decel to extrusion
M204 S800
G1 X95.408 Y107.556
; end travel
G1 Z0.2
;TYPE:Support material
;WIDTH:0.42
G1 F1200
G1 X95.156 Y108.1 E0.01879
G1 X94.954 Y108.494 E0.01386
G1 X94.858 Y108.639 E0.00547
G1 X94.768 Y108.777 E0.00516
G1 X94.754 Y108.8 E0.00084
G1 X94.294 Y109.626 E0.02966
G1 X93.358 Y110.899 E0.04953
G1 X92.229 Y112.162 E0.05311
G1 X92.182 Y112.228 E0.00254
G1 X91.537 Y113.366 E0.04101
G1 X91.832 Y113.961 E0.02082
G1 X91.895 Y114.087 E0.00443
G1 X116.388 Y117.391 E0.77491
G1 X116.922 Y116.824 E0.02443
G1 X116.698 Y115.679 E0.0366
G1 X116.383 Y114.373 E0.04209
G1 X116.284 Y113.961 E0.01332
G1 X116.163 Y112.872 E0.03434
G1 X123.706 Y112.872 E0.23651
G1 X123.706 Y123.706 E0.33969
G1 X118.39 Y123.706 E0.16667
G1 X118.39 Y139.653 E0.5
G1 X102.241 Y139.653 E0.50636
G1 X102.241 Y134.337 E0.16667
G1 X86.294 Y134.337 E0.5
G1 X86.294 Y107.556 E0.83969
G1 X95.408 Y107.556 E0.28576
M204 S1000
G1 Z0.275 F10800
; acceleration to travel
M204 S1500
G1 X113.686 Y118.027
; decel to extrusion
M204 S800
G1 X123.435 Y123.612
; end travel
G1 Z0.2
G1 F1200
G1 X123.435 Y113.128 E0.3287
G1 X123.016 Y113.128 E0.01314
G1 X123.016 Y123.45 E0.32361
G1 X122.597 Y123.45 E0.01314
G1 X122.597 Y113.128 E0.32361
G1 X122.178 Y113.128 E0.01314
G1 X122.178 Y123.45 E0.32361
G1 X121.759 Y123.45 E0.01314
G1 X121.759 Y113.128 E0.32361
G1 X121.34 Y113.128 E0.01314
G1 X121.34 Y123.45 E0.32361
G1 X120.921 Y123.45 E0.01314
G1 X120.921 Y113.128 E0.32361
G1 X120.502 Y113.128 E0.01314
G1 X120.502 Y123.45 E0.32361
G1 X120.083 Y123.45 E0.01314
G1 X120.083 Y113.128 E0.32361
G1 X119.664 Y113.128 E0.01314
G1 X119.664 Y123.45 E0.32361
G1 X119.245 Y123.45 E0.01314
G1 X119.245 Y113.128 E0.32361
G1 X118.826 Y113.128 E0.01314
G1 X118.826 Y123.45 E0.32361
G1 X118.407 Y123.45 E0.01314
G1 X118.407 Y113.128 E0.32361
G1 X117.988 Y113.128 E0.01314
G1 X117.988 Y139.396 E0.82361
G1 X117.569 Y139.396 E0.01314
G1 X117.569 Y113.128 E0.82361
G1 X117.15 Y113.128 E0.01314
G1 X117.15 Y139.396 E0.82361
G1 X116.731 Y139.396 E0.01314
G1 X116.731 Y117.4 E0.68967
G1 X116.484 Y117.663 E0.01132
M73 P3 R43
G1 X116.312 Y117.64 E0.00542
G1 X116.312 Y139.396 E0.68216
G1 X115.893 Y139.396 E0.01314
G1 X115.893 Y117.583 E0.68394
G1 X115.474 Y117.527 E0.01326
G1 X115.474 Y139.396 E0.68571
G1 X115.055 Y139.396 E0.01314
G1 X115.055 Y117.47 E0.68748
G1 X114.636 Y117.414 E0.01326
G1 X114.636 Y139.396 E0.68925
G1 X114.217 Y139.396 E0.01314
G1 X114.217 Y117.357 E0.69102
G1 X113.799 Y117.301 E0.01326
G1 X113.799 Y139.396 E0.6928
G1 X113.38 Y139.396 E0.01314
G1 X113.38 Y117.244 E0.69457
G1 X112.961 Y117.188 E0.01326
G1 X112.961 Y139.396 E0.69634
G1 X112.542 Y139.396 E0.01314
G1 X112.542 Y117.131 E0.69811
G1 X112.123 Y117.075 E0.01326
G1 X112.123 Y139.396 E0.69988
G1 X111.704 Y139.396 E0.01314
G1 X111.704 Y117.018 E0.70166
G1 X111.285 Y116.962 E0.01326
G1 X111.285 Y139.396 E0.70343
G1 X110.866 Y139.396 E0.01314
G1 X110.866 Y116.905 E0.7052
G1 X110.447 Y116.849 E0.01326
G1 X110.447 Y139.396 E0.70697
G1 X110.028 Y139.396 E0.01314
G1 X110.028 Y116.792 E0.70875
G1 X109.609 Y116.736 E0.01326
G1 X109.609 Y139.396 E0.71052
G1 X109.19 Y139.396 E0.01314
G1 X109.19 Y116.679 E0.71229
G1 X108.771 Y116.623 E0.01326
G1 X108.771 Y139.396 E0.71406
G1 X108.352 Y139.396 E0.01314
G1 X108.352 Y116.566 E0.71583
G1 X107.933 Y116.509 E0.01326
G1 X107.933 Y139.396 E0.71761
G1 X107.514 Y139.396 E0.01314
G1 X107.514 Y116.453 E0.71938
G1 X107.095 Y116.396 E0.01326
M73 P3 R42
G1 X107.095 Y139.396 E0.72115
G1 X106.676 Y139.396 E0.01314
M73 P4 R42
G1 X106.676 Y116.34 E0.72292
G1 X106.257 Y116.283 E0.01326
G1 X106.257 Y139.396 E0.72469
G1 X105.838 Y139.396 E0.01314
G1 X105.838 Y116.227 E0.72647
G1 X105.419 Y116.17 E0.01326
G1 X105.419 Y139.396 E0.72824
G1 X105 Y139.396 E0.01314
G1 X105 Y116.114 E0.73001
G1 X104.581 Y116.057 E0.01326
G1 X104.581 Y139.396 E0.73178
G1 X104.162 Y139.396 E0.01314
G1 X104.162 Y116.001 E0.73355
G1 X103.743 Y115.944 E0.01326
G1 X103.743 Y139.396 E0.73533
G1 X103.324 Y139.396 E0.01314
G1 X103.324 Y115.888 E0.7371
G1 X102.905 Y115.831 E0.01326
G1 X102.905 Y139.396 E0.73887
G1 X102.497 Y139.396 E0.01279
G1 X102.497 Y134.081 E0.16667
G1 X102.486 Y134.081 E0.00035
G1 X102.486 Y115.775 E0.57398
G1 X102.067 Y115.718 E0.01326
G1 X102.067 Y134.081 E0.57575
G1 X101.648 Y134.081 E0.01314
G1 X101.648 Y115.662 E0.57752
G1 X101.229 Y115.605 E0.01326
G1 X101.229 Y134.081 E0.57929
G1 X100.81 Y134.081 E0.01314
G1 X100.81 Y115.549 E0.58106
G1 X100.391 Y115.492 E0.01326
G1 X100.391 Y134.081 E0.58284
G1 X99.972 Y134.081 E0.01314
G1 X99.972 Y115.436 E0.58461
G1 X99.553 Y115.379 E0.01326
G1 X99.553 Y134.081 E0.58638
G1 X99.134 Y134.081 E0.01314
G1 X99.134 Y115.323 E0.58815
G1 X98.715 Y115.266 E0.01326
G1 X98.715 Y134.081 E0.58992
G1 X98.296 Y134.081 E0.01314
G1 X98.296 Y115.21 E0.5917
G1 X97.877 Y115.153 E0.01326
G1 X97.877 Y134.081 E0.59347
G1 X97.458 Y134.081 E0.01314
G1 X97.458 Y115.097 E0.59524
G1 X97.039 Y115.04 E0.01326
G1 X97.039 Y134.081 E0.59701
G1 X96.62 Y134.081 E0.01314
G1 X96.62 Y114.983 E0.59878
G1 X96.201 Y114.927 E0.01326
M73 P5 R42
G1 X96.201 Y134.081 E0.60056
G1 X95.783 Y134.081 E0.01314
G1 X95.783 Y114.87 E0.60233
G1 X95.364 Y114.814 E0.01326
G1 X95.364 Y134.081 E0.6041
G1 X94.945 Y134.081 E0.01314
G1 X94.945 Y114.757 E0.60587
G1 X94.526 Y114.701 E0.01326
G1 X94.526 Y134.081 E0.60765
G1 X94.107 Y134.081 E0.01314
G1 X94.107 Y114.644 E0.60942
G1 X93.688 Y114.588 E0.01326
G1 X93.688 Y134.081 E0.61119
G1 X93.269 Y134.081 E0.01314
G1 X93.269 Y114.531 E0.61296
G1 X92.85 Y114.475 E0.01326
G1 X92.85 Y134.081 E0.61473
G1 X92.431 Y134.081 E0.01314
G1 X92.431 Y114.418 E0.61651
G1 X92.012 Y114.362 E0.01326
G1 X92.012 Y134.081 E0.61828
G1 X91.593 Y134.081 E0.01314
G1 X91.593 Y114.056 E0.62788
G1 X91.246 Y113.357 E0.02443
G1 X91.593 Y112.747 E0.02201
G1 X91.593 Y107.813 E0.1547
G1 X92.012 Y107.813 E0.01314
G1 X92.012 Y112.025 E0.13207
G1 X92.029 Y112.001 E0.00092
G1 X92.431 Y111.552 E0.01891
G1 X92.431 Y107.813 E0.11723
G1 X92.85 Y107.813 E0.01314
G1 X92.85 Y111.083 E0.10253
G1 X93.159 Y110.737 E0.01454
G1 X93.269 Y110.588 E0.00582
G1 X93.269 Y107.813 E0.087
G1 X93.688 Y107.813 E0.01314
G1 X93.688 Y110.018 E0.06914
G1 X94.078 Y109.487 E0.02065
G1 X94.107 Y109.435 E0.00186
G1 X94.107 Y107.813 E0.05088
G1 X94.526 Y107.813 E0.01314
G1 X94.526 Y108.684 E0.02731
G1 X94.551 Y108.64 E0.00158
G1 X94.644 Y108.499 E0.0053
G1 X94.732 Y108.364 E0.00505
G1 X94.926 Y107.988 E0.01327
G1 X94.945 Y107.947 E0.00141
G1 X94.945 Y107.651 E0.0093
M204 S1000
G1 Z0.275 F10800
; acceleration to travel
M204 S1500
G1 X109.153 Y112.715
; decel to extrusion
M204 S800
G1 X116.731 Y115.416
; end travel
G1 Z0.2
G1 F1200
G1 X116.731 Y112.966 E0.07681
M204 S1000
G1 Z0.275 F10800
; acceleration to travel
M204 S1500
G1 X100.063 Y126.842
; decel to extrusion
M204 S800
G1 X91.174 Y134.243
; end travel
G1 Z0.2
G1 F1200
G1 X91.174 Y107.813 E0.8287
G1 X90.755 Y107.813 E0.01314
G1 X90.755 Y134.081 E0.82361
G1 X90.336 Y134.081 E0.01314
G1 X90.336 Y107.813 E0.82361
G1 X89.917 Y107.813 E0.01314
G1 X89.917 Y134.081 E0.82361
G1 X89.498 Y134.081 E0.01314
G1 X89.498 Y107.813 E0.82361
G1 X89.079 Y107.813 E0.01314
G1 X89.079 Y134.081 E0.82361
G1 X88.66 Y134.081 E0.01314
G1 X88.66 Y107.813 E0.82361
G1 X88.241 Y107.813 E0.01314
G1 X88.241 Y134.081 E0.82361
G1 X87.822 Y134.081 E0.01314
G1 X87.822 Y107.813 E0.82361
G1 X87.403 Y107.813 E0.01314
M73 P6 R42
G1 X87.403 Y134.081 E0.82361
G1 X86.984 Y134.081 E0.01314
G1 X86.984 Y107.813 E0.82361
G1 X86.565 Y107.813 E0.01314
G1 X86.565 Y134.243 E0.8287
M204 S1000
G1 Z0.275 F10800
; acceleration to travel
M204 S1500
G1 X96.583 Y116.322
; decel to extrusion
M204 S800
G1 X101.926 Y106.764
; end travel
G1 Z0.2
;TYPE:Internal perimeter
G1 F1200
M73 P6 R41
G1 X104.711 Y108.175 E0.09788
G1 X107.925 Y108.634 E0.10179
G1 X111.115 Y108.036 E0.10179
G1 X113.945 Y106.445 E0.10178
G1 X114.599 Y105.717 E0.03067
G1 X114.802 Y105.813 E0.00705
G1 X114.647 Y106.828 E0.03219
G1 X114.397 Y108.799 E0.0623
G1 X114.321 Y110.264 E0.04598
G1 X114.346 Y112.116 E0.05807
G1 X114.583 Y114.258 E0.0676
G1 X114.87 Y115.448 E0.03837
G1 X94.106 Y112.647 E0.65694
G1 X94.697 Y111.986 E0.02782
G1 X95.746 Y110.56 E0.0555
G1 X96.236 Y109.681 E0.03155
G1 X96.444 Y109.362 E0.01194
G1 X96.705 Y108.857 E0.01782
G1 X97.892 Y106.288 E0.08873
G1 X98.368 Y104.749 E0.05051
G1 X98.583 Y103.856 E0.02879
G1 X98.654 Y103.059 E0.02509
G1 X98.879 Y103.018 E0.0072
G1 X99.545 Y104.39 E0.04783
G1 X101.815 Y106.708 E0.10172
G1 X101.926 Y106.764 E0.0039
G1 X102.096 Y106.428 F10800
G1 F1200
G1 X104.826 Y107.81 E0.09593
G1 X107.916 Y108.251 E0.09789
G1 X110.985 Y107.677 E0.09789
G1 X113.706 Y106.147 E0.09788
G1 X115.207 Y104.475 E0.07045
G1 X115.412 Y104.577 E0.00719
G1 X115.219 Y105.577 E0.03192
G1 X115.021 Y106.88 E0.04135
G1 X114.772 Y108.833 E0.06171
G1 X114.698 Y110.271 E0.04515
G1 X114.723 Y112.092 E0.05711
G1 X114.956 Y114.193 E0.06628
G1 X115.366 Y115.896 E0.05491
G1 X93.351 Y112.926 E0.69651
G1 X94.404 Y111.748 E0.04955
G1 X95.428 Y110.355 E0.05419
G1 X95.913 Y109.485 E0.03123
G1 X96.118 Y109.172 E0.01175
G1 X96.366 Y108.691 E0.01695
G1 X97.54 Y106.153 E0.08769
G1 X98.004 Y104.649 E0.04934
G1 X98.21 Y103.795 E0.02754
G1 X98.399 Y101.669 E0.06693
G1 X98.624 Y101.627 E0.0072
G1 X99.857 Y104.17 E0.08861
G1 X102.041 Y106.4 E0.09784
G1 X102.096 Y106.428 E0.00195
M204 S1000
G1 Z0.275 F10800
; acceleration to travel
M204 S1500
G1 X100.128 Y98.27
; decel to extrusion
M204 S800
G1 X99.078 Y93.92
; end travel
G1 Z0.2
G1 F1200
G1 X98.846 Y93.842 E0.00768
G1 X98.984 Y92.629 E0.03828
G1 X99.096 Y89.077 E0.11144
G1 X99.167 Y88.566 E0.01619
G1 X99.358 Y87.505 E0.03379
G1 X99.981 Y84.954 E0.08234
G1 X100.075 Y84.641 E0.01026
G1 X100.634 Y83.216 E0.04798
G1 X101.253 Y81.996 E0.04289
G1 X101.658 Y81.461 E0.02106
G1 X102.141 Y80.961 E0.02178
G1 X102.606 Y80.563 E0.01918
G1 X103.508 Y80.137 E0.03127
G1 X104.036 Y79.986 E0.01725
G1 X105.54 Y79.889 E0.04725
G1 X106.144 Y79.905 E0.01892
G1 X107.356 Y79.976 E0.03809
G1 X109.48 Y80.235 E0.06707
G1 X110.473 Y80.421 E0.03169
G1 X112.384 Y80.991 E0.06252
G1 X112.663 Y81.151 E0.01009
G1 X114.279 Y82.336 E0.06285
G1 X114.468 Y82.566 E0.00931
G1 X115.347 Y83.792 E0.04731
G1 X115.985 Y85.357 E0.05297
G1 X116.651 Y88.228 E0.09241
G1 X116.806 Y89.767 E0.04852
G1 X116.954 Y91.648 E0.05916
G1 X116.962 Y92.808 E0.03635
G1 X116.903 Y94.433 E0.051
G1 X116.668 Y94.479 E0.00751
G1 X116.189 Y93.412 E0.03665
G1 X114.484 Y91.338 E0.08419
G1 X111.789 Y89.554 E0.10134
G1 X108.651 Y88.727 E0.10174
G1 X105.462 Y88.94 E0.10022
G1 X102.461 Y90.174 E0.10171
G1 X100.02 Y92.302 E0.10154
G1 X99.078 Y93.92 E0.05868
G1 X98.705 Y95.31 F10800
G1 F1200
G1 X98.484 Y95.255 E0.00712
G1 X98.444 Y94.042 E0.03805
G1 X98.608 Y92.602 E0.04543
G1 X98.719 Y89.045 E0.11159
G1 X98.795 Y88.506 E0.01706
G1 X98.989 Y87.427 E0.03438
G1 X99.617 Y84.855 E0.083
G1 X99.718 Y84.517 E0.01106
G1 X100.29 Y83.062 E0.04903
G1 X100.932 Y81.795 E0.04452
G1 X101.372 Y81.215 E0.02283
G1 X101.882 Y80.687 E0.02304
G1 X102.399 Y80.244 E0.02132
G1 X103.374 Y79.783 E0.03383
G1 X103.972 Y79.612 E0.01948
G1 X105.533 Y79.511 E0.04906
G1 X106.16 Y79.528 E0.01966
G1 X107.39 Y79.601 E0.03865
G1 X109.537 Y79.862 E0.06781
G1 X110.562 Y80.054 E0.03269
G1 X112.533 Y80.642 E0.0645
G1 X112.869 Y80.834 E0.01213
G1 X114.541 Y82.061 E0.06502
G1 X114.767 Y82.337 E0.01118
G1 X115.68 Y83.609 E0.04909
G1 X116.346 Y85.242 E0.05531
G1 X116.98 Y88.025 E0.0895
G1 X117.024 Y88.166 E0.00462
G1 X117.182 Y89.734 E0.0494
G1 X117.331 Y91.632 E0.05971
G1 X117.339 Y92.813 E0.03703
G1 X117.243 Y95.459 E0.08302
G1 X117.193 Y96.072 E0.01929
G1 X116.925 Y96.082 E0.0084
G1 X116.898 Y95.913 E0.00536
G1 X115.866 Y93.613 E0.07906
G1 X114.229 Y91.621 E0.08083
G1 X111.632 Y89.903 E0.09762
G1 X108.614 Y89.108 E0.09785
G1 X105.548 Y89.313 E0.09636
G1 X102.662 Y90.499 E0.09783
G1 X100.315 Y92.546 E0.09764
G1 X100.24 Y92.668 E0.0045
G1 X98.705 Y95.31 E0.0958
G1 X99.096 Y95.39 F10800
;TYPE:External perimeter
G1 F1200
G1 X98.516 Y98.247 E0.09143
G1 X98.503 Y98.328 E0.00255
G1 X98.883 Y101.296 E0.09383
G1 X100.17 Y103.95 E0.0925
G1 X102.267 Y106.091 E0.09396
G1 X104.941 Y107.446 E0.09398
G1 X107.908 Y107.869 E0.09399
G1 X110.854 Y107.317 E0.09398
G1 X113.467 Y105.849 E0.09398
G1 X115.469 Y103.619 E0.09396
G1 X116.647 Y100.868 E0.09383
G1 X116.918 Y98.459 E0.076
G1 X116.534 Y96.022 E0.07738
G1 X115.542 Y93.813 E0.0759
G1 X113.973 Y91.904 E0.07748
G1 X111.476 Y90.252 E0.09389
G1 X108.578 Y89.488 E0.09397
G1 X105.635 Y89.685 E0.0925
G1 X102.863 Y90.824 E0.09396
G1 X100.606 Y92.792 E0.0939
G1 X100.563 Y92.862 E0.00255
G1 X99.096 Y95.39 E0.09164
;WIPE_START
M204 S1000
G1 X98.717 Y95.517 F10800
;WIPE_END
M204 S800
G1 X98.117 Y95.537
G1 F1200
G1 X98.066 Y94.027 E0.04738
G1 X98.231 Y92.575 E0.04581
G1 X98.343 Y89.013 E0.11174
G1 X98.422 Y88.446 E0.01793
G1 X98.62 Y87.349 E0.03498
G1 X99.253 Y84.756 E0.08367
G1 X99.362 Y84.394 E0.01185
G1 X99.945 Y82.907 E0.05008
G1 X100.611 Y81.594 E0.04615
G1 X101.085 Y80.969 E0.02461
G1 X101.624 Y80.412 E0.0243
G1 X102.192 Y79.925 E0.02347
G1 X103.241 Y79.429 E0.03638
G1 X103.907 Y79.239 E0.02171
G1 X104.095 Y79.214 E0.00596
G1 X105.526 Y79.134 E0.04492
G1 X106.176 Y79.151 E0.02039
G1 X107.424 Y79.225 E0.03921
G1 X109.595 Y79.489 E0.06856
G1 X110.651 Y79.687 E0.03368
G1 X112.683 Y80.293 E0.06648
G1 X113.075 Y80.517 E0.01416
G1 X114.803 Y81.785 E0.06719
G1 X115.066 Y82.107 E0.01306
G1 X116.012 Y83.425 E0.05086
G1 X116.707 Y85.128 E0.05768
