; generated by PrusaSlicer 2.6.1+win64 on 2023-10-13 at 21:51:49 UTC


;
;
; 

; external perimeters extrusion width = 0.60mm
; perimeters extrusion width = 0.50mm
; infill extrusion width = 0.50mm
; solid infill extrusion width = 0.50mm
; top infill extrusion width = 0.45mm
; first layer extrusion width = 0.42mm

M73 P0 R48
M73 Q0 S48
M201 X1000 Y1000 Z200 E5000 ; sets maximum accelerations, mm/sec^2
M203 X200 Y200 Z12 E120 ; sets maximum feedrates, mm / sec
M204 S1250 T1250 ; sets acceleration (S) and retract acceleration (R), mm/sec^2
M205 X8.00 Y8.00 Z0.40 E4.50 ; sets the jerk limits, mm/sec
M205 S0 T0 ; sets the minimum extruding and travel feed rate, mm/sec
;TYPE:Custom
M862.3 P "MK3S" ; printer model check
M862.1 P0.4 ; nozzle diameter check
M115 U3.12.2 ; tell printer latest fw version
G90 ; use absolute coordinates
M83 ; extruder relative mode
M104 S215 ; set extruder temp
M140 S60 ; set bed temp
M190 S60 ; wait for bed temp
M109 S215 ; wait for extruder temp
G28 W ; home all without mesh bed level
G80 ; mesh bed leveling

G1 Z0.2 F720
G1 Y-3 F1000 ; go outside print area
G92 E0
G1 X60 E9 F1000 ; intro line
G1 X100 E12.5 F1000 ; intro line

G92 E0
M221 S95

; Don't change E values below. Excessive value can damage the printer.

M907 E538 ; set extruder motor current
G21 ; set units to millimeters
G90 ; use absolute coordinates
M83 ; use relative distances for extrusion
M900 K0.05 ; Filament gcode LA 1.5
M900 K30 ; Filament gcode LA 1.0
M107
;LAYER_CHANGE
;Z:0.2
;HEIGHT:0.2
;BEFORE_LAYER_CHANGE
G92 E0.0
;0.2


G1 E-.8 F2100
M73 P0 R47
G1 Z.4 F720
;AFTER_LAYER_CHANGE
;0.2
G1 X74.629 Y70.157 F10800
G1 Z.2 F720
G1 E.8 F2100
M204 S800
;TYPE:Skirt/Brim
;WIDTH:0.42
G1 F1200
G1 X75.675 Y69.281 E.04278
G1 X76.614 Y69.087 E.03006
G1 X173.386 Y69.087 E3.03422
G1 X174.693 Y69.479 E.04278
G1 X175.569 Y70.525 E.04278
G1 X175.763 Y71.464 E.03006
G1 X175.763 Y138.536 E2.103
G1 X175.371 Y139.843 E.04278
G1 X174.325 Y140.719 E.04278
G1 X173.386 Y140.913 E.03006
G1 X76.614 Y140.913 E3.03422
G1 X75.307 Y140.521 E.04278
G1 X74.431 Y139.475 E.04278
G1 X74.237 Y138.536 E.03006
G1 X74.237 Y71.464 E2.103
G1 X74.612 Y70.215 E.04089
M204 S1000
; printing object Body4f.stl id:0 copy 0
;WIPE_START
G1 F8640
G1 X75.675 Y69.281 E-.32674
G1 X76.614 Y69.087 E-.2214
G1 X77.705 Y69.087 E-.25186
;WIPE_END
G1 Z.6 F720
G1 X172.598 Y72.252 F10800
G1 Z.2 F720
G1 E.8 F2100
M204 S800
;TYPE:Perimeter
;WIDTH:0.419999
G1 F1200
G1 X172.598 Y137.748 E2.05358
G1 X77.402 Y137.748 E2.9848
G1 X77.402 Y72.252 E2.05358
M73 P1 R47
M73 Q1 S48
G1 X172.538 Y72.252 E2.98292
M204 S1000
G1 X172.976 Y71.874 F10800
M204 S800
;TYPE:External perimeter
G1 F1200
G1 X172.976 Y138.126 E2.07728
G1 X77.024 Y138.126 E3.0085
M73 Q1 S47
G1 X77.024 Y71.874 E2.07728
G1 X172.916 Y71.874 E3.00662
M204 S1000
G1 X172.849 Y72.254 F10800
;WIPE_START
G1 F8640
G1 X172.919 Y75.339 E-.8
;WIPE_END
G1 Z.6 F720
G1 X139.715 Y73.524 F10800
M73 P2 R47
G1 Z.2 F720
M73 Q2 S47
G1 E.8 F2100
M204 S800
;TYPE:Perimeter
G1 F1200
G1 X140.043 Y73.531 E.01029
G1 X140.665 Y73.724 E.02042
G1 X141.231 Y74.133 E.02189
G1 X141.361 Y74.281 E.00618
G1 X141.641 Y74.742 E.01691
G1 X141.724 Y75.036 E.00958
G1 X141.724 Y76.064 E.03223
G1 X141.663 Y76.318 E.00819
G1 X141.453 Y76.696 E.01356
G1 X141.118 Y77.075 E.01586
G1 X140.966 Y77.196 E.00609
G1 X140.522 Y77.439 E.01587
G1 X140.338 Y77.502 E.0061
G1 X139.838 Y77.581 E.01587
G1 X139.644 Y77.578 E.00608
G1 X139.147 Y77.482 E.01587
G1 X138.965 Y77.414 E.00609
G1 X138.507 Y77.142 E.0167
G1 X138.06 Y76.639 E.0211
G1 X137.964 Y76.471 E.00607
G1 X137.792 Y75.994 E.0159
G1 X137.759 Y75.803 E.00608
G1 X137.759 Y75.297 E.01587
G1 X137.964 Y74.629 E.02191
G1 X138.382 Y74.071 E.02186
G1 X138.966 Y73.686 E.02193
G1 X139.655 Y73.523 E.0222
M204 S1000
G1 X139.738 Y73.894 F10800
M204 S800
;TYPE:External perimeter
G1 F1200
G1 X140.065 Y73.917 E.01028
G1 X140.544 Y74.081 E.01587
G1 X140.996 Y74.427 E.01785
G1 X141.319 Y74.938 E.01895
G1 X141.346 Y75.036 E.00319
G1 X141.346 Y76.064 E.03223
G1 X141.17 Y76.446 E.01319
G1 X140.835 Y76.825 E.01586
G1 X140.341 Y77.109 E.01787
G1 X139.78 Y77.208 E.01786
G1 X139.221 Y77.113 E.01778
G1 X138.715 Y76.827 E.01822
G1 X138.351 Y76.399 E.01762
G1 X138.147 Y75.867 E.01786
G1 X138.136 Y75.297 E.01788
G1 X138.318 Y74.757 E.01787
G1 X138.673 Y74.311 E.01787
G1 X139.158 Y74.011 E.01788
G1 X139.678 Y73.901 E.01667
M204 S1000
G1 X139.879 Y73.598 F10800
;WIPE_START
G1 F8640
G1 X140.065 Y73.917 E-.08944
G1 X140.544 Y74.081 E-.11691
G1 X140.996 Y74.427 E-.13144
G1 X141.319 Y74.938 E-.13959
G1 X141.346 Y75.036 E-.02347
G1 X141.346 Y76.064 E-.23737
G1 X141.234 Y76.307 E-.06178
;WIPE_END
G1 Z.6 F720
G1 X91.144 Y77.54 F10800
G1 Z.2 F720
G1 E.8 F2100
M204 S800
;TYPE:Perimeter
G1 F1200
G1 X90.72 Y77.585 E.01337
G1 X90.17 Y77.49 E.0175
G1 X89.989 Y77.423 E.00605
G1 X89.546 Y77.168 E.01603
G1 X89.395 Y77.041 E.00619
G1 X89.067 Y76.65 E.016
G1 X88.968 Y76.48 E.00617
G1 X88.793 Y75.999 E.01605
G1 X88.759 Y75.805 E.00618
G1 X88.759 Y75.294 E.01602
G1 X88.968 Y74.62 E.02213
G1 X89.395 Y74.059 E.02211
G1 X89.989 Y73.677 E.02214
G1 X90.677 Y73.521 E.02212
G1 X90.873 Y73.521 E.00615
G1 X91.377 Y73.609 E.01604
G1 X92.004 Y73.932 E.02211
G1 X92.483 Y74.45 E.02212
G1 X92.756 Y75.101 E.02213
G1 X92.791 Y75.806 E.02213
G1 X92.664 Y76.308 E.01624
G1 X92.391 Y76.782 E.01715
G1 X92.266 Y76.93 E.00607
G1 X91.875 Y77.258 E.016
G1 X91.705 Y77.357 E.00617
G1 X91.203 Y77.534 E.01669
M204 S1000
G1 X90.934 Y77.189 F10800
M204 S800
;TYPE:External perimeter
G1 F1200
G1 X90.713 Y77.205 E.00695
G1 X90.208 Y77.111 E.01611
G1 X89.734 Y76.841 E.0171
G1 X89.356 Y76.407 E.01805
G1 X89.148 Y75.87 E.01806
G1 X89.137 Y75.294 E.01806
G1 X89.323 Y74.749 E.01806
G1 X89.684 Y74.301 E.01804
G1 X90.177 Y74.003 E.01806
G1 X90.742 Y73.892 E.01805
G1 X91.311 Y73.981 E.01806
G1 X91.816 Y74.259 E.01807
G1 X92.194 Y74.693 E.01805
G1 X92.402 Y75.23 E.01806
G1 X92.413 Y75.806 E.01806
G1 X92.309 Y76.175 E.01202
G1 X92.05 Y76.614 E.01598
G1 X91.632 Y76.969 E.01719
G1 X91.095 Y77.177 E.01806
G1 X90.994 Y77.185 E.00318
M204 S1000
G1 X90.853 Y77.395 F10800
;WIPE_START
G1 F8640
G1 X90.713 Y77.205 E-.06505
G1 X90.208 Y77.111 E-.11861
G1 X89.734 Y76.841 E-.12596
G1 X89.356 Y76.407 E-.13289
G1 X89.148 Y75.87 E-.13297
G1 X89.137 Y75.294 E-.13302
G1 X89.265 Y74.919 E-.0915
;WIPE_END
G1 Z.6 F720
G1 X92.741 Y134.008 F10800
G1 Z.2 F720
G1 E.8 F2100
M204 S800
;TYPE:Perimeter
G1 F1200
G1 X92.581 Y134.482 E.01569
G1 X92.155 Y135.041 E.02204
G1 X91.561 Y135.423 E.02214
G1 X90.873 Y135.579 E.02212
G1 X90.677 Y135.579 E.00615
G1 X90.173 Y135.491 E.01604
G1 X89.546 Y135.168 E.02211
G1 X89.067 Y134.65 E.02212
G1 X88.793 Y133.999 E.02215
G1 X88.759 Y133.805 E.00618
G1 X88.759 Y133.294 E.01602
G1 X88.794 Y133.101 E.00615
G1 X88.968 Y132.62 E.01604
G1 X89.067 Y132.45 E.00617
G1 X89.395 Y132.059 E.016
G1 X89.546 Y131.932 E.00619
G1 X89.989 Y131.677 E.01603
G1 X90.173 Y131.609 E.00615
G1 X90.677 Y131.521 E.01604
G1 X91.182 Y131.555 E.01587
G1 X91.705 Y131.743 E.01743
G1 X91.875 Y131.842 E.00617
G1 X92.266 Y132.17 E.016
G1 X92.393 Y132.321 E.00619
G1 X92.648 Y132.764 E.01603
G1 X92.716 Y132.948 E.00615
G1 X92.804 Y133.452 E.01604
G1 X92.78 Y133.892 E.01382
G1 X92.76 Y133.951 E.00195
M204 S1000
G1 X92.4 Y133.843 F10800
M204 S800
;TYPE:External perimeter
G1 F1200
G1 X92.394 Y133.899 E.00177
G1 X92.194 Y134.407 E.01712
G1 X91.866 Y134.799 E.01603
G1 X91.373 Y135.097 E.01806
G1 X90.742 Y135.208 E.02009
G1 X90.239 Y135.119 E.01602
G1 X89.734 Y134.841 E.01807
G1 X89.356 Y134.407 E.01805
G1 X89.148 Y133.87 E.01806
G1 X89.137 Y133.294 E.01806
G1 X89.323 Y132.749 E.01806
G1 X89.684 Y132.301 E.01804
G1 X90.177 Y132.003 E.01806
G1 X90.742 Y131.892 E.01805
G1 X91.095 Y131.923 E.01111
G1 X91.576 Y132.098 E.01605
G1 X92.024 Y132.459 E.01804
G1 X92.322 Y132.952 E.01806
G1 X92.433 Y133.517 E.01805
G1 X92.406 Y133.783 E.00838
M204 S1000
G1 X92.447 Y133.873 F10800
;WIPE_START
G1 F8640
G1 X92.394 Y133.899 E-.02693
G1 X92.194 Y134.407 E-.12606
G1 X91.866 Y134.799 E-.11802
G1 X91.373 Y135.097 E-.13302
G1 X90.742 Y135.208 E-.14794
G1 X90.239 Y135.119 E-.11795
G1 X89.745 Y134.847 E-.13008
;WIPE_END
G1 Z.6 F720
G1 X141.665 Y132.806 F10800
G1 Z.2 F720
G1 E.8 F2100
M204 S800
;TYPE:Perimeter
G1 F1200
G1 X141.718 Y132.954 E.00493
G1 X141.724 Y133.036 E.00258
G1 X141.724 Y134.064 E.03223
G1 X141.663 Y134.318 E.00819
G1 X141.453 Y134.696 E.01356
G1 X141.118 Y135.075 E.01586
G1 X140.522 Y135.439 E.0219
G1 X139.838 Y135.581 E.0219
G1 X139.644 Y135.578 E.00608
G1 X139.147 Y135.482 E.01587
G1 X138.53 Y135.156 E.02188
G1 X138.06 Y134.639 E.02191
G1 X137.792 Y133.994 E.0219
G1 X137.759 Y133.803 E.00608
G1 X137.759 Y133.297 E.01587
G1 X137.792 Y133.106 E.00608
G1 X137.964 Y132.629 E.0159
G1 X138.06 Y132.461 E.00607
G1 X138.416 Y132.033 E.01746
G1 X138.965 Y131.687 E.02035
G1 X139.147 Y131.618 E.0061
G1 X139.644 Y131.522 E.01587
G1 X140.154 Y131.55 E.01601
M73 P2 R46
G1 X140.665 Y131.724 E.01693
G1 X140.836 Y131.817 E.0061
G1 X141.231 Y132.133 E.01586
G1 X141.361 Y132.281 E.00618
G1 X141.644 Y132.75 E.01717
M204 S1000
G1 X141.303 Y132.913 F10800
M204 S800
;TYPE:External perimeter
G1 F1200
G1 X141.346 Y133.036 E.00409
G1 X141.346 Y134.064 E.03223
G1 X141.17 Y134.446 E.01319
G1 X140.835 Y134.825 E.01586
G1 X140.341 Y135.109 E.01787
G1 X139.78 Y135.208 E.01786
G1 X139.218 Y135.112 E.01788
G1 X138.722 Y134.831 E.01787
G1 X138.351 Y134.399 E.01785
G1 X138.147 Y133.867 E.01786
G1 X138.136 Y133.297 E.01788
G1 X138.318 Y132.757 E.01787
G1 X138.684 Y132.298 E.01841
G1 X139.157 Y132.011 E.01735
G1 X139.712 Y131.893 E.01779
G1 X140.065 Y131.917 E.01109
G1 X140.544 Y132.081 E.01587
G1 X140.996 Y132.427 E.01785
G1 X141.271 Y132.862 E.01614
M204 S1000
G1 X141.433 Y132.919 F10800
;WIPE_START
G1 F8640
G1 X141.346 Y133.036 E-.04375
G1 X141.346 Y134.064 E-.23737
G1 X141.17 Y134.446 E-.09712
G1 X140.835 Y134.825 E-.1168
G1 X140.341 Y135.109 E-.13157
G1 X139.78 Y135.208 E-.13154
G1 X139.601 Y135.177 E-.04185
;WIPE_END
G1 Z.6 F720
G1 X172.429 Y73.184 F10800
G1 Z.2 F720
G1 E.8 F2100
M204 S800
;TYPE:Solid infill
;WIDTH:0.420256
G1 F1200
G1 X171.836 Y72.591 E.02631
G1 X171.302 Y72.591 E.01675
G1 X172.259 Y73.548 E.04246
G1 X172.259 Y74.082 E.01675
G1 X170.768 Y72.591 E.06616
G1 X170.235 Y72.591 E.01672
G1 X172.259 Y74.615 E.08981
G1 X172.259 Y75.149 E.01675
G1 X169.701 Y72.591 E.1135
G1 X169.167 Y72.591 E.01675
G1 X172.259 Y75.683 E.1372
G1 X172.259 Y76.216 E.01672
G1 X168.634 Y72.591 E.16085
G1 X168.1 Y72.591 E.01675
G1 X172.259 Y76.75 E.18454
G1 X172.259 Y77.283 E.01672
G1 X167.567 Y72.591 E.20819
G1 X167.033 Y72.591 E.01675
G1 X172.259 Y77.817 E.23189
G1 X172.259 Y78.351 E.01675
G1 X166.499 Y72.591 E.25558
G1 X165.966 Y72.591 E.01672
G1 X172.259 Y78.884 E.27923
G1 X172.259 Y79.418 E.01675
G1 X165.432 Y72.591 E.30293
G1 X164.898 Y72.591 E.01675
G1 X172.259 Y79.952 E.32662
G1 X172.259 Y80.485 E.01672
G1 X164.365 Y72.591 E.35027
G1 X163.831 Y72.591 E.01675
G1 X172.259 Y81.019 E.37397
G1 X172.259 Y81.552 E.01672
G1 X163.298 Y72.591 E.39762
G1 X162.764 Y72.591 E.01675
G1 X172.259 Y82.086 E.42131
G1 X172.259 Y82.62 E.01675
G1 X162.23 Y72.591 E.445
G1 X161.697 Y72.591 E.01672
G1 X172.259 Y83.153 E.46866
G1 X172.259 Y83.687 E.01675
G1 X161.163 Y72.591 E.49235
G1 X160.629 Y72.591 E.01675
G1 X172.259 Y84.221 E.51604
G1 X172.259 Y84.754 E.01672
G1 X160.096 Y72.591 E.53969
G1 X159.562 Y72.591 E.01675
G1 X172.259 Y85.288 E.56339
G1 X172.259 Y85.822 E.01675
G1 X159.028 Y72.591 E.58708
G1 X158.495 Y72.591 E.01672
G1 X172.259 Y86.355 E.61073
G1 X172.259 Y86.889 E.01675
G1 X157.961 Y72.591 E.63443
G1 X157.428 Y72.591 E.01672
G1 X172.259 Y87.422 E.65808
G1 X172.259 Y87.956 E.01675
G1 X156.894 Y72.591 E.68177
G1 X156.36 Y72.591 E.01675
G1 X172.259 Y88.49 E.70547
G1 X172.259 Y89.023 E.01672
G1 X155.827 Y72.591 E.72912
G1 X155.293 Y72.591 E.01675
G1 X172.259 Y89.557 E.75281
G1 X172.259 Y90.091 E.01675
M73 P3 R46
M73 Q3 S47
G1 X154.759 Y72.591 E.77651
G1 X154.226 Y72.591 E.01672
G1 X172.259 Y90.624 E.80016
G1 X172.259 Y91.158 E.01675
G1 X153.692 Y72.591 E.82385
G1 X153.158 Y72.591 E.01675
G1 X172.259 Y91.692 E.84755
G1 X172.259 Y92.225 E.01672
G1 X152.625 Y72.591 E.8712
G1 X152.091 Y72.591 E.01675
G1 X172.259 Y92.759 E.89489
G1 X172.259 Y93.292 E.01672
G1 X151.558 Y72.591 E.91854
G1 X151.024 Y72.591 E.01675
G1 X172.259 Y93.826 E.94224
G1 X172.259 Y94.36 E.01675
G1 X150.49 Y72.591 E.96593
G1 X149.957 Y72.591 E.01672
G1 X172.259 Y94.893 E.98958
G1 X172.259 Y95.427 E.01675
G1 X149.423 Y72.591 E1.01327
G1 X148.889 Y72.591 E.01675
M73 Q3 S46
G1 X172.259 Y95.961 E1.03697
G1 X172.259 Y96.494 E.01672
G1 X148.356 Y72.591 E1.06062
G1 X147.822 Y72.591 E.01675
G1 X172.259 Y97.028 E1.08431
G1 X172.259 Y97.562 E.01675
G1 X147.288 Y72.591 E1.10801
G1 X146.755 Y72.591 E.01672
G1 X172.259 Y98.095 E1.13166
G1 X172.259 Y98.629 E.01675
G1 X146.221 Y72.591 E1.15535
G1 X145.688 Y72.591 E.01672
G1 X172.259 Y99.162 E1.179
G1 X172.259 Y99.696 E.01675
M73 P4 R46
M73 Q4 S46
G1 X145.154 Y72.591 E1.2027
G1 X144.62 Y72.591 E.01675
G1 X172.259 Y100.23 E1.22639
G1 X172.259 Y100.763 E.01672
G1 X144.087 Y72.591 E1.25004
G1 X143.553 Y72.591 E.01675
G1 X172.259 Y101.297 E1.27374
G1 X172.259 Y101.831 E.01675
G1 X143.019 Y72.591 E1.29743
G1 X142.486 Y72.591 E.01672
M73 P4 R45
G1 X172.259 Y102.364 E1.32108
G1 X172.259 Y102.898 E.01675
G1 X141.952 Y72.591 E1.34478
G1 X141.419 Y72.591 E.01672
G1 X172.259 Y103.431 E1.36843
G1 X172.259 Y103.965 E.01675
G1 X140.885 Y72.591 E1.39212
G1 X140.351 Y72.591 E.01675
G1 X172.259 Y104.499 E1.41582
G1 X172.259 Y105.032 E.01672
G1 X142.034 Y74.807 E1.34114
G1 X141.937 Y74.575 E.00789
G1 X141.645 Y74.094 E.01765
G1 X141.453 Y73.876 E.00911
G1 X141.037 Y73.544 E.0167
G1 X140.787 Y73.407 E.00894
G1 X140.554 Y73.327 E.00773
G1 X139.648 Y72.421 E.0402
M204 S1000
;WIPE_START
G1 F8640
G1 X140.554 Y73.327 E-.29585
G1 X140.787 Y73.407 E-.05688
G1 X141.037 Y73.544 E-.06583
G1 X141.453 Y73.876 E-.1229
G1 X141.645 Y74.094 E-.06708
G1 X141.937 Y74.575 E-.12993
G1 X142.034 Y74.807 E-.05806
G1 X142.045 Y74.818 E-.00347
;WIPE_END
G1 Z.6 F720
G1 X140.055 Y73.362 F10800
G1 Z.2 F720
G1 E.8 F2100
M204 S800
G1 F1200
G1 X139.284 Y72.591 E.03421
G1 X138.75 Y72.591 E.01675
G1 X139.386 Y73.226 E.0282
G1 X139.071 Y73.287 E.01007
G1 X138.956 Y73.33 E.00385
G1 X138.217 Y72.591 E.03279
G1 X137.683 Y72.591 E.01675
G1 X138.6 Y73.508 E.04069
G1 X138.277 Y73.718 E.01209
G1 X137.149 Y72.591 E.05003
G1 X136.616 Y72.591 E.01672
G1 X138.011 Y73.987 E.06192
G1 X137.774 Y74.283 E.0119
G1 X136.082 Y72.591 E.07508
G1 X135.549 Y72.591 E.01672
G1 X137.599 Y74.641 E.09096
G1 X137.462 Y75.038 E.01318
G1 X135.015 Y72.591 E.10858
G1 X134.481 Y72.591 E.01675
G1 X137.589 Y75.699 E.13791
M204 S1000
;WIPE_START
G1 F8640
G1 X135.139 Y73.249 E-.8
;WIPE_END
G1 Z.6 F720
G1 X141.891 Y75.198 F10800
G1 Z.2 F720
G1 E.8 F2100
M204 S800
G1 F1200
G1 X172.259 Y105.566 E1.34748
G1 X172.259 Y106.1 E.01675
G1 X142.053 Y75.894 E1.3403
G1 X142.05 Y76.23 E.01054
M73 P5 R45
M73 Q5 S46
G1 X142.001 Y76.375 E.0048
G1 X172.259 Y106.633 E1.3426
G1 X172.259 Y107.167 E.01675
G1 X141.825 Y76.733 E1.35041
G1 X141.753 Y76.866 E.00475
G1 X141.597 Y77.039 E.00731
G1 X172.259 Y107.701 E1.36053
G1 X172.259 Y108.234 E.01672
G1 X141.344 Y77.319 E1.37175
G1 X141.272 Y77.399 E.00338
G1 X141.03 Y77.539 E.00877
G1 X172.259 Y108.768 E1.38569
G1 X172.259 Y109.301 E.01672
G1 X140.691 Y77.734 E1.40071
G1 X140.441 Y77.829 E.00839
G1 X140.277 Y77.853 E.0052
G1 X172.259 Y109.835 E1.4191
G1 X172.259 Y110.369 E.01675
G1 X139.638 Y77.748 E1.44745
M204 S1000
;WIPE_START
G1 F8640
M73 Q5 S45
G1 X142.088 Y80.198 E-.8
;WIPE_END
G1 Z.6 F720
G1 X133.778 Y72.421 F10800
G1 Z.2 F720
G1 E.8 F2100
M204 S800
G1 F1200
G1 X137.477 Y76.12 E.16413
G1 X137.682 Y76.676 E.01859
G1 X137.793 Y76.849 E.00645
G1 X138.206 Y77.337 E.02006
G1 X138.352 Y77.445 E.0057
G1 X138.942 Y77.779 E.02127
G1 X139.186 Y77.829 E.00781
G1 X172.259 Y110.902 E1.46751
G1 X172.259 Y111.436 E.01675
G1 X133.414 Y72.591 E1.72362
G1 X132.88 Y72.591 E.01675
G1 X172.259 Y111.97 E1.74732
G1 X172.259 Y112.503 E.01672
G1 X132.347 Y72.591 E1.77097
