; generated by PrusaSlicer 2.6.1+win64 on 2023-10-13 at 00:25:02 UTC


;
;
; 

; external perimeters extrusion width = 0.60mm
; perimeters extrusion width = 0.50mm
; infill extrusion width = 0.50mm
; solid infill extrusion width = 0.50mm
; top infill extrusion width = 0.45mm
; first layer extrusion width = 0.42mm

M73 P0 R133
M73 Q0 S134
M201 X1000 Y1000 Z200 E5000 ; sets maximum accelerations, mm/sec^2
M203 X200 Y200 Z12 E120 ; sets maximum feedrates, mm / sec
M204 S1250 T1250 ; sets acceleration (S) and retract acceleration (R), mm/sec^2
M205 X8.00 Y8.00 Z0.40 E4.50 ; sets the jerk limits, mm/sec
M205 S0 T0 ; sets the minimum extruding and travel feed rate, mm/sec
;TYPE:Custom
M862.3 P "MK3S" ; printer model check
M862.1 P0.4 ; nozzle diameter check
M115 U3.12.2 ; tell printer latest fw version
G90 ; use absolute coordinates
M83 ; extruder relative mode
M104 S215 ; set extruder temp
M140 S60 ; set bed temp
M190 S60 ; wait for bed temp
M109 S215 ; wait for extruder temp
G28 W ; home all without mesh bed level
G80 ; mesh bed leveling

G1 Z0.2 F720
G1 Y-3 F1000 ; go outside print area
G92 E0
G1 X60 E9 F1000 ; intro line
G1 X100 E12.5 F1000 ; intro line

G92 E0
M221 S95

; Don't change E values below. Excessive value can damage the printer.

M907 E538 ; set extruder motor current
G21 ; set units to millimeters
G90 ; use absolute coordinates
M83 ; use relative distances for extrusion
M900 K0.05 ; Filament gcode LA 1.5
M900 K30 ; Filament gcode LA 1.0
M107
;LAYER_CHANGE
;Z:0.2
;HEIGHT:0.2
;BEFORE_LAYER_CHANGE
G92 E0.0
;0.2


G1 E-.8 F2100
G1 Z.4 F720
;AFTER_LAYER_CHANGE
;0.2
G1 X49.073 Y36.144 F10800
G1 Z.2 F720
G1 E.8 F2100
M204 S800
;TYPE:Skirt/Brim
;WIDTH:0.42
G1 F1200
G1 X56.144 Y29.073 E.31354
G1 X57.825 Y28.377 E.05705
G1 X192.175 Y28.377 E4.21245
G1 X193.856 Y29.073 E.05705
G1 X200.927 Y36.144 E.31354
G1 X201.623 Y37.825 E.05705
G1 X201.623 Y172.175 E4.21245
G1 X200.927 Y173.856 E.05705
G1 X193.856 Y180.927 E.31354
G1 X192.175 Y181.623 E.05705
G1 X57.825 Y181.623 E4.21245
G1 X56.144 Y180.927 E.05705
G1 X49.073 Y173.856 E.31354
G1 X48.377 Y172.175 E.05705
G1 X48.377 Y37.825 E4.21245
G1 X49.05 Y36.199 E.05518
M204 S1000
; printing object Body6.stl id:0 copy 0
;WIPE_START
G1 F8640
G1 X51.494 Y33.744 E-.8
;WIPE_END
G1 Z.6 F720
G1 X131.209 Y104.976 F10800
G1 Z.2 F720
M73 Q0 S133
G1 E.8 F2100
M204 S800
;TYPE:Perimeter
;WIDTH:0.419999
G1 F1200
G1 X131.221 Y105.179 E.00638
G1 X131.358 Y105.4 E.00815
G1 X198.133 Y172.175 E2.96091
G1 X192.175 Y178.133 E.26419
G1 X125.4 Y111.358 E2.96091
G1 X125.329 Y111.298 E.00291
M73 P0 R132
G1 X125.111 Y111.203 E.00746
G1 X124.821 Y111.221 E.00911
G1 X124.6 Y111.358 E.00815
G1 X57.825 Y178.133 E2.96091
G1 X51.867 Y172.175 E.26419
G1 X118.642 Y105.4 E2.96091
G1 X118.702 Y105.329 E.00291
G1 X118.797 Y105.111 E.00746
G1 X118.779 Y104.821 E.00911
G1 X118.642 Y104.6 E.00815
G1 X51.867 Y37.825 E2.96091
G1 X57.825 Y31.867 E.26419
G1 X124.6 Y98.642 E2.96091
G1 X124.889 Y98.797 E.01028
G1 X125.179 Y98.779 E.00911
G1 X125.4 Y98.642 E.00815
G1 X192.175 Y31.867 E2.96091
G1 X198.133 Y37.825 E.26419
G1 X131.358 Y104.6 E2.96091
G1 X131.325 Y104.636 E.00153
G1 X131.205 Y104.916 E.00955
M204 S1000
G1 X131.57 Y104.983 F10800
M204 S800
;TYPE:External perimeter
G1 F1200
G1 X131.625 Y105.133 E.00501
G1 X198.666 Y172.175 E2.97273
G1 X192.175 Y178.666 E.28782
M73 P1 R132
M73 Q1 S133
G1 X125.133 Y111.625 E2.97273
G1 X125.017 Y111.57 E.00403
G1 X124.867 Y111.625 E.00501
G1 X57.825 Y178.666 E2.97273
G1 X51.334 Y172.175 E.28782
G1 X118.375 Y105.133 E2.97273
G1 X118.43 Y105.017 E.00403
M73 Q1 S132
G1 X118.375 Y104.867 E.00501
G1 X51.334 Y37.825 E2.97273
G1 X57.825 Y31.334 E.28782
G1 X124.867 Y98.375 E2.97273
G1 X124.983 Y98.43 E.00403
G1 X125.133 Y98.375 E.00501
G1 X192.175 Y31.334 E2.97273
G1 X198.666 Y37.825 E.28782
M73 P1 R131
G1 X131.625 Y104.867 E2.97273
G1 X131.596 Y104.929 E.00215
M204 S1000
G1 X131.429 Y105.059 F10800
;WIPE_START
G1 F8640
G1 X131.625 Y105.133 E-.04758
G1 X133.929 Y107.437 E-.75242
;WIPE_END
G1 Z.6 F720
G1 X197.773 Y37.945 F10800
G1 Z.2 F720
G1 E.8 F2100
M204 S800
;TYPE:Solid infill
;WIDTH:0.420299
G1 F1200
G1 X192.175 Y32.347 E.24842
G1 X191.908 Y32.614 E.01185
G1 X197.386 Y38.092 E.2431
G1 X197.119 Y38.359 E.01185
G1 X191.641 Y32.881 E.2431
G1 X191.374 Y33.148 E.01185
G1 X196.852 Y38.626 E.2431
G1 X196.586 Y38.892 E.0118
G1 X191.108 Y33.414 E.2431
G1 X190.841 Y33.681 E.01185
G1 X196.319 Y39.159 E.2431
G1 X196.052 Y39.426 E.01185
G1 X190.574 Y33.948 E.2431
G1 X190.307 Y34.215 E.01185
G1 X195.785 Y39.693 E.2431
G1 X195.518 Y39.96 E.01185
G1 X190.04 Y34.482 E.2431
G1 X189.773 Y34.749 E.01185
G1 X195.251 Y40.227 E.2431
G1 X194.985 Y40.493 E.0118
G1 X189.507 Y35.015 E.2431
G1 X189.24 Y35.282 E.01185
G1 X194.718 Y40.76 E.2431
G1 X194.451 Y41.027 E.01185
G1 X188.973 Y35.549 E.2431
G1 X188.706 Y35.816 E.01185
G1 X194.184 Y41.294 E.2431
G1 X193.917 Y41.561 E.01185
G1 X188.439 Y36.083 E.2431
G1 X188.172 Y36.35 E.01185
G1 X193.65 Y41.828 E.2431
G1 X193.383 Y42.095 E.01185
G1 X187.905 Y36.617 E.2431
G1 X187.639 Y36.883 E.0118
G1 X193.117 Y42.361 E.2431
G1 X192.85 Y42.628 E.01185
G1 X187.372 Y37.15 E.2431
G1 X187.105 Y37.417 E.01185
G1 X192.583 Y42.895 E.2431
G1 X192.316 Y43.162 E.01185
G1 X186.838 Y37.684 E.2431
G1 X186.571 Y37.951 E.01185
G1 X192.049 Y43.429 E.2431
G1 X191.782 Y43.696 E.01185
G1 X186.304 Y38.218 E.2431
G1 X186.038 Y38.484 E.0118
G1 X191.516 Y43.962 E.2431
G1 X191.249 Y44.229 E.01185
G1 X185.771 Y38.751 E.2431
G1 X185.504 Y39.018 E.01185
G1 X190.982 Y44.496 E.2431
G1 X190.715 Y44.763 E.01185
G1 X185.237 Y39.285 E.2431
G1 X184.97 Y39.552 E.01185
G1 X190.448 Y45.03 E.2431
G1 X190.181 Y45.297 E.01185
G1 X184.703 Y39.819 E.2431
G1 X184.436 Y40.086 E.01185
G1 X189.914 Y45.564 E.2431
G1 X189.648 Y45.83 E.0118
G1 X184.17 Y40.352 E.2431
G1 X183.903 Y40.619 E.01185
G1 X189.381 Y46.097 E.2431
G1 X189.114 Y46.364 E.01185
G1 X183.636 Y40.886 E.2431
G1 X183.369 Y41.153 E.01185
G1 X188.847 Y46.631 E.2431
G1 X188.58 Y46.898 E.01185
G1 X183.102 Y41.42 E.2431
G1 X182.835 Y41.687 E.01185
G1 X188.313 Y47.165 E.2431
G1 X188.047 Y47.431 E.0118
G1 X182.568 Y41.953 E.24312
G1 X182.302 Y42.22 E.01183
G1 X187.78 Y47.698 E.2431
G1 X187.513 Y47.965 E.01185
G1 X182.035 Y42.487 E.2431
G1 X181.768 Y42.754 E.01185
G1 X187.246 Y48.232 E.2431
G1 X186.979 Y48.499 E.01185
G1 X181.501 Y43.021 E.2431
G1 X181.234 Y43.288 E.01185
G1 X186.712 Y48.766 E.2431
G1 X186.445 Y49.033 E.01185
G1 X180.967 Y43.555 E.2431
G1 X180.701 Y43.821 E.0118
G1 X186.179 Y49.299 E.2431
G1 X185.912 Y49.566 E.01185
G1 X180.434 Y44.088 E.2431
G1 X180.167 Y44.355 E.01185
G1 X185.645 Y49.833 E.2431
G1 X185.378 Y50.1 E.01185
G1 X179.9 Y44.622 E.2431
G1 X179.633 Y44.889 E.01185
G1 X185.111 Y50.367 E.2431
G1 X184.844 Y50.634 E.01185
G1 X179.366 Y45.156 E.2431
G1 X179.099 Y45.422 E.01183
G1 X184.578 Y50.901 E.24314
G1 X184.311 Y51.167 E.01183
G1 X178.833 Y45.689 E.2431
G1 X178.566 Y45.956 E.01185
G1 X184.044 Y51.434 E.2431
G1 X183.777 Y51.701 E.01185
G1 X178.299 Y46.223 E.2431
G1 X178.032 Y46.49 E.01185
G1 X183.51 Y51.968 E.2431
G1 X183.243 Y52.235 E.01185
G1 X177.765 Y46.757 E.2431
G1 X177.498 Y47.024 E.01185
G1 X182.976 Y52.502 E.2431
G1 X182.71 Y52.768 E.0118
G1 X177.232 Y47.29 E.2431
G1 X176.965 Y47.557 E.01185
G1 X182.443 Y53.035 E.2431
G1 X182.176 Y53.302 E.01185
G1 X176.698 Y47.824 E.2431
G1 X176.431 Y48.091 E.01185
G1 X181.909 Y53.569 E.2431
G1 X181.642 Y53.836 E.01185
G1 X176.164 Y48.358 E.2431
G1 X175.897 Y48.625 E.01185
G1 X181.375 Y54.103 E.2431
G1 X181.108 Y54.37 E.01185
G1 X175.63 Y48.891 E.24312
G1 X175.364 Y49.158 E.01183
G1 X180.842 Y54.636 E.2431
G1 X180.575 Y54.903 E.01185
G1 X175.097 Y49.425 E.2431
G1 X174.83 Y49.692 E.01185
G1 X180.308 Y55.17 E.2431
G1 X180.041 Y55.437 E.01185
G1 X174.563 Y49.959 E.2431
G1 X174.296 Y50.226 E.01185
G1 X179.774 Y55.704 E.2431
G1 X179.507 Y55.971 E.01185
G1 X174.029 Y50.493 E.2431
G1 X173.763 Y50.759 E.0118
G1 X179.241 Y56.237 E.2431
G1 X178.974 Y56.504 E.01185
G1 X173.496 Y51.026 E.2431
G1 X173.229 Y51.293 E.01185
G1 X178.707 Y56.771 E.2431
G1 X178.44 Y57.038 E.01185
G1 X172.962 Y51.56 E.2431
G1 X172.695 Y51.827 E.01185
G1 X178.173 Y57.305 E.2431
G1 X177.906 Y57.572 E.01185
G1 X172.428 Y52.094 E.2431
G1 X172.161 Y52.361 E.01185
G1 X177.639 Y57.839 E.2431
G1 X177.373 Y58.105 E.0118
G1 X171.895 Y52.627 E.2431
G1 X171.628 Y52.894 E.01185
G1 X177.106 Y58.372 E.2431
G1 X176.839 Y58.639 E.01185
G1 X171.361 Y53.161 E.2431
G1 X171.094 Y53.428 E.01185
G1 X176.572 Y58.906 E.2431
G1 X176.305 Y59.173 E.01185
G1 X170.827 Y53.695 E.2431
G1 X170.56 Y53.962 E.01185
G1 X176.038 Y59.44 E.2431
G1 X175.772 Y59.706 E.0118
G1 X170.294 Y54.228 E.2431
G1 X170.027 Y54.495 E.01185
G1 X175.505 Y59.973 E.2431
G1 X175.238 Y60.24 E.01185
G1 X169.76 Y54.762 E.2431
G1 X169.493 Y55.029 E.01185
G1 X174.971 Y60.507 E.2431
G1 X174.704 Y60.774 E.01185
G1 X169.226 Y55.296 E.2431
G1 X168.959 Y55.563 E.01185
G1 X174.437 Y61.041 E.2431
G1 X174.17 Y61.308 E.01185
G1 X168.692 Y55.83 E.2431
G1 X168.426 Y56.096 E.0118
G1 X173.904 Y61.574 E.2431
G1 X173.637 Y61.841 E.01185
G1 X168.159 Y56.363 E.2431
G1 X167.892 Y56.63 E.01185
G1 X173.37 Y62.108 E.2431
G1 X173.103 Y62.375 E.01185
G1 X167.625 Y56.897 E.2431
G1 X167.358 Y57.164 E.01185
M73 Q1 S131
G1 X172.836 Y62.642 E.2431
G1 X172.569 Y62.909 E.01185
G1 X167.091 Y57.431 E.2431
G1 X166.825 Y57.697 E.0118
G1 X172.303 Y63.175 E.2431
G1 X172.036 Y63.442 E.01185
G1 X166.558 Y57.964 E.2431
G1 X166.291 Y58.231 E.01185
G1 X171.769 Y63.709 E.2431
G1 X171.502 Y63.976 E.01185
G1 X166.024 Y58.498 E.2431
G1 X165.757 Y58.765 E.01185
G1 X171.235 Y64.243 E.2431
G1 X170.968 Y64.51 E.01185
G1 X165.49 Y59.032 E.2431
G1 X165.223 Y59.299 E.01185
G1 X170.701 Y64.777 E.2431
G1 X170.435 Y65.043 E.0118
G1 X164.957 Y59.565 E.2431
M73 P2 R131
G1 X164.69 Y59.832 E.01185
G1 X170.168 Y65.31 E.2431
G1 X169.901 Y65.577 E.01185
M73 Q2 S131
G1 X164.423 Y60.099 E.2431
G1 X164.156 Y60.366 E.01185
G1 X169.634 Y65.844 E.2431
G1 X169.367 Y66.111 E.01185
G1 X163.889 Y60.633 E.2431
G1 X163.622 Y60.9 E.01185
G1 X169.1 Y66.378 E.2431
G1 X168.834 Y66.644 E.0118
G1 X163.355 Y61.166 E.24312
G1 X163.089 Y61.433 E.01183
G1 X168.567 Y66.911 E.2431
G1 X168.3 Y67.178 E.01185
G1 X162.822 Y61.7 E.2431
G1 X162.555 Y61.967 E.01185
G1 X168.033 Y67.445 E.2431
G1 X167.766 Y67.712 E.01185
G1 X162.288 Y62.234 E.2431
G1 X162.021 Y62.501 E.01185
G1 X167.499 Y67.979 E.2431
G1 X167.232 Y68.246 E.01185
G1 X161.754 Y62.768 E.2431
G1 X161.488 Y63.034 E.0118
G1 X166.966 Y68.512 E.2431
G1 X166.699 Y68.779 E.01185
G1 X161.221 Y63.301 E.2431
G1 X160.954 Y63.568 E.01185
G1 X166.432 Y69.046 E.2431
G1 X166.165 Y69.313 E.01185
G1 X160.687 Y63.835 E.2431
G1 X160.42 Y64.102 E.01185
M73 P2 R130
G1 X165.898 Y69.58 E.2431
G1 X165.631 Y69.847 E.01185
G1 X160.153 Y64.369 E.2431
G1 X159.886 Y64.635 E.01183
G1 X165.365 Y70.114 E.24314
G1 X165.098 Y70.38 E.01183
G1 X159.62 Y64.902 E.2431
G1 X159.353 Y65.169 E.01185
G1 X164.831 Y70.647 E.2431
G1 X164.564 Y70.914 E.01185
G1 X159.086 Y65.436 E.2431
G1 X158.819 Y65.703 E.01185
G1 X164.297 Y71.181 E.2431
G1 X164.03 Y71.448 E.01185
G1 X158.552 Y65.97 E.2431
G1 X158.285 Y66.237 E.01185
G1 X163.763 Y71.715 E.2431
G1 X163.497 Y71.981 E.0118
G1 X158.019 Y66.503 E.2431
G1 X157.752 Y66.77 E.01185
G1 X163.23 Y72.248 E.2431
G1 X162.963 Y72.515 E.01185
G1 X157.485 Y67.037 E.2431
G1 X157.218 Y67.304 E.01185
G1 X162.696 Y72.782 E.2431
G1 X162.429 Y73.049 E.01185
G1 X156.951 Y67.571 E.2431
G1 X156.684 Y67.838 E.01185
G1 X162.162 Y73.316 E.2431
G1 X161.895 Y73.583 E.01185
G1 X156.417 Y68.104 E.24312
G1 X156.151 Y68.371 E.01183
G1 X161.629 Y73.849 E.2431
G1 X161.362 Y74.116 E.01185
G1 X155.884 Y68.638 E.2431
G1 X155.617 Y68.905 E.01185
G1 X161.095 Y74.383 E.2431
G1 X160.828 Y74.65 E.01185
G1 X155.35 Y69.172 E.2431
G1 X155.083 Y69.439 E.01185
G1 X160.561 Y74.917 E.2431
G1 X160.294 Y75.184 E.01185
G1 X154.816 Y69.706 E.2431
G1 X154.55 Y69.972 E.0118
G1 X160.028 Y75.45 E.2431
G1 X159.761 Y75.717 E.01185
G1 X154.283 Y70.239 E.2431
G1 X154.016 Y70.506 E.01185
G1 X159.494 Y75.984 E.2431
G1 X159.227 Y76.251 E.01185
G1 X153.749 Y70.773 E.2431
G1 X153.482 Y71.04 E.01185
G1 X158.96 Y76.518 E.2431
G1 X158.693 Y76.785 E.01185
G1 X153.215 Y71.307 E.2431
G1 X152.948 Y71.574 E.01185
G1 X158.426 Y77.052 E.2431
G1 X158.16 Y77.318 E.0118
G1 X152.682 Y71.84 E.2431
G1 X152.415 Y72.107 E.01185
G1 X157.893 Y77.585 E.2431
G1 X157.626 Y77.852 E.01185
G1 X152.148 Y72.374 E.2431
G1 X151.881 Y72.641 E.01185
G1 X157.359 Y78.119 E.2431
G1 X157.092 Y78.386 E.01185
G1 X151.614 Y72.908 E.2431
G1 X151.347 Y73.175 E.01185
G1 X156.825 Y78.653 E.2431
G1 X156.559 Y78.919 E.0118
G1 X151.081 Y73.441 E.2431
G1 X150.814 Y73.708 E.01185
G1 X156.292 Y79.186 E.2431
G1 X156.025 Y79.453 E.01185
G1 X150.547 Y73.975 E.2431
G1 X150.28 Y74.242 E.01185
G1 X155.758 Y79.72 E.2431
G1 X155.491 Y79.987 E.01185
G1 X150.013 Y74.509 E.2431
G1 X149.746 Y74.776 E.01185
G1 X155.224 Y80.254 E.2431
G1 X154.957 Y80.521 E.01185
G1 X149.479 Y75.043 E.2431
G1 X149.213 Y75.309 E.0118
G1 X154.691 Y80.787 E.2431
G1 X154.424 Y81.054 E.01185
G1 X148.946 Y75.576 E.2431
G1 X148.679 Y75.843 E.01185
G1 X154.157 Y81.321 E.2431
G1 X153.89 Y81.588 E.01185
G1 X148.412 Y76.11 E.2431
G1 X148.145 Y76.377 E.01185
G1 X153.623 Y81.855 E.2431
G1 X153.356 Y82.122 E.01185
G1 X147.878 Y76.644 E.2431
G1 X147.612 Y76.91 E.0118
G1 X153.09 Y82.388 E.2431
G1 X152.823 Y82.655 E.01185
G1 X147.345 Y77.177 E.2431
G1 X147.078 Y77.444 E.01185
G1 X152.556 Y82.922 E.2431
G1 X152.289 Y83.189 E.01185
G1 X146.811 Y77.711 E.2431
G1 X146.544 Y77.978 E.01185
G1 X152.022 Y83.456 E.2431
G1 X151.755 Y83.723 E.01185
G1 X146.277 Y78.245 E.2431
G1 X146.01 Y78.512 E.01185
G1 X151.488 Y83.99 E.2431
G1 X151.222 Y84.256 E.0118
G1 X145.744 Y78.778 E.2431
G1 X145.477 Y79.045 E.01185
G1 X150.955 Y84.523 E.2431
G1 X150.688 Y84.79 E.01185
G1 X145.21 Y79.312 E.2431
G1 X144.943 Y79.579 E.01185
G1 X150.421 Y85.057 E.2431
G1 X150.154 Y85.324 E.01185
G1 X144.676 Y79.846 E.2431
G1 X144.409 Y80.113 E.01185
G1 X149.887 Y85.591 E.2431
G1 X149.621 Y85.857 E.0118
G1 X144.142 Y80.379 E.24312
G1 X143.876 Y80.646 E.01183
G1 X149.354 Y86.124 E.2431
G1 X149.087 Y86.391 E.01185
G1 X143.609 Y80.913 E.2431
G1 X143.342 Y81.18 E.01185
G1 X148.82 Y86.658 E.2431
G1 X148.553 Y86.925 E.01185
G1 X143.075 Y81.447 E.2431
G1 X142.808 Y81.714 E.01185
G1 X148.286 Y87.192 E.2431
G1 X148.019 Y87.459 E.01185
G1 X142.541 Y81.981 E.2431
G1 X142.275 Y82.247 E.0118
G1 X147.753 Y87.725 E.2431
G1 X147.486 Y87.992 E.01185
G1 X142.008 Y82.514 E.2431
G1 X141.741 Y82.781 E.01185
G1 X147.219 Y88.259 E.2431
G1 X146.952 Y88.526 E.01185
G1 X141.474 Y83.048 E.2431
G1 X141.207 Y83.315 E.01185
G1 X146.685 Y88.793 E.2431
G1 X146.418 Y89.06 E.01185
G1 X140.94 Y83.582 E.2431
G1 X140.673 Y83.848 E.01183
G1 X146.152 Y89.327 E.24314
G1 X145.885 Y89.593 E.01183
G1 X140.407 Y84.115 E.2431
G1 X140.14 Y84.382 E.01185
G1 X145.618 Y89.86 E.2431
G1 X145.351 Y90.127 E.01185
G1 X139.873 Y84.649 E.2431
G1 X139.606 Y84.916 E.01185
G1 X145.084 Y90.394 E.2431
G1 X144.817 Y90.661 E.01185
G1 X139.339 Y85.183 E.2431
G1 X139.072 Y85.45 E.01185
G1 X144.55 Y90.928 E.2431
G1 X144.284 Y91.194 E.0118
G1 X138.806 Y85.716 E.2431
G1 X138.539 Y85.983 E.01185
G1 X144.017 Y91.461 E.2431
G1 X143.75 Y91.728 E.01185
G1 X138.272 Y86.25 E.2431
G1 X138.005 Y86.517 E.01185
G1 X143.483 Y91.995 E.2431
G1 X143.216 Y92.262 E.01185
G1 X137.738 Y86.784 E.2431
G1 X137.471 Y87.051 E.01185
G1 X142.949 Y92.529 E.2431
G1 X142.682 Y92.796 E.01185
G1 X137.204 Y87.317 E.24312
G1 X136.938 Y87.584 E.01183
G1 X142.416 Y93.062 E.2431
G1 X142.149 Y93.329 E.01185
G1 X136.671 Y87.851 E.2431
G1 X136.404 Y88.118 E.01185
G1 X141.882 Y93.596 E.2431
G1 X141.615 Y93.863 E.01185
G1 X136.137 Y88.385 E.2431
G1 X135.87 Y88.652 E.01185
G1 X141.348 Y94.13 E.2431
G1 X141.081 Y94.397 E.01185
G1 X135.603 Y88.919 E.2431
G1 X135.337 Y89.185 E.0118
G1 X140.815 Y94.663 E.2431
G1 X140.548 Y94.93 E.01185
G1 X135.07 Y89.452 E.2431
G1 X134.803 Y89.719 E.01185
G1 X140.281 Y95.197 E.2431
G1 X140.014 Y95.464 E.01185
G1 X134.536 Y89.986 E.2431
G1 X134.269 Y90.253 E.01185
