; generated by PrusaSlicer 2.6.1+win64 on 2023-10-12 at 23:13:02 UTC


;
;
; 

; external perimeters extrusion width = 0.45mm
; perimeters extrusion width = 0.45mm
; infill extrusion width = 0.45mm
; solid infill extrusion width = 0.45mm
; top infill extrusion width = 0.40mm
; first layer extrusion width = 0.42mm

M73 P0 R65
M73 Q0 S68
M201 X1000 Y1000 Z200 E5000 ; sets maximum accelerations, mm/sec^2
M203 X200 Y200 Z12 E120 ; sets maximum feedrates, mm / sec
M204 S1250 T1250 ; sets acceleration (S) and retract acceleration (R), mm/sec^2
M205 X8.00 Y8.00 Z0.40 E4.50 ; sets the jerk limits, mm/sec
M205 S0 T0 ; sets the minimum extruding and travel feed rate, mm/sec
;TYPE:Custom
M862.3 P "MK3S" ; printer model check
M862.1 P0.4 ; nozzle diameter check
M115 U3.12.2 ; tell printer latest fw version
G90 ; use absolute coordinates
M83 ; extruder relative mode
M104 S215 ; set extruder temp
M140 S60 ; set bed temp
M190 S60 ; wait for bed temp
M109 S215 ; wait for extruder temp
G28 W ; home all without mesh bed level
G80 ; mesh bed leveling

G1 Z0.2 F720
G1 Y-3 F1000 ; go outside print area
G92 E0
G1 X60 E9 F1000 ; intro line
G1 X100 E12.5 F1000 ; intro line

G92 E0
M221 S95

; Don't change E values below. Excessive value can damage the printer.

M907 E538 ; set extruder motor current
G21 ; set units to millimeters
G90 ; use absolute coordinates
M83 ; use relative distances for extrusion
M900 K0.05 ; Filament gcode LA 1.5
M900 K30 ; Filament gcode LA 1.0
M107
;LAYER_CHANGE
;Z:0.2
;HEIGHT:0.2
;BEFORE_LAYER_CHANGE
G92 E0.0
;0.2


G1 E-.8 F2100
G1 Z.4 F720
;AFTER_LAYER_CHANGE
;0.2
G1 X76.129 Y70.157 F10800
G1 Z.2 F720
G1 E.8 F2100
M204 S800
;TYPE:Skirt/Brim
;WIDTH:0.42
G1 F1200
G1 X77.175 Y69.281 E.04278
G1 X78.114 Y69.087 E.03006
G1 X171.886 Y69.087 E2.94016
G1 X173.193 Y69.479 E.04278
M73 P0 R64
G1 X174.069 Y70.525 E.04278
G1 X174.263 Y71.464 E.03006
G1 X174.263 Y138.536 E2.103
G1 X173.871 Y139.843 E.04278
G1 X172.825 Y140.719 E.04278
G1 X171.886 Y140.913 E.03006
G1 X78.114 Y140.913 E2.94016
G1 X76.807 Y140.521 E.04278
G1 X75.931 Y139.475 E.04278
G1 X75.737 Y138.536 E.03006
G1 X75.737 Y71.464 E2.103
G1 X76.112 Y70.215 E.04089
M204 S1000
; printing object Body4f.stl id:0 copy 0
;WIPE_START
G1 F8640
G1 X77.175 Y69.281 E-.32674
G1 X78.114 Y69.087 E-.2214
G1 X79.205 Y69.087 E-.25186
;WIPE_END
G1 Z.6 F720
G1 X171.098 Y72.252 F10800
G1 Z.2 F720
G1 E.8 F2100
M204 S800
;TYPE:Perimeter
;WIDTH:0.419999
G1 F1200
G1 X171.098 Y137.748 E2.05358
G1 X78.902 Y137.748 E2.89074
G1 X78.902 Y72.252 E2.05358
M73 Q0 S67
G1 X171.038 Y72.252 E2.88885
M204 S1000
G1 X171.476 Y71.874 F10800
M204 S800
;TYPE:External perimeter
M73 P1 R64
M73 Q1 S67
G1 F1200
G1 X171.476 Y138.126 E2.07728
G1 X78.524 Y138.126 E2.91444
G1 X78.524 Y71.874 E2.07728
G1 X171.416 Y71.874 E2.91256
M204 S1000
G1 X171.351 Y72.255 F10800
;WIPE_START
G1 F8640
G1 X171.419 Y75.339 E-.8
;WIPE_END
G1 Z.6 F720
G1 X140.165 Y74.826 F10800
G1 Z.2 F720
G1 E.8 F2100
M204 S800
;TYPE:Perimeter
G1 F1200
G1 X140.224 Y75.036 E.00684
G1 X140.224 Y76.064 E.03223
G1 X140.163 Y76.318 E.00819
G1 X139.953 Y76.696 E.01356
G1 X139.618 Y77.075 E.01586
G1 X139.466 Y77.196 E.00609
G1 X139.022 Y77.439 E.01587
G1 X138.838 Y77.502 E.0061
G1 X138.338 Y77.581 E.01587
G1 X137.975 Y77.545 E.01144
G1 X137.486 Y77.425 E.01579
G1 X137.03 Y77.156 E.0166
G1 X136.92 Y77.071 E.00436
G1 X136.56 Y76.639 E.01763
G1 X136.464 Y76.471 E.00607
G1 X136.292 Y75.994 E.0159
G1 X136.259 Y75.803 E.00608
G1 X136.259 Y75.297 E.01587
G1 X136.464 Y74.629 E.02191
G1 X136.882 Y74.071 E.02186
G1 X137.465 Y73.686 E.02191
G1 X138.113 Y73.526 E.02093
G1 X138.533 Y73.531 E.01317
G1 X139.165 Y73.724 E.02072
G1 X139.731 Y74.133 E.02189
G1 X139.861 Y74.281 E.00618
G1 X140.149 Y74.768 E.01774
M204 S1000
G1 X139.827 Y74.965 F10800
M204 S800
;TYPE:External perimeter
G1 F1200
G1 X139.846 Y75.036 E.0023
G1 X139.846 Y76.064 E.03223
G1 X139.67 Y76.446 E.01319
G1 X139.335 Y76.825 E.01586
G1 X138.841 Y77.109 E.01787
G1 X138.28 Y77.208 E.01786
G1 X137.718 Y77.112 E.01788
G1 X137.185 Y76.803 E.01932
G1 X136.851 Y76.399 E.01644
G1 X136.647 Y75.867 E.01786
G1 X136.636 Y75.297 E.01788
G1 X136.818 Y74.757 E.01787
G1 X137.173 Y74.311 E.01787
G1 X137.658 Y74.011 E.01788
G1 X138.186 Y73.896 E.01694
G1 X138.565 Y73.917 E.0119
G1 X139.044 Y74.081 E.01587
G1 X139.496 Y74.427 E.01785
G1 X139.802 Y74.911 E.01795
M204 S1000
G1 X139.899 Y74.972 F10800
;WIPE_START
G1 F8640
G1 X139.846 Y75.036 E-.0306
G1 X139.846 Y76.064 E-.23737
G1 X139.67 Y76.446 E-.09712
G1 X139.335 Y76.825 E-.1168
G1 X138.841 Y77.109 E-.13157
G1 X138.28 Y77.208 E-.13154
G1 X138.045 Y77.168 E-.055
;WIPE_END
G1 Z.6 F720
G1 X89.698 Y73.578 F10800
G1 Z.2 F720
G1 E.8 F2100
M204 S800
;TYPE:Perimeter
G1 F1200
G1 X90.205 Y73.743 E.01672
G1 X90.766 Y74.17 E.02211
G1 X91.148 Y74.764 E.02214
G1 X91.304 Y75.452 E.02212
G1 X91.276 Y75.934 E.01514
G1 X91.082 Y76.48 E.01817
G1 X90.983 Y76.65 E.00617
G1 X90.655 Y77.041 E.016
G1 X90.504 Y77.168 E.00619
G1 X90.061 Y77.423 E.01603
G1 X89.877 Y77.491 E.00615
G1 X89.373 Y77.579 E.01604
G1 X89.177 Y77.579 E.00615
G1 X88.673 Y77.491 E.01604
G1 X88.489 Y77.423 E.00615
G1 X88.046 Y77.168 E.01603
G1 X87.895 Y77.041 E.00619
G1 X87.567 Y76.65 E.016
G1 X87.468 Y76.48 E.00617
G1 X87.294 Y75.999 E.01604
G1 X87.259 Y75.806 E.00615
G1 X87.259 Y75.294 E.01605
G1 X87.468 Y74.62 E.02213
G1 X87.895 Y74.059 E.02211
G1 X88.489 Y73.677 E.02214
G1 X89.145 Y73.524 E.02112
G1 X89.57 Y73.536 E.01333
G1 X89.641 Y73.559 E.00234
M204 S1000
G1 X89.73 Y73.972 F10800
M204 S800
;TYPE:External perimeter
G1 F1200
G1 X90.076 Y74.098 E.01155
G1 X90.524 Y74.459 E.01804
G1 X90.822 Y74.952 E.01806
G1 X90.933 Y75.517 E.01805
G1 X90.902 Y75.87 E.01111
G1 X90.727 Y76.351 E.01605
G1 X90.366 Y76.799 E.01804
G1 X89.873 Y77.097 E.01806
G1 X89.308 Y77.208 E.01805
G1 X88.739 Y77.119 E.01806
G1 X88.234 Y76.841 E.01807
G1 X87.856 Y76.407 E.01805
G1 X87.648 Y75.87 E.01806
G1 X87.637 Y75.294 E.01806
G1 X87.823 Y74.749 E.01806
G1 X88.184 Y74.301 E.01804
G1 X88.677 Y74.003 E.01806
G1 X89.213 Y73.895 E.01714
G1 X89.595 Y73.923 E.01201
G1 X89.673 Y73.951 E.0026
M204 S1000
G1 X89.995 Y73.717 F10800
;WIPE_START
G1 F8640
G1 X90.076 Y74.098 E-.09905
G1 X90.524 Y74.459 E-.13285
G1 X90.822 Y74.952 E-.13302
G1 X90.933 Y75.517 E-.13295
G1 X90.902 Y75.87 E-.08182
G1 X90.727 Y76.351 E-.11819
G1 X90.45 Y76.695 E-.10212
;WIPE_END
G1 Z.6 F720
G1 X89.609 Y131.55 F10800
G1 Z.2 F720
G1 E.8 F2100
M204 S800
;TYPE:Perimeter
G1 F1200
G1 X89.677 Y131.554 E.00214
G1 X90.061 Y131.677 E.01264
G1 X90.504 Y131.932 E.01603
G1 X90.655 Y132.059 E.00619
G1 X90.983 Y132.45 E.016
G1 X91.082 Y132.62 E.00617
G1 X91.256 Y133.101 E.01604
G1 X91.291 Y133.294 E.00615
G1 X91.291 Y133.806 E.01605
G1 X91.256 Y133.999 E.00615
G1 X91.082 Y134.48 E.01604
G1 X90.655 Y135.041 E.02211
G1 X90.061 Y135.423 E.02214
G1 X89.373 Y135.579 E.02212
G1 X89.177 Y135.579 E.00615
G1 X88.673 Y135.491 E.01604
G1 X88.046 Y135.168 E.02211
G1 X87.567 Y134.65 E.02212
G1 X87.294 Y133.999 E.02213
G1 X87.259 Y133.57 E.0135
G1 X87.294 Y133.101 E.01475
G1 X87.468 Y132.62 E.01604
G1 X87.567 Y132.45 E.00617
G1 X87.895 Y132.059 E.016
G1 X88.046 Y131.932 E.00619
G1 X88.551 Y131.645 E.01821
G1 X89.145 Y131.524 E.01901
G1 X89.549 Y131.546 E.01269
M204 S1000
G1 X89.727 Y131.961 F10800
M204 S800
;TYPE:External perimeter
G1 F1200
G1 X89.873 Y132.003 E.00476
G1 X90.316 Y132.259 E.01604
G1 X90.694 Y132.693 E.01805
G1 X90.902 Y133.23 E.01806
G1 X90.913 Y133.806 E.01806
G1 X90.727 Y134.351 E.01806
G1 X90.366 Y134.799 E.01804
G1 X89.873 Y135.097 E.01806
G1 X89.308 Y135.208 E.01805
G1 X88.739 Y135.119 E.01806
G1 X88.234 Y134.841 E.01807
G1 X87.856 Y134.407 E.01805
G1 X87.648 Y133.87 E.01806
G1 X87.637 Y133.294 E.01806
G1 X87.823 Y132.749 E.01806
G1 X88.184 Y132.301 E.01804
G1 X88.698 Y131.993 E.01879
G1 X89.213 Y131.895 E.01644
G1 X89.579 Y131.918 E.0115
G1 X89.669 Y131.944 E.00294
M204 S1000
G1 X89.831 Y131.85 F10800
;WIPE_START
G1 F8640
G1 X89.873 Y132.003 E-.04903
G1 X90.316 Y132.259 E-.11814
G1 X90.694 Y132.693 E-.13289
G1 X90.902 Y133.23 E-.13297
G1 X90.913 Y133.806 E-.13302
G1 X90.727 Y134.351 E-.13297
G1 X90.453 Y134.692 E-.10098
;WIPE_END
G1 Z.6 F720
G1 X140.164 Y132.805 F10800
G1 Z.2 F720
G1 E.8 F2100
M204 S800
;TYPE:Perimeter
G1 F1200
G1 X140.218 Y132.954 E.00497
G1 X140.224 Y133.036 E.00258
G1 X140.224 Y134.064 E.03223
G1 X140.163 Y134.318 E.00819
G1 X139.953 Y134.696 E.01356
G1 X139.618 Y135.075 E.01586
G1 X139.022 Y135.439 E.0219
G1 X138.338 Y135.581 E.0219
G1 X138.144 Y135.578 E.00608
G1 X137.647 Y135.482 E.01587
G1 X137.03 Y135.156 E.02188
G1 X136.56 Y134.639 E.02191
G1 X136.292 Y133.994 E.0219
G1 X136.259 Y133.803 E.00608
G1 X136.259 Y133.297 E.01587
G1 X136.292 Y133.106 E.00608
G1 X136.482 Y132.584 E.01742
G1 X136.882 Y132.071 E.0204
G1 X137.03 Y131.944 E.00611
G1 X137.465 Y131.686 E.01586
G1 X137.785 Y131.59 E.01048
G1 X138.252 Y131.516 E.01483
G1 X138.686 Y131.56 E.01368
G1 X139.165 Y131.724 E.01587
G1 X139.336 Y131.817 E.0061
G1 X139.731 Y132.133 E.01586
G1 X139.861 Y132.281 E.00618
G1 X140.144 Y132.749 E.01715
M204 S1000
G1 X139.825 Y132.959 F10800
M204 S800
;TYPE:External perimeter
G1 F1200
G1 X139.846 Y133.036 E.0025
G1 X139.846 Y134.064 E.03223
G1 X139.67 Y134.446 E.01319
G1 X139.335 Y134.825 E.01586
G1 X138.841 Y135.109 E.01787
G1 X138.28 Y135.208 E.01786
G1 X137.718 Y135.112 E.01788
G1 X137.222 Y134.831 E.01787
G1 X136.851 Y134.399 E.01785
G1 X136.647 Y133.867 E.01786
G1 X136.636 Y133.297 E.01788
G1 X136.825 Y132.742 E.01838
G1 X137.173 Y132.311 E.01737
G1 X137.658 Y132.011 E.01788
G1 X138.186 Y131.896 E.01694
G1 X138.565 Y131.917 E.0119
G1 X139.044 Y132.081 E.01587
G1 X139.496 Y132.427 E.01785
G1 X139.799 Y132.905 E.01774
M204 S1000
G1 X139.904 Y132.967 F10800
;WIPE_START
G1 F8640
G1 X139.846 Y133.036 E-.03214
G1 X139.846 Y134.064 E-.23737
G1 X139.67 Y134.446 E-.09712
G1 X139.335 Y134.825 E-.1168
G1 X138.841 Y135.109 E-.13157
G1 X138.28 Y135.208 E-.13154
G1 X138.052 Y135.169 E-.05346
;WIPE_END
G1 Z.6 F720
G1 X170.929 Y73.185 F10800
G1 Z.2 F720
G1 E.8 F2100
M204 S800
;TYPE:Solid infill
;WIDTH:0.420742
G1 F1200
G1 X170.335 Y72.591 E.02639
G1 X169.8 Y72.591 E.01681
G1 X170.759 Y73.55 E.04261
G1 X170.759 Y74.084 E.01678
G1 X169.266 Y72.591 E.06633
G1 X168.732 Y72.591 E.01678
G1 X170.759 Y74.618 E.09006
G1 X170.759 Y75.153 E.01681
G1 X168.197 Y72.591 E.11383
G1 X167.663 Y72.591 E.01678
G1 X170.759 Y75.687 E.13755
G1 X170.759 Y76.221 E.01678
G1 X167.129 Y72.591 E.16128
G1 X166.594 Y72.591 E.01681
G1 X170.759 Y76.756 E.18505
G1 X170.759 Y77.29 E.01678
G1 X166.06 Y72.591 E.20877
G1 X165.526 Y72.591 E.01678
G1 X170.759 Y77.824 E.2325
G1 X170.759 Y78.359 E.01681
G1 X164.991 Y72.591 E.25627
G1 X164.457 Y72.591 E.01678
G1 X170.759 Y78.893 E.27999
G1 X170.759 Y79.427 E.01678
G1 X163.923 Y72.591 E.30372
G1 X163.388 Y72.591 E.01681
G1 X170.759 Y79.962 E.32749
G1 X170.759 Y80.496 E.01678
G1 X162.854 Y72.591 E.35121
G1 X162.32 Y72.591 E.01678
G1 X170.759 Y81.03 E.37494
G1 X170.759 Y81.565 E.01681
M73 P1 R63
G1 X161.785 Y72.591 E.39871
G1 X161.251 Y72.591 E.01678
G1 X170.759 Y82.099 E.42243
G1 X170.759 Y82.633 E.01678
G1 X160.717 Y72.591 E.44616
G1 X160.183 Y72.591 E.01678
G1 X170.759 Y83.167 E.46988
G1 X170.759 Y83.702 E.01681
G1 X159.648 Y72.591 E.49365
G1 X159.114 Y72.591 E.01678
G1 X170.759 Y84.236 E.51738
G1 X170.759 Y84.77 E.01678
G1 X158.58 Y72.591 E.5411
G1 X158.045 Y72.591 E.01681
G1 X170.759 Y85.305 E.56487
G1 X170.759 Y85.839 E.01678
G1 X157.511 Y72.591 E.5886
G1 X156.977 Y72.591 E.01678
M73 P2 R63
G1 X170.759 Y86.373 E.61232
G1 X170.759 Y86.908 E.01681
G1 X156.442 Y72.591 E.63609
G1 X155.908 Y72.591 E.01678
G1 X170.759 Y87.442 E.65981
G1 X170.759 Y87.976 E.01678
M73 Q2 S67
G1 X155.374 Y72.591 E.68354
G1 X154.839 Y72.591 E.01681
G1 X170.759 Y88.511 E.70731
G1 X170.759 Y89.045 E.01678
G1 X154.305 Y72.591 E.73103
G1 X153.771 Y72.591 E.01678
G1 X170.759 Y89.579 E.75476
G1 X170.759 Y90.114 E.01681
G1 X153.236 Y72.591 E.77853
G1 X152.702 Y72.591 E.01678
G1 X170.759 Y90.648 E.80225
G1 X170.759 Y91.182 E.01678
G1 X152.168 Y72.591 E.82598
G1 X151.633 Y72.591 E.01681
M73 Q2 S66
G1 X170.759 Y91.717 E.84975
G1 X170.759 Y92.251 E.01678
G1 X151.099 Y72.591 E.87347
G1 X150.565 Y72.591 E.01678
G1 X170.759 Y92.785 E.8972
G1 X170.759 Y93.32 E.01681
G1 X150.03 Y72.591 E.92097
G1 X149.496 Y72.591 E.01678
G1 X170.759 Y93.854 E.94469
G1 X170.759 Y94.388 E.01678
G1 X148.962 Y72.591 E.96842
G1 X148.427 Y72.591 E.01681
G1 X170.759 Y94.923 E.99219
G1 X170.759 Y95.457 E.01678
G1 X147.893 Y72.591 E1.01591
G1 X147.359 Y72.591 E.01678
G1 X170.759 Y95.991 E1.03964
G1 X170.759 Y96.526 E.01681
G1 X146.824 Y72.591 E1.06341
G1 X146.29 Y72.591 E.01678
G1 X170.759 Y97.06 E1.08713
G1 X170.759 Y97.594 E.01678
G1 X145.756 Y72.591 E1.11086
G1 X145.222 Y72.591 E.01678
G1 X170.759 Y98.128 E1.13458
G1 X170.759 Y98.663 E.01681
G1 X144.687 Y72.591 E1.15835
G1 X144.153 Y72.591 E.01678
G1 X170.759 Y99.197 E1.18208
G1 X170.759 Y99.731 E.01678
G1 X143.619 Y72.591 E1.2058
G1 X143.084 Y72.591 E.01681
G1 X170.759 Y100.266 E1.22957
G1 X170.759 Y100.8 E.01678
M73 P3 R63
G1 X142.55 Y72.591 E1.2533
G1 X142.016 Y72.591 E.01678
G1 X170.759 Y101.334 E1.27702
G1 X170.759 Y101.869 E.01681
M73 Q3 S66
G1 X141.481 Y72.591 E1.30079
G1 X140.947 Y72.591 E.01678
G1 X170.759 Y102.403 E1.32452
G1 X170.759 Y102.937 E.01678
G1 X140.413 Y72.591 E1.34824
G1 X139.878 Y72.591 E.01681
G1 X170.759 Y103.472 E1.37201
G1 X170.759 Y104.006 E.01678
M73 P3 R62
G1 X139.344 Y72.591 E1.39574
G1 X138.81 Y72.591 E.01678
G1 X170.759 Y104.54 E1.41946
G1 X170.759 Y105.075 E.01681
G1 X140.542 Y74.858 E1.34251
G1 X140.437 Y74.575 E.00948
G1 X140.145 Y74.094 E.01768
G1 X139.953 Y73.876 E.00913
G1 X139.537 Y73.544 E.01672
G1 X139.287 Y73.407 E.00896
G1 X138.99 Y73.305 E.00987
G1 X138.106 Y72.421 E.03928
M204 S1000
;WIPE_START
G1 F8640
G1 X138.99 Y73.305 E-.28867
G1 X139.287 Y73.407 E-.07251
G1 X139.537 Y73.544 E-.06583
G1 X139.953 Y73.876 E-.1229
G1 X140.145 Y74.094 E-.06708
G1 X140.437 Y74.575 E-.12993
G1 X140.517 Y74.791 E-.05308
;WIPE_END
G1 Z.6 F720
G1 X138.51 Y73.36 F10800
G1 Z.2 F720
G1 E.8 F2100
M204 S800
G1 F1200
G1 X137.741 Y72.591 E.03417
G1 X137.207 Y72.591 E.01678
G1 X137.848 Y73.232 E.02848
G1 X137.566 Y73.288 E.00903
G1 X137.424 Y73.342 E.00477
G1 X136.672 Y72.591 E.03339
G1 X136.138 Y72.591 E.01678
G1 X137.072 Y73.525 E.0415
G1 X136.846 Y73.659 E.00825
G1 X136.752 Y73.739 E.00388
G1 X135.604 Y72.591 E.051
G1 X135.069 Y72.591 E.01681
G1 X136.49 Y74.012 E.06313
G1 X136.257 Y74.313 E.01196
G1 X134.535 Y72.591 E.07651
G1 X134.001 Y72.591 E.01678
G1 X136.086 Y74.676 E.09263
G1 X135.955 Y75.08 E.01334
G1 X133.466 Y72.591 E.11058
G1 X132.932 Y72.591 E.01678
G1 X136.089 Y75.748 E.14026
M204 S1000
;WIPE_START
G1 F8640
G1 X133.639 Y73.298 E-.8
;WIPE_END
G1 Z.6 F720
G1 X140.391 Y75.241 F10800
G1 Z.2 F720
G1 E.8 F2100
M204 S800
G1 F1200
G1 X170.759 Y105.609 E1.34922
G1 X170.759 Y106.143 E.01678
G1 X140.553 Y75.937 E1.34202
G1 X140.55 Y76.23 E.00921
G1 X140.489 Y76.408 E.00591
G1 X170.759 Y106.678 E1.34487
G1 X170.759 Y107.212 E.01678
G1 X140.309 Y76.762 E1.35286
G1 X140.253 Y76.866 E.00371
M73 Q3 S65
G1 X140.076 Y77.063 E.00832
G1 X170.759 Y107.746 E1.36321
G1 X170.759 Y108.281 E.01681
G1 X139.822 Y77.344 E1.3745
G1 X139.772 Y77.399 E.00234
G1 X139.5 Y77.556 E.00987
G1 X170.759 Y108.815 E1.38881
G1 X170.759 Y109.349 E.01678
G1 X139.159 Y77.749 E1.40396
G1 X138.941 Y77.829 E.0073
M73 P4 R62
G1 X138.736 Y77.86 E.00651
G1 X170.759 Y109.884 E1.42277
G1 X170.759 Y110.418 E.01678
G1 X138.078 Y77.737 E1.45198
M204 S1000
;WIPE_START
G1 F8640
M73 Q4 S65
G1 X140.528 Y80.187 E-.8
;WIPE_END
G1 Z.6 F720
G1 X132.228 Y72.421 F10800
G1 Z.2 F720
G1 E.8 F2100
M204 S800
G1 F1200
G1 X136.006 Y76.199 E.16785
G1 X136.182 Y76.676 E.01597
G1 X136.293 Y76.849 E.00646
G1 X136.706 Y77.337 E.02008
G1 X136.852 Y77.445 E.00571
G1 X137.44 Y77.778 E.02123
G1 X137.623 Y77.816 E.00587
G1 X170.759 Y110.952 E1.4722
G1 X170.759 Y111.487 E.01681
G1 X131.864 Y72.591 E1.72809
G1 X131.329 Y72.591 E.01681
G1 X170.759 Y112.021 E1.75183
G1 X170.759 Y112.555 E.01678
G1 X130.795 Y72.591 E1.77556
