; generated by PrusaSlicer 2.6.1+win64 on 2023-10-12 at 21:00:11 UTC


;
;
; 

; external perimeters extrusion width = 0.45mm
; perimeters extrusion width = 0.45mm
; infill extrusion width = 0.45mm
; solid infill extrusion width = 0.45mm
; top infill extrusion width = 0.40mm
; first layer extrusion width = 0.42mm

M73 P0 R45
M73 Q0 S47
M201 X1000 Y1000 Z200 E5000 ; sets maximum accelerations, mm/sec^2
M203 X200 Y200 Z12 E120 ; sets maximum feedrates, mm / sec
M204 S1250 T1250 ; sets acceleration (S) and retract acceleration (R), mm/sec^2
M205 X8.00 Y8.00 Z0.40 E4.50 ; sets the jerk limits, mm/sec
M205 S0 T0 ; sets the minimum extruding and travel feed rate, mm/sec
;TYPE:Custom
M862.3 P "MK3S" ; printer model check
M862.1 P0.4 ; nozzle diameter check
M115 U3.12.2 ; tell printer latest fw version
G90 ; use absolute coordinates
M83 ; extruder relative mode
M104 S215 ; set extruder temp
M140 S60 ; set bed temp
M190 S60 ; wait for bed temp
M109 S215 ; wait for extruder temp
G28 W ; home all without mesh bed level
G80 ; mesh bed leveling

G1 Z0.2 F720
G1 Y-3 F1000 ; go outside print area
G92 E0
G1 X60 E9 F1000 ; intro line
G1 X100 E12.5 F1000 ; intro line

G92 E0
M221 S95

; Don't change E values below. Excessive value can damage the printer.

M907 E538 ; set extruder motor current
G21 ; set units to millimeters
G90 ; use absolute coordinates
M83 ; use relative distances for extrusion
M900 K0.05 ; Filament gcode LA 1.5
M900 K30 ; Filament gcode LA 1.0
M107
;LAYER_CHANGE
;Z:0.2
;HEIGHT:0.2
;BEFORE_LAYER_CHANGE
G92 E0.0
;0.2


G1 E-.8 F2100
G1 Z.4 F720
;AFTER_LAYER_CHANGE
;0.2
G1 X87.354 Y70.157 F10800
G1 Z.2 F720
G1 E.8 F2100
M204 S800
;TYPE:Skirt/Brim
;WIDTH:0.42
G1 F1200
G1 X88.399 Y69.281 E.04275
G1 X89.339 Y69.087 E.03009
G1 X160.661 Y69.087 E2.23625
G1 X161.968 Y69.479 E.04278
G1 X162.844 Y70.525 E.04278
G1 X163.038 Y71.464 E.03006
G1 X163.038 Y138.536 E2.103
G1 X162.646 Y139.843 E.04278
G1 X161.601 Y140.719 E.04275
G1 X160.661 Y140.913 E.03009
G1 X89.339 Y140.913 E2.23625
G1 X88.032 Y140.521 E.04278
G1 X87.156 Y139.475 E.04278
G1 X86.962 Y138.536 E.03006
G1 X86.962 Y71.464 E2.103
G1 X87.336 Y70.215 E.04088
M204 S1000
; printing object Body4.stl id:0 copy 0
;WIPE_START
G1 F8640
G1 X88.399 Y69.281 E-.32674
G1 X89.339 Y69.087 E-.22162
G1 X90.429 Y69.087 E-.25164
;WIPE_END
G1 Z.6 F720
G1 X90.126 Y137.748 F10800
G1 Z.2 F720
G1 E.8 F2100
M204 S800
;TYPE:Perimeter
;WIDTH:0.419999
G1 F1200
G1 X90.126 Y72.252 E2.05358
G1 X159.874 Y72.252 E2.1869
G1 X159.874 Y137.748 E2.05358
M73 P1 R45
M73 Q1 S47
G1 X90.186 Y137.748 E2.18501
M204 S1000
G1 X89.749 Y138.126 F10800
M204 S800
;TYPE:External perimeter
G1 F1200
G1 X89.749 Y71.874 E2.07728
G1 X160.251 Y71.874 E2.21054
G1 X160.251 Y138.126 E2.07728
M73 Q1 S46
G1 X89.809 Y138.126 E2.20866
M204 S1000
G1 X89.857 Y137.74 F10800
;WIPE_START
M73 P1 R44
G1 F8640
G1 X89.806 Y134.661 E-.8
;WIPE_END
G1 Z.6 F720
G1 X151.389 Y74.826 F10800
G1 Z.2 F720
G1 E.8 F2100
M204 S800
;TYPE:Perimeter
G1 F1200
G1 X151.448 Y75.036 E.00684
G1 X151.448 Y76.064 E.03223
G1 X151.388 Y76.318 E.00818
G1 X151.177 Y76.696 E.01357
G1 X150.842 Y77.075 E.01586
G1 X150.69 Y77.196 E.00609
G1 X150.247 Y77.439 E.01584
G1 X150.063 Y77.502 E.0061
G1 X149.563 Y77.581 E.01587
G1 X149.369 Y77.578 E.00608
G1 X148.766 Y77.451 E.01932
G1 X148.255 Y77.156 E.0185
G1 X148.107 Y77.029 E.00611
G1 X147.784 Y76.639 E.01588
G1 X147.688 Y76.471 E.00607
G1 X147.517 Y75.995 E.01586
G1 X147.484 Y75.803 E.00611
G1 X147.484 Y75.297 E.01587
G1 X147.688 Y74.629 E.0219
G1 X148.107 Y74.071 E.02188
G1 X148.69 Y73.686 E.02191
G1 X149.338 Y73.526 E.02093
G1 X149.758 Y73.531 E.01317
G1 X150.39 Y73.724 E.02072
G1 X150.956 Y74.133 E.02189
G1 X151.086 Y74.281 E.00618
G1 X151.373 Y74.768 E.01772
M204 S1000
G1 X151.051 Y74.965 F10800
M204 S800
;TYPE:External perimeter
G1 F1200
G1 X151.071 Y75.036 E.00231
G1 X151.071 Y76.064 E.03223
G1 X150.895 Y76.446 E.01319
G1 X150.56 Y76.825 E.01586
G1 X150.065 Y77.109 E.01789
G1 X149.504 Y77.208 E.01786
G1 X148.908 Y77.102 E.01898
G1 X148.447 Y76.831 E.01677
G1 X148.075 Y76.399 E.01787
G1 X147.872 Y75.867 E.01785
G1 X147.861 Y75.297 E.01788
G1 X148.043 Y74.757 E.01787
G1 X148.397 Y74.311 E.01785
G1 X148.882 Y74.011 E.01788
G1 X149.41 Y73.896 E.01694
G1 X149.789 Y73.917 E.0119
G1 X150.268 Y74.081 E.01587
G1 X150.72 Y74.427 E.01785
G1 X151.027 Y74.911 E.01797
M204 S1000
G1 X151.124 Y74.972 F10800
;WIPE_START
G1 F8640
G1 X151.071 Y75.036 E-.0306
G1 X151.071 Y76.064 E-.23737
G1 X150.895 Y76.446 E-.09712
G1 X150.56 Y76.825 E-.1168
G1 X150.065 Y77.109 E-.13177
G1 X149.504 Y77.208 E-.13154
G1 X149.27 Y77.166 E-.0548
;WIPE_END
G1 Z.6 F720
G1 X100.834 Y73.55 F10800
G1 Z.2 F720
G1 E.8 F2100
M204 S800
;TYPE:Perimeter
G1 F1200
G1 X100.901 Y73.554 E.0021
G1 X101.286 Y73.677 E.01267
G1 X101.729 Y73.932 E.01603
G1 X102.208 Y74.45 E.02212
G1 X102.481 Y75.101 E.02213
G1 X102.515 Y75.806 E.02213
G1 X102.481 Y75.999 E.00614
G1 X102.306 Y76.48 E.01605
G1 X102.208 Y76.65 E.00615
G1 X101.879 Y77.041 E.01602
G1 X101.729 Y77.168 E.00616
G1 X101.286 Y77.423 E.01603
G1 X101.101 Y77.491 E.00618
G1 X100.598 Y77.579 E.01601
G1 X100.401 Y77.579 E.00618
G1 X99.898 Y77.491 E.01601
G1 X99.713 Y77.423 E.00618
G1 X99.27 Y77.168 E.01603
G1 X99.12 Y77.041 E.00616
G1 X98.791 Y76.65 E.01602
G1 X98.693 Y76.48 E.00615
G1 X98.518 Y75.999 E.01605
G1 X98.484 Y75.806 E.00614
G1 X98.484 Y75.294 E.01605
G1 X98.693 Y74.62 E.02213
G1 X99.12 Y74.059 E.02211
G1 X99.713 Y73.677 E.02212
G1 X100.37 Y73.524 E.02115
G1 X100.774 Y73.546 E.01269
M204 S1000
G1 X100.842 Y73.929 F10800
M204 S800
;TYPE:External perimeter
G1 F1200
G1 X101.097 Y74.003 E.00833
G1 X101.54 Y74.259 E.01604
G1 X101.919 Y74.693 E.01807
G1 X102.127 Y75.23 E.01806
G1 X102.138 Y75.806 E.01806
G1 X101.952 Y76.351 E.01806
G1 X101.59 Y76.799 E.01806
G1 X101.097 Y77.097 E.01806
G1 X100.532 Y77.208 E.01805
G1 X99.963 Y77.119 E.01806
G1 X99.459 Y76.841 E.01805
G1 X99.08 Y76.407 E.01807
G1 X98.872 Y75.87 E.01806
G1 X98.861 Y75.294 E.01806
G1 X99.047 Y74.749 E.01806
G1 X99.409 Y74.301 E.01806
G1 X99.902 Y74.003 E.01806
G1 X100.437 Y73.895 E.01711
G1 X100.784 Y73.917 E.0109
M204 S1000
G1 X101.011 Y73.724 F10800
;WIPE_START
G1 F8640
G1 X101.097 Y74.003 E-.07495
G1 X101.54 Y74.259 E-.11814
G1 X101.919 Y74.693 E-.13304
G1 X102.127 Y75.23 E-.13297
G1 X102.138 Y75.806 E-.13302
G1 X101.952 Y76.351 E-.13297
G1 X101.748 Y76.603 E-.07491
;WIPE_END
G1 Z.6 F720
G1 X100.535 Y135.579 F10800
G1 Z.2 F720
G1 E.8 F2100
M204 S800
;TYPE:Perimeter
G1 F1200
G1 X100.401 Y135.579 E.0042
G1 X99.898 Y135.491 E.01601
G1 X99.27 Y135.168 E.02214
G1 X98.791 Y134.65 E.02212
G1 X98.518 Y133.999 E.02213
G1 X98.484 Y133.569 E.01352
G1 X98.518 Y133.101 E.01471
G1 X98.693 Y132.62 E.01605
G1 X98.791 Y132.45 E.00615
G1 X99.12 Y132.059 E.01602
G1 X99.27 Y131.932 E.00616
M73 P2 R44
G1 X99.713 Y131.677 E.01603
G1 X99.895 Y131.61 E.00608
G1 X100.42 Y131.517 E.01672
G1 X100.869 Y131.546 E.01411
G1 X101.286 Y131.677 E.0137
G1 X101.729 Y131.932 E.01603
G1 X101.879 Y132.059 E.00616
G1 X102.208 Y132.45 E.01602
G1 X102.306 Y132.62 E.00615
G1 X102.481 Y133.101 E.01605
G1 X102.515 Y133.294 E.00614
G1 X102.515 Y133.806 E.01605
G1 X102.481 Y133.999 E.00614
G1 X102.306 Y134.48 E.01605
G1 X101.879 Y135.041 E.02211
G1 X101.286 Y135.423 E.02212
G1 X100.595 Y135.579 E.02221
M204 S1000
G1 X100.445 Y135.194 F10800
M204 S800
;TYPE:External perimeter
G1 F1200
G1 X99.963 Y135.119 E.01529
G1 X99.459 Y134.841 E.01805
G1 X99.08 Y134.407 E.01807
G1 X98.872 Y133.87 E.01806
G1 X98.861 Y133.294 E.01806
G1 X99.047 Y132.749 E.01806
G1 X99.409 Y132.301 E.01806
G1 X99.902 Y132.003 E.01806
G1 X100.437 Y131.895 E.01711
G1 X100.793 Y131.915 E.01118
G1 X101.097 Y132.003 E.00992
G1 X101.54 Y132.259 E.01604
G1 X101.919 Y132.693 E.01807
G1 X102.127 Y133.23 E.01806
G1 X102.138 Y133.806 E.01806
G1 X101.952 Y134.351 E.01806
G1 X101.59 Y134.799 E.01806
G1 X101.098 Y135.097 E.01804
G1 X100.505 Y135.204 E.01889
M204 S1000
G1 X100.248 Y135.542 F10800
;WIPE_START
G1 F8640
G1 X99.963 Y135.119 E-.12668
G1 X99.459 Y134.841 E-.1329
G1 X99.08 Y134.407 E-.13304
G1 X98.872 Y133.87 E-.13297
G1 X98.861 Y133.294 E-.13302
G1 X99.047 Y132.749 E-.13297
G1 X99.07 Y132.721 E-.00842
;WIPE_END
G1 Z.6 F720
G1 X151.392 Y132.834 F10800
G1 Z.2 F720
M73 Q2 S46
G1 E.8 F2100
M204 S800
;TYPE:Perimeter
G1 F1200
G1 X151.448 Y133.036 E.00657
G1 X151.448 Y134.064 E.03223
G1 X151.388 Y134.318 E.00818
G1 X151.177 Y134.696 E.01357
G1 X150.842 Y135.075 E.01586
G1 X150.247 Y135.439 E.02187
G1 X149.563 Y135.581 E.0219
G1 X149.369 Y135.578 E.00608
G1 X148.872 Y135.482 E.01587
G1 X148.255 Y135.156 E.02188
G1 X147.784 Y134.639 E.02193
G1 X147.517 Y133.994 E.02189
G1 X147.484 Y133.803 E.00608
G1 X147.484 Y133.297 E.01587
G1 X147.517 Y133.106 E.00608
G1 X147.688 Y132.629 E.01589
G1 X147.784 Y132.461 E.00607
G1 X148.167 Y132.008 E.0186
G1 X148.69 Y131.686 E.01926
G1 X148.869 Y131.618 E.006
G1 X149.369 Y131.521 E.01597
G1 X149.857 Y131.545 E.01532
G1 X150.39 Y131.724 E.01763
G1 X150.56 Y131.817 E.00608
G1 X150.956 Y132.133 E.01588
G1 X151.086 Y132.281 E.00618
G1 X151.376 Y132.776 E.01799
M204 S1000
G1 X151.046 Y132.997 F10800
M204 S800
;TYPE:External perimeter
G1 F1200
G1 X151.071 Y134.064 E.03346
G1 X150.895 Y134.446 E.01319
G1 X150.56 Y134.825 E.01586
G1 X150.065 Y135.109 E.01789
G1 X149.504 Y135.208 E.01786
G1 X148.943 Y135.112 E.01785
G1 X148.447 Y134.831 E.01787
G1 X148.075 Y134.399 E.01787
G1 X147.872 Y133.867 E.01785
G1 X147.861 Y133.297 E.01788
G1 X148.043 Y132.757 E.01787
G1 X148.418 Y132.29 E.01878
G1 X148.882 Y132.011 E.01698
G1 X149.41 Y131.896 E.01694
G1 X149.789 Y131.917 E.0119
G1 X150.268 Y132.081 E.01587
G1 X150.72 Y132.427 E.01785
G1 X151.043 Y132.937 E.01893
M204 S1000
G1 X151.431 Y133.105 F10800
;WIPE_START
G1 F8640
G1 X151.071 Y134.064 E-.26031
G1 X150.895 Y134.446 E-.09712
G1 X150.56 Y134.825 E-.1168
G1 X150.065 Y135.109 E-.13177
G1 X149.504 Y135.208 E-.13154
G1 X149.237 Y135.162 E-.06246
;WIPE_END
G1 Z.6 F720
G1 X159.704 Y73.185 F10800
G1 Z.2 F720
G1 E.8 F2100
M204 S800
;TYPE:Solid infill
;WIDTH:0.420721
G1 F1200
G1 X159.11 Y72.591 E.02639
G1 X158.576 Y72.591 E.01678
G1 X159.535 Y73.55 E.04261
G1 X159.535 Y74.084 E.01678
G1 X158.042 Y72.591 E.06633
G1 X157.507 Y72.591 E.01681
G1 X159.535 Y74.618 E.09007
G1 X159.535 Y75.153 E.01681
G1 X156.973 Y72.591 E.11382
G1 X156.439 Y72.591 E.01678
G1 X159.535 Y75.687 E.13754
G1 X159.535 Y76.221 E.01678
G1 X155.904 Y72.591 E.16129
G1 X155.37 Y72.591 E.01678
G1 X159.535 Y76.755 E.18501
G1 X159.535 Y77.29 E.01681
G1 X154.836 Y72.591 E.20876
G1 X154.302 Y72.591 E.01678
G1 X159.535 Y77.824 E.23248
G1 X159.535 Y78.358 E.01678
G1 X153.767 Y72.591 E.25623
G1 X153.233 Y72.591 E.01678
G1 X159.535 Y78.893 E.27998
G1 X159.535 Y79.427 E.01678
G1 X152.699 Y72.591 E.3037
G1 X152.164 Y72.591 E.01681
G1 X159.535 Y79.961 E.32745
G1 X159.535 Y80.495 E.01678
G1 X151.63 Y72.591 E.35117
G1 X151.096 Y72.591 E.01678
G1 X159.535 Y81.03 E.37492
G1 X159.535 Y81.564 E.01678
G1 X150.561 Y72.591 E.39866
G1 X150.027 Y72.591 E.01678
G1 X159.535 Y82.098 E.42238
G1 X159.535 Y82.633 E.01681
G1 X151.768 Y74.866 E.34506
G1 X151.662 Y74.575 E.00973
G1 X151.369 Y74.094 E.01769
G1 X151.178 Y73.876 E.0091
G1 X150.762 Y73.544 E.01672
G1 X150.512 Y73.407 E.00896
G1 X150.203 Y73.301 E.01026
G1 X149.323 Y72.421 E.0391
M204 S1000
;WIPE_START
G1 F8640
G1 X150.203 Y73.301 E-.28736
G1 X150.512 Y73.407 E-.07543
G1 X150.762 Y73.544 E-.06583
G1 X151.178 Y73.876 E-.1229
G1 X151.369 Y74.094 E-.06692
G1 X151.662 Y74.575 E-.13005
G1 X151.738 Y74.785 E-.05151
;WIPE_END
G1 Z.6 F720
G1 X149.727 Y73.359 F10800
G1 Z.2 F720
G1 E.8 F2100
M204 S800
G1 F1200
G1 X148.959 Y72.591 E.03412
G1 X148.424 Y72.591 E.01681
G1 X149.067 Y73.233 E.02854
G1 X148.791 Y73.288 E.00884
G1 X148.643 Y73.344 E.00497
G1 X147.89 Y72.591 E.03345
G1 X147.356 Y72.591 E.01678
G1 X148.292 Y73.528 E.04161
G1 X148.07 Y73.659 E.0081
G1 X147.973 Y73.742 E.00401
G1 X146.821 Y72.591 E.05116
G1 X146.287 Y72.591 E.01678
G1 X147.712 Y74.016 E.06331
G1 X147.479 Y74.317 E.01196
G1 X145.753 Y72.591 E.07668
G1 X145.219 Y72.591 E.01678
G1 X147.309 Y74.681 E.09285
G1 X147.179 Y75.085 E.01333
G1 X144.684 Y72.591 E.11082
G1 X144.15 Y72.591 E.01678
G1 X147.314 Y75.755 E.14057
M204 S1000
;WIPE_START
G1 F8640
G1 X144.864 Y73.305 E-.8
;WIPE_END
G1 Z.6 F720
G1 X151.616 Y75.248 F10800
G1 Z.2 F720
G1 E.8 F2100
M204 S800
G1 F1200
G1 X159.535 Y83.167 E.35181
G1 X159.535 Y83.701 E.01678
G1 X151.779 Y75.945 E.34457
G1 X151.776 Y76.22 E.00864
G1 X151.712 Y76.413 E.00639
G1 X159.535 Y84.235 E.34753
G1 X159.535 Y84.77 E.01681
G1 X151.535 Y76.77 E.35541
G1 X151.503 Y76.831 E.00216
G1 X151.298 Y77.067 E.00982
G1 X159.535 Y85.304 E.36594
G1 X159.535 Y85.838 E.01678
G1 X151.042 Y77.346 E.37729
G1 X150.865 Y77.488 E.00713
G1 X150.726 Y77.564 E.00498
G1 X159.535 Y86.373 E.39135
G1 X159.535 Y86.907 E.01678
G1 X150.378 Y77.751 E.40679
G1 X150.211 Y77.818 E.00565
G1 X149.953 Y77.859 E.00821
G1 X159.535 Y87.441 E.42569
G1 X159.535 Y87.976 E.01681
G1 X149.295 Y77.736 E.45493
M204 S1000
;WIPE_START
G1 F8640
G1 X151.745 Y80.186 E-.8
;WIPE_END
G1 Z.6 F720
G1 X143.446 Y72.421 F10800
G1 Z.2 F720
G1 E.8 F2100
M204 S800
G1 F1200
G1 X147.234 Y76.21 E.16831
G1 X147.406 Y76.676 E.0156
G1 X147.518 Y76.849 E.00647
G1 X147.931 Y77.337 E.02008
G1 X148.076 Y77.445 E.00568
G1 X148.673 Y77.781 E.02152
G1 X148.84 Y77.815 E.00535
G1 X159.535 Y88.51 E.47514
G1 X159.535 Y89.044 E.01678
G1 X143.081 Y72.591 E.73097
G1 X142.547 Y72.591 E.01678
G1 X159.535 Y89.578 E.7547
G1 X159.535 Y90.113 E.01681
G1 X142.013 Y72.591 E.77844
G1 X141.479 Y72.591 E.01678
G1 X159.535 Y90.647 E.80216
G1 X159.535 Y91.181 E.01678
G1 X140.944 Y72.591 E.82591
G1 X140.41 Y72.591 E.01678
M73 P3 R44
G1 X159.535 Y91.716 E.84966
G1 X159.535 Y92.25 E.01678
M73 Q3 S46
G1 X139.876 Y72.591 E.87338
G1 X139.341 Y72.591 E.01681
G1 X159.535 Y92.784 E.89713
G1 X159.535 Y93.318 E.01678
G1 X138.807 Y72.591 E.92085
G1 X138.273 Y72.591 E.01678
G1 X159.535 Y93.853 E.9446
G1 X159.535 Y94.387 E.01678
G1 X137.738 Y72.591 E.96834
G1 X137.204 Y72.591 E.01678
G1 X159.535 Y94.921 E.99207
G1 X159.535 Y95.456 E.01681
G1 X136.67 Y72.591 E1.01581
G1 X136.136 Y72.591 E.01678
G1 X159.535 Y95.99 E1.03954
G1 X159.535 Y96.524 E.01678
G1 X135.601 Y72.591 E1.06328
G1 X135.067 Y72.591 E.01678
G1 X159.535 Y97.058 E1.08701
G1 X159.535 Y97.593 E.01681
M73 Q3 S45
G1 X134.533 Y72.591 E1.11075
G1 X133.998 Y72.591 E.01681
G1 X159.535 Y98.127 E1.1345
G1 X159.535 Y98.661 E.01678
G1 X133.464 Y72.591 E1.15822
G1 X132.93 Y72.591 E.01678
G1 X159.535 Y99.196 E1.18197
G1 X159.535 Y99.73 E.01678
M73 P3 R43
G1 X132.396 Y72.591 E1.20569
G1 X131.861 Y72.591 E.01681
M73 P4 R43
G1 X159.535 Y100.264 E1.22944
G1 X159.535 Y100.798 E.01678
G1 X131.327 Y72.591 E1.25316
G1 X130.793 Y72.591 E.01678
M73 Q4 S45
G1 X159.535 Y101.333 E1.27691
G1 X159.535 Y101.867 E.01678
G1 X130.258 Y72.591 E1.30065
G1 X129.724 Y72.591 E.01678
G1 X159.535 Y102.401 E1.32438
G1 X159.535 Y102.936 E.01681
G1 X129.19 Y72.591 E1.34812
G1 X128.656 Y72.591 E.01678
G1 X159.535 Y103.47 E1.37185
G1 X159.535 Y104.004 E.01678
G1 X128.121 Y72.591 E1.39559
G1 X127.587 Y72.591 E.01678
G1 X159.535 Y104.539 E1.41934
G1 X159.535 Y105.073 E.01678
G1 X127.053 Y72.591 E1.44306
G1 X126.518 Y72.591 E.01681
G1 X159.535 Y105.607 E1.46681
G1 X159.535 Y106.141 E.01678
G1 X125.984 Y72.591 E1.49053
G1 X125.45 Y72.591 E.01678
G1 X159.535 Y106.676 E1.51428
G1 X159.535 Y107.21 E.01678
M73 P5 R43
G1 X124.915 Y72.591 E1.53802
G1 X124.381 Y72.591 E.01678
G1 X159.535 Y107.744 E1.56175
G1 X159.535 Y108.279 E.01681
M73 Q5 S45
G1 X123.847 Y72.591 E1.58549
G1 X123.313 Y72.591 E.01678
G1 X159.535 Y108.813 E1.60922
G1 X159.535 Y109.347 E.01678
G1 X122.778 Y72.591 E1.63296
G1 X122.244 Y72.591 E.01678
G1 X159.535 Y109.881 E1.65669
G1 X159.535 Y110.416 E.01681
G1 X121.71 Y72.591 E1.68043
G1 X121.175 Y72.591 E.01681
G1 X159.535 Y110.95 E1.70418
G1 X159.535 Y111.484 E.01678
G1 X120.641 Y72.591 E1.7279
G1 X120.107 Y72.591 E.01678
M73 Q5 S44
G1 X159.535 Y112.019 E1.75165
G1 X159.535 Y112.553 E.01678
M73 P6 R43
G1 X119.573 Y72.591 E1.77537
G1 X119.038 Y72.591 E.01681
