; generated by SuperSlicer 2.4 on 2023-07-10 at 20:14:24 UTC


;
;

;
;
; 

; external perimeters extrusion width = 0.60mm
; perimeters extrusion width = 0.50mm
; infill extrusion width = 0.50mm
; solid infill extrusion width = 0.50mm
; top infill extrusion width = 0.40mm
; first layer extrusion width = 0.42mm

; object:{"name":"Bottom","id":"Bottom.stl id:0 copy 0","object_center":[105.000000,105.000000,0.000000],"boundingbox_center":[105.000000,105.000000,3.000000],"boundingbox_size":[120.000000,73.315384,6.000000]}
; Total objects to print: 1
M486 T1
; plater:{"center":[105.000000,105.000000,0.000000],"boundingbox_center":[105.000000,105.000000,3.000000],"boundingbox_size":[120.000000,73.315384,6.000000]}

M73 P0 R181
;TYPE:Custom
G90 ; use absolute coordinates
M83 ; extruder relative mode
M204 S1250 T1250
M104 S200 ; set extruder temp
M140 S65 ; set bed temp
G28 ; home all
G29 ; AutoBed Leveling I think
G1 Y1.0 Z0.3 F1000 ; move print head up
M190 S65 ; wait for bed temp
M109 S200 ; wait for extruder temp
G92 E0.0
; initial load
G1 X205.0 E19 F1000
M73 P0 R180
G1 Y1.6
G1 X5.0 E19 F1000
G92 E0.0
; intro line
G1 Y2.0 Z0.2 F1000
G1 X65.0 E9.0 F1000
G1 X105.0 E12.5 F1000
G92 E0.0
M107
G21 ; set units to millimeters
G90 ; use absolute coordinates
M83 ; use relative distances for extrusion
; Filament gcode
;_TOOLCHANGE 0
M107
;LAYER_CHANGE
;Z:0.2
;HEIGHT:0.2
;BEFORE_LAYER_CHANGE
G92 E0.0
;0.2
G1 E-6 F1800
G1 Z0.075 F10800
G1 Z0.2
;AFTER_LAYER_CHANGE
;0.2
G1 Z0.275
M204 S800
G1 X47.479 Y67.722
G1 Z0.2
G1 E6 F1800
;TYPE:Skirt
;WIDTH:0.52
G1 F1200
G1 X46.64 Y68.321 E0.0409
G1 X45.531 Y69.341 E0.05975
G1 X44.865 Y70.128 E0.0409
G1 X44.041 Y71.389 E0.05975
G1 X43.588 Y72.315 E0.04089
G1 X43.099 Y73.74 E0.05975
G1 X42.888 Y74.749 E0.0409
G1 X42.763 Y76.25 E0.05975
G1 X42.763 Y132.864 E2.24584
G1 X42.895 Y134.562 E0.06758
G1 X43.269 Y136.222 E0.06748
G1 X43.876 Y137.805 E0.06726
G1 X44.613 Y139.132 E0.06023
G1 X45.201 Y139.954 E0.0401
G1 X46.206 Y141.063 E0.05937
G1 X46.969 Y141.727 E0.04013
G1 X48.191 Y142.553 E0.05852
G1 X49.095 Y143.012 E0.04019
G1 X50.467 Y143.505 E0.05785
G1 X51.459 Y143.722 E0.04026
G1 X52.903 Y143.847 E0.05751
G1 X157 Y143.85 E4.12946
G1 X158.541 Y143.722 E0.06135
G1 X159.533 Y143.505 E0.04026
G1 X160.905 Y143.012 E0.05785
G1 X162.357 Y142.215 E0.0657
G1 X163.171 Y141.614 E0.04015
G1 X164.255 Y140.593 E0.05908
G1 X164.905 Y139.818 E0.0401
G1 X165.736 Y138.556 E0.05996
G1 X166.194 Y137.654 E0.0401
G1 X166.731 Y136.222 E0.06071
G1 X166.982 Y135.242 E0.04012
G1 X167.201 Y133.715 E0.06118
G1 X167.209 Y75.589 E2.30583
G1 X166.901 Y73.74 E0.07438
M73 P0 R179
G1 X166.337 Y72.146 E0.06707
G1 X165.62 Y70.821 E0.05975
G1 X165.135 Y70.128 E0.03356
G1 X164.001 Y68.874 E0.06707
G1 X162.521 Y67.722 E0.07438
G1 X161.027 Y66.931 E0.06707
G1 X159.423 Y66.396 E0.06707
G1 X158.594 Y66.23 E0.03356
G1 X157.093 Y66.106 E0.05975
G1 X53 Y66.104 E4.12928
G1 X51.406 Y66.23 E0.06342
G1 X50.397 Y66.442 E0.0409
G1 X48.973 Y66.931 E0.05975
G1 X47.479 Y67.722 E0.06707
G1 E-3.6 F1800
;WIPE_START
G1 F8640
M204 S1000
G1 X46.64 Y68.321 E-0.20404
G1 X45.531 Y69.341 E-0.29812
G1 X44.865 Y70.128 E-0.20404
G1 X44.041 Y71.389 E-0.29812
G1 X43.588 Y72.315 E-0.20403
G1 X43.099 Y73.74 E-0.29812
G1 X42.888 Y74.749 E-0.20404
G1 X42.763 Y76.25 E-0.29812
G1 X42.763 Y77.621 E-0.27138
;WIPE_END
G1 E-0.12 F1800
G1 Z0.275 F10800
; printing object Bottom.stl id:0 copy 0
M486 S0
; acceleration to travel
M204 S1500
G1 X135.981 Y105.026
; decel to extrusion
M204 S800
G1 X154.103 Y110.353
; end travel
G1 Z0.2
G1 E6 F1800
;TYPE:Internal perimeter
;WIDTH:0.42
G1 F1200
G1 X153.947 Y110.762 E0.01373
G1 X153.845 Y111.217 E0.0146
G1 X153.811 Y111.681 E0.0146
G1 X153.845 Y112.145 E0.0146
G1 X153.947 Y112.6 E0.0146
G1 X154.113 Y113.034 E0.0146
G1 X154.341 Y113.44 E0.0146
G1 X154.625 Y113.809 E0.0146
G1 X154.96 Y114.132 E0.0146
G1 X155.339 Y114.403 E0.0146
G1 X155.753 Y114.616 E0.0146
G1 X156.193 Y114.766 E0.0146
G1 X156.651 Y114.85 E0.0146
G1 X157.116 Y114.867 E0.0146
G1 X157.579 Y114.817 E0.0146
G1 X158.03 Y114.699 E0.0146
G1 X158.458 Y114.517 E0.0146
G1 X158.855 Y114.274 E0.0146
G1 X159.213 Y113.976 E0.0146
G1 X159.524 Y113.63 E0.0146
G1 X159.781 Y113.241 E0.0146
G1 X159.978 Y112.82 E0.0146
G1 X160.112 Y112.374 E0.0146
G1 X160.18 Y111.914 E0.0146
G1 X160.18 Y111.448 E0.0146
G1 X160.112 Y110.988 E0.0146
G1 X159.978 Y110.542 E0.0146
G1 X159.781 Y110.12 E0.0146
G1 X159.524 Y109.732 E0.0146
G1 X159.213 Y109.385 E0.0146
G1 X158.855 Y109.088 E0.0146
G1 X158.458 Y108.845 E0.0146
G1 X158.03 Y108.663 E0.0146
G1 X157.579 Y108.545 E0.0146
G1 X157.116 Y108.494 E0.0146
G1 X156.651 Y108.511 E0.0146
G1 X156.193 Y108.596 E0.0146
G1 X155.753 Y108.746 E0.0146
G1 X155.339 Y108.959 E0.0146
G1 X154.96 Y109.23 E0.0146
G1 X154.625 Y109.553 E0.0146
G1 X154.341 Y109.922 E0.0146
G1 X154.113 Y110.327 E0.0146
G1 X154.103 Y110.353 E0.00087
G1 X154.455 Y110.488 F10800
;TYPE:External perimeter
G1 F1200
G1 X154.309 Y110.871 E0.01287
G1 X154.219 Y111.272 E0.01287
G1 X154.189 Y111.681 E0.01287
G1 X154.219 Y112.09 E0.01287
G1 X154.309 Y112.491 E0.01287
G1 X154.455 Y112.874 E0.01287
G1 X154.656 Y113.232 E0.01286
G1 X154.907 Y113.556 E0.01287
G1 X155.202 Y113.841 E0.01287
G1 X155.536 Y114.08 E0.01286
G1 X155.901 Y114.268 E0.01287
G1 X156.289 Y114.4 E0.01286
G1 X156.693 Y114.475 E0.01287
G1 X157.103 Y114.49 E0.01287
G1 X157.511 Y114.445 E0.01287
G1 X157.907 Y114.341 E0.01287
G1 X158.285 Y114.18 E0.01286
G1 X158.635 Y113.967 E0.01287
G1 X158.951 Y113.704 E0.01286
G1 X159.225 Y113.399 E0.01287
G1 X159.451 Y113.056 E0.01287
G1 X159.625 Y112.685 E0.01287
G1 X159.743 Y112.292 E0.01286
G1 X159.803 Y111.886 E0.01287
G1 X159.803 Y111.476 E0.01287
G1 X159.743 Y111.07 E0.01287
G1 X159.625 Y110.677 E0.01286
G1 X159.451 Y110.305 E0.01287
G1 X159.225 Y109.963 E0.01287
G1 X158.951 Y109.658 E0.01287
G1 X158.635 Y109.395 E0.01286
G1 X158.285 Y109.181 E0.01286
G1 X157.907 Y109.021 E0.01287
G1 X157.511 Y108.917 E0.01287
G1 X157.103 Y108.872 E0.01287
G1 X156.693 Y108.887 E0.01287
G1 X156.289 Y108.962 E0.01287
G1 X155.901 Y109.094 E0.01286
G1 X155.536 Y109.282 E0.01287
G1 X155.202 Y109.521 E0.01286
G1 X154.907 Y109.805 E0.01287
G1 X154.656 Y110.13 E0.01287
G1 X154.455 Y110.488 E0.01286
;WIPE_START
M204 S1000
G1 X154.058 Y110.532 F10800
;WIPE_END
G1 E-3.6 F1800
;WIPE_START
G1 F8640
G1 X154.117 Y110.813 E-0.05697
G1 X154.021 Y111.243 E-0.087
G1 X153.989 Y111.681 E-0.087
G1 X154.021 Y112.119 E-0.087
G1 X154.117 Y112.548 E-0.087
G1 X154.274 Y112.959 E-0.087
G1 X154.489 Y113.342 E-0.087
G1 X154.757 Y113.69 E-0.087
G1 X155.074 Y113.995 E-0.087
G1 X155.431 Y114.251 E-0.087
G1 X155.822 Y114.452 E-0.087
G1 X156.238 Y114.594 E-0.087
G1 X156.671 Y114.674 E-0.087
G1 X157.11 Y114.69 E-0.087
G1 X157.547 Y114.642 E-0.087
G1 X157.972 Y114.531 E-0.087
G1 X158.377 Y114.359 E-0.087
G1 X158.752 Y114.13 E-0.087
G1 X159.09 Y113.849 E-0.087
G1 X159.383 Y113.521 E-0.087
G1 X159.626 Y113.155 E-0.087
G1 X159.812 Y112.757 E-0.087
G1 X159.939 Y112.336 E-0.087
G1 X160.003 Y111.901 E-0.087
G1 X160.003 Y111.461 E-0.087
G1 X159.939 Y111.026 E-0.087
G1 X159.869 Y110.794 E-0.04797
;WIPE_END
G1 E-0.12 F1800
G1 Z0.275 F10800
; acceleration to travel
M204 S1500
G1 X157.152 Y92.418
; decel to extrusion
M204 S800
G1 X156.624 Y88.845
; end travel
G1 Z0.2
G1 E6 F1800
;TYPE:Internal perimeter
G1 F1200
G1 X156.651 Y88.85 E0.00087
G1 X157.116 Y88.867 E0.0146
G1 X157.579 Y88.817 E0.0146
G1 X158.03 Y88.699 E0.0146
G1 X158.458 Y88.517 E0.0146
G1 X158.855 Y88.274 E0.0146
G1 X159.213 Y87.976 E0.0146
G1 X159.524 Y87.63 E0.0146
G1 X159.781 Y87.241 E0.0146
G1 X159.978 Y86.82 E0.0146
G1 X160.112 Y86.374 E0.0146
G1 X160.18 Y85.914 E0.0146
G1 X160.18 Y85.448 E0.0146
G1 X160.112 Y84.988 E0.0146
G1 X159.978 Y84.542 E0.0146
G1 X159.781 Y84.12 E0.0146
G1 X159.524 Y83.732 E0.0146
G1 X159.213 Y83.385 E0.0146
G1 X158.855 Y83.088 E0.0146
G1 X158.458 Y82.845 E0.0146
G1 X158.03 Y82.663 E0.0146
G1 X157.579 Y82.545 E0.0146
G1 X157.116 Y82.494 E0.0146
G1 X156.651 Y82.511 E0.0146
G1 X156.193 Y82.596 E0.0146
G1 X155.753 Y82.746 E0.0146
G1 X155.339 Y82.959 E0.0146
G1 X154.96 Y83.23 E0.0146
G1 X154.625 Y83.553 E0.0146
G1 X154.341 Y83.922 E0.0146
G1 X154.113 Y84.327 E0.0146
G1 X153.947 Y84.762 E0.0146
G1 X153.845 Y85.217 E0.0146
G1 X153.811 Y85.681 E0.0146
G1 X153.845 Y86.145 E0.0146
G1 X153.947 Y86.6 E0.0146
G1 X154.113 Y87.034 E0.0146
G1 X154.341 Y87.44 E0.0146
G1 X154.625 Y87.809 E0.0146
G1 X154.96 Y88.132 E0.0146
G1 X155.339 Y88.403 E0.0146
G1 X155.753 Y88.616 E0.0146
G1 X156.193 Y88.766 E0.0146
G1 X156.624 Y88.845 E0.01373
G1 X156.693 Y88.475 F10800
;TYPE:External perimeter
G1 F1200
G1 X157.103 Y88.49 E0.01287
G1 X157.511 Y88.445 E0.01287
G1 X157.907 Y88.341 E0.01287
G1 X158.285 Y88.18 E0.01286
G1 X158.635 Y87.967 E0.01287
G1 X158.951 Y87.704 E0.01286
G1 X159.225 Y87.399 E0.01287
G1 X159.451 Y87.056 E0.01287
G1 X159.625 Y86.685 E0.01287
G1 X159.743 Y86.292 E0.01286
G1 X159.803 Y85.886 E0.01287
G1 X159.803 Y85.476 E0.01287
G1 X159.743 Y85.07 E0.01287
G1 X159.625 Y84.677 E0.01286
G1 X159.451 Y84.305 E0.01287
G1 X159.225 Y83.963 E0.01287
G1 X158.951 Y83.658 E0.01287
G1 X158.635 Y83.395 E0.01286
G1 X158.285 Y83.181 E0.01287
G1 X157.907 Y83.021 E0.01286
G1 X157.511 Y82.917 E0.01287
G1 X157.103 Y82.872 E0.01287
G1 X156.693 Y82.887 E0.01287
G1 X156.289 Y82.962 E0.01287
G1 X155.901 Y83.094 E0.01286
G1 X155.536 Y83.282 E0.01287
G1 X155.202 Y83.521 E0.01287
G1 X154.907 Y83.805 E0.01286
G1 X154.656 Y84.13 E0.01287
G1 X154.455 Y84.488 E0.01286
G1 X154.309 Y84.871 E0.01287
G1 X154.219 Y85.272 E0.01287
G1 X154.189 Y85.681 E0.01287
G1 X154.219 Y86.09 E0.01287
G1 X154.309 Y86.491 E0.01287
G1 X154.455 Y86.874 E0.01287
G1 X154.656 Y87.232 E0.01286
G1 X154.907 Y87.556 E0.01287
G1 X155.202 Y87.841 E0.01287
G1 X155.536 Y88.08 E0.01286
G1 X155.901 Y88.268 E0.01287
G1 X156.289 Y88.4 E0.01286
G1 X156.693 Y88.475 E0.01287
;WIPE_START
M204 S1000
G1 X156.862 Y88.837 F10800
;WIPE_END
G1 E-3.6 F1800
;WIPE_START
G1 F8640
G1 X157.11 Y88.69 E-0.05697
G1 X157.547 Y88.642 E-0.087
G1 X157.972 Y88.531 E-0.087
G1 X158.377 Y88.359 E-0.087
G1 X158.752 Y88.13 E-0.087
G1 X159.09 Y87.849 E-0.087
G1 X159.383 Y87.521 E-0.087
G1 X159.626 Y87.155 E-0.087
G1 X159.812 Y86.757 E-0.087
G1 X159.939 Y86.336 E-0.087
G1 X160.003 Y85.901 E-0.087
G1 X160.003 Y85.461 E-0.087
G1 X159.939 Y85.026 E-0.087
G1 X159.812 Y84.605 E-0.087
G1 X159.626 Y84.207 E-0.087
G1 X159.383 Y83.841 E-0.087
G1 X159.09 Y83.513 E-0.087
G1 X158.752 Y83.232 E-0.087
G1 X158.377 Y83.003 E-0.087
G1 X157.972 Y82.831 E-0.087
G1 X157.547 Y82.72 E-0.087
G1 X157.11 Y82.672 E-0.087
G1 X156.671 Y82.688 E-0.087
G1 X156.238 Y82.768 E-0.087
G1 X155.822 Y82.91 E-0.087
G1 X155.431 Y83.111 E-0.087
G1 X155.234 Y83.252 E-0.04797
;WIPE_END
G1 E-0.12 F1800
G1 Z0.275 F10800
; acceleration to travel
M204 S1500
G1 X72.302 Y85.457
; decel to extrusion
M204 S800
G1 X56.18 Y85.886
; end travel
G1 Z0.2
G1 E6 F1800
;TYPE:Internal perimeter
G1 F1200
G1 X56.18 Y85.448 E0.01373
G1 X56.112 Y84.988 E0.0146
G1 X55.978 Y84.542 E0.0146
G1 X55.781 Y84.12 E0.0146
G1 X55.524 Y83.732 E0.0146
G1 X55.213 Y83.385 E0.0146
G1 X54.855 Y83.088 E0.0146
G1 X54.458 Y82.845 E0.0146
G1 X54.03 Y82.663 E0.0146
G1 X53.579 Y82.545 E0.0146
G1 X53.116 Y82.494 E0.0146
G1 X52.651 Y82.511 E0.0146
G1 X52.193 Y82.596 E0.0146
G1 X51.753 Y82.746 E0.0146
G1 X51.339 Y82.959 E0.0146
G1 X50.96 Y83.23 E0.0146
G1 X50.625 Y83.553 E0.0146
G1 X50.341 Y83.922 E0.0146
G1 X50.113 Y84.327 E0.0146
G1 X49.947 Y84.762 E0.0146
G1 X49.845 Y85.217 E0.0146
G1 X49.811 Y85.681 E0.0146
G1 X49.845 Y86.145 E0.0146
G1 X49.947 Y86.6 E0.0146
G1 X50.113 Y87.034 E0.0146
G1 X50.341 Y87.44 E0.0146
G1 X50.625 Y87.809 E0.0146
G1 X50.96 Y88.132 E0.0146
G1 X51.339 Y88.403 E0.0146
G1 X51.753 Y88.616 E0.0146
G1 X52.193 Y88.766 E0.0146
G1 X52.651 Y88.85 E0.0146
G1 X53.116 Y88.867 E0.0146
G1 X53.579 Y88.817 E0.0146
G1 X54.03 Y88.699 E0.0146
G1 X54.458 Y88.517 E0.0146
G1 X54.855 Y88.274 E0.0146
G1 X55.213 Y87.976 E0.0146
G1 X55.524 Y87.63 E0.0146
G1 X55.781 Y87.241 E0.0146
G1 X55.978 Y86.82 E0.0146
G1 X56.112 Y86.374 E0.0146
G1 X56.18 Y85.914 E0.0146
G1 X56.18 Y85.886 E0.00087
G1 X55.803 Y85.886 F10800
;TYPE:External perimeter
G1 F1200
G1 X55.803 Y85.476 E0.01287
G1 X55.743 Y85.07 E0.01287
G1 X55.625 Y84.677 E0.01286
G1 X55.451 Y84.305 E0.01287
G1 X55.225 Y83.963 E0.01287
G1 X54.951 Y83.658 E0.01287
G1 X54.635 Y83.395 E0.01286
G1 X54.285 Y83.181 E0.01287
G1 X53.907 Y83.021 E0.01286
G1 X53.511 Y82.917 E0.01287
G1 X53.103 Y82.872 E0.01287
G1 X52.693 Y82.887 E0.01287
G1 X52.289 Y82.962 E0.01287
G1 X51.901 Y83.094 E0.01286
G1 X51.536 Y83.282 E0.01287
G1 X51.202 Y83.521 E0.01287
G1 X50.907 Y83.805 E0.01286
G1 X50.656 Y84.13 E0.01287
G1 X50.455 Y84.488 E0.01286
G1 X50.309 Y84.871 E0.01287
G1 X50.219 Y85.272 E0.01287
G1 X50.189 Y85.681 E0.01287
G1 X50.219 Y86.09 E0.01287
G1 X50.309 Y86.491 E0.01287
G1 X50.455 Y86.874 E0.01287
G1 X50.656 Y87.232 E0.01286
G1 X50.907 Y87.556 E0.01287
G1 X51.202 Y87.841 E0.01287
G1 X51.536 Y88.08 E0.01286
G1 X51.901 Y88.268 E0.01287
G1 X52.289 Y88.4 E0.01286
G1 X52.693 Y88.475 E0.01287
G1 X53.103 Y88.49 E0.01287
G1 X53.511 Y88.445 E0.01287
G1 X53.907 Y88.341 E0.01287
G1 X54.285 Y88.18 E0.01286
G1 X54.635 Y87.967 E0.01287
G1 X54.951 Y87.704 E0.01286
G1 X55.225 Y87.399 E0.01287
G1 X55.451 Y87.056 E0.01287
G1 X55.625 Y86.685 E0.01287
G1 X55.743 Y86.292 E0.01286
G1 X55.803 Y85.886 E0.01287
;WIPE_START
M204 S1000
G1 X56.159 Y85.703 F10800
;WIPE_END
G1 E-3.6 F1800
;WIPE_START
G1 F8640
G1 X56.003 Y85.461 E-0.05697
G1 X55.939 Y85.026 E-0.087
G1 X55.812 Y84.605 E-0.087
G1 X55.626 Y84.207 E-0.087
G1 X55.383 Y83.841 E-0.087
G1 X55.09 Y83.513 E-0.087
G1 X54.752 Y83.232 E-0.087
G1 X54.377 Y83.003 E-0.087
G1 X53.972 Y82.831 E-0.087
G1 X53.547 Y82.72 E-0.087
G1 X53.11 Y82.672 E-0.087
G1 X52.671 Y82.688 E-0.087
G1 X52.238 Y82.768 E-0.087
G1 X51.822 Y82.91 E-0.087
G1 X51.431 Y83.111 E-0.087
G1 X51.074 Y83.366 E-0.087
G1 X50.757 Y83.672 E-0.087
G1 X50.489 Y84.019 E-0.08701
G1 X50.274 Y84.403 E-0.087
G1 X50.117 Y84.813 E-0.087
G1 X50.021 Y85.242 E-0.087
G1 X49.989 Y85.681 E-0.087
G1 X50.021 Y86.119 E-0.087
G1 X50.117 Y86.548 E-0.087
G1 X50.274 Y86.959 E-0.087
G1 X50.489 Y87.342 E-0.087
G1 X50.637 Y87.534 E-0.04797
;WIPE_END
G1 E-0.12 F1800
G1 Z0.275 F10800
; acceleration to travel
M204 S1500
G1 X52.877 Y105.101
; decel to extrusion
M204 S800
G1 X53.313 Y108.516
; end travel
G1 Z0.2
G1 E6 F1800
;TYPE:Internal perimeter
G1 F1200
G1 X53.116 Y108.494 E0.0062
G1 X52.651 Y108.511 E0.0146
G1 X52.193 Y108.596 E0.0146
G1 X51.753 Y108.746 E0.0146
G1 X51.339 Y108.959 E0.0146
G1 X50.96 Y109.23 E0.0146
G1 X50.625 Y109.553 E0.0146
G1 X50.341 Y109.922 E0.0146
G1 X50.113 Y110.327 E0.0146
G1 X49.947 Y110.762 E0.0146
G1 X49.845 Y111.217 E0.0146
G1 X49.811 Y111.681 E0.0146
G1 X49.845 Y112.145 E0.0146
G1 X49.947 Y112.6 E0.0146
G1 X50.113 Y113.034 E0.0146
G1 X50.341 Y113.44 E0.0146
G1 X50.625 Y113.809 E0.0146
G1 X50.96 Y114.132 E0.0146
G1 X51.339 Y114.403 E0.0146
G1 X51.753 Y114.616 E0.0146
G1 X52.193 Y114.766 E0.0146
G1 X52.651 Y114.85 E0.0146
G1 X53.116 Y114.867 E0.0146
G1 X53.579 Y114.817 E0.0146
G1 X54.03 Y114.699 E0.0146
G1 X54.458 Y114.517 E0.0146
G1 X54.855 Y114.274 E0.0146
G1 X55.213 Y113.976 E0.0146
G1 X55.524 Y113.63 E0.0146
G1 X55.781 Y113.241 E0.0146
G1 X55.978 Y112.82 E0.0146
G1 X56.112 Y112.374 E0.0146
G1 X56.18 Y111.914 E0.0146
G1 X56.18 Y111.448 E0.0146
G1 X56.112 Y110.988 E0.0146
G1 X55.978 Y110.542 E0.0146
G1 X55.781 Y110.12 E0.0146
G1 X55.524 Y109.732 E0.0146
G1 X55.213 Y109.385 E0.0146
G1 X54.855 Y109.088 E0.0146
G1 X54.458 Y108.845 E0.0146
G1 X54.03 Y108.663 E0.0146
G1 X53.579 Y108.545 E0.0146
G1 X53.313 Y108.516 E0.00839
G1 X53.272 Y108.891 F10800
;TYPE:External perimeter
G1 F1200
G1 X53.103 Y108.872 E0.00534
G1 X52.693 Y108.887 E0.01287
G1 X52.289 Y108.962 E0.01287
G1 X51.901 Y109.094 E0.01286
G1 X51.536 Y109.282 E0.01287
G1 X51.202 Y109.521 E0.01286
G1 X50.907 Y109.805 E0.01287
G1 X50.656 Y110.13 E0.01287
G1 X50.455 Y110.488 E0.01286
G1 X50.309 Y110.871 E0.01287
G1 X50.219 Y111.272 E0.01287
G1 X50.189 Y111.681 E0.01287
