; generated by PrusaSlicer 2.7.0+win64 on 2023-12-18 at 01:45:05 UTC


;
;
; 

; external perimeters extrusion width = 0.45mm
; perimeters extrusion width = 0.45mm
; infill extrusion width = 0.45mm
; solid infill extrusion width = 0.45mm
; top infill extrusion width = 0.40mm
; first layer extrusion width = 0.42mm

; external perimeters extrusion width = 0.45mm
; perimeters extrusion width = 0.45mm
; infill extrusion width = 0.45mm
; solid infill extrusion width = 0.45mm
; top infill extrusion width = 0.40mm
; first layer extrusion width = 0.42mm

; external perimeters extrusion width = 0.45mm
; perimeters extrusion width = 0.45mm
; infill extrusion width = 0.45mm
; solid infill extrusion width = 0.45mm
; top infill extrusion width = 0.40mm
; first layer extrusion width = 0.42mm

M73 P0 R187
M73 Q0 S190
M201 X1000 Y1000 Z200 E5000 ; sets maximum accelerations, mm/sec^2
M203 X200 Y200 Z12 E120 ; sets maximum feedrates, mm / sec
M204 S1250 T1250 ; sets acceleration (S) and retract acceleration (R), mm/sec^2
M205 X8.00 Y8.00 Z0.40 E4.50 ; sets the jerk limits, mm/sec
M205 S0 T0 ; sets the minimum extruding and travel feed rate, mm/sec

; printing object Box_Lid_RYGB.stl id:1 copy 0
; stop printing object Box_Lid_RYGB.stl id:1 copy 0
; printing object Box_Bottom.stl id:0 copy 0
; stop printing object Box_Bottom.stl id:0 copy 0
; printing object Box_Lid_PPPP.stl id:2 copy 0
; stop printing object Box_Lid_PPPP.stl id:2 copy 0

;TYPE:Custom
M862.3 P "MK3S" ; printer model check
M862.1 P0.4 ; nozzle diameter check
M115 U3.12.2 ; tell printer latest fw version
G90 ; use absolute coordinates
M83 ; extruder relative mode
M104 S215 ; set extruder temp
M140 S60 ; set bed temp
M190 S60 ; wait for bed temp
M109 S215 ; wait for extruder temp
G28 W ; home all without mesh bed level
G80 ; mesh bed leveling

G1 Z0.2 F720
G1 Y-3 F1000 ; go outside print area
G92 E0
G1 X60 E9 F1000 ; intro line
G1 X100 E12.5 F1000 ; intro line

G92 E0
M221 S95

; Don't change E values below. Excessive value can damage the printer.

M907 E538 ; set extruder motor current
G21 ; set units to millimeters
G90 ; use absolute coordinates
M83 ; use relative distances for extrusion
M900 K0.05 ; Filament gcode LA 1.5
M900 K30 ; Filament gcode LA 1.0
M107
;LAYER_CHANGE
;Z:0.2
;HEIGHT:0.2
;BEFORE_LAYER_CHANGE
G92 E0.0
;0.2


G1 E-.8 F2100
G1 Z.2 F720
;AFTER_LAYER_CHANGE
;0.2
G1 X16.928 Y20.943 F10800
G1 Z.2 F720
G1 E.8 F2100
M204 S800
;TYPE:Skirt/Brim
;WIDTH:0.42
G1 F1200
G1 X17.905 Y20.31 E.0365
G1 X18.612 Y20.078 E.02333
G1 X19.402 Y19.98 E.02496
G1 X113.774 Y19.727 E2.95898
G1 X114.193 Y19.792 E.01329
G1 X115.108 Y20.124 E.03052
G1 X115.882 Y20.646 E.02927
G1 X116.183 Y20.945 E.0133
G1 X116.815 Y21.923 E.03651
G1 X117.047 Y22.629 E.0233
G1 X117.144 Y23.369 E.0234
G1 X118.215 Y67.208 E1.37495
G1 X118.268 Y143.849 E2.40303
G1 X117.877 Y145.157 E.0428
G1 X116.832 Y146.034 E.04277
G1 X115.897 Y146.228 E.02994
G1 X17.157 Y146.496 E3.09593
G1 X15.849 Y146.108 E.04278
G1 X14.97 Y145.064 E.04279
G1 X14.773 Y144.125 E.03008
G1 X14.672 Y106.751 E1.17184
G1 X14.72 Y67.206 E1.23991
G1 X15.682 Y23.664 E1.36556
G1 X15.774 Y22.933 E.0231
G1 X16.002 Y22.225 E.02332
G1 X16.629 Y21.243 E.03653
G1 X16.885 Y20.985 E.0114
M204 S1000
; printing object Box_Bottom.stl id:0 copy 0
;WIPE_START
G1 F8640
G1 X16.928 Y20.943 E-.01388
G1 X17.905 Y20.31 E-.2688
G1 X18.612 Y20.078 E-.17181
G1 X19.402 Y19.98 E-.18381
G1 X20.102 Y19.978 E-.1617
;WIPE_END
G1 Z.6 F720
G1 X19.518 Y23.816 F10800
G1 Z.2 F720
G1 E.8 F2100
M204 S800
;TYPE:Perimeter
;WIDTH:0.419999
G1 F1200
G1 X113.308 Y23.536 E2.94073
G1 X113.422 Y61.327 E1.18491
G1 X19.631 Y61.607 E2.94076
G1 X19.518 Y23.876 E1.18303
M204 S1000
G1 X19.285 Y23.499 F10800
M204 S800
;TYPE:External perimeter
G1 F1200
G1 X19.445 Y23.439 E.00536
G1 X113.307 Y23.158 E2.94299
G1 X113.566 Y23.221 E.00836
M73 P0 R186
G1 X113.626 Y23.303 E.00319
G1 X113.686 Y23.462 E.00533
G1 X113.8 Y61.325 E1.18717
G1 X113.782 Y61.439 E.00362
G1 X113.737 Y61.584 E.00476
G1 X113.655 Y61.644 E.00319
G1 X113.495 Y61.704 E.00536
G1 X19.632 Y61.985 E2.94302
G1 X19.374 Y61.923 E.00832
G1 X19.314 Y61.84 E.00321
G1 X19.254 Y61.681 E.00533
G1 X19.14 Y23.818 E1.18717
G1 X19.203 Y23.559 E.00836
M73 Q0 S189
G1 X19.237 Y23.534 E.00132
M204 S1000
;WIPE_START
G1 F8640
G1 X19.285 Y23.499 E-.01372
G1 X19.445 Y23.439 E-.03946
G1 X22.679 Y23.429 E-.74682
;WIPE_END
G1 Z.6 F720
G1 X113.142 Y24.473 F10800
G1 Z.2 F720
G1 E.8 F2100
M204 S800
;TYPE:Solid infill
;WIDTH:0.421433
G1 F1200
G1 X112.546 Y23.877 E.02653
G1 X112.013 Y23.878 E.01678
G1 X112.974 Y24.84 E.0428
G1 X112.975 Y25.376 E.01687
G1 X111.479 Y23.88 E.06659
G1 X110.945 Y23.881 E.01681
G1 X112.977 Y25.913 E.09044
G1 X112.979 Y26.45 E.0169
G1 X110.412 Y23.883 E.11426
G1 X109.878 Y23.885 E.01681
G1 X112.98 Y26.987 E.13807
G1 X112.982 Y27.524 E.0169
G1 X109.344 Y23.886 E.16193
G1 X108.81 Y23.888 E.01681
G1 X112.984 Y28.061 E.18576
G1 X112.985 Y28.598 E.0169
G1 X108.277 Y23.889 E.20958
G1 X107.743 Y23.891 E.01681
G1 X112.987 Y29.135 E.23341
G1 X112.988 Y29.672 E.0169
G1 X107.209 Y23.893 E.25722
G1 X106.676 Y23.894 E.01678
G1 X112.99 Y30.209 E.28106
G1 X112.992 Y30.745 E.01687
G1 X106.142 Y23.896 E.30487
G1 X105.608 Y23.897 E.01681
G1 X112.993 Y31.282 E.32871
G1 X112.995 Y31.819 E.0169
G1 X105.075 Y23.899 E.35252
G1 X104.541 Y23.901 E.01681
G1 X112.996 Y32.356 E.37633
G1 X112.998 Y32.893 E.0169
G1 X104.007 Y23.902 E.40019
G1 X103.473 Y23.904 E.01681
G1 X113 Y33.43 E.42403
G1 X113.001 Y33.967 E.0169
G1 X102.94 Y23.905 E.44784
G1 X102.406 Y23.907 E.01681
G1 X113.003 Y34.504 E.47167
G1 X113.004 Y35.041 E.0169
G1 X101.872 Y23.909 E.49549
G1 X101.339 Y23.91 E.01678
G1 X113.006 Y35.578 E.51932
G1 X113.008 Y36.115 E.0169
G1 X100.805 Y23.912 E.54316
G1 X100.271 Y23.913 E.01681
G1 X113.009 Y36.651 E.56697
G1 X113.011 Y37.188 E.0169
G1 X99.738 Y23.915 E.59078
G1 X99.204 Y23.917 E.01681
G1 X113.012 Y37.725 E.6146
G1 X113.014 Y38.262 E.0169
G1 X98.67 Y23.918 E.63845
G1 X98.136 Y23.92 E.01681
G1 X113.016 Y38.799 E.66229
G1 X113.017 Y39.336 E.0169
G1 X97.603 Y23.921 E.6861
G1 X97.069 Y23.923 E.01681
G1 X113.019 Y39.873 E.70994
G1 X113.02 Y40.41 E.0169
G1 X96.535 Y23.925 E.73375
G1 X96.002 Y23.926 E.01678
G1 X113.022 Y40.947 E.75759
G1 X113.024 Y41.484 E.0169
G1 X95.468 Y23.928 E.78142
G1 X94.934 Y23.929 E.01681
G1 X113.025 Y42.021 E.80526
G1 X113.027 Y42.557 E.01687
G1 X94.401 Y23.931 E.82905
G1 X93.867 Y23.933 E.01681
G1 X113.029 Y43.094 E.85288
G1 X113.03 Y43.631 E.0169
G1 X93.333 Y23.934 E.87672
G1 X92.799 Y23.936 E.01681
G1 X113.032 Y44.168 E.90055
G1 X113.033 Y44.705 E.0169
G1 X92.266 Y23.937 E.92437
G1 X91.732 Y23.939 E.01681
G1 X113.035 Y45.242 E.9482
G1 X113.037 Y45.779 E.0169
G1 X91.198 Y23.941 E.97204
G1 X90.665 Y23.942 E.01678
G1 X113.038 Y46.316 E.99585
G1 X113.04 Y46.853 E.0169
G1 X90.131 Y23.944 E1.01968
G1 X89.597 Y23.945 E.01681
G1 X113.041 Y47.39 E1.04352
G1 X113.043 Y47.926 E.01687
G1 X89.064 Y23.947 E1.06731
G1 X88.53 Y23.949 E.01681
G1 X113.045 Y48.463 E1.09115
G1 X113.046 Y49 E.0169
G1 X87.996 Y23.95 E1.11498
G1 X87.462 Y23.952 E.01681
G1 X113.048 Y49.537 E1.13882
G1 X113.049 Y50.074 E.0169
G1 X86.929 Y23.953 E1.16263
G1 X86.395 Y23.955 E.01681
G1 X113.051 Y50.611 E1.18646
G1 X113.053 Y51.148 E.0169
G1 X85.861 Y23.957 E1.2103
G1 X85.328 Y23.958 E.01678
M73 P0 R185
G1 X113.054 Y51.685 E1.23411
G1 X113.056 Y52.222 E.0169
G1 X84.794 Y23.96 E1.25795
G1 X84.26 Y23.961 E.01681
M73 P1 R185
G1 X113.057 Y52.759 E1.28178
G1 X113.059 Y53.296 E.0169
M73 Q1 S189
G1 X83.727 Y23.963 E1.3056
G1 X83.193 Y23.965 E.01681
M73 Q1 S188
G1 X113.061 Y53.832 E1.32941
G1 X113.062 Y54.369 E.0169
G1 X82.659 Y23.966 E1.35324
G1 X82.125 Y23.968 E.01681
G1 X113.064 Y54.906 E1.37708
G1 X113.066 Y55.443 E.0169
G1 X81.592 Y23.969 E1.40092
G1 X81.058 Y23.971 E.01681
G1 X113.067 Y55.98 E1.42473
G1 X113.069 Y56.517 E.0169
G1 X80.524 Y23.973 E1.44856
G1 X79.991 Y23.974 E.01678
G1 X113.07 Y57.054 E1.47238
G1 X113.072 Y57.591 E.0169
G1 X79.457 Y23.976 E1.49621
G1 X78.923 Y23.977 E.01681
G1 X113.074 Y58.128 E1.52007
G1 X113.075 Y58.665 E.0169
G1 X78.39 Y23.979 E1.54386
G1 X77.856 Y23.981 E.01681
G1 X113.077 Y59.202 E1.56769
G1 X113.078 Y59.738 E.01687
G1 X77.322 Y23.982 E1.59151
G1 X76.788 Y23.984 E.01681
G1 X113.08 Y60.275 E1.61534
G1 X113.082 Y60.812 E.0169
G1 X76.255 Y23.985 E1.63918
G1 X75.721 Y23.987 E.01681
G1 X112.724 Y60.99 E1.64701
G1 X112.19 Y60.991 E.01681
G1 X75.187 Y23.989 E1.64699
G1 X74.654 Y23.99 E.01678
G1 X111.656 Y60.993 E1.64699
G1 X111.123 Y60.995 E.01678
G1 X74.12 Y23.992 E1.64701
G1 X73.586 Y23.993 E.01681
G1 X110.589 Y60.996 E1.64701
G1 X110.055 Y60.998 E.01681
G1 X73.053 Y23.995 E1.64699
G1 X72.519 Y23.997 E.01681
G1 X109.522 Y60.999 E1.64699
G1 X108.988 Y61.001 E.01681
M73 P1 R184
G1 X71.985 Y23.998 E1.64701
G1 X71.451 Y24 E.01681
G1 X108.454 Y61.003 E1.64701
G1 X107.921 Y61.004 E.01678
G1 X70.918 Y24.001 E1.64701
G1 X70.384 Y24.003 E.01681
M73 Q1 S187
G1 X107.387 Y61.006 E1.64701
G1 X106.853 Y61.007 E.01681
G1 X69.85 Y24.005 E1.64699
G1 X69.317 Y24.006 E.01678
G1 X106.319 Y61.009 E1.64699
G1 X105.786 Y61.011 E.01678
G1 X68.783 Y24.008 E1.64701
G1 X68.249 Y24.009 E.01681
G1 X105.252 Y61.012 E1.64701
G1 X104.718 Y61.014 E.01681
G1 X67.716 Y24.011 E1.64699
G1 X67.182 Y24.013 E.01681
G1 X104.185 Y61.015 E1.64699
G1 X103.651 Y61.017 E.01681
G1 X66.648 Y24.014 E1.64701
G1 X66.114 Y24.016 E.01681
G1 X103.117 Y61.019 E1.64701
G1 X102.584 Y61.02 E.01678
G1 X65.581 Y24.017 E1.64701
G1 X65.047 Y24.019 E.01681
G1 X102.05 Y61.022 E1.64701
G1 X101.516 Y61.023 E.01681
G1 X64.513 Y24.021 E1.64699
G1 X63.98 Y24.022 E.01678
G1 X100.982 Y61.025 E1.64699
G1 X100.449 Y61.027 E.01678
G1 X63.446 Y24.024 E1.64701
G1 X62.912 Y24.025 E.01681
G1 X99.915 Y61.028 E1.64701
G1 X99.381 Y61.03 E.01681
G1 X62.379 Y24.027 E1.64699
G1 X61.845 Y24.029 E.01681
G1 X98.848 Y61.031 E1.64699
G1 X98.314 Y61.033 E.01681
G1 X61.311 Y24.03 E1.64701
G1 X60.777 Y24.032 E.01681
M73 P2 R184
G1 X97.78 Y61.035 E1.64701
G1 X97.247 Y61.036 E.01678
M73 P2 R183
G1 X60.244 Y24.033 E1.64701
G1 X59.71 Y24.035 E.01681
M73 Q2 S187
G1 X96.713 Y61.038 E1.64701
G1 X96.179 Y61.039 E.01681
G1 X59.176 Y24.037 E1.64699
G1 X58.643 Y24.038 E.01678
M73 Q2 S186
G1 X95.645 Y61.041 E1.64699
G1 X95.112 Y61.043 E.01678
G1 X58.109 Y24.04 E1.64701
G1 X57.575 Y24.041 E.01681
G1 X94.578 Y61.044 E1.64701
G1 X94.044 Y61.046 E.01681
G1 X57.042 Y24.043 E1.64699
G1 X56.508 Y24.044 E.01681
G1 X93.511 Y61.047 E1.64701
G1 X92.977 Y61.049 E.01681
G1 X55.974 Y24.046 E1.64701
G1 X55.44 Y24.048 E.01681
G1 X92.443 Y61.051 E1.64701
G1 X91.91 Y61.052 E.01678
G1 X54.907 Y24.049 E1.64701
G1 X54.373 Y24.051 E.01681
G1 X91.376 Y61.054 E1.64701
G1 X90.842 Y61.055 E.01681
G1 X53.839 Y24.052 E1.64701
G1 X53.306 Y24.054 E.01678
G1 X90.308 Y61.057 E1.64699
G1 X89.775 Y61.059 E.01678
G1 X52.772 Y24.056 E1.64701
G1 X52.238 Y24.057 E.01681
G1 X89.241 Y61.06 E1.64701
G1 X88.707 Y61.062 E.01681
G1 X51.705 Y24.059 E1.64699
G1 X51.171 Y24.06 E.01681
G1 X88.174 Y61.063 E1.64701
G1 X87.64 Y61.065 E.01681
G1 X50.637 Y24.062 E1.64701
G1 X50.103 Y24.064 E.01681
G1 X87.106 Y61.067 E1.64701
G1 X86.573 Y61.068 E.01678
G1 X49.57 Y24.065 E1.64701
G1 X49.036 Y24.067 E.01681
G1 X86.039 Y61.07 E1.64701
G1 X85.505 Y61.071 E.01681
G1 X48.502 Y24.068 E1.64701
G1 X47.969 Y24.07 E.01678
M73 P2 R182
G1 X84.971 Y61.073 E1.64699
G1 X84.438 Y61.075 E.01678
G1 X47.435 Y24.072 E1.64701
G1 X46.901 Y24.073 E.01681
G1 X83.904 Y61.076 E1.64701
G1 X83.37 Y61.078 E.01681
M73 Q2 S185
G1 X46.368 Y24.075 E1.64699
G1 X45.834 Y24.076 E.01681
G1 X82.837 Y61.079 E1.64701
G1 X82.303 Y61.081 E.01681
G1 X45.3 Y24.078 E1.64701
G1 X44.766 Y24.08 E.01681
G1 X81.769 Y61.083 E1.64701
G1 X81.236 Y61.084 E.01678
G1 X44.233 Y24.081 E1.64701
G1 X43.699 Y24.083 E.01681
G1 X80.702 Y61.086 E1.64701
G1 X80.168 Y61.087 E.01681
G1 X43.165 Y24.084 E1.64701
G1 X42.632 Y24.086 E.01678
G1 X79.634 Y61.089 E1.64699
G1 X79.101 Y61.091 E.01678
G1 X42.098 Y24.088 E1.64701
G1 X41.564 Y24.089 E.01681
G1 X78.567 Y61.092 E1.64701
G1 X78.033 Y61.094 E.01681
G1 X41.031 Y24.091 E1.64699
G1 X40.497 Y24.092 E.01681
G1 X77.5 Y61.095 E1.64701
G1 X76.966 Y61.097 E.01681
G1 X39.963 Y24.094 E1.64701
G1 X39.429 Y24.096 E.01681
G1 X76.432 Y61.099 E1.64701
G1 X75.899 Y61.1 E.01678
G1 X38.896 Y24.097 E1.64701
G1 X38.362 Y24.099 E.01681
G1 X75.365 Y61.102 E1.64701
G1 X74.831 Y61.103 E.01681
M73 P3 R182
G1 X37.828 Y24.1 E1.64701
G1 X37.295 Y24.102 E.01678
G1 X74.297 Y61.105 E1.64699
G1 X73.764 Y61.107 E.01678
M73 Q3 S185
G1 X36.761 Y24.104 E1.64701
G1 X36.227 Y24.105 E.01681
G1 X73.23 Y61.108 E1.64701
G1 X72.696 Y61.11 E.01681
M73 P3 R181
G1 X35.694 Y24.107 E1.64699
G1 X35.16 Y24.108 E.01681
G1 X72.163 Y61.111 E1.64701
G1 X71.629 Y61.113 E.01681
M73 Q3 S184
G1 X34.626 Y24.11 E1.64701
G1 X34.092 Y24.112 E.01681
G1 X71.095 Y61.114 E1.64699
G1 X70.562 Y61.116 E.01678
G1 X33.559 Y24.113 E1.64701
G1 X33.025 Y24.115 E.01681
G1 X70.028 Y61.118 E1.64701
G1 X69.494 Y61.119 E.01681
G1 X32.491 Y24.116 E1.64701
G1 X31.958 Y24.118 E.01678
G1 X68.96 Y61.121 E1.64699
G1 X68.427 Y61.122 E.01678
G1 X31.424 Y24.12 E1.64699
G1 X30.89 Y24.121 E.01681
G1 X67.893 Y61.124 E1.64701
G1 X67.359 Y61.126 E.01681
G1 X30.357 Y24.123 E1.64699
G1 X29.823 Y24.124 E.01681
G1 X66.826 Y61.127 E1.64701
G1 X66.292 Y61.129 E.01681
G1 X29.289 Y24.126 E1.64701
G1 X28.755 Y24.128 E.01681
G1 X65.758 Y61.13 E1.64699
G1 X65.225 Y61.132 E.01678
G1 X28.222 Y24.129 E1.64701
G1 X27.688 Y24.131 E.01681
G1 X64.691 Y61.134 E1.64701
G1 X64.157 Y61.135 E.01681
G1 X27.154 Y24.132 E1.64701
G1 X26.621 Y24.134 E.01678
G1 X63.623 Y61.137 E1.64699
G1 X63.09 Y61.138 E.01678
G1 X26.087 Y24.136 E1.64699
G1 X25.553 Y24.137 E.01681
G1 X62.556 Y61.14 E1.64701
G1 X62.022 Y61.142 E.01681
G1 X25.02 Y24.139 E1.64699
G1 X24.486 Y24.14 E.01681
G1 X61.489 Y61.143 E1.64701
G1 X60.955 Y61.145 E.01681
M73 P3 R180
G1 X23.952 Y24.142 E1.64701
G1 X23.418 Y24.144 E.01681
G1 X60.421 Y61.146 E1.64699
G1 X59.888 Y61.148 E.01678
G1 X22.885 Y24.145 E1.64701
G1 X22.351 Y24.147 E.01681
M73 Q3 S183
G1 X59.354 Y61.15 E1.64701
G1 X58.82 Y61.151 E.01681
G1 X21.817 Y24.148 E1.64701
G1 X21.284 Y24.15 E.01678
G1 X58.286 Y61.153 E1.64699
G1 X57.753 Y61.154 E.01678
G1 X20.75 Y24.152 E1.64699
G1 X20.216 Y24.153 E.01681
G1 X57.219 Y61.156 E1.64701
G1 X56.685 Y61.158 E.01681
G1 X19.858 Y24.331 E1.63918
G1 X19.86 Y24.868 E.0169
G1 X56.152 Y61.159 E1.61534
G1 X55.618 Y61.161 E.01681
G1 X19.862 Y25.404 E1.59153
G1 X19.863 Y25.941 E.0169
G1 X55.084 Y61.162 E1.56769
G1 X54.551 Y61.164 E.01678
G1 X19.865 Y26.478 E1.54388
G1 X19.866 Y27.015 E.0169
G1 X54.017 Y61.166 E1.52007
G1 X53.483 Y61.167 E.01681
G1 X19.868 Y27.552 E1.49621
G1 X19.87 Y28.089 E.0169
G1 X52.949 Y61.169 E1.47238
G1 X52.416 Y61.17 E.01678
G1 X19.871 Y28.626 E1.44856
G1 X19.873 Y29.163 E.0169
M73 P4 R180
G1 X51.882 Y61.172 E1.42473
G1 X51.348 Y61.174 E.01681
G1 X19.874 Y29.7 E1.40092
G1 X19.876 Y30.237 E.0169
G1 X50.815 Y61.175 E1.37708
G1 X50.281 Y61.177 E.01681
M73 Q4 S183
G1 X19.878 Y30.774 E1.35324
G1 X19.879 Y31.31 E.01687
G1 X49.747 Y61.178 E1.32943
G1 X49.214 Y61.18 E.01678
G1 X19.881 Y31.847 E1.30562
G1 X19.883 Y32.384 E.0169
G1 X48.68 Y61.182 E1.28178
G1 X48.146 Y61.183 E.01681
G1 X19.884 Y32.921 E1.25795
M73 P4 R179
G1 X19.886 Y33.458 E.0169
G1 X47.612 Y61.185 E1.23411
G1 X47.079 Y61.186 E.01678
G1 X19.887 Y33.995 E1.2103
G1 X19.889 Y34.532 E.0169
G1 X46.545 Y61.188 E1.18646
G1 X46.011 Y61.19 E.01681
M73 Q4 S182
G1 X19.891 Y35.069 E1.16263
G1 X19.892 Y35.606 E.0169
G1 X45.478 Y61.191 E1.13882
G1 X44.944 Y61.193 E.01681
G1 X19.894 Y36.143 E1.11498
G1 X19.895 Y36.68 E.0169
G1 X44.41 Y61.194 E1.09115
G1 X43.877 Y61.196 E.01678
G1 X19.897 Y37.216 E1.06736
G1 X19.899 Y37.753 E.0169
G1 X43.343 Y61.198 E1.04352
G1 X42.809 Y61.199 E.01681
G1 X19.9 Y38.29 E1.01968
G1 X19.902 Y38.827 E.0169
G1 X42.275 Y61.201 E.99585
G1 X41.742 Y61.202 E.01678
G1 X19.903 Y39.364 E.97204
G1 X19.905 Y39.901 E.0169
G1 X41.208 Y61.204 E.9482
G1 X40.674 Y61.206 E.01681
G1 X19.907 Y40.438 E.92437
G1 X19.908 Y40.975 E.0169
G1 X40.141 Y61.207 E.90055
G1 X39.607 Y61.209 E.01681
