; generated by PrusaSlicer 2.7.0+win64 on 2023-12-18 at 06:43:36 UTC


;
;
; 

; external perimeters extrusion width = 0.45mm
; perimeters extrusion width = 0.45mm
; infill extrusion width = 0.45mm
; solid infill extrusion width = 0.45mm
; top infill extrusion width = 0.40mm
; first layer extrusion width = 0.42mm

; external perimeters extrusion width = 0.45mm
; perimeters extrusion width = 0.45mm
; infill extrusion width = 0.45mm
; solid infill extrusion width = 0.45mm
; top infill extrusion width = 0.40mm
; first layer extrusion width = 0.42mm

M73 P0 R166
M73 Q0 S168
M201 X1000 Y1000 Z200 E5000 ; sets maximum accelerations, mm/sec^2
M203 X200 Y200 Z12 E120 ; sets maximum feedrates, mm / sec
M204 S1250 T1250 ; sets acceleration (S) and retract acceleration (R), mm/sec^2
M205 X8.00 Y8.00 Z0.40 E4.50 ; sets the jerk limits, mm/sec
M205 S0 T0 ; sets the minimum extruding and travel feed rate, mm/sec

; printing object Box Lid RYGB.stl id:1 copy 0
; stop printing object Box Lid RYGB.stl id:1 copy 0
; printing object Box Lid PPPP.stl id:0 copy 0
; stop printing object Box Lid PPPP.stl id:0 copy 0

;TYPE:Custom
M862.3 P "MK3S" ; printer model check
M862.1 P0.4 ; nozzle diameter check
M115 U3.12.2 ; tell printer latest fw version
G90 ; use absolute coordinates
M83 ; extruder relative mode
M104 S215 ; set extruder temp
M140 S60 ; set bed temp
M190 S60 ; wait for bed temp
M109 S215 ; wait for extruder temp
G28 W ; home all without mesh bed level
G80 ; mesh bed leveling

G1 Z0.2 F720
G1 Y-3 F1000 ; go outside print area
G92 E0
G1 X60 E9 F1000 ; intro line
G1 X100 E12.5 F1000 ; intro line

G92 E0
M221 S95

; Don't change E values below. Excessive value can damage the printer.

M907 E538 ; set extruder motor current
G21 ; set units to millimeters
G90 ; use absolute coordinates
M83 ; use relative distances for extrusion
M900 K0.05 ; Filament gcode LA 1.5
M900 K30 ; Filament gcode LA 1.0
M107
;LAYER_CHANGE
;Z:0.2
;HEIGHT:0.2
;BEFORE_LAYER_CHANGE
G92 E0.0
;0.2


G1 E-.8 F2100
G1 Z.2 F720
;AFTER_LAYER_CHANGE
;0.2
G1 X10.23 Y50.047 F10800
G1 Z.2 F720
G1 E.8 F2100
M204 S800
;TYPE:Skirt/Brim
;WIDTH:0.42
G1 F1200
G1 X108.97 Y49.766 E3.09594
G1 X110.278 Y50.154 E.04278
G1 X111.158 Y51.197 E.04279
G1 X111.354 Y52.136 E.03008
G1 X111.461 Y89.52 E1.17215
G1 X111.408 Y136.109 E1.46077
G1 X111.014 Y137.416 E.0428
M73 Q0 S167
G1 X109.968 Y138.291 E.04276
G1 X109.03 Y138.484 E.03003
G1 X10.29 Y138.484 E3.09592
G1 X8.983 Y138.092 E.04278
G1 X8.106 Y137.047 E.04277
G1 X7.912 Y136.108 E.03006
G1 X7.859 Y52.425 E2.62382
G1 X8.25 Y51.118 E.04277
G1 X9.295 Y50.241 E.04277
G1 X10.171 Y50.059 E.02805
M204 S1000
; printing object Box Lid PPPP.stl id:0 copy 0
;WIPE_START
G1 F8640
G1 X10.23 Y50.047 E-.0139
G1 X13.634 Y50.037 E-.7861
;WIPE_END
G1 Z.6 F720
G1 X108.243 Y118.918 F10800
G1 Z.2 F720
G1 E.8 F2100
M204 S800
;TYPE:Perimeter
;WIDTH:0.419999
G1 F1200
G1 X108.243 Y127.119 E.25714
G1 X108.243 Y135.32 E.25714
G1 X11.077 Y135.32 E3.04657
G1 X11.077 Y118.918 E.51427
M73 P0 R165
G1 X108.183 Y118.918 E3.04469
M204 S1000
G1 X108.62 Y118.541 F10800
M204 S800
;TYPE:External perimeter
G1 F1200
G1 X108.62 Y127.119 E.26896
G1 X108.62 Y135.697 E.26896
G1 X10.7 Y135.697 E3.07021
G1 X10.7 Y118.541 E.53791
G1 X108.56 Y118.541 E3.06833
M204 S1000
;WIPE_START
G1 F8640
G1 X108.62 Y118.541 E-.01385
G1 X108.62 Y121.946 E-.78615
;WIPE_END
G1 Z.6 F720
G1 X107.308 Y119.088 F10800
G1 Z.2 F720
G1 E.8 F2100
M204 S800
;TYPE:Solid infill
;WIDTH:0.421491
G1 F1200
G1 X107.904 Y119.683 E.02651
G1 X107.904 Y120.219 E.01687
G1 X106.943 Y119.257 E.0428
G1 X106.407 Y119.257 E.01687
G1 X107.904 Y120.754 E.06664
G1 X107.904 Y121.289 E.01684
G1 X105.872 Y119.257 E.09046
G1 X105.336 Y119.257 E.01687
G1 X107.904 Y121.825 E.11432
G1 X107.904 Y122.36 E.01684
G1 X104.801 Y119.257 E.13814
G1 X104.266 Y119.257 E.01684
G1 X107.904 Y122.896 E.16198
G1 X107.904 Y123.431 E.01684
G1 X103.73 Y119.257 E.18581
G1 X103.195 Y119.257 E.01684
G1 X107.904 Y123.966 E.20963
G1 X107.904 Y124.502 E.01687
G1 X102.66 Y119.257 E.23347
G1 X102.124 Y119.257 E.01687
G1 X107.904 Y125.037 E.25731
G1 X107.904 Y125.572 E.01684
G1 X101.589 Y119.257 E.28113
G1 X101.053 Y119.257 E.01687
G1 X107.904 Y126.108 E.30499
G1 X107.904 Y126.643 E.01684
G1 X100.518 Y119.257 E.3288
G1 X99.983 Y119.257 E.01684
G1 X107.904 Y127.179 E.35264
G1 X107.904 Y127.714 E.01684
G1 X99.447 Y119.257 E.37648
G1 X98.912 Y119.257 E.01684
G1 X107.904 Y128.249 E.4003
G1 X107.904 Y128.785 E.01687
G1 X98.376 Y119.257 E.42416
G1 X97.841 Y119.257 E.01684
G1 X107.904 Y129.32 E.44798
G1 X107.904 Y129.856 E.01687
G1 X97.306 Y119.257 E.47181
G1 X96.77 Y119.257 E.01687
G1 X107.904 Y130.391 E.49565
G1 X107.904 Y130.926 E.01684
G1 X96.235 Y119.257 E.51947
G1 X95.7 Y119.257 E.01684
G1 X107.904 Y131.462 E.54331
G1 X107.904 Y131.997 E.01684
G1 X95.164 Y119.257 E.56715
G1 X94.629 Y119.257 E.01684
G1 X107.904 Y132.532 E.59096
G1 X107.904 Y133.068 E.01687
G1 X94.093 Y119.257 E.61482
G1 X93.558 Y119.257 E.01684
G1 X107.904 Y133.603 E.63864
G1 X107.904 Y134.139 E.01687
G1 X93.023 Y119.257 E.66248
G1 X92.487 Y119.257 E.01687
G1 X107.904 Y134.674 E.68632
G1 X107.904 Y134.98 E.00963
G1 X107.675 Y134.98 E.00721
G1 X91.952 Y119.257 E.69994
G1 X91.417 Y119.257 E.01684
G1 X107.14 Y134.98 E.69994
G1 X106.604 Y134.98 E.01687
G1 X90.881 Y119.257 E.69994
G1 X90.346 Y119.257 E.01684
G1 X106.069 Y134.98 E.69994
G1 X105.534 Y134.98 E.01684
G1 X89.81 Y119.257 E.69996
G1 X89.275 Y119.257 E.01684
G1 X104.998 Y134.98 E.69994
G1 X104.463 Y134.98 E.01684
M73 Q0 S166
G1 X88.74 Y119.257 E.69994
G1 X88.204 Y119.257 E.01687
G1 X103.927 Y134.98 E.69994
G1 X103.392 Y134.98 E.01684
G1 X87.669 Y119.257 E.69994
G1 X87.134 Y119.257 E.01684
G1 X102.857 Y134.98 E.69994
G1 X102.321 Y134.98 E.01687
G1 X86.598 Y119.257 E.69994
G1 X86.063 Y119.257 E.01684
G1 X101.786 Y134.98 E.69994
G1 X101.25 Y134.98 E.01687
G1 X85.527 Y119.257 E.69994
G1 X84.992 Y119.257 E.01684
G1 X100.715 Y134.98 E.69994
G1 X100.18 Y134.98 E.01684
G1 X84.457 Y119.257 E.69994
G1 X83.921 Y119.257 E.01687
G1 X99.644 Y134.98 E.69994
G1 X99.109 Y134.98 E.01684
G1 X83.386 Y119.257 E.69994
G1 X82.85 Y119.257 E.01687
G1 X98.574 Y134.98 E.69996
G1 X98.038 Y134.98 E.01687
G1 X82.315 Y119.257 E.69994
G1 X81.78 Y119.257 E.01684
G1 X97.503 Y134.98 E.69994
G1 X96.967 Y134.98 E.01687
G1 X81.244 Y119.257 E.69994
G1 X80.709 Y119.257 E.01684
G1 X96.432 Y134.98 E.69994
G1 X95.897 Y134.98 E.01684
M73 P0 R164
G1 X80.174 Y119.257 E.69994
G1 X79.638 Y119.257 E.01687
G1 X95.361 Y134.98 E.69994
G1 X94.826 Y134.98 E.01684
G1 X79.103 Y119.257 E.69994
G1 X78.567 Y119.257 E.01687
G1 X94.291 Y134.98 E.69996
G1 X93.755 Y134.98 E.01687
G1 X78.032 Y119.257 E.69994
G1 X77.497 Y119.257 E.01684
G1 X93.22 Y134.98 E.69994
G1 X92.684 Y134.98 E.01687
M73 P1 R164
G1 X76.961 Y119.257 E.69994
G1 X76.426 Y119.257 E.01684
M73 Q1 S166
G1 X92.149 Y134.98 E.69994
G1 X91.614 Y134.98 E.01684
G1 X75.891 Y119.257 E.69994
G1 X75.355 Y119.257 E.01687
G1 X91.078 Y134.98 E.69994
G1 X90.543 Y134.98 E.01684
G1 X74.82 Y119.257 E.69994
G1 X74.284 Y119.257 E.01687
G1 X90.008 Y134.98 E.69996
G1 X89.472 Y134.98 E.01687
G1 X73.749 Y119.257 E.69994
G1 X73.214 Y119.257 E.01684
G1 X88.937 Y134.98 E.69994
G1 X88.401 Y134.98 E.01687
G1 X72.678 Y119.257 E.69994
G1 X72.143 Y119.257 E.01684
G1 X87.866 Y134.98 E.69994
G1 X87.331 Y134.98 E.01684
G1 X71.607 Y119.257 E.69996
G1 X71.072 Y119.257 E.01684
G1 X86.795 Y134.98 E.69994
G1 X86.26 Y134.98 E.01684
G1 X70.537 Y119.257 E.69994
G1 X70.001 Y119.257 E.01687
G1 X85.724 Y134.98 E.69994
G1 X85.189 Y134.98 E.01684
G1 X69.466 Y119.257 E.69994
G1 X68.931 Y119.257 E.01684
G1 X84.654 Y134.98 E.69994
G1 X84.118 Y134.98 E.01687
G1 X68.395 Y119.257 E.69994
G1 X67.86 Y119.257 E.01684
G1 X83.583 Y134.98 E.69994
G1 X83.048 Y134.98 E.01684
G1 X67.324 Y119.257 E.69996
G1 X66.789 Y119.257 E.01684
G1 X82.512 Y134.98 E.69994
G1 X81.977 Y134.98 E.01684
G1 X66.254 Y119.257 E.69994
G1 X65.718 Y119.257 E.01687
G1 X81.441 Y134.98 E.69994
G1 X80.906 Y134.98 E.01684
G1 X65.183 Y119.257 E.69994
G1 X64.648 Y119.257 E.01684
G1 X80.371 Y134.98 E.69994
G1 X79.835 Y134.98 E.01687
G1 X64.112 Y119.257 E.69994
G1 X63.577 Y119.257 E.01684
G1 X79.3 Y134.98 E.69994
G1 X78.765 Y134.98 E.01684
G1 X63.041 Y119.257 E.69996
G1 X62.506 Y119.257 E.01684
G1 X78.229 Y134.98 E.69994
G1 X77.694 Y134.98 E.01684
G1 X61.971 Y119.257 E.69994
G1 X61.435 Y119.257 E.01687
G1 X77.158 Y134.98 E.69994
G1 X76.623 Y134.98 E.01684
M73 Q1 S165
G1 X60.9 Y119.257 E.69994
G1 X60.364 Y119.257 E.01687
G1 X76.088 Y134.98 E.69996
G1 X75.552 Y134.98 E.01687
G1 X59.829 Y119.257 E.69994
G1 X59.294 Y119.257 E.01684
G1 X75.017 Y134.98 E.69994
G1 X74.481 Y134.98 E.01687
G1 X58.758 Y119.257 E.69994
G1 X58.223 Y119.257 E.01684
G1 X73.946 Y134.98 E.69994
G1 X73.411 Y134.98 E.01684
G1 X57.688 Y119.257 E.69994
G1 X57.152 Y119.257 E.01687
G1 X72.875 Y134.98 E.69994
G1 X72.34 Y134.98 E.01684
G1 X56.617 Y119.257 E.69994
G1 X56.081 Y119.257 E.01687
G1 X71.805 Y134.98 E.69996
G1 X71.269 Y134.98 E.01687
G1 X55.546 Y119.257 E.69994
G1 X55.011 Y119.257 E.01684
G1 X70.734 Y134.98 E.69994
G1 X70.198 Y134.98 E.01687
G1 X54.475 Y119.257 E.69994
G1 X53.94 Y119.257 E.01684
G1 X69.663 Y134.98 E.69994
G1 X69.128 Y134.98 E.01684
G1 X53.405 Y119.257 E.69994
G1 X52.869 Y119.257 E.01687
G1 X68.592 Y134.98 E.69994
G1 X68.057 Y134.98 E.01684
M73 P1 R163
G1 X52.334 Y119.257 E.69994
G1 X51.798 Y119.257 E.01687
G1 X67.522 Y134.98 E.69996
G1 X66.986 Y134.98 E.01687
G1 X51.263 Y119.257 E.69994
G1 X50.728 Y119.257 E.01684
G1 X66.451 Y134.98 E.69994
G1 X65.915 Y134.98 E.01687
G1 X50.192 Y119.257 E.69994
G1 X49.657 Y119.257 E.01684
G1 X65.38 Y134.98 E.69994
G1 X64.845 Y134.98 E.01684
G1 X49.122 Y119.257 E.69994
G1 X48.586 Y119.257 E.01687
G1 X64.309 Y134.98 E.69994
G1 X63.774 Y134.98 E.01684
G1 X48.051 Y119.257 E.69994
G1 X47.515 Y119.257 E.01687
G1 X63.238 Y134.98 E.69994
G1 X62.703 Y134.98 E.01684
G1 X46.98 Y119.257 E.69994
G1 X46.445 Y119.257 E.01684
G1 X62.168 Y134.98 E.69994
G1 X61.632 Y134.98 E.01687
G1 X45.909 Y119.257 E.69994
G1 X45.374 Y119.257 E.01684
G1 X61.097 Y134.98 E.69994
G1 X60.562 Y134.98 E.01684
G1 X44.838 Y119.257 E.69996
G1 X44.303 Y119.257 E.01684
G1 X60.026 Y134.98 E.69994
G1 X59.491 Y134.98 E.01684
G1 X43.768 Y119.257 E.69994
G1 X43.232 Y119.257 E.01687
G1 X58.955 Y134.98 E.69994
G1 X58.42 Y134.98 E.01684
G1 X42.697 Y119.257 E.69994
G1 X42.162 Y119.257 E.01684
G1 X57.885 Y134.98 E.69994
G1 X57.349 Y134.98 E.01687
G1 X41.626 Y119.257 E.69994
G1 X41.091 Y119.257 E.01684
G1 X56.814 Y134.98 E.69994
G1 X56.279 Y134.98 E.01684
G1 X40.555 Y119.257 E.69996
G1 X40.02 Y119.257 E.01684
G1 X55.743 Y134.98 E.69994
G1 X55.208 Y134.98 E.01684
G1 X39.485 Y119.257 E.69994
G1 X38.949 Y119.257 E.01687
G1 X54.672 Y134.98 E.69994
G1 X54.137 Y134.98 E.01684
G1 X38.414 Y119.257 E.69994
G1 X37.879 Y119.257 E.01684
G1 X53.602 Y134.98 E.69994
G1 X53.066 Y134.98 E.01687
G1 X37.343 Y119.257 E.69994
G1 X36.808 Y119.257 E.01684
G1 X52.531 Y134.98 E.69994
G1 X51.996 Y134.98 E.01684
G1 X36.272 Y119.257 E.69996
G1 X35.737 Y119.257 E.01684
G1 X51.46 Y134.98 E.69994
G1 X50.925 Y134.98 E.01684
G1 X35.202 Y119.257 E.69994
G1 X34.666 Y119.257 E.01687
G1 X50.389 Y134.98 E.69994
G1 X49.854 Y134.98 E.01684
G1 X34.131 Y119.257 E.69994
G1 X33.595 Y119.257 E.01687
G1 X49.319 Y134.98 E.69996
G1 X48.783 Y134.98 E.01687
M73 Q1 S164
G1 X33.06 Y119.257 E.69994
G1 X32.525 Y119.257 E.01684
G1 X48.248 Y134.98 E.69994
G1 X47.712 Y134.98 E.01687
G1 X31.989 Y119.257 E.69994
G1 X31.454 Y119.257 E.01684
G1 X47.177 Y134.98 E.69994
G1 X46.642 Y134.98 E.01684
G1 X30.919 Y119.257 E.69994
G1 X30.383 Y119.257 E.01687
M73 P2 R163
G1 X46.106 Y134.98 E.69994
G1 X45.571 Y134.98 E.01684
M73 Q2 S164
G1 X29.848 Y119.257 E.69994
G1 X29.312 Y119.257 E.01687
G1 X45.036 Y134.98 E.69996
G1 X44.5 Y134.98 E.01687
G1 X28.777 Y119.257 E.69994
G1 X28.242 Y119.257 E.01684
G1 X43.965 Y134.98 E.69994
G1 X43.429 Y134.98 E.01687
G1 X27.706 Y119.257 E.69994
G1 X27.171 Y119.257 E.01684
G1 X42.894 Y134.98 E.69994
G1 X42.359 Y134.98 E.01684
G1 X26.636 Y119.257 E.69994
G1 X26.1 Y119.257 E.01687
G1 X41.823 Y134.98 E.69994
G1 X41.288 Y134.98 E.01684
G1 X25.565 Y119.257 E.69994
G1 X25.029 Y119.257 E.01687
G1 X40.753 Y134.98 E.69996
G1 X40.217 Y134.98 E.01687
M73 P2 R162
G1 X24.494 Y119.257 E.69994
G1 X23.959 Y119.257 E.01684
G1 X39.682 Y134.98 E.69994
G1 X39.146 Y134.98 E.01687
G1 X23.423 Y119.257 E.69994
G1 X22.888 Y119.257 E.01684
G1 X38.611 Y134.98 E.69994
G1 X38.076 Y134.98 E.01684
G1 X22.352 Y119.257 E.69996
G1 X21.817 Y119.257 E.01684
G1 X37.54 Y134.98 E.69994
G1 X37.005 Y134.98 E.01684
G1 X21.282 Y119.257 E.69994
G1 X20.746 Y119.257 E.01687
G1 X36.469 Y134.98 E.69994
G1 X35.934 Y134.98 E.01684
G1 X20.211 Y119.257 E.69994
G1 X19.676 Y119.257 E.01684
G1 X35.399 Y134.98 E.69994
G1 X34.863 Y134.98 E.01687
G1 X19.14 Y119.257 E.69994
G1 X18.605 Y119.257 E.01684
G1 X34.328 Y134.98 E.69994
G1 X33.793 Y134.98 E.01684
G1 X18.069 Y119.257 E.69996
G1 X17.534 Y119.257 E.01684
G1 X33.257 Y134.98 E.69994
G1 X32.722 Y134.98 E.01684
G1 X16.999 Y119.257 E.69994
G1 X16.463 Y119.257 E.01687
G1 X32.186 Y134.98 E.69994
G1 X31.651 Y134.98 E.01684
G1 X15.928 Y119.257 E.69994
G1 X15.393 Y119.257 E.01684
G1 X31.116 Y134.98 E.69994
G1 X30.58 Y134.98 E.01687
G1 X14.857 Y119.257 E.69994
G1 X14.322 Y119.257 E.01684
G1 X30.045 Y134.98 E.69994
G1 X29.51 Y134.98 E.01684
G1 X13.786 Y119.257 E.69996
G1 X13.251 Y119.257 E.01684
G1 X28.974 Y134.98 E.69994
G1 X28.439 Y134.98 E.01684
G1 X12.716 Y119.257 E.69994
G1 X12.18 Y119.257 E.01687
G1 X27.903 Y134.98 E.69994
G1 X27.368 Y134.98 E.01684
G1 X11.645 Y119.257 E.69994
G1 X11.416 Y119.257 E.00721
G1 X11.416 Y119.564 E.00966
G1 X26.833 Y134.98 E.6863
G1 X26.297 Y134.98 E.01687
G1 X11.416 Y120.099 E.66246
G1 X11.416 Y120.634 E.01684
G1 X25.762 Y134.98 E.63864
G1 X25.226 Y134.98 E.01687
G1 X11.416 Y121.17 E.61478
G1 X11.416 Y121.705 E.01684
G1 X24.691 Y134.98 E.59096
G1 X24.156 Y134.98 E.01684
G1 X11.416 Y122.241 E.56712
G1 X11.416 Y122.776 E.01684
G1 X23.62 Y134.98 E.54329
G1 X23.085 Y134.98 E.01684
G1 X11.416 Y123.311 E.51947
G1 X11.416 Y123.847 E.01687
G1 X22.55 Y134.98 E.49563
G1 X22.014 Y134.98 E.01687
G1 X11.416 Y124.382 E.47179
G1 X11.416 Y124.917 E.01684
G1 X21.479 Y134.98 E.44798
G1 X20.943 Y134.98 E.01687
G1 X11.416 Y125.453 E.42411
G1 X11.416 Y125.988 E.01684
G1 X20.408 Y134.98 E.4003
G1 X19.873 Y134.98 E.01684
G1 X11.416 Y126.524 E.37646
G1 X11.416 Y127.059 E.01684
M73 Q2 S163
G1 X19.337 Y134.98 E.35262
G1 X18.802 Y134.98 E.01684
G1 X11.416 Y127.594 E.3288
G1 X11.416 Y128.13 E.01687
G1 X18.267 Y134.98 E.30496
G1 X17.731 Y134.98 E.01687
G1 X11.416 Y128.665 E.28113
G1 X11.416 Y129.201 E.01687
G1 X17.196 Y134.98 E.25729
G1 X16.66 Y134.98 E.01687
G1 X11.416 Y129.736 E.23345
G1 X11.416 Y130.271 E.01684
G1 X16.125 Y134.98 E.20963
G1 X15.59 Y134.98 E.01684
G1 X11.416 Y130.807 E.18579
G1 X11.416 Y131.342 E.01684
G1 X15.054 Y134.98 E.16195
G1 X14.519 Y134.98 E.01684
G1 X11.416 Y131.877 E.13814
G1 X11.416 Y132.413 E.01687
G1 X13.984 Y134.98 E.1143
G1 X13.448 Y134.98 E.01687
G1 X11.416 Y132.948 E.09046
G1 X11.416 Y133.484 E.01687
G1 X12.913 Y134.98 E.06662
G1 X12.377 Y134.98 E.01687
G1 X11.416 Y134.019 E.04278
G1 X11.416 Y134.554 E.01684
G1 X12.012 Y135.15 E.02653
M204 S1000
;WIPE_START
G1 F8640
G1 X11.416 Y134.554 E-.19462
G1 X11.416 Y134.019 E-.12353
G1 X12.377 Y134.98 E-.31381
G1 X12.913 Y134.98 E-.12376
G1 X12.777 Y134.844 E-.04428
;WIPE_END
G1 Z.6 F720
G1 X11.077 Y99.52 F10800
G1 Z.2 F720
G1 E.8 F2100
M204 S800
;TYPE:Perimeter
;WIDTH:0.419999
G1 F1200
G1 X108.243 Y99.52 E3.04657
G1 X108.243 Y107.721 E.25714
G1 X108.243 Y115.921 E.2571
G1 X11.077 Y115.921 E3.04657
G1 X11.077 Y99.58 E.51236
M204 S1000
G1 X10.7 Y99.143 F10800
M204 S800
;TYPE:External perimeter
G1 F1200
G1 X108.62 Y99.143 E3.07021
G1 X108.62 Y107.721 E.26896
M73 P2 R161
G1 X108.62 Y116.299 E.26896
G1 X10.7 Y116.299 E3.07021
G1 X10.7 Y99.203 E.53603
M204 S1000
;WIPE_START
G1 F8640
G1 X10.7 Y99.143 E-.01385
G1 X14.105 Y99.143 E-.78615
;WIPE_END
G1 Z.6 F720
G1 X108.074 Y100.455 F10800
G1 Z.2 F720
G1 E.8 F2100
M204 S800
