; generated by PrusaSlicer 2.7.0+win64 on 2024-01-12 at 01:35:07 UTC


;
;
; 

; external perimeters extrusion width = 0.45mm
; perimeters extrusion width = 0.45mm
; infill extrusion width = 0.45mm
; solid infill extrusion width = 0.45mm
; top infill extrusion width = 0.40mm
; first layer extrusion width = 0.42mm

M73 P0 R18
M73 Q0 S18
M201 X1000 Y1000 Z200 E5000 ; sets maximum accelerations, mm/sec^2
M203 X200 Y200 Z12 E120 ; sets maximum feedrates, mm / sec
M204 S1250 T1250 ; sets acceleration (S) and retract acceleration (R), mm/sec^2
M205 X8.00 Y8.00 Z0.40 E4.50 ; sets the jerk limits, mm/sec
M205 S0 T0 ; sets the minimum extruding and travel feed rate, mm/sec

; printing object Bracket 1.stl id:0 copy 0
; stop printing object Bracket 1.stl id:0 copy 0

;TYPE:Custom
M862.3 P "MK3S" ; printer model check
M862.1 P0.4 ; nozzle diameter check
M115 U3.13.2 ; tell printer latest fw version
G90 ; use absolute coordinates
M83 ; extruder relative mode
M104 S215 ; set extruder temp
M140 S60 ; set bed temp
M190 S60 ; wait for bed temp
M109 S215 ; wait for extruder temp
G28 W ; home all without mesh bed level
G80 X110.682 Y87.8573 W28.6354 H34.2854 ; mesh bed levelling

G1 Z0.2 F720
G1 Y-3 F1000 ; go outside print area
G92 E0
G1 X60 E9 F1000 ; intro line
G1 X100 E12.5 F1000 ; intro line
M73 P0 R17
M73 Q0 S17

G92 E0
M221 S95

; Don't change E values below. Excessive value can damage the printer.

M907 E538 ; set extruder motor current
G21 ; set units to millimeters
G90 ; use absolute coordinates
M83 ; use relative distances for extrusion
M900 K0.05 ; Filament gcode LA 1.5
M900 K30 ; Filament gcode LA 1.0

M107
;LAYER_CHANGE
;Z:0.2
;HEIGHT:0.2
;BEFORE_LAYER_CHANGE
G92 E0.0
;0.2


G1 E-.8 F2100
G1 Z.2 F720
;AFTER_LAYER_CHANGE
;0.2
G1 X111.264 Y89.383 F10800
G1 Z.2 F720
G1 E.8 F2100
M204 S800
;TYPE:Skirt/Brim
;WIDTH:0.42
G1 F1200
G1 X112.33 Y88.369 E.04613
G1 X113.625 Y88.046 E.04185
G1 X136.375 Y88.046 E.71331
G1 X137.792 Y88.439 E.04611
G1 X138.806 Y89.505 E.04613
G1 X139.129 Y90.8 E.04185
G1 X139.129 Y119.2 E.89046
G1 X138.736 Y120.617 E.04611
G1 X137.67 Y121.631 E.04613
G1 X136.375 Y121.954 E.04185
G1 X113.625 Y121.954 E.71331
G1 X112.208 Y121.561 E.04611
M73 P1 R17
M73 Q1 S17
G1 X111.194 Y120.495 E.04613
G1 X110.871 Y119.2 E.04185
G1 X110.871 Y90.8 E.89046
G1 X111.248 Y89.44 E.04425
M204 S1000
G1 X111.622 Y89.552 F10800
M204 S800
G1 F1200
G1 X111.64 Y89.493 E.00193
G1 X112.685 Y88.617 E.04275
G1 X113.625 Y88.423 E.03009
G1 X136.375 Y88.423 E.71331
G1 X137.682 Y88.815 E.04278
G1 X138.558 Y89.86 E.04275
G1 X138.752 Y90.8 E.03009
G1 X138.752 Y119.2 E.89046
G1 X138.36 Y120.507 E.04278
G1 X137.315 Y121.383 E.04275
G1 X136.375 Y121.577 E.03009
G1 X113.625 Y121.577 E.71331
G1 X112.318 Y121.185 E.04278
G1 X111.442 Y120.14 E.04275
G1 X111.248 Y119.2 E.03009
G1 X111.248 Y90.8 E.89046
G1 X111.604 Y89.61 E.03895
M204 S1000
; printing object Bracket 1.stl id:0 copy 0
;WIPE_START
G1 F8640
G1 X111.622 Y89.552 E-.01402
G1 X111.64 Y89.493 E-.01424
G1 X112.685 Y88.617 E-.31486
G1 X113.625 Y88.423 E-.22162
G1 X114.644 Y88.423 E-.23526
;WIPE_END
G1 Z.6 F720
G1 X135.588 Y118.413 F10800
G1 Z.2 F720
G1 E.8 F2100
M204 S800
;TYPE:Perimeter
;WIDTH:0.419999
G1 F1200
G1 X114.412 Y118.413 E.66396
G1 X114.412 Y91.587 E.84111
G1 X135.588 Y91.587 E.66396
M73 P2 R17
M73 Q2 S17
G1 X135.588 Y97.286 E.17869
G1 X135.588 Y118.353 E.66054
M204 S1000
G1 X135.965 Y118.79 F10800
M204 S800
;TYPE:External perimeter
G1 F1200
G1 X114.035 Y118.79 E.6876
G1 X114.035 Y91.21 E.86475
G1 X135.965 Y91.21 E.6876
G1 X135.965 Y97.286 E.19051
G1 X135.965 Y118.73 E.67236
M204 S1000
;WIPE_START
G1 F8640
G1 X135.965 Y118.79 E-.01385
G1 X132.56 Y118.79 E-.78615
;WIPE_END
G1 Z.6 F720
G1 X125.567 Y105.268 F10800
G1 Z.2 F720
G1 E.8 F2100
M204 S800
;TYPE:Perimeter
G1 F1200
G1 X125.548 Y104.811 E.01434
G1 X125.723 Y104.111 E.02262
G1 X125.984 Y103.646 E.01672
G1 X126.325 Y103.276 E.01578
G1 X126.738 Y102.99 E.01575
G1 X127.204 Y102.801 E.01577
G1 X127.745 Y102.716 E.01717
G1 X128.411 Y102.796 E.02103
G1 X128.913 Y102.991 E.01689
G1 X129.326 Y103.277 E.01575
G1 X129.667 Y103.647 E.01578
G1 X129.917 Y104.082 E.01573
G1 X130.096 Y104.781 E.02262
G1 X130.088 Y105.315 E.01675
G1 X129.965 Y105.801 E.01572
G1 X129.605 Y106.427 E.02264
G1 X129.228 Y106.804 E.01672
G1 X128.8 Y107.067 E.01575
G1 X128.28 Y107.24 E.01718
G1 X127.61 Y107.271 E.02103
G1 X127.082 Y107.161 E.01691
G1 X126.628 Y106.946 E.01575
G1 X126.083 Y106.474 E.02261
G1 X125.801 Y106.058 E.01576
G1 X125.571 Y105.349 E.02337
G1 X125.57 Y105.328 E.00066
M204 S1000
G1 X125.964 Y105.349 F10800
M204 S800
;TYPE:External perimeter
G1 F1200
G1 X125.933 Y105.243 E.00346
G1 X125.925 Y104.811 E.01355
G1 X126.086 Y104.214 E.01939
G1 X126.331 Y103.811 E.01479
G1 X126.627 Y103.513 E.01317
G1 X126.981 Y103.287 E.01317
G1 X127.376 Y103.144 E.01317
G1 X127.773 Y103.094 E.01255
G1 X128.363 Y103.17 E.01865
G1 X128.798 Y103.357 E.01485
G1 X129.133 Y103.609 E.01314
G1 X129.406 Y103.929 E.01319
G1 X129.604 Y104.31 E.01346
G1 X129.728 Y104.864 E.0178
G1 X129.705 Y105.335 E.01479
G1 X129.581 Y105.746 E.01346
G1 X129.284 Y106.23 E.0178
G1 X128.939 Y106.551 E.01478
G1 X128.574 Y106.757 E.01314
G1 X128.19 Y106.871 E.01256
G1 X127.596 Y106.894 E.01864
G1 X127.136 Y106.781 E.01485
G1 X126.756 Y106.581 E.01346
G1 X126.337 Y106.195 E.01786
G1 X126.1 Y105.813 E.0141
G1 X125.981 Y105.406 E.0133
M204 S1000
;WIPE_START
G1 F8640
G1 X125.964 Y105.349 E-.01373
G1 X125.933 Y105.243 E-.0255
G1 X125.925 Y104.811 E-.09977
G1 X126.086 Y104.214 E-.14277
G1 X126.331 Y103.811 E-.1089
G1 X126.627 Y103.513 E-.09698
G1 X126.981 Y103.287 E-.09698
G1 X127.376 Y103.144 E-.097
G1 X127.773 Y103.094 E-.09239
G1 X127.885 Y103.108 E-.02598
;WIPE_END
G1 Z.6 F720
G1 X135.418 Y92.527 F10800
G1 Z.2 F720
G1 E.8 F2100
M204 S800
;TYPE:Solid infill
;WIDTH:0.42378
G1 F1200
G1 X134.818 Y91.926 E.02689
G1 X134.279 Y91.926 E.01707
G1 X135.249 Y92.896 E.04344
G1 X135.249 Y93.435 E.01707
G1 X133.74 Y91.926 E.06758
G1 X133.202 Y91.926 E.01704
M73 Q3 S17
G1 X135.249 Y93.973 E.09168
G1 X135.249 Y94.512 E.01707
G1 X132.663 Y91.926 E.11582
G1 X132.125 Y91.926 E.01704
M73 P3 R17
G1 X135.249 Y95.05 E.13991
G1 X135.249 Y95.589 E.01707
G1 X131.586 Y91.926 E.16405
G1 X131.047 Y91.926 E.01707
G1 X135.249 Y96.128 E.18819
G1 X135.249 Y96.666 E.01704
G1 X130.509 Y91.926 E.21229
G1 X129.97 Y91.926 E.01707
G1 X135.249 Y97.205 E.23643
G1 X135.249 Y97.744 E.01707
G1 X129.431 Y91.926 E.26057
G1 X128.893 Y91.926 E.01704
G1 X135.249 Y98.282 E.28466
G1 X135.249 Y98.821 E.01707
G1 X128.354 Y91.926 E.3088
G1 X127.816 Y91.926 E.01704
G1 X135.249 Y99.359 E.3329
G1 X135.249 Y99.898 E.01707
G1 X127.277 Y91.926 E.35704
G1 X126.738 Y91.926 E.01707
G1 X135.249 Y100.437 E.38118
G1 X135.249 Y100.975 E.01704
G1 X126.2 Y91.926 E.40527
G1 X125.661 Y91.926 E.01707
G1 X135.249 Y101.514 E.42941
G1 X135.249 Y102.052 E.01704
G1 X125.123 Y91.926 E.45351
G1 X124.584 Y91.926 E.01707
G1 X135.249 Y102.591 E.47765
G1 X135.249 Y103.13 E.01707
G1 X124.045 Y91.926 E.50178
G1 X123.507 Y91.926 E.01704
G1 X135.249 Y103.668 E.52588
G1 X135.249 Y104.207 E.01707
G1 X122.968 Y91.926 E.55002
G1 X122.429 Y91.926 E.01707
M73 Q4 S17
G1 X135.249 Y104.746 E.57416
G1 X135.249 Y105.284 E.01704
M73 P4 R17
G1 X121.891 Y91.926 E.59825
G1 X121.352 Y91.926 E.01707
G1 X135.249 Y105.823 E.62239
G1 X135.249 Y106.361 E.01704
G1 X120.814 Y91.926 E.64649
G1 X120.275 Y91.926 E.01707
G1 X135.249 Y106.9 E.67063
G1 X135.249 Y107.439 E.01707
G1 X119.736 Y91.926 E.69477
G1 X119.198 Y91.926 E.01704
G1 X135.249 Y107.977 E.71886
G1 X135.249 Y108.516 E.01707
G1 X118.659 Y91.926 E.743
G1 X118.12 Y91.926 E.01707
G1 X128.737 Y102.543 E.4755
G1 X129.057 Y102.683 E.01106
G1 X129.215 Y102.775 E.00579
G1 X129.534 Y103.009 E.01253
G1 X129.668 Y103.133 E.00578
G1 X129.928 Y103.431 E.01252
G1 X130.032 Y103.581 E.00578
G1 X130.221 Y103.93 E.01257
G1 X130.279 Y104.085 E.00524
G1 X135.249 Y109.055 E.22259
G1 X135.249 Y109.593 E.01704
G1 X130.435 Y104.779 E.2156
G1 X130.449 Y104.945 E.00528
G1 X130.424 Y105.308 E.01152
G1 X135.249 Y110.132 E.21607
G1 X135.249 Y110.67 E.01704
M73 Q5 S17
G1 X130.33 Y105.752 E.22028
G1 X130.289 Y105.903 E.00496
M73 P5 R17
G1 X130.18 Y106.14 E.00826
G1 X135.249 Y111.209 E.22702
G1 X135.249 Y111.748 E.01707
G1 X129.975 Y106.474 E.2362
G1 X129.889 Y106.613 E.00518
G1 X129.748 Y106.785 E.00704
G1 X135.249 Y112.286 E.24637
G1 X135.249 Y112.825 E.01707
G1 X129.468 Y107.044 E.25891
G1 X129.302 Y107.168 E.00656
G1 X129.14 Y107.255 E.00582
G1 X135.249 Y113.363 E.27358
G1 X135.249 Y113.902 E.01707
G1 X128.787 Y107.44 E.28941
G1 X128.372 Y107.564 E.01372
G1 X135.249 Y114.441 E.30799
G1 X135.249 Y114.979 E.01704
G1 X127.867 Y107.598 E.33059
G1 X127.582 Y107.611 E.00903
G1 X127.295 Y107.564 E.00921
G1 X135.418 Y115.688 E.36382
M204 S1000
;WIPE_START
G1 F8640
G1 X132.968 Y113.238 E-.8
;WIPE_END
G1 Z.6 F720
G1 X128.263 Y102.607 F10800
G1 Z.2 F720
G1 E.8 F2100
M204 S800
G1 F1200
G1 X117.582 Y91.926 E.47836
G1 X117.043 Y91.926 E.01707
G1 X127.522 Y102.405 E.46931
G1 X127.178 Y102.453 E.011
G1 X127.071 Y102.492 E.00361
G1 X116.505 Y91.926 E.47321
G1 X115.966 Y91.926 E.01707
G1 X126.68 Y102.64 E.47984
G1 X126.344 Y102.843 E.01243
M73 P5 R16
G1 X115.427 Y91.926 E.48893
G1 X114.889 Y91.926 E.01704
M73 Q5 S16
G1 X126.043 Y103.08 E.49955
G1 X125.78 Y103.356 E.01207
G1 X114.751 Y92.328 E.49392
G1 X114.751 Y92.866 E.01704
G1 X125.57 Y103.684 E.48452
M73 Q6 S16
G1 X125.439 Y103.899 E.00797
M73 P6 R16
G1 X125.395 Y104.048 E.00492
G1 X114.751 Y93.405 E.47668
G1 X114.751 Y93.944 E.01707
G1 X125.272 Y104.464 E.47117
G1 X125.208 Y104.802 E.01089
G1 X125.211 Y104.942 E.00443
G1 X114.751 Y94.482 E.46846
G1 X114.751 Y95.021 E.01707
G1 X125.527 Y105.796 E.48259
M204 S1000
;WIPE_START
G1 F8640
G1 X123.077 Y103.346 E-.8
;WIPE_END
G1 Z.6 F720
G1 X135.418 Y116.226 F10800
G1 Z.2 F720
G1 E.8 F2100
M204 S800
G1 F1200
G1 X114.751 Y95.559 E.9256
G1 X114.751 Y96.098 E.01707
G1 X135.249 Y116.595 E.91801
G1 X135.249 Y117.134 E.01707
G1 X114.751 Y96.637 E.91801
G1 X114.751 Y97.175 E.01704
G1 X135.249 Y117.672 E.91801
G1 X135.249 Y118.074 E.01273
G1 X135.111 Y118.074 E.00437
G1 X114.751 Y97.714 E.91185
G1 X114.751 Y98.253 E.01707
M73 P7 R16
M73 Q7 S16
G1 X134.572 Y118.074 E.88771
G1 X134.034 Y118.074 E.01704
G1 X114.751 Y98.791 E.86361
G1 X114.751 Y99.33 E.01707
G1 X133.495 Y118.074 E.83947
G1 X132.957 Y118.074 E.01704
G1 X114.751 Y99.868 E.81538
G1 X114.751 Y100.407 E.01707
G1 X132.418 Y118.074 E.79124
G1 X131.879 Y118.074 E.01707
G1 X114.751 Y100.946 E.7671
G1 X114.751 Y101.484 E.01704
G1 X131.341 Y118.074 E.743
G1 X130.802 Y118.074 E.01707
G1 X114.751 Y102.023 E.71886
G1 X114.751 Y102.561 E.01704
M73 P8 R16
M73 Q8 S16
G1 X130.264 Y118.074 E.69477
G1 X129.725 Y118.074 E.01707
G1 X114.751 Y103.1 E.67063
G1 X114.751 Y103.639 E.01707
G1 X129.186 Y118.074 E.64649
G1 X128.648 Y118.074 E.01704
G1 X114.751 Y104.177 E.62239
G1 X114.751 Y104.716 E.01707
G1 X128.109 Y118.074 E.59825
G1 X127.57 Y118.074 E.01707
G1 X114.751 Y105.255 E.57411
G1 X114.751 Y105.793 E.01704
G1 X127.032 Y118.074 E.55002
G1 X126.493 Y118.074 E.01707
G1 X114.751 Y106.332 E.52588
G1 X114.751 Y106.87 E.01704
G1 X125.955 Y118.074 E.50178
G1 X125.416 Y118.074 E.01707
G1 X114.751 Y107.409 E.47765
G1 X114.751 Y107.948 E.01707
G1 X124.877 Y118.074 E.45351
G1 X124.339 Y118.074 E.01704
M73 P9 R16
M73 Q9 S16
G1 X114.751 Y108.486 E.42941
G1 X114.751 Y109.025 E.01707
G1 X123.8 Y118.074 E.40527
G1 X123.262 Y118.074 E.01704
G1 X114.751 Y109.563 E.38118
G1 X114.751 Y110.102 E.01707
G1 X122.723 Y118.074 E.35704
G1 X122.184 Y118.074 E.01707
G1 X114.751 Y110.641 E.3329
G1 X114.751 Y111.179 E.01704
G1 X121.646 Y118.074 E.3088
G1 X121.107 Y118.074 E.01707
G1 X114.751 Y111.718 E.28466
G1 X114.751 Y112.257 E.01707
G1 X120.568 Y118.074 E.26052
G1 X120.03 Y118.074 E.01704
G1 X114.751 Y112.795 E.23643
G1 X114.751 Y113.334 E.01707
G1 X119.491 Y118.074 E.21229
G1 X118.953 Y118.074 E.01704
G1 X114.751 Y113.872 E.18819
G1 X114.751 Y114.411 E.01707
G1 X118.414 Y118.074 E.16405
G1 X117.875 Y118.074 E.01707
G1 X114.751 Y114.95 E.13991
G1 X114.751 Y115.488 E.01704
G1 X117.337 Y118.074 E.11582
G1 X116.798 Y118.074 E.01707
G1 X114.751 Y116.027 E.09168
G1 X114.751 Y116.566 E.01707
G1 X116.259 Y118.074 E.06754
G1 X115.721 Y118.074 E.01704
G1 X114.751 Y117.104 E.04344
G1 X114.751 Y117.643 E.01707
G1 X115.352 Y118.243 E.02689
M204 S1000
; stop printing object Bracket 1.stl id:0 copy 0
M106 S84.15
;LAYER_CHANGE
;Z:0.35
;HEIGHT:0.15
;BEFORE_LAYER_CHANGE
G92 E0.0
;0.35


;WIPE_START
G1 F8640
G1 X114.751 Y117.643 E-.19609
G1 X114.751 Y117.104 E-.12446
G1 X115.721 Y118.074 E-.31675
G1 X116.259 Y118.074 E-.12423
G1 X116.141 Y117.956 E-.03847
;WIPE_END
G1 Z.35 F720
;AFTER_LAYER_CHANGE
;0.35
M104 S210 ; set temperature
G1 Z.75
G1 X116.141 Y121.954 F10800
G1 Z.35 F720
G1 E.8 F2100
;TYPE:Skirt/Brim
;WIDTH:0.42
G1 F3000
G1 X113.625 Y121.954 E.06085
G1 X112.208 Y121.561 E.03556
G1 X111.194 Y120.495 E.03558
G1 X110.871 Y119.2 E.03228
G1 X110.871 Y90.8 E.68685
G1 X111.264 Y89.383 E.03556
G1 X112.33 Y88.369 E.03558
G1 X113.625 Y88.046 E.03228
G1 X136.375 Y88.046 E.55021
G1 X137.792 Y88.439 E.03556
G1 X138.806 Y89.505 E.03558
G1 X139.129 Y90.8 E.03228
G1 X139.129 Y119.2 E.68685
G1 X138.736 Y120.617 E.03556
G1 X137.67 Y121.631 E.03558
G1 X136.375 Y121.954 E.03228
G1 X116.201 Y121.954 E.48791
G1 X116.201 Y121.577 F10800
G1 F3000
G1 X113.625 Y121.577 E.0623
G1 X112.318 Y121.185 E.033
G1 X111.442 Y120.14 E.03298
G1 X111.248 Y119.2 E.02321
G1 X111.248 Y90.8 E.68685
M73 Q10 S16
G1 X111.64 Y89.493 E.033
M73 P10 R16
G1 X112.685 Y88.617 E.03298
G1 X113.625 Y88.423 E.02321
G1 X136.375 Y88.423 E.55021
G1 X137.682 Y88.815 E.033
G1 X138.558 Y89.86 E.03298
G1 X138.752 Y90.8 E.02321
G1 X138.752 Y119.2 E.68685
G1 X138.36 Y120.507 E.033
G1 X137.315 Y121.383 E.03298
G1 X136.375 Y121.577 E.02321
G1 X116.261 Y121.577 E.48645
; printing object Bracket 1.stl id:0 copy 0
;WIPE_START
G1 F8640
G1 X116.201 Y121.577 E-.01385
G1 X113.625 Y121.577 E-.59481
G1 X112.831 Y121.339 E-.19134
;WIPE_END
G1 Z.75 F720
G1 X135.732 Y118.557 F10800
G1 Z.35 F720
G1 E.8 F2100
M204 S800
;TYPE:Perimeter
;WIDTH:0.449999
G1 F2807.781
G1 X114.268 Y118.557 E.55926
G1 F3600
G1 X114.268 Y91.443 E.70647
G1 F2809.629
G1 X135.732 Y91.443 E.55926
G1 X135.732 Y97.286 E.15224
G1 F3600
G1 X135.732 Y118.497 E.55267
M204 S1000
G1 X136.15 Y118.975 F10800
M204 S800
;TYPE:External perimeter
G1 F1825.589
G1 X113.85 Y118.975 E.58104
G1 F1864.66
G1 X113.85 Y118.3 E.01759
G1 F2100
G1 X113.85 Y91.7 E.69308
G1 F1865.207
G1 X113.85 Y91.025 E.01759
G1 F1825.589
G1 X136.15 Y91.025 E.58104
G1 X136.15 Y97.286 E.16313
G1 F1864.211
G1 X136.15 Y97.961 E.01759
G1 F2099.997
G1 X136.15 Y118.3 E.52995
G1 X136.15 Y118.915 E.01602
M204 S1000
;WIPE_START
G1 F8640
G1 X136.15 Y118.975 E-.01385
G1 X132.745 Y118.975 E-.78615
;WIPE_END
G1 Z.75 F720
G1 X125.757 Y105.503 F10800
G1 Z.35 F720
G1 E.8 F2100
M204 S800
;TYPE:Perimeter
G1 F1500
G1 X125.733 Y105.422 E.0022
G1 X125.693 Y104.879 E.01419
G1 X125.789 Y104.34 E.01427
G1 X126.072 Y103.781 E.01633
G1 X126.412 Y103.393 E.01344
G1 X126.857 Y103.088 E.01406
G1 X127.344 Y102.913 E.01348
G1 X127.812 Y102.866 E.01226
G1 X128.352 Y102.931 E.01417
G1 X128.835 Y103.113 E.01345
G1 X129.325 Y103.473 E.01584
G1 X129.622 Y103.838 E.01226
G1 X129.841 Y104.292 E.01313
G1 X129.966 Y104.916 E.01658
G1 X129.924 Y105.42 E.01318
G1 X129.764 Y105.899 E.01316
G1 X129.439 Y106.41 E.01578
G1 X128.982 Y106.797 E.0156
G1 X128.529 Y107.021 E.01317
G1 X128.002 Y107.136 E.01405
G1 X127.463 Y107.109 E.01406
G1 X126.981 Y106.963 E.01312
G1 X126.498 Y106.681 E.01457
G1 X126.135 Y106.317 E.01339
G1 X125.863 Y105.856 E.01395
G1 X125.774 Y105.56 E.00805
M204 S1000
G1 X126.15 Y105.391 F10800
M204 S800
;TYPE:External perimeter
G1 F1500
G1 X126.11 Y104.849 E.01416
G1 X126.193 Y104.456 E.01047
G1 X126.443 Y103.973 E.01417
G1 X126.747 Y103.655 E.01146
G1 X127.067 Y103.452 E.00987
G1 X127.422 Y103.324 E.00983
G1 X127.762 Y103.281 E.00893
G1 X128.302 Y103.346 E.01417
G1 X128.707 Y103.519 E.01147
G1 X129.009 Y103.747 E.00986
G1 X129.255 Y104.037 E.00991
