; generated by PrusaSlicer 2.6.1+win64 on 2023-11-15 at 17:21:52 UTC


;
;
; 

; external perimeters extrusion width = 0.45mm
; perimeters extrusion width = 0.45mm
; infill extrusion width = 0.45mm
; solid infill extrusion width = 0.45mm
; top infill extrusion width = 0.40mm
; first layer extrusion width = 0.42mm

; external perimeters extrusion width = 0.45mm
; perimeters extrusion width = 0.45mm
; infill extrusion width = 0.45mm
; solid infill extrusion width = 0.45mm
; top infill extrusion width = 0.40mm
; first layer extrusion width = 0.42mm

M73 P0 R283
M73 Q0 S290
M201 X1000 Y1000 Z200 E5000 ; sets maximum accelerations, mm/sec^2
M203 X200 Y200 Z12 E120 ; sets maximum feedrates, mm / sec
M204 S1250 T1250 ; sets acceleration (S) and retract acceleration (R), mm/sec^2
M205 X8.00 Y8.00 Z0.40 E4.50 ; sets the jerk limits, mm/sec
M205 S0 T0 ; sets the minimum extruding and travel feed rate, mm/sec
;TYPE:Custom
M862.3 P "MK3S" ; printer model check
M862.1 P0.4 ; nozzle diameter check
M115 U3.12.2 ; tell printer latest fw version
G90 ; use absolute coordinates
M83 ; extruder relative mode
M104 S215 ; set extruder temp
M140 S60 ; set bed temp
M190 S60 ; wait for bed temp
M109 S215 ; wait for extruder temp
G28 W ; home all without mesh bed level
G80 ; mesh bed leveling

G1 Z0.2 F720
G1 Y-3 F1000 ; go outside print area
G92 E0
G1 X60 E9 F1000 ; intro line
G1 X100 E12.5 F1000 ; intro line

G92 E0
M221 S95

; Don't change E values below. Excessive value can damage the printer.
M907 E430 ; set extruder motor current
G21 ; set units to millimeters
G90 ; use absolute coordinates
M83 ; use relative distances for extrusion
M900 K0.05 ; Filament gcode LA 1.5
M900 K30 ; Filament gcode LA 1.0
M107
;LAYER_CHANGE
;Z:0.2
;HEIGHT:0.2
;BEFORE_LAYER_CHANGE
G92 E0.0
;0.2


G1 E-.8 F2100
G1 Z.4 F720
;AFTER_LAYER_CHANGE
;0.2
G1 X44.67 Y48.841 F10800
G1 Z.2 F720
G1 E.8 F2100
M204 S800
;TYPE:Skirt/Brim
;WIDTH:0.42
G1 F1200
G1 X45.985 Y47.868 E.05129
G1 X46.681 Y47.764 E.02206
G1 X155.156 Y47.764 E3.40116
G1 X155.669 Y47.82 E.01618
G1 X181.128 Y53.444 E.81749
G1 X182.32 Y54.108 E.04278
G1 X182.993 Y55.765 E.05608
G1 X182.993 Y159.009 E3.23714
G1 X182.601 Y160.316 E.04278
G1 X181.555 Y161.192 E.04278
G1 X180.782 Y161.38 E.02494
G1 X61.613 Y169.756 E3.74568
G1 X46.656 Y169.762 E.46897
M73 P0 R282
G1 X45.349 Y169.37 E.04278
G1 X44.472 Y168.325 E.04277
G1 X44.279 Y167.385 E.03009
G1 X44.279 Y50.148 E3.67588
G1 X44.653 Y48.899 E.04088
M204 S1000
; printing object BracketBBR.stl id:0 copy 0
;WIPE_START
G1 F8640
G1 X45.985 Y47.868 E-.38893
G1 X46.681 Y47.764 E-.16249
G1 X47.758 Y47.764 E-.24858
;WIPE_END
G1 Z.6 F720
G1 X116.423 Y144.013 F10800
G1 Z.2 F720
G1 E.8 F2100
M204 S800
;TYPE:Perimeter
;WIDTH:0.419999
G1 F1200
G1 X116.558 Y143.853 E.00656
G1 X116.613 Y143.61 E.00781
G1 X116.613 Y84.176 E1.86351
G1 X166.149 Y84.167 E1.55316
G1 X166.387 Y84.063 E.00814
M73 Q0 S289
G1 X166.56 Y83.85 E.0086
G1 X166.613 Y83.61 E.00771
G1 X166.613 Y56.552 E.84838
G1 X179.829 Y56.552 E.41438
G1 X179.829 Y158.222 E3.18779
G1 X64.159 Y158.222 E3.62675
G1 X64.159 Y144.176 E.4404
G1 X116.047 Y144.176 E1.62691
G1 X116.107 Y144.173 E.00188
G1 X116.385 Y144.058 E.00943
M204 S1000
G1 X116.17 Y143.754 F10800
M204 S800
;TYPE:External perimeter
G1 F1200
G1 X116.236 Y143.61 E.00497
G1 X116.236 Y83.799 E1.87533
G1 X166.047 Y83.799 E1.56179
G1 X166.174 Y83.75 E.00427
G1 X166.236 Y83.61 E.0048
G1 X166.236 Y56.175 E.8602
G1 X180.206 Y56.175 E.43802
G1 X180.206 Y158.599 E3.21143
G1 X63.782 Y158.599 E3.65039
G1 X63.782 Y143.799 E.46404
G1 X116.047 Y143.799 E1.63873
G1 X116.113 Y143.774 E.00221
M204 S1000
G1 X116.321 Y143.799 F10800
;WIPE_START
G1 F8640
G1 X116.236 Y143.61 E-.04734
G1 X116.236 Y140.35 E-.75266
;WIPE_END
G1 Z.6 F720
G1 X173.762 Y63.742 F10800
G1 Z.2 F720
G1 E.8 F2100
M204 S800
;TYPE:Perimeter
G1 F1200
G1 X173.571 Y64.151 E.01415
G1 X173.335 Y64.472 E.01249
G1 X173.047 Y64.748 E.01251
G1 X172.716 Y64.969 E.01248
G1 X172.351 Y65.13 E.01251
G1 X171.964 Y65.225 E.01249
G1 X171.566 Y65.251 E.01251
G1 X171.17 Y65.207 E.01249
G1 X170.788 Y65.096 E.01247
G1 X170.43 Y64.92 E.01251
G1 X170.109 Y64.684 E.01249
G1 X169.833 Y64.397 E.01248
G1 X169.612 Y64.065 E.0125
G1 X169.451 Y63.7 E.01251
G1 X169.356 Y63.313 E.01249
G1 X169.33 Y62.916 E.01247
G1 X169.373 Y62.52 E.01249
G1 X169.485 Y62.137 E.01251
G1 X169.661 Y61.779 E.01251
G1 X169.896 Y61.458 E.01247
G1 X170.184 Y61.182 E.01251
G1 X170.516 Y60.961 E.0125
G1 X170.926 Y60.79 E.01393
G1 X171.487 Y60.688 E.01788
G1 X172.061 Y60.722 E.01803
G1 X172.444 Y60.834 E.01251
G1 X172.801 Y61.01 E.01248
G1 X173.123 Y61.246 E.01252
G1 X173.398 Y61.534 E.01249
G1 X173.62 Y61.865 E.0125
G1 X173.781 Y62.23 E.01251
G1 X173.875 Y62.617 E.01249
G1 X173.902 Y63.014 E.01248
G1 X173.858 Y63.41 E.01249
G1 X173.778 Y63.685 E.00898
M204 S1000
G1 X173.332 Y63.787 F10800
M204 S800
;TYPE:External perimeter
G1 F1200
G1 X173.262 Y63.934 E.0051
G1 X173.068 Y64.205 E.01045
G1 X172.831 Y64.439 E.01044
G1 X172.557 Y64.627 E.01042
G1 X172.254 Y64.766 E.01045
G1 X171.931 Y64.849 E.01046
G1 X171.599 Y64.875 E.01044
G1 X171.268 Y64.843 E.01043
G1 X170.947 Y64.754 E.01044
G1 X170.646 Y64.611 E.01045
G1 X170.375 Y64.418 E.01043
G1 X170.142 Y64.18 E.01044
G1 X169.953 Y63.906 E.01044
G1 X169.815 Y63.603 E.01044
G1 X169.732 Y63.281 E.01043
G1 X169.706 Y62.949 E.01044
G1 X169.738 Y62.617 E.01046
G1 X169.826 Y62.296 E.01044
G1 X169.97 Y61.996 E.01043
G1 X170.163 Y61.725 E.01043
G1 X170.401 Y61.491 E.01046
G1 X170.675 Y61.303 E.01042
G1 X170.993 Y61.161 E.01092
G1 X171.553 Y61.06 E.01784
G1 X171.963 Y61.087 E.01288
G1 X172.284 Y61.176 E.01044
G1 X172.585 Y61.319 E.01045
G1 X172.856 Y61.512 E.01043
G1 X173.09 Y61.75 E.01046
G1 X173.278 Y62.024 E.01042
G1 X173.416 Y62.327 E.01044
G1 X173.5 Y62.649 E.01043
G1 X173.526 Y62.981 E.01044
G1 X173.494 Y63.313 E.01046
G1 X173.405 Y63.634 E.01044
G1 X173.358 Y63.733 E.00344
M204 S1000
G1 X173.429 Y63.918 F10800
;WIPE_START
G1 F8640
G1 X173.262 Y63.934 E-.05143
G1 X173.068 Y64.205 E-.07696
G1 X172.831 Y64.439 E-.0769
G1 X172.557 Y64.627 E-.07673
G1 X172.254 Y64.766 E-.07697
G1 X171.931 Y64.849 E-.077
G1 X171.599 Y64.875 E-.07689
G1 X171.268 Y64.843 E-.07679
G1 X170.947 Y64.754 E-.07692
G1 X170.646 Y64.611 E-.07695
G1 X170.447 Y64.469 E-.05646
;WIPE_END
G1 Z.6 F720
G1 X174.094 Y141.271 F10800
G1 Z.2 F720
G1 E.8 F2100
M204 S800
;TYPE:Perimeter
G1 F1200
G1 X174.433 Y141.63 E.01548
G1 X174.717 Y142.122 E.01781
G1 X174.877 Y142.679 E.01817
G1 X174.9 Y143.077 E.0125
G1 X174.854 Y143.473 E.0125
G1 X174.739 Y143.854 E.01248
G1 X174.533 Y144.245 E.01386
G1 X174.168 Y144.68 E.0178
G1 X173.699 Y145.021 E.01818
G1 X173.333 Y145.179 E.0125
G1 X172.837 Y145.279 E.01586
G1 X172.249 Y145.264 E.01844
G1 X171.77 Y145.132 E.01558
G1 X171.379 Y144.926 E.01386
G1 X170.944 Y144.561 E.0178
G1 X170.626 Y144.137 E.01662
G1 X170.446 Y143.726 E.01407
G1 X170.354 Y143.338 E.0125
G1 X170.331 Y142.94 E.0125
G1 X170.378 Y142.545 E.01247
G1 X170.535 Y142.075 E.01554
G1 X170.672 Y141.807 E.00944
G1 X170.91 Y141.488 E.01248
G1 X171.2 Y141.215 E.01249
G1 X171.533 Y140.996 E.0125
G1 X171.942 Y140.829 E.01385
G1 X172.501 Y140.731 E.01779
G1 X173.08 Y140.771 E.0182
G1 X173.461 Y140.886 E.01248
G1 X173.817 Y141.065 E.01249
G1 X174.046 Y141.236 E.00896
M204 S1000
G1 X173.906 Y141.607 F10800
M204 S800
;TYPE:External perimeter
G1 F1200
G1 X174.107 Y141.819 E.00916
G1 X174.391 Y142.311 E.01781
G1 X174.501 Y142.709 E.01295
G1 X174.525 Y143.041 E.01044
G1 X174.49 Y143.372 E.01044
G1 X174.399 Y143.692 E.01043
G1 X174.244 Y144.003 E.0109
G1 X173.879 Y144.438 E.0178
G1 X173.542 Y144.678 E.01297
G1 X173.238 Y144.814 E.01044
G1 X172.807 Y144.903 E.0138
G1 X172.285 Y144.889 E.01637
G1 X171.932 Y144.792 E.01148
G1 X171.621 Y144.637 E.0109
G1 X171.187 Y144.272 E.01778
G1 X170.946 Y143.935 E.01299
G1 X170.811 Y143.631 E.01043
G1 X170.73 Y143.308 E.01044
G1 X170.707 Y142.976 E.01043
G1 X170.741 Y142.645 E.01043
G1 X170.875 Y142.237 E.01346
G1 X171.153 Y141.782 E.01672
G1 X171.414 Y141.525 E.01148
G1 X171.689 Y141.339 E.01041
G1 X172.008 Y141.201 E.0109
G1 X172.567 Y141.102 E.0178
G1 X172.979 Y141.134 E.01296
G1 X173.299 Y141.226 E.01044
G1 X173.598 Y141.372 E.01043
G1 X173.864 Y141.564 E.01029
M204 S1000
G1 X174.183 Y141.516 F10800
;WIPE_START
G1 F8640
G1 X174.107 Y141.819 E-.08133
G1 X174.391 Y142.311 E-.13117
G1 X174.501 Y142.709 E-.09534
G1 X174.525 Y143.041 E-.07686
G1 X174.49 Y143.372 E-.07685
G1 X174.399 Y143.692 E-.07682
G1 X174.244 Y144.003 E-.08024
G1 X173.879 Y144.438 E-.13112
G1 X173.702 Y144.564 E-.05027
;WIPE_END
G1 Z.6 F720
G1 X92.566 Y152.725 F10800
G1 Z.2 F720
G1 E.8 F2100
M204 S800
;TYPE:Perimeter
G1 F1200
G1 X92.12 Y152.848 E.01451
G1 X91.723 Y152.875 E.01248
G1 X91.327 Y152.831 E.01249
G1 X90.944 Y152.72 E.0125
G1 X90.586 Y152.544 E.01251
G1 X90.265 Y152.308 E.01249
G1 X89.989 Y152.02 E.01251
G1 X89.768 Y151.689 E.01248
G1 X89.607 Y151.324 E.01251
G1 X89.512 Y150.937 E.01249
G1 X89.486 Y150.539 E.01251
G1 X89.53 Y150.143 E.01249
G1 X89.641 Y149.761 E.01247
G1 X89.817 Y149.403 E.01251
G1 X90.053 Y149.082 E.01249
G1 X90.341 Y148.806 E.01251
G1 X90.672 Y148.585 E.01248
G1 X91.082 Y148.414 E.01393
M73 P0 R281
G1 X91.644 Y148.312 E.01791
G1 X92.217 Y148.346 E.018
G1 X92.6 Y148.458 E.01251
G1 X92.958 Y148.634 E.01251
G1 X93.279 Y148.869 E.01247
G1 X93.555 Y149.157 E.01251
G1 X93.776 Y149.489 E.0125
G1 X93.937 Y149.853 E.01248
G1 X94.032 Y150.24 E.01249
G1 X94.058 Y150.638 E.01251
G1 X94.014 Y151.034 E.01249
G1 X93.903 Y151.417 E.0125
G1 X93.727 Y151.774 E.01248
G1 X93.455 Y152.129 E.01402
G1 X92.997 Y152.514 E.01876
G1 X92.62 Y152.698 E.01315
M204 S1000
G1 X92.455 Y152.368 F10800
M204 S800
;TYPE:External perimeter
G1 F1200
G1 X92.088 Y152.473 E.01197
G1 X91.756 Y152.499 E.01044
G1 X91.424 Y152.467 E.01046
G1 X91.103 Y152.378 E.01044
G1 X90.803 Y152.235 E.01042
G1 X90.532 Y152.041 E.01045
G1 X90.298 Y151.804 E.01044
G1 X90.11 Y151.53 E.01042
G1 X89.971 Y151.227 E.01045
G1 X89.888 Y150.904 E.01046
G1 X89.862 Y150.572 E.01044
G1 X89.894 Y150.241 E.01043
G1 X89.983 Y149.92 E.01044
G1 X90.126 Y149.619 E.01045
G1 X90.319 Y149.348 E.01043
G1 X90.557 Y149.115 E.01044
G1 X90.831 Y148.926 E.01044
G1 X91.149 Y148.785 E.01091
G1 X91.709 Y148.683 E.01785
G1 X92.12 Y148.71 E.01291
G1 X92.441 Y148.799 E.01044
G1 X92.741 Y148.943 E.01043
G1 X93.012 Y149.136 E.01043
G1 X93.246 Y149.374 E.01046
G1 X93.434 Y149.648 E.01042
G1 X93.573 Y149.951 E.01045
G1 X93.656 Y150.273 E.01043
G1 X93.682 Y150.605 E.01044
G1 X93.65 Y150.937 E.01046
G1 X93.561 Y151.257 E.01041
G1 X93.418 Y151.558 E.01045
G1 X93.213 Y151.84 E.01093
G1 X92.755 Y152.225 E.01876
G1 X92.51 Y152.342 E.00851
M204 S1000
G1 X92.404 Y152.747 F10800
;WIPE_START
G1 F8640
G1 X92.088 Y152.473 E-.10203
G1 X91.756 Y152.499 E-.07689
G1 X91.424 Y152.467 E-.07701
G1 X91.103 Y152.378 E-.07692
G1 X90.803 Y152.235 E-.07674
G1 X90.532 Y152.041 E-.07696
G1 X90.298 Y151.804 E-.0769
G1 X90.11 Y151.53 E-.07673
G1 X89.971 Y151.227 E-.07697
G1 X89.888 Y150.904 E-.077
G1 X89.886 Y150.879 E-.00585
;WIPE_END
G1 Z.6 F720
G1 X178.896 Y56.722 F10800
G1 Z.2 F720
G1 E.8 F2100
M204 S800
;TYPE:Solid infill
;WIDTH:0.420396
G1 F1200
G1 X179.489 Y57.315 E.02632
G1 X179.489 Y57.849 E.01676
G1 X178.532 Y56.891 E.0425
G1 X177.998 Y56.891 E.01676
G1 X179.489 Y58.383 E.06621
G1 X179.489 Y58.917 E.01676
G1 X177.464 Y56.891 E.08991
G1 X176.93 Y56.891 E.01676
G1 X179.489 Y59.451 E.11361
G1 X179.489 Y59.984 E.01673
G1 X176.396 Y56.891 E.13729
G1 X175.863 Y56.891 E.01673
G1 X179.489 Y60.518 E.16097
G1 X179.489 Y61.052 E.01676
G1 X175.329 Y56.891 E.18468
G1 X174.795 Y56.891 E.01676
G1 X179.489 Y61.586 E.20838
G1 X179.489 Y62.12 E.01676
G1 X174.261 Y56.891 E.23208
G1 X173.727 Y56.891 E.01676
G1 X179.489 Y62.654 E.25579
G1 X179.489 Y63.187 E.01673
G1 X173.193 Y56.891 E.27947
G1 X172.66 Y56.891 E.01673
G1 X179.489 Y63.721 E.30315
G1 X179.489 Y64.255 E.01676
G1 X172.126 Y56.891 E.32685
G1 X171.592 Y56.891 E.01676
G1 X179.489 Y64.789 E.35056
G1 X179.489 Y65.323 E.01676
G1 X171.058 Y56.891 E.37426
G1 X170.524 Y56.891 E.01676
G1 X179.489 Y65.857 E.39796
G1 X179.489 Y66.39 E.01673
G1 X169.99 Y56.891 E.42164
G1 X169.457 Y56.891 E.01673
G1 X179.489 Y66.924 E.44533
G1 X179.489 Y67.458 E.01676
G1 X174.069 Y62.038 E.24058
G1 X173.871 Y61.617 E.0146
G1 X173.67 Y61.33 E.011
G1 X173.356 Y60.999 E.01432
G1 X172.987 Y60.725 E.01443
G1 X172.555 Y60.524 E.01496
G1 X168.923 Y56.891 E.16124
G1 X168.389 Y56.891 E.01676
G1 X171.855 Y60.358 E.15387
G1 X171.584 Y60.34 E.00852
G1 X171.335 Y60.371 E.00788
G1 X167.855 Y56.891 E.15447
G1 X167.321 Y56.891 E.01676
G1 X170.883 Y60.453 E.15811
G1 X170.653 Y60.522 E.00754
G1 X170.493 Y60.597 E.00555
G1 X166.952 Y57.056 E.15718
G1 X166.952 Y57.59 E.01676
G1 X170.156 Y60.794 E.14222
G1 X169.982 Y60.909 E.00655
G1 X169.857 Y61.028 E.00542
G1 X166.952 Y58.124 E.12893
G1 X166.952 Y58.658 E.01676
G1 X169.594 Y61.3 E.11727
G1 X169.369 Y61.609 E.012
M73 Q0 S288
G1 X166.952 Y59.192 E.10729
G1 X166.952 Y59.725 E.01673
G1 X169.191 Y61.965 E.09941
G1 X169.064 Y62.371 E.01335
G1 X166.952 Y60.259 E.09375
G1 X166.952 Y60.793 E.01676
G1 X169.007 Y62.848 E.09122
G1 X168.991 Y63.031 E.00577
G1 X169.026 Y63.401 E.01167
G1 X166.783 Y61.157 E.09959
M204 S1000
;WIPE_START
G1 F8640
G1 X169.026 Y63.401 E-.73261
G1 X168.999 Y63.11 E-.06739
;WIPE_END
G1 Z.6 F720
G1 X174.028 Y62.531 F10800
G1 Z.2 F720
G1 E.8 F2100
M204 S800
G1 F1200
G1 X179.489 Y67.992 E.2424
G1 X179.489 Y68.526 E.01676
G1 X174.216 Y63.252 E.23408
G1 X174.204 Y63.419 E.00526
G1 X174.131 Y63.701 E.00914
G1 X179.489 Y69.059 E.23783
G1 X179.489 Y69.593 E.01676
G1 X173.975 Y64.079 E.24476
G1 X173.855 Y64.336 E.0089
G1 X173.789 Y64.426 E.0035
G1 X179.489 Y70.127 E.25304
G1 X179.489 Y70.661 E.01676
G1 X173.557 Y64.729 E.26331
G1 X173.283 Y64.989 E.01186
G1 X179.489 Y71.195 E.27547
G1 X179.489 Y71.729 E.01676
G1 X172.968 Y65.207 E.28948
G1 X172.617 Y65.39 E.01242
G1 X179.489 Y72.262 E.30504
G1 X179.489 Y72.796 E.01676
G1 X172.208 Y65.515 E.32319
G1 X172.081 Y65.551 E.00414
G1 X171.743 Y65.584 E.01066
G1 X179.489 Y73.33 E.34383
G1 X179.489 Y73.864 E.01676
G1 X170.942 Y65.317 E.37939
M204 S1000
;WIPE_START
G1 F8640
G1 X173.392 Y67.767 E-.8
;WIPE_END
G1 Z.6 F720
G1 X179.659 Y74.567 F10800
G1 Z.2 F720
G1 E.8 F2100
M204 S800
G1 F1200
G1 X166.952 Y61.861 E.56402
G1 X166.952 Y62.395 E.01676
G1 X179.489 Y74.932 E.5565
G1 X179.489 Y75.465 E.01673
G1 X166.952 Y62.928 E.5565
G1 X166.952 Y63.462 E.01676
G1 X179.489 Y75.999 E.5565
G1 X179.489 Y76.533 E.01676
G1 X166.952 Y63.996 E.5565
G1 X166.952 Y64.53 E.01676
G1 X179.489 Y77.067 E.5565
G1 X179.489 Y77.601 E.01676
G1 X166.952 Y65.064 E.5565
G1 X166.952 Y65.598 E.01676
G1 X179.489 Y78.135 E.5565
G1 X179.489 Y78.668 E.01673
G1 X166.952 Y66.131 E.5565
G1 X166.952 Y66.665 E.01676
G1 X179.489 Y79.202 E.5565
G1 X179.489 Y79.736 E.01676
G1 X166.952 Y67.199 E.5565
G1 X166.952 Y67.733 E.01676
G1 X179.489 Y80.27 E.5565
G1 X179.489 Y80.804 E.01676
G1 X166.952 Y68.267 E.5565
G1 X166.952 Y68.801 E.01676
G1 X179.489 Y81.338 E.5565
G1 X179.489 Y81.871 E.01673
G1 X166.952 Y69.334 E.5565
G1 X166.952 Y69.868 E.01676
G1 X179.489 Y82.405 E.5565
G1 X179.489 Y82.939 E.01676
G1 X166.952 Y70.402 E.5565
G1 X166.952 Y70.936 E.01676
G1 X179.489 Y83.473 E.5565
G1 X179.489 Y84.007 E.01676
G1 X166.952 Y71.47 E.5565
G1 X166.952 Y72.004 E.01676
G1 X179.489 Y84.541 E.5565
G1 X179.489 Y85.074 E.01673
G1 X166.952 Y72.537 E.5565
G1 X166.952 Y73.071 E.01676
G1 X179.489 Y85.608 E.5565
G1 X179.489 Y86.142 E.01676
G1 X166.952 Y73.605 E.5565
G1 X166.952 Y74.139 E.01676
G1 X179.489 Y86.676 E.5565
G1 X179.489 Y87.21 E.01676
G1 X166.952 Y74.673 E.5565
G1 X166.952 Y75.207 E.01676
G1 X179.489 Y87.744 E.5565
G1 X179.489 Y88.277 E.01673
G1 X166.952 Y75.74 E.5565
G1 X166.952 Y76.274 E.01676
G1 X179.489 Y88.811 E.5565
G1 X179.489 Y89.345 E.01676
G1 X166.952 Y76.808 E.5565
G1 X166.952 Y77.342 E.01676
G1 X179.489 Y89.879 E.5565
G1 X179.489 Y90.413 E.01676
G1 X166.952 Y77.876 E.5565
G1 X166.952 Y78.409 E.01673
G1 X179.489 Y90.947 E.55652
G1 X179.489 Y91.48 E.01673
G1 X166.952 Y78.943 E.5565
G1 X166.952 Y79.477 E.01676
