; generated by PrusaSlicer 2.7.0+win64 on 2024-01-12 at 01:50:53 UTC


;
;
; 

; external perimeters extrusion width = 0.45mm
; perimeters extrusion width = 0.45mm
; infill extrusion width = 0.45mm
; solid infill extrusion width = 0.45mm
; top infill extrusion width = 0.40mm
; first layer extrusion width = 0.42mm

; external perimeters extrusion width = 0.45mm
; perimeters extrusion width = 0.45mm
; infill extrusion width = 0.45mm
; solid infill extrusion width = 0.45mm
; top infill extrusion width = 0.40mm
; first layer extrusion width = 0.42mm

; external perimeters extrusion width = 0.45mm
; perimeters extrusion width = 0.45mm
; infill extrusion width = 0.45mm
; solid infill extrusion width = 0.45mm
; top infill extrusion width = 0.40mm
; first layer extrusion width = 0.42mm

; external perimeters extrusion width = 0.45mm
; perimeters extrusion width = 0.45mm
; infill extrusion width = 0.45mm
; solid infill extrusion width = 0.45mm
; top infill extrusion width = 0.40mm
; first layer extrusion width = 0.42mm

; external perimeters extrusion width = 0.45mm
; perimeters extrusion width = 0.45mm
; infill extrusion width = 0.45mm
; solid infill extrusion width = 0.45mm
; top infill extrusion width = 0.40mm
; first layer extrusion width = 0.42mm

M73 P0 R72
M73 Q0 S74
M201 X1000 Y1000 Z200 E5000 ; sets maximum accelerations, mm/sec^2
M203 X200 Y200 Z12 E120 ; sets maximum feedrates, mm / sec
M204 S1250 T1250 ; sets acceleration (S) and retract acceleration (R), mm/sec^2
M205 X8.00 Y8.00 Z0.40 E4.50 ; sets the jerk limits, mm/sec
M205 S0 T0 ; sets the minimum extruding and travel feed rate, mm/sec

; printing object Bracket4.stl id:2 copy 0
; stop printing object Bracket4.stl id:2 copy 0
; printing object Bracket3.stl id:1 copy 0
; stop printing object Bracket3.stl id:1 copy 0
; printing object Bracket5.stl id:3 copy 0
; stop printing object Bracket5.stl id:3 copy 0
; printing object Bracket2.stl id:0 copy 0
; stop printing object Bracket2.stl id:0 copy 0
; printing object Bracket6.stl id:4 copy 0
; stop printing object Bracket6.stl id:4 copy 0

;TYPE:Custom
M862.3 P "MK3S" ; printer model check
M862.1 P0.4 ; nozzle diameter check
M115 U3.13.2 ; tell printer latest fw version
G90 ; use absolute coordinates
M83 ; extruder relative mode
M104 S215 ; set extruder temp
M140 S60 ; set bed temp
M190 S60 ; wait for bed temp
M109 S215 ; wait for extruder temp
G28 W ; home all without mesh bed level
G80 X78.3594 Y53.6244 W93.2812 H102.751 ; mesh bed levelling

G1 Z0.2 F720
G1 Y-3 F1000 ; go outside print area
G92 E0
G1 X60 E9 F1000 ; intro line
G1 X100 E12.5 F1000 ; intro line

G92 E0
M221 S95

; Don't change E values below. Excessive value can damage the printer.

M907 E538 ; set extruder motor current
G21 ; set units to millimeters
G90 ; use absolute coordinates
M83 ; use relative distances for extrusion
M900 K0.05 ; Filament gcode LA 1.5
M900 K30 ; Filament gcode LA 1.0

M107
;LAYER_CHANGE
;Z:0.2
;HEIGHT:0.2
;BEFORE_LAYER_CHANGE
G92 E0.0
;0.2


G1 E-.8 F2100
G1 Z.2 F720
;AFTER_LAYER_CHANGE
;0.2
G1 X86.683 Y81.173 F10800
G1 Z.2 F720
G1 E.8 F2100
M204 S800
;TYPE:Skirt/Brim
;WIDTH:0.42
G1 F1200
G1 X111.6 Y54.565 E1.14297
G1 X113.335 Y53.813 E.05929
G1 X135.915 Y53.813 E.70798
G1 X137.631 Y54.545 E.05849
G1 X170.791 Y89.155 E1.50286
G1 X171.452 Y90.8 E.05559
G1 X171.452 Y119.2 E.89046
G1 X170.791 Y120.845 E.05559
G1 X137.631 Y155.455 E1.50286
G1 X135.915 Y156.187 E.05849
G1 X113.335 Y156.187 E.70798
G1 X111.6 Y155.435 E.05929
G1 X79.19 Y120.825 E1.48669
G1 X78.548 Y119.2 E.05478
G1 X78.548 Y90.8 E.89046
G1 X79.19 Y89.175 E.05478
G1 X86.642 Y81.217 E.34184
M204 S1000
; printing object Bracket5.stl id:3 copy 0
;WIPE_START
G1 F8640
G1 X86.683 Y81.173 E-.01389
G1 X89.01 Y78.688 E-.78611
;WIPE_END
G1 Z.6 F720
G1 X135.128 Y126.197 F10800
G1 Z.2 F720
G1 E.8 F2100
M204 S800
;TYPE:Perimeter
;WIDTH:0.419999
G1 F1200
G1 X135.128 Y131.878 E.17812
G1 X135.128 Y153.023 E.66299
G1 X114.122 Y153.023 E.65863
G1 X114.122 Y126.197 E.84111
G1 X135.068 Y126.197 E.65675
M204 S1000
G1 X135.505 Y125.82 F10800
M204 S800
;TYPE:External perimeter
G1 F1200
G1 X135.505 Y131.878 E.18994
G1 X135.505 Y153.4 E.67481
G1 X113.745 Y153.4 E.68227
G1 X113.745 Y125.82 E.86475
G1 X135.445 Y125.82 E.68039
M204 S1000
;WIPE_START
G1 F8640
M73 P0 R71
G1 X135.505 Y125.82 E-.01385
G1 X135.505 Y129.225 E-.78615
;WIPE_END
G1 Z.6 F720
G1 X125.272 Y139.744 F10800
G1 Z.2 F720
G1 E.8 F2100
M204 S800
;TYPE:Perimeter
G1 F1200
G1 X125.258 Y139.421 E.01014
G1 X125.433 Y138.721 E.02262
G1 X125.694 Y138.256 E.01672
G1 X126.035 Y137.886 E.01578
G1 X126.448 Y137.6 E.01575
G1 X126.914 Y137.411 E.01577
G1 X127.455 Y137.326 E.01717
G1 X128.121 Y137.406 E.02103
G1 X128.623 Y137.601 E.01689
G1 X129.036 Y137.887 E.01575
G1 X129.377 Y138.257 E.01578
G1 X129.627 Y138.692 E.01573
G1 X129.806 Y139.391 E.02262
G1 X129.798 Y139.925 E.01675
G1 X129.675 Y140.412 E.01575
G1 X129.463 Y140.834 E.01481
G1 X128.964 Y141.388 E.02338
G1 X128.51 Y141.677 E.01687
G1 X128.033 Y141.841 E.01582
G1 X127.32 Y141.881 E.02239
G1 X126.792 Y141.771 E.01691
G1 X126.338 Y141.556 E.01575
G1 X125.793 Y141.084 E.02261
G1 X125.511 Y140.668 E.01576
G1 X125.281 Y139.959 E.02337
G1 X125.274 Y139.804 E.00486
M204 S1000
G1 X125.635 Y139.439 F10800
M204 S800
;TYPE:External perimeter
G1 F1200
G1 X125.635 Y139.421 E.00056
G1 X125.796 Y138.824 E.01939
G1 X126.041 Y138.421 E.01479
G1 X126.337 Y138.123 E.01317
G1 X126.691 Y137.897 E.01317
G1 X127.086 Y137.754 E.01317
G1 X127.483 Y137.704 E.01255
G1 X128.073 Y137.78 E.01865
G1 X128.508 Y137.967 E.01485
G1 X128.843 Y138.219 E.01314
G1 X129.116 Y138.539 E.01319
G1 X129.314 Y138.92 E.01346
G1 X129.438 Y139.474 E.0178
G1 X129.415 Y139.945 E.01479
G1 X129.297 Y140.347 E.01314
G1 X129.101 Y140.697 E.01258
G1 X128.691 Y141.127 E.01863
G1 X128.284 Y141.367 E.01481
G1 X127.9 Y141.481 E.01256
G1 X127.306 Y141.504 E.01864
G1 X126.846 Y141.391 E.01485
G1 X126.466 Y141.191 E.01346
G1 X126.047 Y140.805 E.01786
G1 X125.81 Y140.423 E.0141
G1 X125.643 Y139.853 E.01862
G1 X125.636 Y139.499 E.0111
M204 S1000
;WIPE_START
G1 F8640
G1 X125.635 Y139.439 E-.01386
G1 X125.635 Y139.421 E-.00416
G1 X125.796 Y138.824 E-.14277
G1 X126.041 Y138.421 E-.1089
G1 X126.337 Y138.123 E-.09698
G1 X126.691 Y137.897 E-.09698
G1 X127.086 Y137.754 E-.097
G1 X127.483 Y137.704 E-.09239
G1 X128.073 Y137.78 E-.13736
G1 X128.111 Y137.796 E-.0096
;WIPE_END
G1 Z.6 F720
G1 X134.958 Y127.134 F10800
G1 Z.2 F720
M73 Q0 S73
G1 E.8 F2100
M204 S800
;TYPE:Solid infill
;WIDTH:0.422414
G1 F1200
G1 X134.361 Y126.536 E.02666
G1 X133.824 Y126.536 E.01695
G1 X134.789 Y127.501 E.04306
G1 X134.789 Y128.038 E.01695
G1 X133.287 Y126.536 E.06703
G1 X132.75 Y126.536 E.01695
G1 X134.789 Y128.575 E.09099
G1 X134.789 Y129.111 E.01691
G1 X132.214 Y126.536 E.11491
G1 X131.677 Y126.536 E.01695
G1 X134.789 Y129.648 E.13887
G1 X134.789 Y130.185 E.01695
G1 X131.14 Y126.536 E.16284
G1 X130.604 Y126.536 E.01691
G1 X134.789 Y130.721 E.18676
G1 X134.789 Y131.258 E.01695
G1 X130.067 Y126.536 E.21072
G1 X129.53 Y126.536 E.01695
G1 X134.789 Y131.795 E.23469
G1 X134.789 Y132.331 E.01691
G1 X128.994 Y126.536 E.25861
G1 X128.457 Y126.536 E.01695
G1 X134.789 Y132.868 E.28257
G1 X134.789 Y133.405 E.01695
G1 X127.92 Y126.536 E.30653
G1 X127.384 Y126.536 E.01691
G1 X134.789 Y133.941 E.33045
G1 X134.789 Y134.478 E.01695
G1 X126.847 Y126.536 E.35442
G1 X126.31 Y126.536 E.01695
G1 X134.789 Y135.015 E.37838
G1 X134.789 Y135.551 E.01691
G1 X125.774 Y126.536 E.4023
G1 X125.237 Y126.536 E.01695
G1 X134.789 Y136.088 E.42626
G1 X134.789 Y136.625 E.01695
G1 X124.7 Y126.536 E.45023
G1 X124.164 Y126.536 E.01691
G1 X134.789 Y137.161 E.47415
G1 X134.789 Y137.698 E.01695
M73 P1 R71
G1 X123.627 Y126.536 E.49811
G1 X123.09 Y126.536 E.01695
M73 Q1 S73
G1 X134.789 Y138.235 E.52207
G1 X134.789 Y138.772 E.01695
G1 X122.553 Y126.536 E.54604
G1 X122.017 Y126.536 E.01691
G1 X134.789 Y139.308 E.56996
G1 X134.789 Y139.845 E.01695
G1 X121.48 Y126.536 E.59392
G1 X120.943 Y126.536 E.01695
G1 X134.789 Y140.382 E.61789
G1 X134.789 Y140.918 E.01691
G1 X120.407 Y126.536 E.64181
G1 X119.87 Y126.536 E.01695
G1 X134.789 Y141.455 E.66577
G1 X134.789 Y141.992 E.01695
G1 X119.333 Y126.536 E.68973
G1 X118.797 Y126.536 E.01691
G1 X134.789 Y142.528 E.71365
G1 X134.789 Y143.065 E.01695
G1 X118.26 Y126.536 E.73762
G1 X117.723 Y126.536 E.01695
G1 X128.289 Y137.102 E.47151
G1 X128.403 Y137.134 E.00374
G1 X128.767 Y137.293 E.01253
G1 X128.925 Y137.385 E.00577
G1 X129.244 Y137.619 E.01248
G1 X129.378 Y137.743 E.00576
G1 X129.638 Y138.041 E.01248
G1 X129.742 Y138.191 E.00576
G1 X129.931 Y138.54 E.01252
G1 X130.031 Y138.844 E.0101
G1 X134.789 Y143.602 E.21233
G1 X134.789 Y144.138 E.01691
G1 X130.154 Y139.504 E.20682
G1 X130.128 Y140.015 E.01615
G1 X134.789 Y144.675 E.20798
G1 X134.789 Y145.212 E.01695
G1 X130.018 Y140.442 E.21289
G1 X129.932 Y140.678 E.00793
G1 X129.857 Y140.817 E.00498
G1 X134.789 Y145.748 E.22007
G1 X134.789 Y146.285 E.01695
G1 X129.652 Y141.149 E.22922
G1 X129.395 Y141.428 E.01197
G1 X134.789 Y146.822 E.24071
G1 X134.789 Y147.359 E.01695
G1 X129.123 Y141.692 E.25287
G1 X129.017 Y141.776 E.00427
G1 X128.796 Y141.903 E.00804
G1 X134.789 Y147.895 E.26742
G1 X134.789 Y148.432 E.01695
G1 X128.422 Y142.065 E.28413
G1 X128.159 Y142.158 E.0088
G1 X128.005 Y142.185 E.00493
G1 X134.789 Y148.969 E.30274
G1 X134.789 Y149.505 E.01691
G1 X127.333 Y142.05 E.33271
M204 S1000
;WIPE_START
G1 F8640
G1 X129.783 Y144.5 E-.8
;WIPE_END
G1 Z.6 F720
G1 X127.853 Y137.203 F10800
G1 Z.2 F720
G1 E.8 F2100
M204 S800
G1 F1200
G1 X117.187 Y126.536 E.476
G1 X116.65 Y126.536 E.01695
G1 X127.141 Y137.028 E.46819
G1 X126.888 Y137.063 E.00806
G1 X126.706 Y137.129 E.00611
G1 X116.113 Y126.536 E.47272
G1 X115.577 Y126.536 E.01691
G1 X126.324 Y137.284 E.47961
G1 X125.995 Y137.491 E.01227
G1 X115.04 Y126.536 E.48887
G1 X114.503 Y126.536 E.01695
G1 X125.706 Y137.739 E.49994
G1 X125.448 Y138.018 E.01199
G1 X114.461 Y127.031 E.4903
G1 X114.461 Y127.568 E.01695
G1 X125.245 Y138.351 E.48122
G1 X125.149 Y138.509 E.00583
G1 X125.084 Y138.728 E.00721
G1 X114.461 Y128.105 E.47406
G1 X114.461 Y128.641 E.01691
G1 X124.962 Y139.142 E.46861
G1 X124.918 Y139.412 E.00863
G1 X124.923 Y139.64 E.0072
G1 X114.461 Y129.178 E.46687
G1 X114.461 Y129.715 E.01695
G1 X125.023 Y140.277 E.47134
G1 X125.126 Y140.634 E.01172
G1 X125.218 Y140.839 E.00709
G1 X125.477 Y141.243 E.01514
G1 X125.988 Y141.724 E.02214
G1 X126.176 Y141.855 E.00723
G1 X126.613 Y142.071 E.01538
G1 X126.89 Y142.144 E.00904
G1 X134.789 Y150.042 E.35248
G1 X134.789 Y150.579 E.01695
G1 X114.461 Y130.252 E.90713
G1 X114.461 Y130.788 E.01691
G1 X134.789 Y151.115 E.90713
G1 X134.789 Y151.652 E.01695
G1 X114.461 Y131.325 E.90713
G1 X114.461 Y131.862 E.01695
G1 X134.789 Y152.189 E.90713
G1 X134.789 Y152.684 E.01562
G1 X134.747 Y152.684 E.00133
G1 X114.461 Y132.398 E.90527
G1 X114.461 Y132.935 E.01695
G1 X134.21 Y152.684 E.88131
G1 X133.673 Y152.684 E.01695
G1 X114.461 Y133.472 E.85735
G1 X114.461 Y134.008 E.01691
G1 X133.137 Y152.684 E.83343
G1 X132.6 Y152.684 E.01695
G1 X114.461 Y134.545 E.80946
G1 X114.461 Y135.082 E.01695
G1 X132.063 Y152.684 E.7855
G1 X131.527 Y152.684 E.01691
G1 X114.461 Y135.618 E.76158
G1 X114.461 Y136.155 E.01695
M73 P2 R71
G1 X130.99 Y152.684 E.73762
G1 X130.453 Y152.684 E.01695
G1 X114.461 Y136.692 E.71365
G1 X114.461 Y137.228 E.01691
M73 Q2 S73
G1 X129.917 Y152.684 E.68973
G1 X129.38 Y152.684 E.01695
G1 X114.461 Y137.765 E.66577
G1 X114.461 Y138.302 E.01695
G1 X128.843 Y152.684 E.64181
G1 X128.307 Y152.684 E.01691
M73 P2 R70
G1 X114.461 Y138.839 E.61786
G1 X114.461 Y139.375 E.01691
G1 X127.77 Y152.684 E.59392
G1 X127.233 Y152.684 E.01695
G1 X114.461 Y139.912 E.56996
G1 X114.461 Y140.449 E.01695
M73 Q2 S72
G1 X126.696 Y152.684 E.54599
G1 X126.16 Y152.684 E.01691
G1 X114.461 Y140.985 E.52207
G1 X114.461 Y141.522 E.01695
G1 X125.623 Y152.684 E.49811
G1 X125.086 Y152.684 E.01695
G1 X114.461 Y142.059 E.47415
G1 X114.461 Y142.595 E.01691
G1 X124.55 Y152.684 E.45023
G1 X124.013 Y152.684 E.01695
G1 X114.461 Y143.132 E.42626
G1 X114.461 Y143.669 E.01695
G1 X123.476 Y152.684 E.4023
G1 X122.94 Y152.684 E.01691
G1 X114.461 Y144.205 E.37838
G1 X114.461 Y144.742 E.01695
G1 X122.403 Y152.684 E.35442
G1 X121.866 Y152.684 E.01695
G1 X114.461 Y145.279 E.33045
G1 X114.461 Y145.815 E.01691
G1 X121.33 Y152.684 E.30653
G1 X120.793 Y152.684 E.01695
G1 X114.461 Y146.352 E.28257
G1 X114.461 Y146.889 E.01695
G1 X120.256 Y152.684 E.25861
G1 X119.72 Y152.684 E.01691
G1 X114.461 Y147.425 E.23469
G1 X114.461 Y147.962 E.01695
G1 X119.183 Y152.684 E.21072
G1 X118.646 Y152.684 E.01695
G1 X114.461 Y148.499 E.18676
G1 X114.461 Y149.036 E.01695
G1 X118.109 Y152.684 E.16279
G1 X117.573 Y152.684 E.01691
G1 X114.461 Y149.572 E.13887
G1 X114.461 Y150.109 E.01695
G1 X117.036 Y152.684 E.11491
G1 X116.499 Y152.684 E.01695
G1 X114.461 Y150.646 E.09095
G1 X114.461 Y151.182 E.01691
G1 X115.963 Y152.684 E.06703
G1 X115.426 Y152.684 E.01695
G1 X114.461 Y151.719 E.04306
G1 X114.461 Y152.256 E.01695
G1 X115.059 Y152.853 E.02666
M204 S1000
; stop printing object Bracket5.stl id:3 copy 0
; printing object Bracket2.stl id:0 copy 0
;WIPE_START
G1 F8640
G1 X114.461 Y152.256 E-.19511
G1 X114.461 Y151.719 E-.12399
G1 X115.426 Y152.684 E-.31512
G1 X115.963 Y152.684 E-.12399
G1 X115.835 Y152.556 E-.04179
;WIPE_END
G1 Z.6 F720
G1 X168.288 Y118.413 F10800
G1 Z.2 F720
G1 E.8 F2100
M204 S800
;TYPE:Perimeter
;WIDTH:0.419999
G1 F1200
G1 X146.112 Y118.413 E.69531
G1 X146.112 Y91.587 E.84111
G1 X168.288 Y91.587 E.69531
G1 X168.288 Y97.425 E.18305
G1 X168.288 Y118.353 E.65618
M204 S1000
G1 X168.665 Y118.79 F10800
M204 S800
;TYPE:External perimeter
G1 F1200
G1 X145.735 Y118.79 E.71895
G1 X145.735 Y91.21 E.86475
G1 X168.665 Y91.21 E.71895
G1 X168.665 Y97.425 E.19487
G1 X168.665 Y118.73 E.668
M204 S1000
;WIPE_START
G1 F8640
G1 X168.665 Y118.79 E-.01385
G1 X165.26 Y118.79 E-.78615
;WIPE_END
G1 Z.6 F720
G1 X157.267 Y105.268 F10800
G1 Z.2 F720
G1 E.8 F2100
M204 S800
;TYPE:Perimeter
G1 F1200
G1 X157.248 Y104.811 E.01434
G1 X157.344 Y104.317 E.01578
G1 X157.546 Y103.857 E.01575
G1 X158.004 Y103.299 E.02263
G1 X158.438 Y102.99 E.0167
G1 X158.904 Y102.801 E.01577
G1 X159.445 Y102.716 E.01717
G1 X160.111 Y102.796 E.02103
G1 X160.613 Y102.991 E.01689
G1 X161.026 Y103.277 E.01575
G1 X161.367 Y103.647 E.01578
G1 X161.618 Y104.083 E.01577
G1 X161.768 Y104.562 E.01574
G1 X161.789 Y105.283 E.02262
G1 X161.674 Y105.773 E.01578
G1 X161.308 Y106.422 E.02336
G1 X160.928 Y106.804 E.01689
G1 X160.5 Y107.067 E.01575
G1 X159.98 Y107.24 E.01718
G1 X159.31 Y107.271 E.02103
G1 X158.782 Y107.161 E.01691
G1 X158.328 Y106.946 E.01575
G1 X157.783 Y106.474 E.02261
G1 X157.501 Y106.058 E.01576
G1 X157.271 Y105.349 E.02337
G1 X157.27 Y105.327 E.00069
M204 S1000
G1 X157.632 Y105.215 F10800
M204 S800
;TYPE:External perimeter
G1 F1200
G1 X157.625 Y104.811 E.01267
G1 X157.726 Y104.36 E.01449
G1 X157.916 Y103.975 E.01346
G1 X158.288 Y103.547 E.01778
G1 X158.681 Y103.287 E.01477
G1 X159.076 Y103.144 E.01317
G1 X159.473 Y103.094 E.01255
G1 X160.063 Y103.17 E.01865
G1 X160.498 Y103.357 E.01485
G1 X160.833 Y103.609 E.01314
G1 X161.106 Y103.929 E.01319
G1 X161.302 Y104.301 E.01318
G1 X161.412 Y104.716 E.01346
G1 X161.412 Y105.283 E.01778
G1 X161.291 Y105.718 E.01416
G1 X160.985 Y106.228 E.01865
G1 X160.639 Y106.551 E.01484
G1 X160.274 Y106.757 E.01314
G1 X159.89 Y106.871 E.01256
G1 X159.296 Y106.894 E.01864
G1 X158.836 Y106.781 E.01485
G1 X158.456 Y106.581 E.01346
G1 X158.037 Y106.195 E.01786
G1 X157.8 Y105.813 E.0141
G1 X157.642 Y105.273 E.01764
M204 S1000
;WIPE_START
G1 F8640
G1 X157.632 Y105.215 E-.01359
G1 X157.625 Y104.811 E-.0933
G1 X157.726 Y104.36 E-.10672
G1 X157.916 Y103.975 E-.09913
G1 X158.288 Y103.547 E-.13094
G1 X158.681 Y103.287 E-.10881
G1 X159.076 Y103.144 E-.097
G1 X159.473 Y103.094 E-.09239
G1 X159.723 Y103.126 E-.05812
;WIPE_END
G1 Z.6 F720
G1 X168.118 Y92.526 F10800
G1 Z.2 F720
G1 E.8 F2100
M204 S800
;TYPE:Solid infill
;WIDTH:0.423173
G1 F1200
G1 X167.519 Y91.926 E.02681
G1 X166.981 Y91.926 E.01701
G1 X167.949 Y92.894 E.04328
