; generated by PrusaSlicer 2.7.0+win64 on 2024-01-12 at 19:02:59 UTC


;
;
; 

; external perimeters extrusion width = 0.45mm
; perimeters extrusion width = 0.45mm
; infill extrusion width = 0.45mm
; solid infill extrusion width = 0.45mm
; top infill extrusion width = 0.40mm
; first layer extrusion width = 0.42mm

; external perimeters extrusion width = 0.45mm
; perimeters extrusion width = 0.45mm
; infill extrusion width = 0.45mm
; solid infill extrusion width = 0.45mm
; top infill extrusion width = 0.40mm
; first layer extrusion width = 0.42mm

; external perimeters extrusion width = 0.45mm
; perimeters extrusion width = 0.45mm
; infill extrusion width = 0.45mm
; solid infill extrusion width = 0.45mm
; top infill extrusion width = 0.40mm
; first layer extrusion width = 0.42mm

M73 P0 R76
M73 Q0 S77
M201 X1000 Y1000 Z200 E5000 ; sets maximum accelerations, mm/sec^2
M203 X200 Y200 Z12 E120 ; sets maximum feedrates, mm / sec
M204 S1250 T1250 ; sets acceleration (S) and retract acceleration (R), mm/sec^2
M205 X8.00 Y8.00 Z0.40 E4.50 ; sets the jerk limits, mm/sec
M205 S0 T0 ; sets the minimum extruding and travel feed rate, mm/sec

; printing object Bracket6.stl id:1 copy 0
; stop printing object Bracket6.stl id:1 copy 0
; printing object Bracket7.stl id:0 copy 0
; stop printing object Bracket7.stl id:0 copy 0
; printing object Bracket7.stl id:0 copy 1
; stop printing object Bracket7.stl id:0 copy 1
; printing object Bracket3 V2.stl id:2 copy 0
; stop printing object Bracket3 V2.stl id:2 copy 0
; printing object Bracket3 V2.stl id:2 copy 1
; stop printing object Bracket3 V2.stl id:2 copy 1

;TYPE:Custom
M862.3 P "MK3S" ; printer model check
M862.1 P0.4 ; nozzle diameter check
M115 U3.13.2 ; tell printer latest fw version
G90 ; use absolute coordinates
M83 ; extruder relative mode
M104 S215 ; set extruder temp
M140 S60 ; set bed temp
M190 S60 ; wait for bed temp
M109 S215 ; wait for extruder temp
G28 W ; home all without mesh bed level
G80 X72.3344 Y63.3694 W105.331 H83.2612 ; mesh bed levelling

G1 Z0.2 F720
G1 Y-3 F1000 ; go outside print area
G92 E0
G1 X60 E9 F1000 ; intro line
G1 X100 E12.5 F1000 ; intro line

G92 E0
M221 S95

; Don't change E values below. Excessive value can damage the printer.

M907 E538 ; set extruder motor current
G21 ; set units to millimeters
G90 ; use absolute coordinates
M83 ; use relative distances for extrusion
M900 K0.05 ; Filament gcode LA 1.5
M900 K30 ; Filament gcode LA 1.0

M107
;LAYER_CHANGE
;Z:0.2
;HEIGHT:0.2
;BEFORE_LAYER_CHANGE
G92 E0.0
;0.2


G1 E-.8 F2100
G1 Z.2 F720
;AFTER_LAYER_CHANGE
;0.2
G1 X73.735 Y83.773 F10800
G1 Z.2 F720
G1 E.8 F2100
M204 S800
;TYPE:Skirt/Brim
;WIDTH:0.42
G1 F1200
G1 X109.135 Y63.863 E1.27345
G1 X110.3 Y63.558 E.03776
G1 X139.7 Y63.558 E.92182
G1 X140.865 Y63.863 E.03776
M73 P0 R75
G1 X176.265 Y83.773 E1.27345
G1 X177.213 Y84.755 E.0428
G1 X177.477 Y85.845 E.03516
G1 X177.477 Y109.665 E.74686
G1 X177.085 Y110.972 E.04278
G1 X176.265 Y111.737 E.03516
G1 X140.865 Y131.647 E1.27345
G1 X105.2 Y146.265 E1.20854
G1 X104.3 Y146.442 E.02876
G1 X81.72 Y146.442 E.70798
G1 X80.413 Y146.05 E.04278
G1 X79.388 Y144.527 E.05756
G1 X72.568 Y110.127 E1.09958
G1 X72.523 Y85.845 E.76135
G1 X72.915 Y84.538 E.04278
G1 X73.691 Y83.814 E.03328
M204 S1000
; printing object Bracket7.stl id:0 copy 0
;WIPE_START
G1 F8640
G1 X73.735 Y83.773 E-.01389
G1 X76.702 Y82.104 E-.78611
;WIPE_END
G1 Z.6 F720
G1 X75.687 Y86.632 F10800
G1 Z.2 F720
G1 E.8 F2100
M204 S800
;TYPE:Perimeter
;WIDTH:0.419999
G1 F1200
G1 X103.513 Y86.632 E.87246
G1 X103.513 Y94.047 E.23249
G1 X103.513 Y108.878 E.46501
G1 X75.687 Y108.878 E.87246
G1 X75.687 Y86.692 E.69563
M204 S1000
G1 X75.31 Y86.255 F10800
M204 S800
;TYPE:External perimeter
G1 F1200
G1 X103.89 Y86.255 E.8961
G1 X103.89 Y94.047 E.24431
G1 X103.89 Y109.255 E.47684
G1 X75.31 Y109.255 E.8961
G1 X75.31 Y86.315 E.71927
M204 S1000
;WIPE_START
G1 F8640
G1 X75.31 Y86.255 E-.01385
G1 X78.715 Y86.255 E-.78615
;WIPE_END
G1 Z.6 F720
G1 X92.37 Y101.526 F10800
G1 Z.2 F720
G1 E.8 F2100
M204 S800
;TYPE:Perimeter
G1 F1200
G1 X92.363 Y101.98 E.01424
G1 X92.24 Y102.466 E.01572
G1 X91.88 Y103.092 E.02264
G1 X91.503 Y103.469 E.01672
G1 X91.074 Y103.732 E.01578
G1 X90.6 Y103.895 E.01572
G1 X89.879 Y103.936 E.02264
G1 X89.357 Y103.826 E.01673
G1 X88.903 Y103.611 E.01575
G1 X88.358 Y103.139 E.02261
G1 X88.061 Y102.696 E.01672
G1 X87.885 Y102.226 E.01574
G1 X87.824 Y101.507 E.02262
G1 X87.919 Y100.983 E.0167
G1 X88.244 Y100.338 E.02265
G1 X88.6 Y99.941 E.01672
G1 X89.013 Y99.655 E.01575
G1 X89.479 Y99.466 E.01577
G1 X90.195 Y99.385 E.02259
G1 X90.722 Y99.466 E.01672
G1 X91.188 Y99.656 E.01578
G1 X91.601 Y99.942 E.01575
G1 X91.942 Y100.312 E.01578
G1 X92.192 Y100.747 E.01573
G1 X92.371 Y101.446 E.02262
G1 X92.371 Y101.466 E.00063
M204 S1000
G1 X92.002 Y101.559 F10800
M204 S800
;TYPE:External perimeter
G1 F1200
G1 X91.98 Y102 E.01384
G1 X91.856 Y102.411 E.01346
G1 X91.559 Y102.895 E.0178
G1 X91.214 Y103.216 E.01478
G1 X90.848 Y103.422 E.01317
G1 X90.436 Y103.543 E.01346
G1 X89.869 Y103.559 E.01778
G1 X89.411 Y103.446 E.01479
G1 X89.031 Y103.246 E.01346
G1 X88.614 Y102.861 E.0178
G1 X88.364 Y102.461 E.01479
G1 X88.232 Y102.053 E.01345
G1 X88.2 Y101.486 E.01781
G1 X88.305 Y101.017 E.01507
G1 X88.575 Y100.518 E.01779
G1 X88.902 Y100.178 E.01479
G1 X89.256 Y99.952 E.01317
G1 X89.661 Y99.808 E.01348
G1 X90.227 Y99.761 E.01781
G1 X90.69 Y99.849 E.01478
G1 X91.073 Y100.022 E.01318
G1 X91.408 Y100.274 E.01314
G1 X91.681 Y100.594 E.01319
G1 X91.879 Y100.975 E.01346
G1 X91.997 Y101.5 E.01687
M204 S1000
;WIPE_START
G1 F8640
G1 X92.002 Y101.559 E-.01367
G1 X91.98 Y102 E-.10195
G1 X91.856 Y102.411 E-.09913
G1 X91.559 Y102.895 E-.13112
G1 X91.214 Y103.216 E-.10881
G1 X90.848 Y103.422 E-.09698
G1 X90.436 Y103.543 E-.09915
G1 X89.869 Y103.559 E-.13097
G1 X89.792 Y103.54 E-.01822
;WIPE_END
G1 Z.6 F720
G1 X102.574 Y86.802 F10800
G1 Z.2 F720
G1 E.8 F2100
M204 S800
;TYPE:Solid infill
;WIDTH:0.42313
G1 F1200
G1 X103.174 Y87.401 E.0268
G1 X103.174 Y87.939 E.01701
G1 X102.206 Y86.971 E.04328
G1 X101.669 Y86.971 E.01698
G1 X103.174 Y88.476 E.06729
G1 X103.174 Y89.014 E.01701
G1 X101.131 Y86.971 E.09134
G1 X100.593 Y86.971 E.01701
G1 X103.174 Y89.552 E.1154
G1 X103.174 Y90.089 E.01698
G1 X100.056 Y86.971 E.13941
G1 X99.518 Y86.971 E.01701
G1 X103.174 Y90.627 E.16346
G1 X103.174 Y91.165 E.01701
G1 X98.98 Y86.971 E.18751
G1 X98.442 Y86.971 E.01701
G1 X103.174 Y91.703 E.21157
G1 X103.174 Y92.24 E.01698
G1 X97.905 Y86.971 E.23558
G1 X97.367 Y86.971 E.01701
G1 X103.174 Y92.778 E.25963
G1 X103.174 Y93.316 E.01701
G1 X96.829 Y86.971 E.28368
G1 X96.292 Y86.971 E.01698
G1 X103.174 Y93.853 E.30769
G1 X103.174 Y94.391 E.01701
G1 X95.754 Y86.971 E.33175
G1 X95.216 Y86.971 E.01701
G1 X103.174 Y94.929 E.3558
G1 X103.174 Y95.466 E.01698
G1 X94.679 Y86.971 E.37981
G1 X94.141 Y86.971 E.01701
G1 X103.174 Y96.004 E.40386
G1 X103.174 Y96.542 E.01701
G1 X93.603 Y86.971 E.42792
G1 X93.065 Y86.971 E.01701
G1 X103.174 Y97.08 E.45197
G1 X103.174 Y97.617 E.01698
G1 X92.528 Y86.971 E.47598
G1 X91.99 Y86.971 E.01701
G1 X103.174 Y98.155 E.50003
G1 X103.174 Y98.693 E.01701
G1 X91.452 Y86.971 E.52409
G1 X90.915 Y86.971 E.01698
M73 P1 R75
G1 X103.174 Y99.23 E.5481
G1 X103.174 Y99.768 E.01701
M73 Q1 S77
G1 X90.377 Y86.971 E.57215
G1 X89.839 Y86.971 E.01701
G1 X103.174 Y100.306 E.5962
G1 X103.174 Y100.843 E.01698
G1 X89.302 Y86.971 E.62021
G1 X88.764 Y86.971 E.01701
M73 Q1 S76
G1 X103.174 Y101.381 E.64427
G1 X103.174 Y101.919 E.01701
G1 X88.226 Y86.971 E.66832
G1 X87.688 Y86.971 E.01701
G1 X103.174 Y102.457 E.69238
G1 X103.174 Y102.994 E.01698
G1 X87.151 Y86.971 E.71638
G1 X86.613 Y86.971 E.01701
G1 X103.174 Y103.532 E.74044
G1 X103.174 Y104.07 E.01701
G1 X86.075 Y86.971 E.76449
G1 X85.538 Y86.971 E.01698
G1 X103.174 Y104.607 E.7885
G1 X103.174 Y105.145 E.01701
G1 X85 Y86.971 E.81256
G1 X84.462 Y86.971 E.01701
G1 X103.174 Y105.683 E.83661
G1 X103.174 Y106.22 E.01698
G1 X83.925 Y86.971 E.86062
G1 X83.387 Y86.971 E.01701
G1 X103.174 Y106.758 E.88467
G1 X103.174 Y107.296 E.01701
G1 X82.849 Y86.971 E.90873
G1 X82.311 Y86.971 E.01701
G1 X103.174 Y107.834 E.93278
G1 X103.174 Y108.371 E.01698
G1 X81.774 Y86.971 E.95679
G1 X81.236 Y86.971 E.01701
G1 X102.803 Y108.539 E.96428
G1 X102.265 Y108.539 E.01701
M73 P1 R74
G1 X80.698 Y86.971 E.96428
G1 X80.161 Y86.971 E.01698
G1 X101.728 Y108.539 E.96428
G1 X101.19 Y108.539 E.01701
G1 X79.623 Y86.971 E.96428
G1 X79.085 Y86.971 E.01701
G1 X100.652 Y108.539 E.96428
G1 X100.115 Y108.539 E.01698
G1 X92.628 Y101.052 E.33474
G1 X92.722 Y101.495 E.01432
G1 X92.715 Y101.677 E.00576
G1 X99.577 Y108.539 E.3068
G1 X99.039 Y108.539 E.01701
G1 X92.674 Y102.173 E.2846
G1 X92.554 Y102.591 E.01375
G1 X98.502 Y108.539 E.26593
G1 X97.964 Y108.539 E.01701
G1 X92.37 Y102.944 E.25013
G1 X92.165 Y103.277 E.01236
G1 X97.426 Y108.539 E.23524
G1 X96.889 Y108.539 E.01698
G1 X91.907 Y103.557 E.22274
G1 X91.617 Y103.805 E.01206
G1 X96.351 Y108.539 E.21166
G1 X95.813 Y108.539 E.01701
G1 X91.28 Y104.005 E.20269
G1 X91.07 Y104.103 E.00733
G1 X90.895 Y104.158 E.0058
G1 X95.275 Y108.539 E.19585
G1 X94.738 Y108.539 E.01698
G1 X90.459 Y104.259 E.19134
G1 X89.935 Y104.274 E.01657
G1 X94.37 Y108.708 E.19827
M204 S1000
;WIPE_START
G1 F8640
G1 X91.92 Y106.258 E-.8
;WIPE_END
G1 Z.6 F720
G1 X90.945 Y99.369 F10800
G1 Z.2 F720
G1 E.8 F2100
M204 S800
G1 F1200
G1 X78.548 Y86.971 E.55429
G1 X78.01 Y86.971 E.01701
G1 X90.092 Y99.053 E.54018
G1 X89.595 Y99.095 E.01577
G1 X77.472 Y86.971 E.54204
G1 X76.935 Y86.971 E.01698
G1 X89.181 Y99.218 E.54754
G1 X88.911 Y99.322 E.00915
G1 X88.813 Y99.387 E.00372
G1 X76.397 Y86.971 E.55512
G1 X76.026 Y86.971 E.01173
G1 X76.026 Y87.139 E.00531
G1 X88.491 Y99.603 E.55729
G1 X88.392 Y99.67 E.00378
G1 X88.212 Y99.862 E.00832
G1 X76.026 Y87.676 E.54483
G1 X76.026 Y88.214 E.01701
G1 X87.963 Y100.151 E.5337
G1 X87.773 Y100.498 E.01251
G1 X76.026 Y88.752 E.52518
G1 X76.026 Y89.29 E.01701
G1 X87.603 Y100.866 E.51758
G1 X87.505 Y101.306 E.01425
G1 X76.026 Y89.827 E.51322
G1 X76.026 Y90.365 E.01701
G1 X87.692 Y102.031 E.52158
M204 S1000
;WIPE_START
G1 F8640
M73 P2 R74
G1 X85.242 Y99.581 E-.8
;WIPE_END
G1 Z.6 F720
G1 X93.832 Y108.708 F10800
G1 Z.2 F720
G1 E.8 F2100
M204 S800
G1 F1200
G1 X89.28 Y104.156 E.20352
G1 X89.095 Y104.089 E.00622
G1 X88.741 Y103.91 E.01254
G1 X88.554 Y103.78 E.0072
G1 X88.121 Y103.382 E.01859
G1 X87.976 Y103.205 E.00723
G1 X87.767 Y102.867 E.01256
G1 X87.622 Y102.498 E.01253
G1 X76.026 Y90.903 E.51843
M73 Q2 S76
G1 X76.026 Y91.44 E.01698
G1 X93.125 Y108.539 E.76449
G1 X92.587 Y108.539 E.01701
G1 X76.026 Y91.978 E.74044
G1 X76.026 Y92.516 E.01701
G1 X92.049 Y108.539 E.71638
G1 X91.512 Y108.539 E.01698
G1 X76.026 Y93.053 E.69238
G1 X76.026 Y93.591 E.01701
G1 X90.974 Y108.539 E.66832
G1 X90.436 Y108.539 E.01701
G1 X76.026 Y94.129 E.64427
G1 X76.026 Y94.667 E.01701
G1 X89.898 Y108.539 E.62021
G1 X89.361 Y108.539 E.01698
G1 X76.026 Y95.204 E.5962
G1 X76.026 Y95.742 E.01701
G1 X88.823 Y108.539 E.57215
G1 X88.285 Y108.539 E.01701
G1 X76.026 Y96.28 E.5481
G1 X76.026 Y96.817 E.01698
G1 X87.748 Y108.539 E.52409
G1 X87.21 Y108.539 E.01701
G1 X76.026 Y97.355 E.50003
G1 X76.026 Y97.893 E.01701
G1 X86.672 Y108.539 E.47598
G1 X86.135 Y108.539 E.01698
G1 X76.026 Y98.43 E.45197
G1 X76.026 Y98.968 E.01701
G1 X85.597 Y108.539 E.42792
G1 X85.059 Y108.539 E.01701
G1 X76.026 Y99.506 E.40386
G1 X76.026 Y100.044 E.01701
M73 Q2 S75
G1 X84.521 Y108.539 E.37981
G1 X83.984 Y108.539 E.01698
G1 X76.026 Y100.581 E.3558
G1 X76.026 Y101.119 E.01701
G1 X83.446 Y108.539 E.33175
G1 X82.908 Y108.539 E.01701
G1 X76.026 Y101.657 E.30769
G1 X76.026 Y102.194 E.01698
G1 X82.371 Y108.539 E.28368
G1 X81.833 Y108.539 E.01701
G1 X76.026 Y102.732 E.25963
G1 X76.026 Y103.27 E.01701
G1 X81.295 Y108.539 E.23558
G1 X80.758 Y108.539 E.01698
G1 X76.026 Y103.807 E.21157
G1 X76.026 Y104.345 E.01701
G1 X80.22 Y108.539 E.18751
G1 X79.682 Y108.539 E.01701
G1 X76.026 Y104.883 E.16346
G1 X76.026 Y105.421 E.01701
G1 X79.144 Y108.539 E.13941
G1 X78.607 Y108.539 E.01698
G1 X76.026 Y105.958 E.1154
G1 X76.026 Y106.496 E.01701
G1 X78.069 Y108.539 E.09134
G1 X77.531 Y108.539 E.01701
G1 X76.026 Y107.034 E.06729
G1 X76.026 Y107.571 E.01698
G1 X76.994 Y108.539 E.04328
G1 X76.456 Y108.539 E.01701
G1 X75.857 Y107.939 E.0268
M204 S1000
; stop printing object Bracket7.stl id:0 copy 0
; printing object Bracket6.stl id:1 copy 0
;WIPE_START
G1 F8640
G1 X76.456 Y108.539 E-.19576
G1 X76.994 Y108.539 E-.12423
G1 X76.026 Y107.571 E-.3161
G1 X76.026 Y107.034 E-.12399
G1 X76.148 Y107.156 E-.03992
;WIPE_END
G1 Z.6 F720
G1 X103.513 Y143.278 F10800
G1 Z.2 F720
G1 E.8 F2100
M204 S800
;TYPE:Perimeter
;WIDTH:0.419999
G1 F1200
G1 X82.507 Y143.278 E.65863
G1 X82.507 Y116.452 E.84111
G1 X103.513 Y116.452 E.65863
G1 X103.513 Y122.133 E.17812
G1 X103.513 Y143.218 E.6611
M204 S1000
G1 X103.89 Y143.655 F10800
M204 S800
;TYPE:External perimeter
G1 F1200
G1 X82.13 Y143.655 E.68227
G1 X82.13 Y116.075 E.86475
G1 X103.89 Y116.075 E.68227
G1 X103.89 Y122.133 E.18994
G1 X103.89 Y143.595 E.67292
M204 S1000
;WIPE_START
G1 F8640
G1 X103.89 Y143.655 E-.01385
G1 X100.485 Y143.655 E-.78615
;WIPE_END
G1 Z.6 F720
G1 X93.857 Y128.908 F10800
G1 Z.2 F720
G1 E.8 F2100
M204 S800
;TYPE:Perimeter
G1 F1200
G1 X94.079 Y128.511 E.01426
G1 X94.42 Y128.141 E.01578
G1 X94.833 Y127.855 E.01575
G1 X95.299 Y127.666 E.01577
G1 X95.84 Y127.581 E.01717
G1 X96.506 Y127.661 E.02103
G1 X97.008 Y127.856 E.01689
G1 X97.421 Y128.142 E.01575
G1 X97.762 Y128.512 E.01578
G1 X98.013 Y128.947 E.01575
G1 X98.191 Y129.646 E.02262
G1 X98.183 Y130.18 E.01675
G1 X98.06 Y130.667 E.01575
G1 X97.848 Y131.089 E.01481
G1 X97.349 Y131.643 E.02338
G1 X96.895 Y131.932 E.01687
G1 X96.418 Y132.096 E.01582
G1 X95.705 Y132.136 E.02239
G1 X95.177 Y132.026 E.01691
G1 X94.723 Y131.811 E.01575
G1 X94.178 Y131.339 E.02261
G1 X93.896 Y130.923 E.01576
G1 X93.666 Y130.214 E.02337
G1 X93.643 Y129.676 E.01688
G1 X93.818 Y128.976 E.02262
G1 X93.827 Y128.96 E.00058
M204 S1000
G1 X94.167 Y129.132 F10800
M204 S800
;TYPE:External perimeter
G1 F1200
G1 X94.181 Y129.079 E.00172
G1 X94.426 Y128.676 E.01479
G1 X94.722 Y128.378 E.01317
G1 X95.076 Y128.152 E.01317
G1 X95.471 Y128.009 E.01317
G1 X95.868 Y127.959 E.01255
G1 X96.458 Y128.035 E.01865
G1 X96.893 Y128.222 E.01485
G1 X97.228 Y128.474 E.01314
G1 X97.501 Y128.794 E.01319
G1 X97.699 Y129.175 E.01346
G1 X97.823 Y129.729 E.0178
G1 X97.8 Y130.2 E.01479
G1 X97.682 Y130.602 E.01314
G1 X97.486 Y130.952 E.01258
G1 X97.076 Y131.382 E.01863
G1 X96.669 Y131.622 E.01481
G1 X96.285 Y131.736 E.01256
G1 X95.691 Y131.759 E.01864
G1 X95.231 Y131.646 E.01485
G1 X94.851 Y131.446 E.01346
G1 X94.432 Y131.06 E.01786
G1 X94.195 Y130.678 E.0141
G1 X94.028 Y130.108 E.01862
G1 X94.02 Y129.676 E.01355
G1 X94.151 Y129.19 E.01578
M204 S1000
;WIPE_START
G1 F8640
G1 X94.167 Y129.132 E-.01389
G1 X94.181 Y129.079 E-.01266
G1 X94.426 Y128.676 E-.1089
G1 X94.722 Y128.378 E-.09698
G1 X95.076 Y128.152 E-.09698
G1 X95.471 Y128.009 E-.097
G1 X95.868 Y127.959 E-.09239
G1 X96.458 Y128.035 E-.13736
G1 X96.893 Y128.222 E-.10933
G1 X97.013 Y128.312 E-.03451
;WIPE_END
G1 Z.6 F720
G1 X103.343 Y117.389 F10800
G1 Z.2 F720
G1 E.8 F2100
M204 S800
;TYPE:Solid infill
;WIDTH:0.422414
G1 F1200
G1 X102.746 Y116.791 E.02666
G1 X102.209 Y116.791 E.01695
G1 X103.174 Y117.756 E.04306
G1 X103.174 Y118.293 E.01695
G1 X101.672 Y116.791 E.06703
G1 X101.135 Y116.791 E.01695
G1 X103.174 Y118.83 E.09099
G1 X103.174 Y119.366 E.01691
G1 X100.599 Y116.791 E.11491
G1 X100.062 Y116.791 E.01695
G1 X103.174 Y119.903 E.13887
G1 X103.174 Y120.44 E.01695
G1 X99.525 Y116.791 E.16284
G1 X98.989 Y116.791 E.01691
G1 X103.174 Y120.976 E.18676
G1 X103.174 Y121.513 E.01695
M73 P2 R73
G1 X98.452 Y116.791 E.21072
G1 X97.915 Y116.791 E.01695
G1 X103.174 Y122.05 E.23469
G1 X103.174 Y122.586 E.01691
G1 X97.379 Y116.791 E.25861
G1 X96.842 Y116.791 E.01695
G1 X103.174 Y123.123 E.28257
G1 X103.174 Y123.66 E.01695
G1 X96.305 Y116.791 E.30653
G1 X95.769 Y116.791 E.01691
G1 X103.174 Y124.196 E.33045
G1 X103.174 Y124.733 E.01695
G1 X95.232 Y116.791 E.35442
