; generated by PrusaSlicer 2.7.0+win64 on 2024-01-13 at 01:26:18 UTC


;
;
; 

; external perimeters extrusion width = 0.45mm
; perimeters extrusion width = 0.45mm
; infill extrusion width = 0.45mm
; solid infill extrusion width = 0.45mm
; top infill extrusion width = 0.40mm
; first layer extrusion width = 0.42mm

; external perimeters extrusion width = 0.45mm
; perimeters extrusion width = 0.45mm
; infill extrusion width = 0.45mm
; solid infill extrusion width = 0.45mm
; top infill extrusion width = 0.40mm
; first layer extrusion width = 0.42mm

M73 P0 R58
M73 Q0 S60
M201 X1000 Y1000 Z200 E5000 ; sets maximum accelerations, mm/sec^2
M203 X200 Y200 Z12 E120 ; sets maximum feedrates, mm / sec
M204 S1250 T1250 ; sets acceleration (S) and retract acceleration (R), mm/sec^2
M205 X8.00 Y8.00 Z0.40 E4.50 ; sets the jerk limits, mm/sec
M205 S0 T0 ; sets the minimum extruding and travel feed rate, mm/sec

; printing object Bracket3 V2.stl id:0 copy 0
; stop printing object Bracket3 V2.stl id:0 copy 0
; printing object Bracket3 V2.stl id:0 copy 1
; stop printing object Bracket3 V2.stl id:0 copy 1
; printing object Bracket7.stl id:1 copy 0
; stop printing object Bracket7.stl id:1 copy 0
; printing object Bracket7.stl id:1 copy 1
; stop printing object Bracket7.stl id:1 copy 1

;TYPE:Custom
M862.3 P "MK3S" ; printer model check
M862.1 P0.4 ; nozzle diameter check
M115 U3.13.2 ; tell printer latest fw version
G90 ; use absolute coordinates
M83 ; extruder relative mode
M104 S215 ; set extruder temp
M140 S60 ; set bed temp
M190 S60 ; wait for bed temp
M109 S215 ; wait for extruder temp
G28 W ; home all without mesh bed level
G80 X72.3344 Y71.6144 W105.331 H66.7712 ; mesh bed levelling

G1 Z0.2 F720
G1 Y-3 F1000 ; go outside print area
G92 E0
G1 X60 E9 F1000 ; intro line
G1 X100 E12.5 F1000 ; intro line

G92 E0
M221 S95

; Don't change E values below. Excessive value can damage the printer.

M907 E538 ; set extruder motor current
G21 ; set units to millimeters
G90 ; use absolute coordinates
M83 ; use relative distances for extrusion
M900 K0.05 ; Filament gcode LA 1.5
M900 K30 ; Filament gcode LA 1.0

M107
;LAYER_CHANGE
;Z:0.2
;HEIGHT:0.2
;BEFORE_LAYER_CHANGE
G92 E0.0
;0.2


G1 E-.8 F2100
G1 Z.2 F720
;AFTER_LAYER_CHANGE
;0.2
G1 X73.78 Y90.993 F10800
G1 Z.2 F720
G1 E.8 F2100
M204 S800
;TYPE:Skirt/Brim
;WIDTH:0.42
G1 F1200
G1 X109.18 Y72.083 E1.25838
G1 X110.3 Y71.803 E.0362
G1 X139.7 Y71.803 E.92182
G1 X140.82 Y72.083 E.0362
G1 X176.22 Y90.993 E1.25838
G1 X177.188 Y91.955 E.04279
G1 X177.477 Y93.09 E.03672
G1 X177.477 Y116.91 E.74686
G1 X177.085 Y118.217 E.04278
G1 X176.22 Y119.007 E.03673
G1 X140.82 Y137.917 E1.25838
G1 X139.7 Y138.197 E.0362
G1 X110.3 Y138.197 E.92182
G1 X109.18 Y137.917 E.0362
G1 X73.78 Y119.007 E1.25838
G1 X72.812 Y118.045 E.04279
G1 X72.523 Y116.91 E.03672
G1 X72.523 Y93.09 E.74686
G1 X72.915 Y91.783 E.04278
M73 Q0 S59
G1 X73.736 Y91.034 E.03484
M204 S1000
; printing object Bracket7.stl id:1 copy 1
;WIPE_START
G1 F8640
G1 X73.78 Y90.993 E-.01389
G1 X76.783 Y89.389 E-.78611
;WIPE_END
G1 Z.6 F720
G1 X146.487 Y93.877 F10800
G1 Z.2 F720
G1 E.8 F2100
M204 S800
;TYPE:Perimeter
;WIDTH:0.419999
G1 F1200
G1 X174.313 Y93.877 E.87246
G1 X174.313 Y99.519 E.1769
G1 X174.313 Y116.123 E.52061
G1 X146.487 Y116.123 E.87246
G1 X146.487 Y93.937 E.69563
M204 S1000
G1 X146.11 Y93.5 F10800
M204 S800
;TYPE:External perimeter
G1 F1200
G1 X174.69 Y93.5 E.8961
G1 X174.69 Y99.519 E.18872
G1 X174.69 Y116.5 E.53243
G1 X146.11 Y116.5 E.8961
G1 X146.11 Y93.56 E.71927
M204 S1000
;WIPE_START
G1 F8640
G1 X146.11 Y93.5 E-.01385
G1 X149.515 Y93.5 E-.78615
;WIPE_END
G1 Z.6 F720
G1 X159.542 Y99.266 F10800
G1 Z.2 F720
G1 E.8 F2100
M204 S800
;TYPE:Perimeter
G1 F1200
G1 X159.926 Y99.023 E.01425
G1 X160.653 Y98.824 E.02363
G1 X161.155 Y98.819 E.01574
G1 X161.643 Y98.929 E.01568
G1 X162.097 Y99.144 E.01575
G1 X162.494 Y99.453 E.01577
G1 X162.813 Y99.84 E.01573
G1 X163.104 Y100.5 E.02262
G1 X163.184 Y101.027 E.01671
G1 X163.087 Y101.742 E.02262
G1 X162.878 Y102.233 E.01673
G1 X162.581 Y102.638 E.01575
G1 X162.202 Y102.968 E.01576
G1 X161.55 Y103.277 E.02262
G1 X161.025 Y103.371 E.01672
G1 X160.523 Y103.344 E.01576
G1 X160.039 Y103.207 E.01577
G1 X159.598 Y102.968 E.01573
G1 X159.08 Y102.466 E.02262
G1 X158.807 Y102.008 E.01672
G1 X158.629 Y101.309 E.02262
G1 X158.637 Y100.775 E.01675
G1 X158.76 Y100.288 E.01575
G1 X158.987 Y99.84 E.01575
G1 X159.475 Y99.308 E.02264
G1 X159.491 Y99.298 E.00059
M204 S1000
G1 X159.783 Y99.549 F10800
M204 S800
;TYPE:External perimeter
G1 F1200
G1 X160.164 Y99.33 E.01378
G1 X160.742 Y99.19 E.01865
G1 X161.183 Y99.202 E.01383
G1 X161.589 Y99.309 E.01316
G1 X161.962 Y99.503 E.01318
G1 X162.283 Y99.774 E.01317
G1 X162.541 Y100.117 E.01346
G1 X162.755 Y100.642 E.01778
G1 X162.808 Y101.12 E.01508
G1 X162.714 Y101.682 E.01787
G1 X162.516 Y102.108 E.01473
G1 X162.254 Y102.436 E.01316
G1 X161.918 Y102.704 E.01348
G1 X161.398 Y102.932 E.0178
G1 X160.932 Y102.999 E.01476
G1 X160.514 Y102.96 E.01316
G1 X160.114 Y102.83 E.01319
G1 X159.746 Y102.609 E.01346
G1 X159.35 Y102.203 E.01778
G1 X159.121 Y101.78 E.01508
G1 X158.997 Y101.226 E.0178
G1 X159.02 Y100.755 E.01479
G1 X159.139 Y100.352 E.01318
G1 X159.35 Y99.978 E.01346
G1 X159.734 Y99.583 E.01727
M204 S1000
;WIPE_START
G1 F8640
G1 X159.783 Y99.549 E-.01377
G1 X160.164 Y99.33 E-.10147
G1 X160.742 Y99.19 E-.13732
G1 X161.183 Y99.202 E-.10187
G1 X161.589 Y99.309 E-.09695
G1 X161.962 Y99.503 E-.09708
G1 X162.283 Y99.774 E-.097
G1 X162.541 Y100.117 E-.0991
G1 X162.632 Y100.34 E-.05544
;WIPE_END
G1 Z.6 F720
G1 X173.374 Y94.047 F10800
G1 Z.2 F720
G1 E.8 F2100
M204 S800
;TYPE:Solid infill
;WIDTH:0.42313
G1 F1200
G1 X173.974 Y94.646 E.0268
G1 X173.974 Y95.184 E.01701
G1 X173.006 Y94.216 E.04328
G1 X172.469 Y94.216 E.01698
G1 X173.974 Y95.721 E.06729
G1 X173.974 Y96.259 E.01701
G1 X171.931 Y94.216 E.09134
G1 X171.393 Y94.216 E.01701
G1 X173.974 Y96.797 E.1154
G1 X173.974 Y97.334 E.01698
G1 X170.856 Y94.216 E.13941
M73 P1 R58
G1 X170.318 Y94.216 E.01701
G1 X173.974 Y97.872 E.16346
G1 X173.974 Y98.41 E.01701
M73 Q1 S59
G1 X169.78 Y94.216 E.18751
G1 X169.242 Y94.216 E.01701
G1 X173.974 Y98.948 E.21157
G1 X173.974 Y99.485 E.01698
G1 X168.705 Y94.216 E.23558
G1 X168.167 Y94.216 E.01701
G1 X173.974 Y100.023 E.25963
G1 X173.974 Y100.561 E.01701
G1 X167.629 Y94.216 E.28368
G1 X167.092 Y94.216 E.01698
G1 X173.974 Y101.098 E.30769
G1 X173.974 Y101.636 E.01701
G1 X166.554 Y94.216 E.33175
G1 X166.016 Y94.216 E.01701
G1 X173.974 Y102.174 E.3558
G1 X173.974 Y102.711 E.01698
G1 X165.479 Y94.216 E.37981
G1 X164.941 Y94.216 E.01701
G1 X173.974 Y103.249 E.40386
G1 X173.974 Y103.787 E.01701
G1 X164.403 Y94.216 E.42792
G1 X163.865 Y94.216 E.01701
G1 X173.974 Y104.325 E.45197
G1 X173.974 Y104.862 E.01698
G1 X163.328 Y94.216 E.47598
G1 X162.79 Y94.216 E.01701
G1 X173.974 Y105.4 E.50003
G1 X173.974 Y105.938 E.01701
G1 X162.252 Y94.216 E.52409
G1 X161.715 Y94.216 E.01698
G1 X173.974 Y106.475 E.5481
G1 X173.974 Y107.013 E.01701
G1 X161.177 Y94.216 E.57215
G1 X160.639 Y94.216 E.01701
G1 X173.974 Y107.551 E.5962
G1 X173.974 Y108.088 E.01698
G1 X160.102 Y94.216 E.62021
G1 X159.564 Y94.216 E.01701
G1 X173.974 Y108.626 E.64427
G1 X173.974 Y109.164 E.01701
G1 X159.026 Y94.216 E.66832
G1 X158.488 Y94.216 E.01701
G1 X173.974 Y109.702 E.69238
G1 X173.974 Y110.239 E.01698
G1 X157.951 Y94.216 E.71638
G1 X157.413 Y94.216 E.01701
G1 X161.838 Y98.641 E.19784
G1 X162.258 Y98.845 E.01476
M73 P1 R57
G1 X162.411 Y98.945 E.00578
G1 X162.716 Y99.196 E.01249
G1 X162.843 Y99.327 E.00577
G1 X163.087 Y99.64 E.01255
G1 X163.202 Y99.839 E.00727
G1 X163.305 Y100.109 E.00914
G1 X173.974 Y110.777 E.47699
G1 X173.974 Y111.315 E.01701
G1 X163.504 Y100.846 E.46809
G1 X163.522 Y101 E.0049
G1 X163.516 Y101.229 E.00724
G1 X163.491 Y101.37 E.00453
G1 X173.974 Y111.852 E.46867
G1 X173.974 Y112.39 E.01701
G1 X163.41 Y101.826 E.47231
G1 X163.393 Y101.921 E.00305
G1 X163.257 Y102.212 E.01015
G1 X173.974 Y112.928 E.47913
G1 X173.974 Y113.465 E.01698
G1 X163.067 Y102.559 E.48763
G1 X162.831 Y102.861 E.01212
G1 X173.974 Y114.003 E.49818
G1 X173.974 Y114.541 E.01701
G1 X162.546 Y103.113 E.51094
G1 X162.238 Y103.343 E.01215
G1 X173.974 Y115.079 E.52471
G1 X173.974 Y115.616 E.01698
G1 X161.866 Y103.508 E.54135
G1 X161.678 Y103.591 E.0065
G1 X161.471 Y103.652 E.00682
G1 X173.603 Y115.784 E.54242
G1 X173.065 Y115.784 E.01701
G1 X160.996 Y103.714 E.53962
G1 X160.415 Y103.671 E.01842
G1 X172.697 Y115.953 E.54913
M204 S1000
;WIPE_START
G1 F8640
G1 X170.247 Y113.503 E-.8
;WIPE_END
G1 Z.6 F720
G1 X156.706 Y94.047 F10800
G1 Z.2 F720
G1 E.8 F2100
M204 S800
G1 F1200
G1 X161.139 Y98.48 E.1982
G1 X160.608 Y98.487 E.01679
G1 X156.338 Y94.216 E.19093
G1 X155.8 Y94.216 E.01701
G1 X160.174 Y98.591 E.19558
G1 X159.985 Y98.636 E.00614
G1 X159.768 Y98.723 E.00739
G1 X155.262 Y94.216 E.20148
G1 X154.725 Y94.216 E.01698
G1 X159.427 Y98.919 E.21025
G1 X159.239 Y99.064 E.00751
G1 X159.138 Y99.168 E.00458
G1 X154.187 Y94.216 E.22138
G1 X153.649 Y94.216 E.01701
G1 X158.873 Y99.44 E.23356
G1 X158.648 Y99.753 E.01219
G1 X153.111 Y94.216 E.24756
G1 X152.574 Y94.216 E.01698
G1 X158.468 Y100.11 E.26352
G1 X158.346 Y100.527 E.01374
G1 X152.036 Y94.216 E.28214
G1 X151.498 Y94.216 E.01701
G1 X158.289 Y101.007 E.30362
G1 X158.278 Y101.26 E.00801
G1 X158.352 Y101.607 E.01122
G1 X150.961 Y94.216 E.33045
G1 X150.423 Y94.216 E.01701
G1 X171.99 Y115.784 E.96428
G1 X171.452 Y115.784 E.01701
M73 P2 R57
G1 X149.885 Y94.216 E.96428
G1 X149.348 Y94.216 E.01698
M73 Q2 S59
G1 X170.915 Y115.784 E.96428
G1 X170.377 Y115.784 E.01701
G1 X148.81 Y94.216 E.96428
G1 X148.272 Y94.216 E.01701
G1 X169.839 Y115.784 E.96428
G1 X169.302 Y115.784 E.01698
G1 X147.734 Y94.216 E.9643
G1 X147.197 Y94.216 E.01698
G1 X168.764 Y115.784 E.96428
G1 X168.226 Y115.784 E.01701
M73 Q2 S58
G1 X146.826 Y94.384 E.95679
G1 X146.826 Y94.921 E.01698
G1 X167.689 Y115.784 E.93278
G1 X167.151 Y115.784 E.01701
G1 X146.826 Y95.459 E.90873
G1 X146.826 Y95.997 E.01701
G1 X166.613 Y115.784 E.88467
G1 X166.075 Y115.784 E.01701
G1 X146.826 Y96.535 E.86062
G1 X146.826 Y97.072 E.01698
G1 X165.538 Y115.784 E.83661
G1 X165 Y115.784 E.01701
G1 X146.826 Y97.61 E.81256
G1 X146.826 Y98.148 E.01701
G1 X164.462 Y115.784 E.7885
G1 X163.925 Y115.784 E.01698
G1 X146.826 Y98.685 E.76449
G1 X146.826 Y99.223 E.01701
G1 X163.387 Y115.784 E.74044
G1 X162.849 Y115.784 E.01701
G1 X146.826 Y99.761 E.71638
G1 X146.826 Y100.298 E.01698
G1 X162.312 Y115.784 E.69238
G1 X161.774 Y115.784 E.01701
G1 X146.826 Y100.836 E.66832
G1 X146.826 Y101.374 E.01701
G1 X161.236 Y115.784 E.64427
G1 X160.698 Y115.784 E.01701
G1 X146.826 Y101.912 E.62021
G1 X146.826 Y102.449 E.01698
G1 X160.161 Y115.784 E.5962
G1 X159.623 Y115.784 E.01701
G1 X146.826 Y102.987 E.57215
G1 X146.826 Y103.525 E.01701
G1 X159.085 Y115.784 E.5481
G1 X158.548 Y115.784 E.01698
G1 X146.826 Y104.062 E.52409
G1 X146.826 Y104.6 E.01701
G1 X158.01 Y115.784 E.50003
G1 X157.472 Y115.784 E.01701
G1 X146.826 Y105.138 E.47598
G1 X146.826 Y105.675 E.01698
G1 X156.935 Y115.784 E.45197
G1 X156.397 Y115.784 E.01701
M73 P3 R57
G1 X146.826 Y106.213 E.42792
G1 X146.826 Y106.751 E.01701
G1 X155.859 Y115.784 E.40386
G1 X155.321 Y115.784 E.01701
G1 X146.826 Y107.289 E.37981
G1 X146.826 Y107.826 E.01698
M73 Q3 S58
G1 X154.784 Y115.784 E.3558
G1 X154.246 Y115.784 E.01701
G1 X146.826 Y108.364 E.33175
G1 X146.826 Y108.902 E.01701
G1 X153.708 Y115.784 E.30769
G1 X153.171 Y115.784 E.01698
G1 X146.826 Y109.439 E.28368
G1 X146.826 Y109.977 E.01701
G1 X152.633 Y115.784 E.25963
G1 X152.095 Y115.784 E.01701
G1 X146.826 Y110.515 E.23558
G1 X146.826 Y111.052 E.01698
G1 X151.558 Y115.784 E.21157
G1 X151.02 Y115.784 E.01701
G1 X146.826 Y111.59 E.18751
G1 X146.826 Y112.128 E.01701
G1 X150.482 Y115.784 E.16346
G1 X149.944 Y115.784 E.01701
G1 X146.826 Y112.666 E.13941
G1 X146.826 Y113.203 E.01698
G1 X149.407 Y115.784 E.1154
G1 X148.869 Y115.784 E.01701
G1 X146.826 Y113.741 E.09134
G1 X146.826 Y114.279 E.01701
G1 X148.331 Y115.784 E.06729
G1 X147.794 Y115.784 E.01698
G1 X146.826 Y114.816 E.04328
G1 X146.826 Y115.354 E.01701
M73 P3 R56
G1 X147.426 Y115.953 E.0268
M204 S1000
; stop printing object Bracket7.stl id:1 copy 1
; printing object Bracket3 V2.stl id:0 copy 0
;WIPE_START
G1 F8640
G1 X146.826 Y115.354 E-.19576
G1 X146.826 Y114.816 E-.12423
G1 X147.794 Y115.784 E-.3161
G1 X148.331 Y115.784 E-.12399
G1 X148.209 Y115.662 E-.03992
;WIPE_END
G1 Z.6 F720
G1 X124.212 Y89.731 F10800
G1 Z.2 F720
G1 E.8 F2100
M204 S800
;TYPE:Perimeter
;WIDTH:0.538998
G1 F1200
G1 X124.315 Y89.753 E.00434
;WIDTH:0.499332
G1 X124.417 Y89.774 E.00395
;WIDTH:0.459666
G1 X124.52 Y89.795 E.00364
;WIDTH:0.419999
G1 X125.073 Y89.781 E.01734
G1 X125.384 Y89.81 E.00979
G1 X125.846 Y89.993 E.01558
G1 X126.11 Y90.206 E.01064
G1 X126.216 Y90.541 E.01102
G1 X126.188 Y90.896 E.01117
G1 X126.008 Y91.197 E.011
G1 X125.796 Y91.342 E.00805
G1 X125.492 Y91.406 E.00974
G1 X125.066 Y91.372 E.0134
G1 X124.745 Y91.188 E.0116
G1 X124.538 Y90.906 E.01097
G1 X124.432 Y90.613 E.00977
;WIDTH:0.459666
G1 X124.359 Y90.319 E.0105
;WIDTH:0.499332
G1 X124.285 Y90.025 E.01151
;WIDTH:0.538998
G1 X124.226 Y89.789 E.01003
M204 S1000
;WIPE_START
G1 F8640
G1 X124.212 Y89.731 E-.01378
G1 X124.315 Y89.753 E-.02432
;WIPE_END
G1 E-.7619 F2100
G1 Z.6 F720
G1 X121.504 Y86.312 F10800
G1 Z.2 F720
G1 E.8 F2100
M204 S800
;WIDTH:0.419999
G1 F1200
G1 X121.447 Y86.232 E.00308
G1 X121.401 Y85.985 E.00788
G1 X121.569 Y85.086 E.02868
G1 X121.792 Y84.425 E.02187
G1 X122.059 Y83.961 E.01679
G1 X122.638 Y83.255 E.02863
G1 X123.272 Y82.793 E.0246
G1 X123.746 Y82.536 E.01691
G1 X124.295 Y82.352 E.01815
G1 X125.339 Y82.219 E.033
G1 X126.155 Y82.284 E.02567
G1 X126.914 Y82.46 E.02443
G1 X127.503 Y82.733 E.02035
G1 X128.299 Y83.29 E.03046
G1 X128.935 Y84.044 E.03093
G1 X129.232 Y84.557 E.01859
G1 X129.426 Y85.141 E.01929
G1 X129.557 Y86.053 E.02889
G1 X129.527 Y86.632 E.01818
G1 X129.431 Y87.152 E.01658
G1 X129.215 Y87.695 E.01832
G1 X128.918 Y88.174 E.01767
G1 X128.613 Y88.449 E.01288
G1 X128.271 Y88.677 E.01289
G1 X128.153 Y88.72 E.00394
G1 X128.421 Y88.914 E.01037
G1 X128.765 Y89.373 E.01798
G1 X128.962 Y89.875 E.01691
G1 X129.067 Y90.559 E.0217
G1 X128.963 Y91.431 E.02753
G1 X128.626 Y92.253 E.02786
G1 X128.196 Y92.836 E.02271
G1 X127.759 Y93.233 E.01851
G1 X127.267 Y93.546 E.01828
G1 X126.375 Y93.883 E.0299
G1 X125.418 Y94.005 E.03025
G1 X124.594 Y93.937 E.02592
G1 X124.097 Y93.823 E.01599
G1 X123.607 Y93.616 E.01668
G1 X122.923 Y93.189 E.02528
G1 X122.312 Y92.528 E.02822
G1 X122.02 Y92.088 E.01656
G1 X121.752 Y91.442 E.02193
G1 X121.529 Y90.593 E.02752
G1 X121.523 Y90.336 E.00806
G1 X121.617 Y90.123 E.0073
G1 X121.793 Y89.963 E.00746
G1 X121.978 Y89.895 E.00618
G1 X123.653 Y89.598 E.05334
;WIDTH:0.459665
G1 X123.812 Y89.618 E.00555
;WIDTH:0.499331
G1 X123.972 Y89.638 E.00612
;WIDTH:0.538996
G1 X124.131 Y89.658 E.00661
G1 X124.09 Y89.478 E.00761
;WIDTH:0.499331
G1 X124.048 Y89.297 E.00705
;WIDTH:0.459665
G1 X124.006 Y89.117 E.0064
;WIDTH:0.419999
G1 X123.826 Y87.694 E.04497
G1 X123.874 Y87.384 E.00984
;WIDTH:0.46309
G1 X124.061 Y87.134 E.01091
G1 X124.151 Y87.085 E.00358
G1 X124.502 Y87.069 E.01228
;WIDTH:0.419999
G1 X125.362 Y87.247 E.02754
G1 X125.882 Y87.202 E.01637
G1 X126.145 Y87.08 E.00909
G1 X126.368 Y86.927 E.00848
G1 X126.613 Y86.532 E.01457
G1 X126.678 Y86.103 E.0136
G1 X126.579 Y85.568 E.01706
G1 X126.308 Y85.18 E.01484
G1 X125.863 Y84.887 E.01671
G1 X125.453 Y84.828 E.01299
G1 X125.061 Y84.875 E.01238
G1 X124.722 Y85.058 E.01208
G1 X124.48 Y85.384 E.01273
G1 X124.289 Y85.884 E.01678
G1 X124.152 Y86.431 E.01768
;WIDTH:0.461412
G1 X123.935 Y86.727 E.01277
;WIDTH:0.46309
G1 X123.86 Y86.767 E.00297
G1 X123.549 Y86.79 E.0109
;WIDTH:0.419999
G1 X121.891 Y86.569 E.05245
G1 X121.59 Y86.431 E.01038
G1 X121.54 Y86.361 E.0027
M204 S1000
G1 X121.806 Y86.108 F10800
M204 S800
;TYPE:External perimeter
G1 F1200
G1 X121.781 Y85.973 E.0043
G1 X121.939 Y85.158 E.02603
G1 X122.148 Y84.548 E.02022
G1 X122.407 Y84.115 E.01582
G1 X122.926 Y83.499 E.02526
G1 X123.487 Y83.103 E.02153
G1 X123.955 Y82.856 E.01659
