; generated by SuperSlicer 2.4 on 2022-12-30 at 13:40:41 UTC


;
;

;
;
; 

; external perimeters extrusion width = 0.60mm
; perimeters extrusion width = 0.50mm
; infill extrusion width = 0.50mm
; solid infill extrusion width = 0.50mm
; top infill extrusion width = 0.40mm
; support material extrusion width = 0.38mm
; first layer extrusion width = 0.42mm

; object:{"name":"BtmMonitorHolder2","id":"BtmMonitorHolder2.stl id:0 copy 0","object_center":[105.000000,105.000000,0.000000],"boundingbox_center":[105.000000,105.000000,12.000000],"boundingbox_size":[28.000000,29.000000,24.000000]}
; Total objects to print: 1
M486 T1
; plater:{"center":[105.000000,105.000000,0.000000],"boundingbox_center":[105.000000,105.000000,12.000000],"boundingbox_size":[28.000000,29.000000,24.000000]}

M73 P0 R34
;TYPE:Custom
G90 ; use absolute coordinates
M83 ; extruder relative mode
M204 S1250 T1250
M104 S215 ; set extruder temp
M140 S65 ; set bed temp
G28 ; home all
G29 ; AutoBed Leveling I think
G1 Y1.0 Z0.3 F1000 ; move print head up
M190 S65 ; wait for bed temp
M109 S215 ; wait for extruder temp
G92 E0.0
; initial load
G1 X205.0 E19 F1000
G1 Y1.6
M73 P1 R34
G1 X5.0 E19 F1000
G92 E0.0
; intro line
G1 Y2.0 Z0.2 F1000
M73 P2 R33
G1 X65.0 E9.0 F1000
G1 X105.0 E12.5 F1000
G92 E0.0
M107
G21 ; set units to millimeters
G90 ; use absolute coordinates
M83 ; use relative distances for extrusion
; Filament gcode
;_TOOLCHANGE 0
M107
;LAYER_CHANGE
;Z:0.2
;HEIGHT:0.2
;BEFORE_LAYER_CHANGE
G92 E0.0
;0.2
G1 Z0.075 F10800
G1 Z0.2
;AFTER_LAYER_CHANGE
;0.2
G1 Z0.275
M204 S800
G1 X89.153 Y89.236
G1 Z0.2
;TYPE:Skirt
;WIDTH:0.52
G1 F1200
G1 X88.761 Y90.5 E0.05249
G1 X88.761 Y119.5 E1.15041
G1 X88.914 Y120.311 E0.03273
G1 X89.736 Y121.347 E0.05249
G1 X91 Y121.739 E0.05249
G1 X119 Y121.739 E1.11074
G1 X119.811 Y121.586 E0.03273
G1 X120.847 Y120.764 E0.05249
G1 X121.239 Y119.5 E0.05249
G1 X121.239 Y90.5 E1.15041
G1 X121.086 Y89.689 E0.03273
G1 X120.264 Y88.653 E0.05249
G1 X119 Y88.261 E0.05249
G1 X91 Y88.261 E1.11074
G1 X90.189 Y88.414 E0.03273
G1 X89.153 Y89.236 E0.05249
M204 S1000
G1 Z0.275 F10800
; printing object BtmMonitorHolder2.stl id:0 copy 0
M486 S0
; acceleration to travel
M204 S1500
G1 X90.986 Y90.689
; decel to extrusion
M204 S800
G1 X91.964 Y91.464
; end travel
G1 Z0.2
;TYPE:Internal perimeter
;WIDTH:0.42
G1 F1200
G1 X118.036 Y91.464 E0.81746
G1 X118.036 Y118.536 E0.84881
G1 X91.964 Y118.536 E0.81746
G1 X91.964 Y91.464 E0.84881
G1 X91.587 Y91.087 F10800
M73 P3 R33
G1 F1200
G1 X118.413 Y91.087 E0.84111
G1 X118.413 Y118.913 E0.87246
G1 X91.587 Y118.913 E0.84111
G1 X91.587 Y91.087 E0.87246
G1 X91.21 Y90.71 F10800
;TYPE:External perimeter
G1 F1200
G1 X118.79 Y90.71 E0.86475
G1 X118.79 Y119.29 E0.89611
G1 X91.21 Y119.29 E0.86475
G1 X91.21 Y90.71 E0.89611
;WIPE_START
M204 S1000
G1 X91.556 Y90.91 F10800
;WIPE_END
G1 Z0.275
; acceleration to travel
M204 S1500
G1 X108.752 Y91.842
; decel to extrusion
M204 S800
G1 X117.923 Y92.34
; end travel
G1 Z0.2
;TYPE:Solid infill
;WIDTH:0.420477
G1 F1200
G1 X117.323 Y91.739 E0.02664
G1 X116.789 Y91.739 E0.01674
G1 X117.761 Y92.711 E0.04312
G1 X117.761 Y93.244 E0.01674
G1 X116.256 Y91.739 E0.06679
G1 X115.723 Y91.739 E0.01674
G1 X117.761 Y93.777 E0.09046
G1 X117.761 Y94.31 E0.01674
G1 X115.19 Y91.739 E0.11413
G1 X114.656 Y91.739 E0.01674
G1 X117.761 Y94.844 E0.13781
G1 X117.761 Y95.377 E0.01674
G1 X114.123 Y91.739 E0.16148
G1 X113.59 Y91.739 E0.01674
G1 X117.761 Y95.91 E0.18515
G1 X117.761 Y96.444 E0.01674
G1 X113.056 Y91.739 E0.20883
G1 X112.523 Y91.739 E0.01674
G1 X117.761 Y96.977 E0.2325
G1 X117.761 Y97.51 E0.01674
G1 X111.99 Y91.739 E0.25617
G1 X111.457 Y91.739 E0.01674
G1 X117.761 Y98.043 E0.27984
G1 X117.761 Y98.577 E0.01674
G1 X110.923 Y91.739 E0.30352
G1 X110.39 Y91.739 E0.01674
G1 X117.761 Y99.11 E0.32719
G1 X117.761 Y99.643 E0.01674
G1 X109.857 Y91.739 E0.35086
G1 X109.324 Y91.739 E0.01674
G1 X117.761 Y100.176 E0.37454
G1 X117.761 Y100.71 E0.01674
G1 X108.79 Y91.739 E0.39821
G1 X108.257 Y91.739 E0.01674
G1 X117.761 Y101.243 E0.42188
G1 X117.761 Y101.776 E0.01674
G1 X107.724 Y91.739 E0.44556
G1 X107.19 Y91.739 E0.01674
G1 X117.761 Y102.31 E0.46923
G1 X117.761 Y102.843 E0.01674
M73 P4 R33
G1 X106.657 Y91.739 E0.4929
G1 X106.124 Y91.739 E0.01674
G1 X117.761 Y103.376 E0.51657
G1 X117.761 Y103.909 E0.01674
G1 X105.591 Y91.739 E0.54025
G1 X105.057 Y91.739 E0.01674
G1 X117.761 Y104.443 E0.56392
G1 X117.761 Y104.976 E0.01674
G1 X104.524 Y91.739 E0.58759
G1 X103.991 Y91.739 E0.01674
G1 X117.761 Y105.509 E0.61127
G1 X117.761 Y106.042 E0.01674
G1 X103.458 Y91.739 E0.63494
G1 X102.924 Y91.739 E0.01674
G1 X117.761 Y106.576 E0.65861
G1 X117.761 Y107.109 E0.01674
G1 X102.391 Y91.739 E0.68228
G1 X101.858 Y91.739 E0.01674
G1 X117.761 Y107.642 E0.70596
G1 X117.761 Y108.175 E0.01674
G1 X101.325 Y91.739 E0.72963
G1 X100.791 Y91.739 E0.01674
G1 X117.761 Y108.709 E0.7533
G1 X117.761 Y109.242 E0.01674
G1 X100.258 Y91.739 E0.77698
G1 X99.725 Y91.739 E0.01674
G1 X117.761 Y109.775 E0.80065
G1 X117.761 Y110.309 E0.01674
M73 P4 R32
G1 X99.191 Y91.739 E0.82432
G1 X98.658 Y91.739 E0.01674
G1 X117.761 Y110.842 E0.848
G1 X117.761 Y111.375 E0.01674
G1 X98.125 Y91.739 E0.87167
G1 X97.592 Y91.739 E0.01674
G1 X117.761 Y111.908 E0.89534
G1 X117.761 Y112.442 E0.01674
M73 P5 R32
G1 X97.058 Y91.739 E0.91901
G1 X96.525 Y91.739 E0.01674
G1 X117.761 Y112.975 E0.94269
G1 X117.761 Y113.508 E0.01674
G1 X95.992 Y91.739 E0.96636
G1 X95.459 Y91.739 E0.01674
G1 X117.761 Y114.041 E0.99003
G1 X117.761 Y114.575 E0.01674
G1 X94.925 Y91.739 E1.01371
G1 X94.392 Y91.739 E0.01674
G1 X117.761 Y115.108 E1.03738
G1 X117.761 Y115.641 E0.01674
G1 X93.859 Y91.739 E1.06105
G1 X93.325 Y91.739 E0.01674
G1 X117.761 Y116.175 E1.08472
G1 X117.761 Y116.708 E0.01674
G1 X92.792 Y91.739 E1.1084
G1 X92.259 Y91.739 E0.01674
G1 X117.761 Y117.241 E1.13207
G1 X117.761 Y117.774 E0.01674
G1 X92.239 Y92.253 E1.13294
G1 X92.239 Y92.786 E0.01674
G1 X117.714 Y118.261 E1.13085
G1 X117.18 Y118.261 E0.01674
G1 X92.239 Y93.32 E1.10718
G1 X92.239 Y93.853 E0.01674
M73 P6 R32
G1 X116.647 Y118.261 E1.0835
G1 X116.114 Y118.261 E0.01674
G1 X92.239 Y94.386 E1.05983
G1 X92.239 Y94.92 E0.01674
G1 X115.58 Y118.261 E1.03616
G1 X115.047 Y118.261 E0.01674
G1 X92.239 Y95.453 E1.01248
G1 X92.239 Y95.986 E0.01674
G1 X114.514 Y118.261 E0.98881
G1 X113.981 Y118.261 E0.01674
G1 X92.239 Y96.519 E0.96514
G1 X92.239 Y97.053 E0.01674
G1 X113.447 Y118.261 E0.94147
G1 X112.914 Y118.261 E0.01674
G1 X92.239 Y97.586 E0.91779
G1 X92.239 Y98.119 E0.01674
G1 X112.381 Y118.261 E0.89412
G1 X111.848 Y118.261 E0.01674
G1 X92.239 Y98.652 E0.87045
G1 X92.239 Y99.186 E0.01674
G1 X111.314 Y118.261 E0.84677
G1 X110.781 Y118.261 E0.01674
G1 X92.239 Y99.719 E0.8231
G1 X92.239 Y100.252 E0.01674
G1 X110.248 Y118.261 E0.79943
G1 X109.715 Y118.261 E0.01674
M73 P7 R32
G1 X92.239 Y100.785 E0.77575
G1 X92.239 Y101.319 E0.01674
G1 X109.181 Y118.261 E0.75208
G1 X108.648 Y118.261 E0.01674
G1 X92.239 Y101.852 E0.72841
G1 X92.239 Y102.385 E0.01674
G1 X108.115 Y118.261 E0.70474
G1 X107.581 Y118.261 E0.01674
G1 X92.239 Y102.919 E0.68106
G1 X92.239 Y103.452 E0.01674
G1 X107.048 Y118.261 E0.65739
G1 X106.515 Y118.261 E0.01674
G1 X92.239 Y103.985 E0.63372
G1 X92.239 Y104.518 E0.01674
G1 X105.982 Y118.261 E0.61004
G1 X105.448 Y118.261 E0.01674
G1 X92.239 Y105.052 E0.58637
G1 X92.239 Y105.585 E0.01674
G1 X104.915 Y118.261 E0.5627
G1 X104.382 Y118.261 E0.01674
G1 X92.239 Y106.118 E0.53903
G1 X92.239 Y106.651 E0.01674
G1 X103.849 Y118.261 E0.51535
G1 X103.315 Y118.261 E0.01674
M73 P7 R31
G1 X92.239 Y107.185 E0.49168
G1 X92.239 Y107.718 E0.01674
G1 X102.782 Y118.261 E0.46801
G1 X102.249 Y118.261 E0.01674
G1 X92.239 Y108.251 E0.44433
G1 X92.239 Y108.785 E0.01674
G1 X101.715 Y118.261 E0.42066
G1 X101.182 Y118.261 E0.01674
G1 X92.239 Y109.318 E0.39699
G1 X92.239 Y109.851 E0.01674
G1 X100.649 Y118.261 E0.37332
G1 X100.116 Y118.261 E0.01674
G1 X92.239 Y110.384 E0.34964
G1 X92.239 Y110.918 E0.01674
G1 X99.582 Y118.261 E0.32597
G1 X99.049 Y118.261 E0.01674
G1 X92.239 Y111.451 E0.3023
G1 X92.239 Y111.984 E0.01674
G1 X98.516 Y118.261 E0.27862
G1 X97.983 Y118.261 E0.01674
G1 X92.239 Y112.517 E0.25495
G1 X92.239 Y113.051 E0.01674
G1 X97.449 Y118.261 E0.23128
G1 X96.916 Y118.261 E0.01674
M73 P8 R31
G1 X92.239 Y113.584 E0.2076
G1 X92.239 Y114.117 E0.01674
G1 X96.383 Y118.261 E0.18393
G1 X95.849 Y118.261 E0.01674
G1 X92.239 Y114.651 E0.16026
G1 X92.239 Y115.184 E0.01674
G1 X95.316 Y118.261 E0.13659
G1 X94.783 Y118.261 E0.01674
G1 X92.239 Y115.717 E0.11291
G1 X92.239 Y116.25 E0.01674
G1 X94.25 Y118.261 E0.08924
G1 X93.716 Y118.261 E0.01674
G1 X92.239 Y116.784 E0.06557
G1 X92.239 Y117.317 E0.01674
G1 X93.183 Y118.261 E0.04189
G1 X92.65 Y118.261 E0.01674
G1 X92.077 Y117.688 E0.02542
M106 S84.15
;LAYER_CHANGE
;Z:0.5
;HEIGHT:0.3
;BEFORE_LAYER_CHANGE
G92 E0.0
;0.5
M204 S1000
G1 Z0.275 F10800
; stop printing object BtmMonitorHolder2.stl id:0 copy 0
M486 S-1
G1 Z0.5
;AFTER_LAYER_CHANGE
;0.5
M104 S210 ; set temperature
M140 S60 ; set bed temperature
G1 Z0.575
; acceleration to travel
M204 S1500
G1 X90.09 Y117.688
; decel to extrusion
M204 S1000
G1 X88.761 Y117.688
; end travel
G1 Z0.5
;TYPE:Skirt
;WIDTH:0.52
G1 F1350
G1 X88.761 Y119.5 E0.10297
G1 X88.914 Y120.311 E0.04688
G1 X89.736 Y121.347 E0.07519
G1 X91 Y121.739 E0.07519
G1 X119 Y121.739 E1.59117
G1 X119.811 Y121.586 E0.04688
G1 X120.847 Y120.764 E0.07519
G1 X121.239 Y119.5 E0.07519
G1 X121.239 Y90.5 E1.64799
G1 X121.086 Y89.689 E0.04688
G1 X120.264 Y88.653 E0.07519
G1 X119 Y88.261 E0.07519
G1 X91 Y88.261 E1.59117
G1 X90.189 Y88.414 E0.04688
G1 X89.153 Y89.236 E0.07519
G1 X88.761 Y90.5 E0.07519
G1 X88.761 Y117.688 E1.54502
G1 Z0.575 F10800
; printing object BtmMonitorHolder2.stl id:0 copy 0
M486 S0
; acceleration to travel
M204 S1500
G1 X90.967 Y101.137
; decel to extrusion
M204 S800
G1 X92.221 Y91.721
; end travel
G1 Z0.5
;TYPE:Internal perimeter
;WIDTH:0.5
G1 F3000
G1 X117.779 Y91.721 E1.38861
G1 X117.779 Y118.279 E1.44295
G1 X92.221 Y118.279 E1.38861
G1 X92.221 Y91.721 E1.44295
G1 X91.786 Y91.286 F10800
G1 F3000
G1 X118.214 Y91.286 E1.43595
G1 X118.214 Y118.714 E1.49028
G1 X91.786 Y118.714 E1.43595
G1 X91.786 Y91.286 E1.49028
G1 X91.3 Y90.8 F10800
;TYPE:External perimeter
;WIDTH:0.6
G1 F2100
G1 X118.7 Y90.8 E1.83047
G1 X118.7 Y119.2 E1.89727
G1 X91.3 Y119.2 E1.83047
G1 X91.3 Y90.8 E1.89727
;WIPE_START
M204 S1000
G1 X91.646 Y91 F10800
;WIPE_END
G1 Z0.575
; acceleration to travel
M204 S1500
G1 X92.063 Y91.981
; decel to extrusion
M204 S1000
G1 X92.352 Y92.663
; end travel
G1 Z0.5
;TYPE:Solid infill
;WIDTH:0.499452
G1 F3000
G1 X92.976 Y92.039 E0.04787
G1 X93.592 Y92.039 E0.03344
G1 X92.539 Y93.092 E0.08078
G1 X92.539 Y93.708 E0.03344
G1 X94.208 Y92.039 E0.12807
G1 X94.824 Y92.039 E0.03344
G1 X92.539 Y94.324 E0.17535
G1 X92.539 Y94.94 E0.03344
G1 X95.44 Y92.039 E0.22264
G1 X96.056 Y92.039 E0.03344
G1 X92.539 Y95.556 E0.26992
G1 X92.539 Y96.172 E0.03344
G1 X96.672 Y92.039 E0.31721
G1 X97.288 Y92.039 E0.03344
G1 X92.539 Y96.788 E0.36449
G1 X92.539 Y97.404 E0.03344
G1 X97.904 Y92.039 E0.41178
G1 X98.52 Y92.039 E0.03344
G1 X92.539 Y98.02 E0.45906
G1 X92.539 Y98.636 E0.03344
G1 X99.136 Y92.039 E0.50635
G1 X99.752 Y92.039 E0.03344
G1 X92.539 Y99.252 E0.55363
G1 X92.539 Y99.868 E0.03344
G1 X100.368 Y92.039 E0.60092
G1 X100.984 Y92.039 E0.03344
G1 X92.539 Y100.484 E0.6482
G1 X92.539 Y101.1 E0.03344
G1 X101.6 Y92.039 E0.69549
G1 X102.217 Y92.039 E0.03344
G1 X92.539 Y101.717 E0.74277
G1 X92.539 Y102.333 E0.03344
G1 X102.833 Y92.039 E0.79006
G1 X103.449 Y92.039 E0.03344
G1 X92.539 Y102.949 E0.83734
G1 X92.539 Y103.565 E0.03344
G1 X104.065 Y92.039 E0.88463
G1 X104.681 Y92.039 E0.03344
M73 P9 R31
G1 X92.539 Y104.181 E0.93191
G1 X92.539 Y104.797 E0.03344
G1 X105.297 Y92.039 E0.9792
G1 X105.913 Y92.039 E0.03344
G1 X92.539 Y105.413 E1.02648
G1 X92.539 Y106.029 E0.03344
G1 X106.529 Y92.039 E1.07377
G1 X107.145 Y92.039 E0.03344
G1 X92.539 Y106.645 E1.12105
G1 X92.539 Y107.261 E0.03344
G1 X107.761 Y92.039 E1.16834
G1 X108.377 Y92.039 E0.03344
G1 X92.539 Y107.877 E1.21562
G1 X92.539 Y108.493 E0.03344
G1 X108.993 Y92.039 E1.26291
G1 X109.609 Y92.039 E0.03344
G1 X92.539 Y109.109 E1.31019
G1 X92.539 Y109.725 E0.03344
G1 X110.225 Y92.039 E1.35748
G1 X110.841 Y92.039 E0.03344
G1 X92.539 Y110.341 E1.40476
G1 X92.539 Y110.957 E0.03344
G1 X111.457 Y92.039 E1.45205
G1 X112.073 Y92.039 E0.03344
G1 X92.539 Y111.573 E1.49933
G1 X92.539 Y112.189 E0.03344
G1 X112.689 Y92.039 E1.54662
G1 X113.306 Y92.039 E0.03344
G1 X92.539 Y112.806 E1.5939
G1 X92.539 Y113.422 E0.03344
G1 X113.922 Y92.039 E1.64119
G1 X114.538 Y92.039 E0.03344
G1 X92.539 Y114.038 E1.68847
G1 X92.539 Y114.654 E0.03344
G1 X115.154 Y92.039 E1.73576
G1 X115.77 Y92.039 E0.03344
G1 X92.539 Y115.27 E1.78304
G1 X92.539 Y115.886 E0.03344
G1 X116.386 Y92.039 E1.83033
G1 X117.002 Y92.039 E0.03344
G1 X92.539 Y116.502 E1.87761
G1 X92.539 Y117.118 E0.03344
G1 X117.461 Y92.196 E1.91283
G1 X117.461 Y92.812 E0.03344
G1 X92.539 Y117.734 E1.91283
G1 X92.539 Y117.961 E0.01231
G1 X92.929 Y117.961 E0.02113
G1 X117.461 Y93.429 E1.88295
G1 X117.461 Y94.045 E0.03344
G1 X93.545 Y117.961 E1.83566
G1 X94.161 Y117.961 E0.03344
G1 X117.461 Y94.661 E1.78838
G1 X117.461 Y95.277 E0.03344
G1 X94.777 Y117.961 E1.74109
G1 X95.393 Y117.961 E0.03344
G1 X117.461 Y95.893 E1.69381
G1 X117.461 Y96.509 E0.03344
G1 X96.009 Y117.961 E1.64652
G1 X96.625 Y117.961 E0.03344
G1 X117.461 Y97.125 E1.59924
G1 X117.461 Y97.741 E0.03344
G1 X97.241 Y117.961 E1.55195
G1 X97.857 Y117.961 E0.03344
G1 X117.461 Y98.357 E1.50467
G1 X117.461 Y98.973 E0.03344
G1 X98.473 Y117.961 E1.45738
G1 X99.089 Y117.961 E0.03344
G1 X117.461 Y99.589 E1.4101
G1 X117.461 Y100.205 E0.03344
M73 P10 R31
G1 X99.705 Y117.961 E1.36281
G1 X100.321 Y117.961 E0.03344
G1 X117.461 Y100.821 E1.31553
G1 X117.461 Y101.437 E0.03344
G1 X100.937 Y117.961 E1.26824
G1 X101.553 Y117.961 E0.03344
G1 X117.461 Y102.053 E1.22096
G1 X117.461 Y102.669 E0.03344
G1 X102.169 Y117.961 E1.17367
G1 X102.785 Y117.961 E0.03344
G1 X117.461 Y103.285 E1.12639
G1 X117.461 Y103.902 E0.03344
G1 X103.402 Y117.961 E1.0791
G1 X104.018 Y117.961 E0.03344
G1 X117.461 Y104.518 E1.03182
G1 X117.461 Y105.134 E0.03344
G1 X104.634 Y117.961 E0.98453
G1 X105.25 Y117.961 E0.03344
G1 X117.461 Y105.75 E0.93725
G1 X117.461 Y106.366 E0.03344
G1 X105.866 Y117.961 E0.88996
G1 X106.482 Y117.961 E0.03344
G1 X117.461 Y106.982 E0.84268
G1 X117.461 Y107.598 E0.03344
G1 X107.098 Y117.961 E0.79539
G1 X107.714 Y117.961 E0.03344
G1 X117.461 Y108.214 E0.74811
G1 X117.461 Y108.83 E0.03344
G1 X108.33 Y117.961 E0.70082
G1 X108.946 Y117.961 E0.03344
G1 X117.461 Y109.446 E0.65354
G1 X117.461 Y110.062 E0.03344
G1 X109.562 Y117.961 E0.60625
G1 X110.178 Y117.961 E0.03344
G1 X117.461 Y110.678 E0.55897
G1 X117.461 Y111.294 E0.03344
G1 X110.794 Y117.961 E0.51168
G1 X111.41 Y117.961 E0.03344
G1 X117.461 Y111.91 E0.4644
G1 X117.461 Y112.526 E0.03344
G1 X112.026 Y117.961 E0.41711
G1 X112.642 Y117.961 E0.03344
G1 X117.461 Y113.142 E0.36983
G1 X117.461 Y113.758 E0.03344
G1 X113.258 Y117.961 E0.32254
G1 X113.875 Y117.961 E0.03344
G1 X117.461 Y114.375 E0.27526
G1 X117.461 Y114.991 E0.03344
G1 X114.491 Y117.961 E0.22797
G1 X115.107 Y117.961 E0.03344
G1 X117.461 Y115.607 E0.18069
G1 X117.461 Y116.223 E0.03344
G1 X115.723 Y117.961 E0.1334
G1 X116.339 Y117.961 E0.03344
G1 X117.461 Y116.839 E0.08612
G1 X117.461 Y117.455 E0.03344
G1 X116.767 Y118.148 E0.05321
M106 S170.85
;LAYER_CHANGE
;Z:0.8
;HEIGHT:0.3
;BEFORE_LAYER_CHANGE
G92 E0.0
;0.8
G1 Z0.575 F10800
; stop printing object BtmMonitorHolder2.stl id:0 copy 0
M486 S-1
G1 Z0.8
;AFTER_LAYER_CHANGE
;0.8
G1 Z0.875
; acceleration to travel
M204 S1500
G1 X116.767 Y120.358
; decel to extrusion
M204 S1000
G1 X116.767 Y121.739
; end travel
G1 Z0.8
;TYPE:Skirt
;WIDTH:0.52
G1 F1350
G1 X119 Y121.739 E0.12687
G1 X119.811 Y121.586 E0.04688
G1 X120.847 Y120.764 E0.07519
G1 X121.239 Y119.5 E0.07519
G1 X121.239 Y90.5 E1.64799
G1 X121.086 Y89.689 E0.04688
M73 P10 R30
G1 X120.264 Y88.653 E0.07519
G1 X119 Y88.261 E0.07519
G1 X91 Y88.261 E1.59117
G1 X90.189 Y88.414 E0.04688
G1 X89.153 Y89.236 E0.07519
