; generated by SuperSlicer 2.4 on 2022-12-30 at 17:52:58 UTC


;
;

;
;
; 

; external perimeters extrusion width = 0.60mm
; perimeters extrusion width = 0.50mm
; infill extrusion width = 0.50mm
; solid infill extrusion width = 0.50mm
; top infill extrusion width = 0.40mm
; support material extrusion width = 0.38mm
; first layer extrusion width = 0.42mm

; object:{"name":"BtmMonitorHolder3","id":"BtmMonitorHolder3.stl id:0 copy 0","object_center":[105.000000,105.000000,0.000000],"boundingbox_center":[105.000000,105.000000,12.000000],"boundingbox_size":[24.000000,25.000000,24.000000]}
; Total objects to print: 1
M486 T1
; plater:{"center":[105.000000,105.000000,0.000000],"boundingbox_center":[105.000000,105.000000,12.000000],"boundingbox_size":[24.000000,25.000000,24.000000]}

M73 P0 R31
;TYPE:Custom
G90 ; use absolute coordinates
M83 ; extruder relative mode
M204 S1250 T1250
M104 S215 ; set extruder temp
M140 S65 ; set bed temp
G28 ; home all
G29 ; AutoBed Leveling I think
G1 Y1.0 Z0.3 F1000 ; move print head up
M190 S65 ; wait for bed temp
M109 S215 ; wait for extruder temp
G92 E0.0
; initial load
G1 X205.0 E19 F1000
M73 P1 R31
G1 Y1.6
G1 X5.0 E19 F1000
G92 E0.0
; intro line
G1 Y2.0 Z0.2 F1000
M73 P2 R31
G1 X65.0 E9.0 F1000
G1 X105.0 E12.5 F1000
G92 E0.0
M107
G21 ; set units to millimeters
G90 ; use absolute coordinates
M83 ; use relative distances for extrusion
; Filament gcode
;_TOOLCHANGE 0
M107
;LAYER_CHANGE
;Z:0.2
;HEIGHT:0.2
;BEFORE_LAYER_CHANGE
G92 E0.0
;0.2
G1 Z0.075 F10800
G1 Z0.2
;AFTER_LAYER_CHANGE
;0.2
G1 Z0.275
M204 S800
G1 X91.153 Y91.236
G1 Z0.2
;TYPE:Skirt
;WIDTH:0.52
G1 F1200
G1 X90.761 Y92.5 E0.05249
G1 X90.761 Y117.5 E0.99173
G1 X90.914 Y118.311 E0.03273
G1 X91.736 Y119.347 E0.05249
G1 X93 Y119.739 E0.05249
G1 X117 Y119.739 E0.95206
G1 X117.811 Y119.586 E0.03273
G1 X118.847 Y118.764 E0.05249
G1 X119.239 Y117.5 E0.05249
G1 X119.239 Y92.5 E0.99173
G1 X119.086 Y91.689 E0.03273
M73 P2 R30
G1 X118.264 Y90.653 E0.05249
G1 X117 Y90.261 E0.05249
G1 X93 Y90.261 E0.95206
G1 X92.189 Y90.414 E0.03273
G1 X91.153 Y91.236 E0.05249
M204 S1000
G1 Z0.275 F10800
; printing object BtmMonitorHolder3.stl id:0 copy 0
M486 S0
; acceleration to travel
M204 S1500
G1 X92.986 Y92.689
; decel to extrusion
M204 S800
G1 X93.964 Y93.464
; end travel
G1 Z0.2
;TYPE:Internal perimeter
;WIDTH:0.42
M73 P3 R30
G1 F1200
G1 X116.036 Y93.464 E0.69204
G1 X116.036 Y116.536 E0.7234
G1 X93.964 Y116.536 E0.69204
G1 X93.964 Y93.464 E0.7234
G1 X93.587 Y93.087 F10800
G1 F1200
G1 X116.413 Y93.087 E0.71569
G1 X116.413 Y116.913 E0.74704
G1 X93.587 Y116.913 E0.71569
G1 X93.587 Y93.087 E0.74704
G1 X93.21 Y92.71 F10800
;TYPE:External perimeter
G1 F1200
G1 X116.79 Y92.71 E0.73933
G1 X116.79 Y117.29 E0.77069
G1 X93.21 Y117.29 E0.73933
G1 X93.21 Y92.71 E0.77069
;WIPE_START
M204 S1000
G1 X93.556 Y92.91 F10800
;WIPE_END
G1 Z0.275
; acceleration to travel
M204 S1500
G1 X108.143 Y93.842
; decel to extrusion
M204 S800
G1 X115.923 Y94.34
; end travel
G1 Z0.2
;TYPE:Solid infill
;WIDTH:0.420633
G1 F1200
G1 X115.323 Y93.739 E0.02665
G1 X114.789 Y93.739 E0.01675
G1 X115.761 Y94.711 E0.04313
G1 X115.761 Y95.244 E0.01675
G1 X114.256 Y93.739 E0.06681
G1 X113.723 Y93.739 E0.01675
G1 X115.761 Y95.777 E0.0905
G1 X115.761 Y96.31 E0.01675
G1 X113.19 Y93.739 E0.11418
G1 X112.656 Y93.739 E0.01675
G1 X115.761 Y96.844 E0.13786
G1 X115.761 Y97.377 E0.01675
G1 X112.123 Y93.739 E0.16154
G1 X111.59 Y93.739 E0.01675
G1 X115.761 Y97.91 E0.18522
G1 X115.761 Y98.444 E0.01675
G1 X111.056 Y93.739 E0.2089
G1 X110.523 Y93.739 E0.01675
G1 X115.761 Y98.977 E0.23259
G1 X115.761 Y99.51 E0.01675
G1 X109.99 Y93.739 E0.25627
G1 X109.457 Y93.739 E0.01675
G1 X115.761 Y100.043 E0.27995
G1 X115.761 Y100.577 E0.01675
G1 X108.923 Y93.739 E0.30363
G1 X108.39 Y93.739 E0.01675
G1 X115.761 Y101.11 E0.32731
G1 X115.761 Y101.643 E0.01675
G1 X107.857 Y93.739 E0.35099
G1 X107.324 Y93.739 E0.01675
M73 P4 R30
G1 X115.761 Y102.176 E0.37468
G1 X115.761 Y102.71 E0.01675
G1 X106.79 Y93.739 E0.39836
G1 X106.257 Y93.739 E0.01675
G1 X115.761 Y103.243 E0.42204
G1 X115.761 Y103.776 E0.01675
G1 X105.724 Y93.739 E0.44572
G1 X105.19 Y93.739 E0.01675
G1 X115.761 Y104.31 E0.4694
G1 X115.761 Y104.843 E0.01675
G1 X104.657 Y93.739 E0.49309
G1 X104.124 Y93.739 E0.01675
G1 X115.761 Y105.376 E0.51677
G1 X115.761 Y105.909 E0.01675
G1 X103.591 Y93.739 E0.54045
G1 X103.057 Y93.739 E0.01675
G1 X115.761 Y106.443 E0.56413
G1 X115.761 Y106.976 E0.01675
G1 X102.524 Y93.739 E0.58781
G1 X101.991 Y93.739 E0.01675
G1 X115.761 Y107.509 E0.61149
G1 X115.761 Y108.042 E0.01675
G1 X101.458 Y93.739 E0.63518
G1 X100.924 Y93.739 E0.01675
G1 X115.761 Y108.576 E0.65886
G1 X115.761 Y109.109 E0.01675
G1 X100.391 Y93.739 E0.68254
G1 X99.858 Y93.739 E0.01675
G1 X115.761 Y109.642 E0.70622
G1 X115.761 Y110.175 E0.01675
G1 X99.325 Y93.739 E0.7299
G1 X98.791 Y93.739 E0.01675
G1 X115.761 Y110.709 E0.75358
G1 X115.761 Y111.242 E0.01675
G1 X98.258 Y93.739 E0.77727
G1 X97.725 Y93.739 E0.01675
G1 X115.761 Y111.775 E0.80095
G1 X115.761 Y112.309 E0.01675
G1 X97.191 Y93.739 E0.82463
G1 X96.658 Y93.739 E0.01675
M73 P5 R30
G1 X115.761 Y112.842 E0.84831
G1 X115.761 Y113.375 E0.01675
G1 X96.125 Y93.739 E0.87199
G1 X95.592 Y93.739 E0.01675
G1 X115.761 Y113.908 E0.89568
G1 X115.761 Y114.442 E0.01675
G1 X95.058 Y93.739 E0.91936
G1 X94.525 Y93.739 E0.01675
G1 X115.761 Y114.975 E0.94304
G1 X115.761 Y115.508 E0.01675
G1 X94.239 Y93.987 E0.95572
G1 X94.239 Y94.52 E0.01675
G1 X115.761 Y116.041 E0.95572
G1 X115.761 Y116.261 E0.00688
G1 X115.446 Y116.261 E0.00986
G1 X94.239 Y95.054 E0.94177
G1 X94.239 Y95.587 E0.01675
G1 X114.913 Y116.261 E0.91809
G1 X114.38 Y116.261 E0.01675
G1 X94.239 Y96.12 E0.89441
G1 X94.239 Y96.653 E0.01675
G1 X113.847 Y116.261 E0.87073
G1 X113.313 Y116.261 E0.01675
G1 X94.239 Y97.187 E0.84705
G1 X94.239 Y97.72 E0.01675
G1 X112.78 Y116.261 E0.82337
G1 X112.247 Y116.261 E0.01675
M73 P6 R29
G1 X94.239 Y98.253 E0.79968
G1 X94.239 Y98.786 E0.01675
G1 X111.714 Y116.261 E0.776
G1 X111.18 Y116.261 E0.01675
G1 X94.239 Y99.32 E0.75232
G1 X94.239 Y99.853 E0.01675
G1 X110.647 Y116.261 E0.72864
G1 X110.114 Y116.261 E0.01675
G1 X94.239 Y100.386 E0.70496
G1 X94.239 Y100.92 E0.01675
G1 X109.58 Y116.261 E0.68128
G1 X109.047 Y116.261 E0.01675
G1 X94.239 Y101.453 E0.65759
G1 X94.239 Y101.986 E0.01675
G1 X108.514 Y116.261 E0.63391
G1 X107.981 Y116.261 E0.01675
G1 X94.239 Y102.519 E0.61023
G1 X94.239 Y103.053 E0.01675
G1 X107.447 Y116.261 E0.58655
G1 X106.914 Y116.261 E0.01675
G1 X94.239 Y103.586 E0.56287
G1 X94.239 Y104.119 E0.01675
G1 X106.381 Y116.261 E0.53918
G1 X105.848 Y116.261 E0.01675
G1 X94.239 Y104.652 E0.5155
G1 X94.239 Y105.186 E0.01675
G1 X105.314 Y116.261 E0.49182
G1 X104.781 Y116.261 E0.01675
G1 X94.239 Y105.719 E0.46814
G1 X94.239 Y106.252 E0.01675
G1 X104.248 Y116.261 E0.44446
G1 X103.715 Y116.261 E0.01675
G1 X94.239 Y106.785 E0.42078
G1 X94.239 Y107.319 E0.01675
G1 X103.181 Y116.261 E0.39709
G1 X102.648 Y116.261 E0.01675
G1 X94.239 Y107.852 E0.37341
G1 X94.239 Y108.385 E0.01675
M73 P7 R29
G1 X102.115 Y116.261 E0.34973
G1 X101.581 Y116.261 E0.01675
G1 X94.239 Y108.919 E0.32605
G1 X94.239 Y109.452 E0.01675
G1 X101.048 Y116.261 E0.30237
G1 X100.515 Y116.261 E0.01675
G1 X94.239 Y109.985 E0.27869
G1 X94.239 Y110.518 E0.01675
G1 X99.982 Y116.261 E0.255
G1 X99.448 Y116.261 E0.01675
G1 X94.239 Y111.052 E0.23132
G1 X94.239 Y111.585 E0.01675
G1 X98.915 Y116.261 E0.20764
G1 X98.382 Y116.261 E0.01675
G1 X94.239 Y112.118 E0.18396
G1 X94.239 Y112.651 E0.01675
G1 X97.849 Y116.261 E0.16028
G1 X97.315 Y116.261 E0.01675
G1 X94.239 Y113.185 E0.13659
G1 X94.239 Y113.718 E0.01675
G1 X96.782 Y116.261 E0.11291
G1 X96.249 Y116.261 E0.01675
G1 X94.239 Y114.251 E0.08923
G1 X94.239 Y114.785 E0.01675
G1 X95.715 Y116.261 E0.06555
G1 X95.182 Y116.261 E0.01675
G1 X94.239 Y115.318 E0.04187
G1 X94.239 Y115.851 E0.01675
G1 X94.811 Y116.423 E0.02539
M106 S84.15
;LAYER_CHANGE
;Z:0.5
;HEIGHT:0.3
;BEFORE_LAYER_CHANGE
G92 E0.0
;0.5
M204 S1000
G1 Z0.275 F10800
; stop printing object BtmMonitorHolder3.stl id:0 copy 0
M486 S-1
G1 Z0.5
;AFTER_LAYER_CHANGE
;0.5
M104 S210 ; set temperature
M140 S60 ; set bed temperature
G1 Z0.575
; acceleration to travel
M204 S1500
G1 X94.811 Y118.41
; decel to extrusion
M204 S1000
G1 X94.811 Y119.739
; end travel
G1 Z0.5
;TYPE:Skirt
;WIDTH:0.52
G1 F1350
G1 X117 Y119.739 E1.26094
G1 X117.811 Y119.586 E0.04688
G1 X118.847 Y118.764 E0.07519
G1 X119.239 Y117.5 E0.07519
G1 X119.239 Y92.5 E1.42068
G1 X119.086 Y91.689 E0.04688
G1 X118.264 Y90.653 E0.07519
G1 X117 Y90.261 E0.07519
G1 X93 Y90.261 E1.36386
G1 X92.189 Y90.414 E0.04688
G1 X91.153 Y91.236 E0.07519
G1 X90.761 Y92.5 E0.07519
G1 X90.761 Y117.5 E1.42068
G1 X90.914 Y118.311 E0.04688
G1 X91.736 Y119.347 E0.07519
G1 X93 Y119.739 E0.07519
G1 X94.811 Y119.739 E0.10292
G1 Z0.575 F10800
; printing object BtmMonitorHolder3.stl id:0 copy 0
M486 S0
; acceleration to travel
M204 S1500
G1 X94.435 Y103.155
; decel to extrusion
M204 S800
G1 X94.221 Y93.721
; end travel
G1 Z0.5
;TYPE:Internal perimeter
;WIDTH:0.5
G1 F3000
G1 X115.779 Y93.721 E1.17128
G1 X115.779 Y116.279 E1.22561
G1 X94.221 Y116.279 E1.17128
G1 X94.221 Y93.721 E1.22561
G1 X93.786 Y93.286 F10800
G1 F3000
G1 X116.214 Y93.286 E1.21862
G1 X116.214 Y116.714 E1.27295
G1 X93.786 Y116.714 E1.21862
G1 X93.786 Y93.286 E1.27295
G1 X93.3 Y92.8 F10800
;TYPE:External perimeter
;WIDTH:0.6
G1 F2100
G1 X116.7 Y92.8 E1.56325
G1 X116.7 Y117.2 E1.63005
G1 X93.3 Y117.2 E1.56325
G1 X93.3 Y92.8 E1.63005
;WIPE_START
M204 S1000
G1 X93.646 Y93 F10800
;WIPE_END
G1 Z0.575
; acceleration to travel
M204 S1500
G1 X94.546 Y93.503
; decel to extrusion
M204 S1000
G1 X95.172 Y93.852
; end travel
G1 Z0.5
;TYPE:Solid infill
;WIDTH:0.499388
G1 F3000
G1 X94.539 Y94.484 E0.04854
G1 X94.539 Y95.1 E0.03343
G1 X95.6 Y94.039 E0.08144
G1 X96.217 Y94.039 E0.03343
G1 X94.539 Y95.717 E0.12872
G1 X94.539 Y96.333 E0.03343
G1 X96.833 Y94.039 E0.176
G1 X97.449 Y94.039 E0.03343
G1 X94.539 Y96.949 E0.22328
G1 X94.539 Y97.565 E0.03343
G1 X98.065 Y94.039 E0.27056
G1 X98.681 Y94.039 E0.03343
G1 X94.539 Y98.181 E0.31784
G1 X94.539 Y98.797 E0.03343
G1 X99.297 Y94.039 E0.36512
G1 X99.913 Y94.039 E0.03343
G1 X94.539 Y99.413 E0.41239
G1 X94.539 Y100.029 E0.03343
M73 P8 R29
G1 X100.529 Y94.039 E0.45967
G1 X101.145 Y94.039 E0.03343
G1 X94.539 Y100.645 E0.50695
G1 X94.539 Y101.261 E0.03343
G1 X101.761 Y94.039 E0.55423
G1 X102.377 Y94.039 E0.03343
G1 X94.539 Y101.877 E0.60151
G1 X94.539 Y102.493 E0.03343
G1 X102.993 Y94.039 E0.64879
G1 X103.609 Y94.039 E0.03343
G1 X94.539 Y103.109 E0.69607
G1 X94.539 Y103.725 E0.03343
G1 X104.225 Y94.039 E0.74335
G1 X104.841 Y94.039 E0.03343
G1 X94.539 Y104.341 E0.79063
G1 X94.539 Y104.957 E0.03343
G1 X105.457 Y94.039 E0.8379
G1 X106.073 Y94.039 E0.03343
G1 X94.539 Y105.573 E0.88518
G1 X94.539 Y106.189 E0.03343
G1 X106.689 Y94.039 E0.93246
G1 X107.306 Y94.039 E0.03343
G1 X94.539 Y106.806 E0.97974
G1 X94.539 Y107.422 E0.03343
G1 X107.922 Y94.039 E1.02702
G1 X108.538 Y94.039 E0.03343
G1 X94.539 Y108.038 E1.0743
G1 X94.539 Y108.654 E0.03343
G1 X109.154 Y94.039 E1.12158
G1 X109.77 Y94.039 E0.03343
G1 X94.539 Y109.27 E1.16886
G1 X94.539 Y109.886 E0.03343
G1 X110.386 Y94.039 E1.21613
G1 X111.002 Y94.039 E0.03343
G1 X94.539 Y110.502 E1.26341
G1 X94.539 Y111.118 E0.03343
G1 X111.618 Y94.039 E1.31069
G1 X112.234 Y94.039 E0.03343
G1 X94.539 Y111.734 E1.35797
G1 X94.539 Y112.35 E0.03343
G1 X112.85 Y94.039 E1.40525
G1 X113.466 Y94.039 E0.03343
G1 X94.539 Y112.966 E1.45253
G1 X94.539 Y113.582 E0.03343
G1 X114.082 Y94.039 E1.49981
G1 X114.698 Y94.039 E0.03343
G1 X94.539 Y114.198 E1.54709
G1 X94.539 Y114.814 E0.03343
G1 X115.314 Y94.039 E1.59437
G1 X115.461 Y94.039 E0.00795
G1 X115.461 Y94.509 E0.02548
G1 X94.539 Y115.43 E1.60561
G1 X94.539 Y115.961 E0.02878
G1 X94.625 Y115.961 E0.00465
G1 X115.461 Y95.125 E1.59903
G1 X115.461 Y95.741 E0.03343
G1 X95.241 Y115.961 E1.55175
G1 X95.857 Y115.961 E0.03343
G1 X115.461 Y96.357 E1.50448
G1 X115.461 Y96.973 E0.03343
G1 X96.473 Y115.961 E1.4572
G1 X97.089 Y115.961 E0.03343
G1 X115.461 Y97.589 E1.40992
G1 X115.461 Y98.205 E0.03343
G1 X97.705 Y115.961 E1.36264
G1 X98.321 Y115.961 E0.03343
G1 X115.461 Y98.821 E1.31536
G1 X115.461 Y99.437 E0.03343
G1 X98.937 Y115.961 E1.26808
G1 X99.553 Y115.961 E0.03343
G1 X115.461 Y100.053 E1.2208
G1 X115.461 Y100.669 E0.03343
G1 X100.169 Y115.961 E1.17352
G1 X100.785 Y115.961 E0.03343
G1 X115.461 Y101.285 E1.12624
G1 X115.461 Y101.902 E0.03343
G1 X101.402 Y115.961 E1.07897
G1 X102.018 Y115.961 E0.03343
G1 X115.461 Y102.518 E1.03169
G1 X115.461 Y103.134 E0.03343
G1 X102.634 Y115.961 E0.98441
G1 X103.25 Y115.961 E0.03343
M73 P9 R29
G1 X115.461 Y103.75 E0.93713
G1 X115.461 Y104.366 E0.03343
G1 X103.866 Y115.961 E0.88985
G1 X104.482 Y115.961 E0.03343
G1 X115.461 Y104.982 E0.84257
G1 X115.461 Y105.598 E0.03343
G1 X105.098 Y115.961 E0.79529
G1 X105.714 Y115.961 E0.03343
G1 X115.461 Y106.214 E0.74801
G1 X115.461 Y106.83 E0.03343
G1 X106.33 Y115.961 E0.70073
G1 X106.946 Y115.961 E0.03343
G1 X115.461 Y107.446 E0.65346
G1 X115.461 Y108.062 E0.03343
G1 X107.562 Y115.961 E0.60618
G1 X108.178 Y115.961 E0.03343
M73 P9 R28
G1 X115.461 Y108.678 E0.5589
G1 X115.461 Y109.294 E0.03343
G1 X108.794 Y115.961 E0.51162
G1 X109.41 Y115.961 E0.03343
G1 X115.461 Y109.91 E0.46434
G1 X115.461 Y110.526 E0.03343
G1 X110.026 Y115.961 E0.41706
G1 X110.642 Y115.961 E0.03343
G1 X115.461 Y111.142 E0.36978
G1 X115.461 Y111.758 E0.03343
G1 X111.258 Y115.961 E0.3225
G1 X111.875 Y115.961 E0.03343
G1 X115.461 Y112.375 E0.27522
G1 X115.461 Y112.991 E0.03343
G1 X112.491 Y115.961 E0.22795
G1 X113.107 Y115.961 E0.03343
G1 X115.461 Y113.607 E0.18067
G1 X115.461 Y114.223 E0.03343
G1 X113.723 Y115.961 E0.13339
G1 X114.339 Y115.961 E0.03343
G1 X115.461 Y114.839 E0.08611
G1 X115.461 Y115.455 E0.03343
G1 X114.767 Y116.148 E0.05321
M106 S170.85
;LAYER_CHANGE
;Z:0.8
;HEIGHT:0.3
;BEFORE_LAYER_CHANGE
G92 E0.0
;0.8
G1 Z0.575 F10800
; stop printing object BtmMonitorHolder3.stl id:0 copy 0
M486 S-1
G1 Z0.8
;AFTER_LAYER_CHANGE
;0.8
G1 Z0.875
; acceleration to travel
M204 S1500
G1 X114.767 Y118.358
; decel to extrusion
M204 S1000
G1 X114.767 Y119.739
; end travel
G1 Z0.8
;TYPE:Skirt
;WIDTH:0.52
G1 F1350
G1 X117 Y119.739 E0.12687
G1 X117.811 Y119.586 E0.04688
G1 X118.847 Y118.764 E0.07519
G1 X119.239 Y117.5 E0.07519
G1 X119.239 Y92.5 E1.42068
G1 X119.086 Y91.689 E0.04688
G1 X118.264 Y90.653 E0.07519
G1 X117 Y90.261 E0.07519
G1 X93 Y90.261 E1.36386
G1 X92.189 Y90.414 E0.04688
G1 X91.153 Y91.236 E0.07519
G1 X90.761 Y92.5 E0.07519
G1 X90.761 Y117.5 E1.42068
G1 X90.914 Y118.311 E0.04688
G1 X91.736 Y119.347 E0.07519
G1 X93 Y119.739 E0.07519
G1 X114.767 Y119.739 E1.23699
G1 Z0.875 F10800
; printing object BtmMonitorHolder3.stl id:0 copy 0
M486 S0
; acceleration to travel
M204 S1500
G1 X101.671 Y103.155
; decel to extrusion
M204 S800
G1 X94.221 Y93.721
; end travel
G1 Z0.8
;TYPE:Internal perimeter
;WIDTH:0.5
G1 F3000
G1 X115.779 Y93.721 E1.17128
G1 X115.779 Y116.279 E1.22561
G1 X94.221 Y116.279 E1.17128
G1 X94.221 Y93.721 E1.22561
G1 X93.786 Y93.286 F10800
G1 F3000
G1 X116.214 Y93.286 E1.21862
G1 X116.214 Y116.714 E1.27295
G1 X93.786 Y116.714 E1.21862
G1 X93.786 Y93.286 E1.27295
G1 X93.3 Y92.8 F10800
;TYPE:External perimeter
;WIDTH:0.6
G1 F2100
G1 X116.7 Y92.8 E1.56325
G1 X116.7 Y117.2 E1.63005
G1 X93.3 Y117.2 E1.56325
G1 X93.3 Y92.8 E1.63005
;WIPE_START
M204 S1000
G1 X93.646 Y93 F10800
;WIPE_END
G1 Z0.875
; acceleration to travel
M204 S1500
G1 X106.626 Y94.022
; decel to extrusion
M204 S1000
G1 X115.648 Y94.733
; end travel
G1 Z0.8
;TYPE:Solid infill
;WIDTH:0.499388
G1 F3000
G1 X114.955 Y94.039 E0.05321
G1 X114.339 Y94.039 E0.03343
G1 X115.461 Y95.161 E0.08611
G1 X115.461 Y95.777 E0.03343
G1 X113.723 Y94.039 E0.13339
G1 X113.107 Y94.039 E0.03343
G1 X115.461 Y96.393 E0.18067
G1 X115.461 Y97.009 E0.03343
G1 X112.491 Y94.039 E0.22795
G1 X111.875 Y94.039 E0.03343
G1 X115.461 Y97.625 E0.27522
G1 X115.461 Y98.242 E0.03343
G1 X111.258 Y94.039 E0.3225
G1 X110.642 Y94.039 E0.03343
G1 X115.461 Y98.858 E0.36978
G1 X115.461 Y99.474 E0.03343
G1 X110.026 Y94.039 E0.41706
