; generated by PrusaSlicer 2.6.0+win64 on 2023-08-07 at 19:50:11 UTC


;
;
; 

; external perimeters extrusion width = 0.45mm
; perimeters extrusion width = 0.45mm
; infill extrusion width = 0.45mm
; solid infill extrusion width = 0.45mm
; top infill extrusion width = 0.40mm
; first layer extrusion width = 0.42mm

M73 P0 R56
M73 Q0 S58
M201 X1000 Y1000 Z200 E5000 ; sets maximum accelerations, mm/sec^2
M203 X200 Y200 Z12 E120 ; sets maximum feedrates, mm / sec
M204 S1250 T1250 ; sets acceleration (S) and retract acceleration (R), mm/sec^2
M205 X8.00 Y8.00 Z0.40 E4.50 ; sets the jerk limits, mm/sec
M205 S0 T0 ; sets the minimum extruding and travel feed rate, mm/sec
;TYPE:Custom
M862.3 P "MK3S" ; printer model check
M862.1 P0.4 ; nozzle diameter check
M115 U3.12.2 ; tell printer latest fw version
G90 ; use absolute coordinates
M83 ; extruder relative mode
M104 S215 ; set extruder temp
M140 S60 ; set bed temp
M190 S60 ; wait for bed temp
M109 S215 ; wait for extruder temp
G28 W ; home all without mesh bed level
G80 ; mesh bed leveling

G1 Z0.2 F720
G1 Y-3 F1000 ; go outside print area
G92 E0
G1 X60 E9 F1000 ; intro line
G1 X100 E12.5 F1000 ; intro line

G92 E0
M221 S95

; Don't change E values below. Excessive value can damage the printer.
M907 E430 ; set extruder motor current
G21 ; set units to millimeters
G90 ; use absolute coordinates
M83 ; use relative distances for extrusion
M900 K0.05 ; Filament gcode LA 1.5
M900 K30 ; Filament gcode LA 1.0
M107
;LAYER_CHANGE
;Z:0.2
;HEIGHT:0.2
;BEFORE_LAYER_CHANGE
G92 E0.0
;0.2


G1 E-.8 F2100
G1 Z.4 F720
;AFTER_LAYER_CHANGE
;0.2
G1 X78.949 Y75.999 F10800
G1 Z.2 F720
G1 E.8 F2100
M204 S800
;TYPE:Skirt/Brim
;WIDTH:0.42
G1 F1200
G1 X79.469 Y75.578 E.02098
G1 X80.149 Y75.262 E.02351
G1 X81 Y75.133 E.02699
G1 X169.106 Y75.135 E2.7625
G1 X170.103 Y75.355 E.03201
G1 X170.923 Y75.872 E.03039
G1 X171.366 Y76.386 E.02128
G1 X171.696 Y77.026 E.02258
G1 X171.866 Y77.922 E.02859
G1 X171.867 Y132 E1.69558
G1 X171.744 Y132.832 E.02637
G1 X171.461 Y133.469 E.02186
G1 X171.051 Y134.001 E.02106
G1 X170.531 Y134.422 E.02098
G1 X169.851 Y134.738 E.02351
G1 X169 Y134.867 E.02699
G1 X81 Y134.867 E2.75918
G1 X80.221 Y134.761 E.02465
G1 X79.709 Y134.56 E.01725
G1 X79.077 Y134.128 E.024
G1 X78.586 Y133.542 E.02397
G1 X78.238 Y132.768 E.02661
G1 X78.133 Y132 E.0243
G1 X78.133 Y78 E1.69313
G1 X78.256 Y77.168 E.02637
G1 X78.539 Y76.531 E.02186
G1 X78.913 Y76.046 E.0192
M204 S1000
; printing object BTMV2.stl id:0 copy 0
;WIPE_START
G1 F8640
G1 X79.469 Y75.578 E-.16781
G1 X80.149 Y75.262 E-.17314
G1 X81 Y75.133 E-.19874
G1 X82.127 Y75.133 E-.26031
;WIPE_END
G1 Z.6 F720
G1 X168.506 Y131.506 F10800
G1 Z.2 F720
G1 E.8 F2100
M204 S800
;TYPE:Perimeter
;WIDTH:0.419999
G1 F1200
G1 X81.501 Y131.506 E2.72798
G1 X81.494 Y78.494 E1.66215
G1 X168.506 Y78.496 E2.7282
G1 X168.506 Y131.446 E1.66021
M204 S1000
M73 P1 R56
G1 X168.883 Y131.883 F10800
M204 S800
;TYPE:External perimeter
M73 Q1 S58
G1 F1200
G1 X81.124 Y131.883 E2.75162
G1 X81.117 Y78.117 E1.68579
G1 X168.883 Y78.119 E2.75184
G1 X168.883 Y131.823 E1.68385
M204 S1000
M73 Q1 S57
G1 X168.49 Y131.81 F10800
;WIPE_START
G1 F8640
G1 X165.418 Y131.825 E-.8
;WIPE_END
G1 Z.6 F720
G1 X168.336 Y79.429 F10800
G1 Z.2 F720
G1 E.8 F2100
M204 S800
;TYPE:Solid infill
;WIDTH:0.420615
G1 F1200
G1 X167.742 Y78.836 E.02636
G1 X167.208 Y78.836 E.01677
G1 X168.167 Y79.794 E.04257
G1 X168.167 Y80.328 E.01677
G1 X166.674 Y78.836 E.06629
G1 X166.14 Y78.835 E.01677
G1 X168.167 Y80.862 E.09003
G1 X168.167 Y81.396 E.01677
G1 X165.606 Y78.835 E.11374
G1 X165.072 Y78.835 E.01677
G1 X168.167 Y81.93 E.13746
G1 X168.167 Y82.465 E.0168
G1 X164.537 Y78.835 E.16122
G1 X164.003 Y78.835 E.01677
G1 X168.167 Y82.999 E.18494
G1 X168.167 Y83.533 E.01677
G1 X163.469 Y78.835 E.20866
G1 X162.935 Y78.835 E.01677
G1 X168.167 Y84.067 E.23237
G1 X168.167 Y84.601 E.01677
G1 X162.401 Y78.835 E.25609
G1 X161.867 Y78.835 E.01677
G1 X168.167 Y85.135 E.27981
G1 X168.167 Y85.669 E.01677
G1 X161.333 Y78.835 E.30353
G1 X160.798 Y78.835 E.0168
G1 X168.167 Y86.204 E.32729
G1 X168.167 Y86.738 E.01677
G1 X160.264 Y78.835 E.351
G1 X159.73 Y78.835 E.01677
G1 X168.167 Y87.272 E.37472
G1 X168.167 Y87.806 E.01677
G1 X159.196 Y78.835 E.39844
G1 X158.662 Y78.835 E.01677
M73 P1 R55
G1 X168.167 Y88.34 E.42216
G1 X168.167 Y88.874 E.01677
G1 X158.128 Y78.835 E.44587
G1 X157.593 Y78.835 E.0168
G1 X168.167 Y89.408 E.46961
G1 X168.167 Y89.943 E.0168
G1 X157.059 Y78.835 E.49335
G1 X156.525 Y78.835 E.01677
G1 X168.167 Y90.477 E.51707
G1 X168.167 Y91.011 E.01677
G1 X155.991 Y78.835 E.54079
G1 X155.457 Y78.835 E.01677
G1 X168.167 Y91.545 E.5645
G1 X168.167 Y92.079 E.01677
G1 X154.923 Y78.835 E.58822
G1 X154.388 Y78.835 E.0168
G1 X168.167 Y92.613 E.61196
G1 X168.167 Y93.147 E.01677
G1 X153.854 Y78.835 E.63568
G1 X153.32 Y78.835 E.01677
G1 X168.167 Y93.682 E.65942
G1 X168.167 Y94.216 E.01677
M73 P2 R55
G1 X152.786 Y78.835 E.68313
G1 X152.252 Y78.835 E.01677
G1 X168.167 Y94.75 E.70685
G1 X168.167 Y95.284 E.01677
M73 Q2 S57
G1 X151.718 Y78.835 E.73057
G1 X151.184 Y78.835 E.01677
G1 X168.167 Y95.818 E.75428
G1 X168.167 Y96.352 E.01677
G1 X150.649 Y78.835 E.77802
G1 X150.115 Y78.835 E.01677
G1 X168.167 Y96.886 E.80174
G1 X168.167 Y97.421 E.0168
G1 X149.581 Y78.835 E.82548
G1 X149.047 Y78.835 E.01677
G1 X168.167 Y97.955 E.8492
G1 X168.167 Y98.489 E.01677
G1 X148.513 Y78.835 E.87291
G1 X147.979 Y78.835 E.01677
G1 X168.167 Y99.023 E.89663
G1 X168.167 Y99.557 E.01677
G1 X147.444 Y78.835 E.92037
G1 X146.91 Y78.835 E.01677
G1 X168.167 Y100.091 E.94409
G1 X168.167 Y100.625 E.01677
G1 X146.376 Y78.835 E.9678
G1 X145.842 Y78.835 E.01677
G1 X168.167 Y101.16 E.99154
G1 X168.167 Y101.694 E.01677
G1 X145.308 Y78.835 E1.01526
G1 X144.774 Y78.835 E.01677
G1 X168.167 Y102.228 E1.03898
G1 X168.167 Y102.762 E.01677
G1 X144.24 Y78.835 E1.06269
G1 X143.705 Y78.835 E.0168
G1 X168.167 Y103.296 E1.08643
G1 X168.167 Y103.83 E.01677
G1 X143.171 Y78.835 E1.11015
G1 X142.637 Y78.835 E.01677
G1 X168.167 Y104.364 E1.13387
G1 X168.167 Y104.899 E.0168
G1 X142.103 Y78.835 E1.15761
G1 X141.569 Y78.835 E.01677
G1 X168.167 Y105.433 E1.18132
G1 X168.167 Y105.967 E.01677
G1 X141.035 Y78.835 E1.20504
G1 X140.5 Y78.835 E.0168
M73 P3 R55
G1 X168.167 Y106.501 E1.22878
G1 X168.167 Y107.035 E.01677
M73 Q3 S57
G1 X139.966 Y78.835 E1.2525
G1 X139.432 Y78.835 E.01677
M73 Q3 S56
G1 X168.167 Y107.569 E1.27622
G1 X168.167 Y108.103 E.01677
G1 X138.898 Y78.835 E1.29993
G1 X138.364 Y78.835 E.01677
G1 X168.167 Y108.638 E1.32367
G1 X168.167 Y109.172 E.01677
G1 X137.83 Y78.835 E1.34739
G1 X137.296 Y78.835 E.01677
G1 X168.167 Y109.706 E1.37111
G1 X168.167 Y110.24 E.01677
M73 P3 R54
G1 X136.761 Y78.835 E1.39485
G1 X136.227 Y78.835 E.01677
G1 X168.167 Y110.774 E1.41856
G1 X168.167 Y111.308 E.01677
G1 X135.693 Y78.835 E1.44228
G1 X135.159 Y78.835 E.01677
G1 X168.167 Y111.842 E1.466
G1 X168.167 Y112.377 E.0168
G1 X134.625 Y78.835 E1.48974
G1 X134.091 Y78.835 E.01677
G1 X168.167 Y112.911 E1.51345
G1 X168.167 Y113.445 E.01677
G1 X133.556 Y78.835 E1.53719
G1 X133.022 Y78.835 E.01677
G1 X168.167 Y113.979 E1.56091
G1 X168.167 Y114.513 E.01677
M73 P4 R54
G1 X132.488 Y78.835 E1.58463
G1 X131.954 Y78.835 E.01677
M73 Q4 S56
G1 X168.167 Y115.047 E1.60834
G1 X168.167 Y115.581 E.01677
G1 X131.42 Y78.835 E1.63206
G1 X130.886 Y78.835 E.01677
G1 X168.167 Y116.116 E1.6558
G1 X168.167 Y116.65 E.01677
G1 X130.352 Y78.835 E1.67952
G1 X129.817 Y78.835 E.0168
G1 X168.167 Y117.184 E1.70326
G1 X168.167 Y117.718 E.01677
G1 X129.283 Y78.835 E1.72697
G1 X128.749 Y78.835 E.01677
G1 X168.167 Y118.252 E1.75069
G1 X168.167 Y118.786 E.01677
G1 X128.215 Y78.835 E1.77441
G1 X127.681 Y78.835 E.01677
G1 X168.167 Y119.32 E1.79812
G1 X168.167 Y119.854 E.01677
G1 X127.147 Y78.835 E1.82184
G1 X126.612 Y78.835 E.0168
M73 Q4 S55
G1 X168.167 Y120.389 E1.8456
G1 X168.167 Y120.923 E.01677
M73 P5 R54
G1 X126.078 Y78.835 E1.86932
G1 X125.544 Y78.835 E.01677
G1 X168.167 Y121.457 E1.89304
G1 X168.167 Y121.991 E.01677
M73 Q5 S55
G1 X125.01 Y78.834 E1.91678
G1 X124.476 Y78.834 E.01677
M73 P5 R53
G1 X168.167 Y122.525 E1.94049
G1 X168.167 Y123.059 E.01677
G1 X123.942 Y78.834 E1.96421
G1 X123.408 Y78.834 E.01677
G1 X168.167 Y123.593 E1.98793
G1 X168.167 Y124.128 E.0168
G1 X122.873 Y78.834 E2.01169
G1 X122.339 Y78.834 E.01677
G1 X168.167 Y124.662 E2.03541
G1 X168.167 Y125.196 E.01677
G1 X121.805 Y78.834 E2.05912
G1 X121.271 Y78.834 E.01677
G1 X168.167 Y125.73 E2.08284
G1 X168.167 Y126.264 E.01677
G1 X120.737 Y78.834 E2.10656
G1 X120.203 Y78.834 E.01677
M73 P6 R53
G1 X168.167 Y126.798 E2.13027
G1 X168.167 Y127.332 E.01677
G1 X119.668 Y78.834 E2.15401
G1 X119.134 Y78.834 E.01677
M73 Q6 S55
G1 X168.167 Y127.867 E2.17775
G1 X168.167 Y128.401 E.01677
G1 X118.6 Y78.834 E2.20147
G1 X118.066 Y78.834 E.01677
G1 X168.167 Y128.935 E2.22519
G1 X168.167 Y129.469 E.01677
G1 X117.532 Y78.834 E2.2489
G1 X116.998 Y78.834 E.01677
M73 Q6 S54
G1 X168.167 Y130.003 E2.27262
G1 X168.167 Y130.537 E.01677
G1 X116.464 Y78.834 E2.29634
G1 X115.929 Y78.834 E.0168
G1 X168.167 Y131.071 E2.32008
G1 X168.167 Y131.167 E.00301
M73 P6 R52
G1 X167.728 Y131.167 E.01379
G1 X115.395 Y78.834 E2.32432
G1 X114.861 Y78.834 E.01677
M73 P7 R52
G1 X167.193 Y131.167 E2.3243
G1 X166.659 Y131.167 E.01677
G1 X114.327 Y78.834 E2.3243
G1 X113.793 Y78.834 E.01677
M73 Q7 S54
G1 X166.125 Y131.167 E2.3243
G1 X165.591 Y131.167 E.01677
G1 X113.259 Y78.834 E2.3243
G1 X112.724 Y78.834 E.0168
G1 X165.057 Y131.167 E2.32432
G1 X164.523 Y131.167 E.01677
G1 X112.19 Y78.834 E2.32432
G1 X111.656 Y78.834 E.01677
G1 X163.989 Y131.167 E2.32432
G1 X163.454 Y131.167 E.0168
G1 X111.122 Y78.834 E2.3243
G1 X110.588 Y78.834 E.01677
G1 X162.92 Y131.167 E2.3243
G1 X162.386 Y131.167 E.01677
M73 P8 R52
G1 X110.054 Y78.834 E2.3243
G1 X109.52 Y78.834 E.01677
G1 X161.852 Y131.167 E2.3243
G1 X161.318 Y131.167 E.01677
M73 Q8 S54
G1 X108.985 Y78.834 E2.32432
G1 X108.451 Y78.834 E.01677
M73 Q8 S53
G1 X160.784 Y131.167 E2.32432
G1 X160.25 Y131.167 E.01677
G1 X107.917 Y78.834 E2.32432
G1 X107.383 Y78.834 E.01677
G1 X159.715 Y131.167 E2.3243
G1 X159.181 Y131.167 E.01677
M73 P8 R51
G1 X106.849 Y78.834 E2.3243
G1 X106.315 Y78.834 E.01677
G1 X158.647 Y131.167 E2.3243
G1 X158.113 Y131.167 E.01677
G1 X105.78 Y78.834 E2.32432
G1 X105.246 Y78.834 E.01677
M73 P9 R51
G1 X157.579 Y131.167 E2.32432
G1 X157.045 Y131.167 E.01677
G1 X104.712 Y78.834 E2.32432
G1 X104.178 Y78.834 E.01677
M73 Q9 S53
G1 X156.511 Y131.167 E2.32432
G1 X155.976 Y131.167 E.0168
G1 X103.644 Y78.834 E2.3243
G1 X103.11 Y78.834 E.01677
G1 X155.442 Y131.167 E2.3243
G1 X154.908 Y131.167 E.01677
G1 X102.576 Y78.834 E2.3243
G1 X102.041 Y78.834 E.0168
G1 X154.374 Y131.167 E2.32432
G1 X153.84 Y131.167 E.01677
G1 X101.507 Y78.834 E2.32432
G1 X100.973 Y78.834 E.01677
G1 X153.306 Y131.167 E2.32432
G1 X152.772 Y131.167 E.01677
M73 P10 R51
G1 X100.439 Y78.834 E2.32432
G1 X99.905 Y78.834 E.01677
M73 Q9 S52
G1 X152.237 Y131.167 E2.3243
G1 X151.703 Y131.167 E.01677
G1 X99.371 Y78.834 E2.3243
G1 X98.836 Y78.834 E.0168
M73 Q10 S52
G1 X151.169 Y131.167 E2.32432
G1 X150.635 Y131.167 E.01677
G1 X98.302 Y78.834 E2.32432
G1 X97.768 Y78.834 E.01677
M73 P10 R50
G1 X150.101 Y131.167 E2.32432
G1 X149.567 Y131.167 E.01677
G1 X97.234 Y78.834 E2.32432
G1 X96.7 Y78.834 E.01677
G1 X149.033 Y131.167 E2.32432
G1 X148.498 Y131.167 E.0168
G1 X96.166 Y78.834 E2.3243
G1 X95.632 Y78.834 E.01677
M73 P11 R50
G1 X147.964 Y131.167 E2.3243
G1 X147.43 Y131.167 E.01677
G1 X95.097 Y78.834 E2.32432
G1 X94.563 Y78.834 E.01677
G1 X146.896 Y131.167 E2.32432
G1 X146.362 Y131.167 E.01677
M73 Q11 S52
G1 X94.029 Y78.834 E2.32432
G1 X93.495 Y78.834 E.01677
G1 X145.828 Y131.167 E2.32432
G1 X145.294 Y131.167 E.01677
G1 X92.961 Y78.834 E2.32432
G1 X92.427 Y78.834 E.01677
G1 X144.759 Y131.167 E2.3243
G1 X144.225 Y131.167 E.01677
G1 X91.892 Y78.834 E2.32432
G1 X91.358 Y78.834 E.01677
M73 Q11 S51
G1 X143.691 Y131.167 E2.32432
G1 X143.157 Y131.167 E.01677
M73 P12 R50
G1 X90.824 Y78.834 E2.32432
G1 X90.29 Y78.834 E.01677
G1 X142.623 Y131.167 E2.32432
G1 X142.089 Y131.167 E.01677
G1 X89.756 Y78.834 E2.32432
G1 X89.222 Y78.834 E.01677
M73 P12 R49
G1 X141.555 Y131.167 E2.32432
G1 X141.02 Y131.167 E.0168
M73 Q12 S51
G1 X88.688 Y78.834 E2.3243
G1 X88.153 Y78.834 E.0168
G1 X140.486 Y131.167 E2.32432
G1 X139.952 Y131.167 E.01677
G1 X87.619 Y78.834 E2.32432
G1 X87.085 Y78.834 E.01677
G1 X139.418 Y131.167 E2.32432
G1 X138.884 Y131.167 E.01677
G1 X86.551 Y78.834 E2.32432
G1 X86.017 Y78.834 E.01677
M73 P13 R49
G1 X138.35 Y131.167 E2.32432
G1 X137.816 Y131.167 E.01677
G1 X85.483 Y78.834 E2.32432
G1 X84.948 Y78.834 E.0168
G1 X137.281 Y131.167 E2.32432
G1 X136.747 Y131.167 E.01677
G1 X84.414 Y78.834 E2.32432
G1 X83.88 Y78.833 E.01677
M73 Q13 S51
G1 X136.213 Y131.167 E2.32434
G1 X135.679 Y131.167 E.01677
G1 X83.346 Y78.833 E2.32434
G1 X82.812 Y78.833 E.01677
M73 Q13 S50
G1 X135.145 Y131.167 E2.32434
G1 X134.611 Y131.167 E.01677
G1 X82.278 Y78.833 E2.32434
G1 X81.834 Y78.833 E.01394
G1 X81.834 Y78.923 E.00283
G1 X134.077 Y131.167 E2.32034
G1 X133.543 Y131.167 E.01677
G1 X81.834 Y79.458 E2.29661
G1 X81.834 Y79.992 E.01677
M73 P14 R48
G1 X133.008 Y131.167 E2.27287
G1 X132.474 Y131.167 E.01677
G1 X81.834 Y80.526 E2.24915
G1 X81.834 Y81.06 E.01677
G1 X131.94 Y131.167 E2.22543
G1 X131.406 Y131.167 E.01677
G1 X81.834 Y81.595 E2.20169
G1 X81.834 Y82.129 E.01677
M73 Q14 S50
G1 X130.872 Y131.167 E2.17798
G1 X130.338 Y131.167 E.01677
G1 X81.834 Y82.663 E2.15426
G1 X81.834 Y83.197 E.01677
G1 X129.804 Y131.167 E2.13054
G1 X129.269 Y131.167 E.0168
G1 X81.834 Y83.731 E2.1068
G1 X81.834 Y84.266 E.0168
G1 X128.735 Y131.167 E2.08306
G1 X128.201 Y131.167 E.01677
M73 P15 R48
G1 X81.834 Y84.8 E2.05935
G1 X81.834 Y85.334 E.01677
G1 X127.667 Y131.167 E2.03563
G1 X127.133 Y131.167 E.01677
G1 X81.834 Y85.868 E2.01191
G1 X81.835 Y86.402 E.01677
G1 X126.599 Y131.167 E1.98817
G1 X126.065 Y131.167 E.01677
G1 X81.835 Y86.937 E1.96443
G1 X81.835 Y87.471 E.01677
M73 Q15 S49
G1 X125.53 Y131.167 E1.94069
G1 X124.996 Y131.167 E.01677
G1 X81.835 Y88.005 E1.91698
G1 X81.835 Y88.539 E.01677
G1 X124.462 Y131.167 E1.89326
G1 X123.928 Y131.167 E.01677
M73 P15 R47
G1 X81.835 Y89.074 E1.86952
G1 X81.835 Y89.608 E.01677
G1 X123.394 Y131.167 E1.8458
G1 X122.86 Y131.167 E.01677
G1 X81.835 Y90.142 E1.82209
G1 X81.835 Y90.676 E.01677
M73 P16 R47
G1 X122.326 Y131.167 E1.79837
G1 X121.791 Y131.167 E.0168
G1 X81.835 Y91.21 E1.77463
G1 X81.835 Y91.745 E.0168
G1 X121.257 Y131.167 E1.75089
G1 X120.723 Y131.167 E.01677
G1 X81.835 Y92.279 E1.72717
G1 X81.835 Y92.813 E.01677
G1 X120.189 Y131.167 E1.70346
G1 X119.655 Y131.167 E.01677
G1 X81.836 Y93.347 E1.67972
G1 X81.836 Y93.881 E.01677
M73 Q16 S49
G1 X119.121 Y131.167 E1.656
G1 X118.587 Y131.167 E.01677
G1 X81.836 Y94.416 E1.63226
G1 X81.836 Y94.95 E.01677
G1 X118.052 Y131.167 E1.60852
G1 X117.518 Y131.167 E.01677
G1 X81.836 Y95.484 E1.5848
G1 X81.836 Y96.018 E.01677
G1 X116.984 Y131.167 E1.56109
G1 X116.45 Y131.167 E.01677
G1 X81.836 Y96.553 E1.53735
G1 X81.836 Y97.087 E.01677
G1 X115.916 Y131.167 E1.51363
G1 X115.382 Y131.167 E.01677
M73 P17 R47
G1 X81.836 Y97.621 E1.48991
G1 X81.836 Y98.155 E.01677
G1 X114.848 Y131.167 E1.4662
G1 X114.313 Y131.167 E.0168
M73 Q16 S48
G1 X81.836 Y98.689 E1.44246
G1 X81.836 Y99.224 E.0168
G1 X113.779 Y131.167 E1.41872
G1 X113.245 Y131.167 E.01677
G1 X81.836 Y99.758 E1.395
G1 X81.836 Y100.292 E.01677
G1 X112.711 Y131.167 E1.37128
G1 X112.177 Y131.167 E.01677
G1 X81.837 Y100.826 E1.34754
G1 X81.837 Y101.36 E.01677
M73 P17 R46
G1 X111.643 Y131.167 E1.32383
G1 X111.109 Y131.167 E.01677
M73 Q17 S48
G1 X81.837 Y101.895 E1.30009
G1 X81.837 Y102.429 E.01677
G1 X110.574 Y131.167 E1.27635
G1 X110.04 Y131.167 E.01677
G1 X81.837 Y102.963 E1.25263
G1 X81.837 Y103.497 E.01677
G1 X109.506 Y131.167 E1.22891
G1 X108.972 Y131.167 E.01677
G1 X81.837 Y104.032 E1.20517
G1 X81.837 Y104.566 E.01677
G1 X108.438 Y131.167 E1.18146
G1 X107.904 Y131.167 E.01677
G1 X81.837 Y105.1 E1.15774
G1 X81.837 Y105.634 E.01677
G1 X107.37 Y131.167 E1.13402
G1 X106.835 Y131.167 E.0168
M73 P18 R46
G1 X81.837 Y106.168 E1.11028
G1 X81.837 Y106.703 E.0168
