; generated by PrusaSlicer 2.6.0+win64 on 2023-08-09 at 16:47:17 UTC


;
;
; 

; external perimeters extrusion width = 0.45mm
; perimeters extrusion width = 0.45mm
; infill extrusion width = 0.45mm
; solid infill extrusion width = 0.45mm
; top infill extrusion width = 0.40mm
; first layer extrusion width = 0.42mm

M73 P0 R163
M73 Q0 S163
M201 X1000 Y1000 Z200 E5000 ; sets maximum accelerations, mm/sec^2
M203 X200 Y200 Z12 E120 ; sets maximum feedrates, mm / sec
M204 S1250 T1250 ; sets acceleration (S) and retract acceleration (R), mm/sec^2
M205 X8.00 Y8.00 Z0.40 E4.50 ; sets the jerk limits, mm/sec
M205 S0 T0 ; sets the minimum extruding and travel feed rate, mm/sec
;TYPE:Custom
M862.3 P "MK3S" ; printer model check
M862.1 P0.4 ; nozzle diameter check
M115 U3.12.2 ; tell printer latest fw version
G90 ; use absolute coordinates
M83 ; extruder relative mode
M104 S215 ; set extruder temp
M140 S60 ; set bed temp
M190 S60 ; wait for bed temp
M109 S215 ; wait for extruder temp
G28 W ; home all without mesh bed level
G80 ; mesh bed leveling

G1 Z0.2 F720
G1 Y-3 F1000 ; go outside print area
G92 E0
G1 X60 E9 F1000 ; intro line
G1 X100 E12.5 F1000 ; intro line

G92 E0
M221 S100

; Don't change E values below. Excessive value can damage the printer.
M907 E430 ; set extruder motor current
G21 ; set units to millimeters
G90 ; use absolute coordinates
M83 ; use relative distances for extrusion
M900 K0.05 ; Filament gcode LA 1.5
M900 K30 ; Filament gcode LA 1.0
M107
;LAYER_CHANGE
;Z:0.2
;HEIGHT:0.2
;BEFORE_LAYER_CHANGE
G92 E0.0
;0.2


G1 E-.8 F2100
G1 Z.4 F720
;AFTER_LAYER_CHANGE
;0.2
G1 X95.552 Y59.58 F10800
G1 Z.2 F720
G1 E.8 F2100
M204 S800
;TYPE:Skirt/Brim
;WIDTH:0.42
G1 F1200
G1 X96.143 Y58.864 E.02911
G1 X96.782 Y58.445 E.02396
G1 X97.122 Y58.304 E.01154
G1 X98 Y58.167 E.02786
G1 X152.042 Y58.164 E1.69445
G1 X152.658 Y58.246 E.01948
G1 X153.456 Y58.574 E.02705
G1 X154.044 Y59.043 E.02358
G1 X154.488 Y59.652 E.02363
G1 X154.753 Y60.336 E.023
G1 X154.835 Y60.956 E.01961
G1 X154.833 Y149 E2.76056
G1 X154.721 Y149.791 E.02505
G1 X154.448 Y150.42 E.0215
G1 X153.857 Y151.136 E.02911
G1 X153.218 Y151.555 E.02396
G1 X152.878 Y151.696 E.01154
G1 X152 Y151.833 E.02786
G1 X97.958 Y151.836 E1.69445
M73 P0 R162
G1 X97.216 Y151.72 E.02355
G1 X96.544 Y151.426 E.023
G1 X96.006 Y151.007 E.02138
G1 X95.574 Y150.457 E.02193
G1 X95.28 Y149.784 E.02303
G1 X95.164 Y149.042 E.02355
G1 X95.167 Y61 E2.7605
G1 X95.279 Y60.209 E.02505
G1 X95.528 Y59.635 E.01962
M204 S1000
; printing object BTMV2.stl id:0 copy 0
;WIPE_START
G1 F8640
G1 X96.143 Y58.864 E-.22773
G1 X96.782 Y58.445 E-.17644
G1 X97.122 Y58.304 E-.08499
G1 X98 Y58.167 E-.20519
G1 X98.458 Y58.167 E-.10565
;WIPE_END
G1 Z.6 F720
G1 X98.871 Y148.129 F10800
G1 Z.2 F720
G1 E.8 F2100
M204 S800
;TYPE:Perimeter
;WIDTH:0.419999
G1 F1200
G1 X98.871 Y61.871 E2.70455
G1 X151.129 Y61.871 E1.63851
G1 X151.129 Y148.129 E2.70455
G1 X98.931 Y148.129 E1.63663
M204 S1000
G1 X98.494 Y148.506 F10800
M204 S800
G1 F1200
G1 X98.494 Y61.494 E2.7282
G1 X151.506 Y61.494 E1.66215
G1 X151.506 Y148.506 E2.7282
M73 Q0 S162
G1 X98.554 Y148.506 E1.66027
M204 S1000
G1 X98.117 Y148.883 F10800
M204 S800
;TYPE:External perimeter
G1 F1200
G1 X98.117 Y61.117 E2.75184
G1 X151.883 Y61.117 E1.68579
G1 X151.883 Y148.883 E2.75184
G1 X98.177 Y148.883 E1.68391
M204 S1000
G1 X98.19 Y148.49 F10800
;WIPE_START
G1 F8640
G1 X98.175 Y145.418 E-.8
;WIPE_END
G1 Z.6 F720
G1 X150.195 Y62.041 F10800
G1 Z.2 F720
G1 E.8 F2100
M204 S800
;TYPE:Solid infill
;WIDTH:0.420899
G1 F1200
G1 X150.789 Y62.635 E.0264
G1 X150.789 Y63.17 E.01681
G1 X149.83 Y62.211 E.04263
G1 X149.296 Y62.211 E.01678
G1 X150.789 Y63.704 E.06636
G1 X150.789 Y64.239 E.01681
G1 X148.761 Y62.211 E.09014
G1 X148.227 Y62.211 E.01678
G1 X150.789 Y64.773 E.11387
G1 X150.789 Y65.308 E.01681
G1 X147.692 Y62.211 E.13765
G1 X147.157 Y62.211 E.01681
G1 X150.789 Y65.843 E.16143
G1 X150.789 Y66.377 E.01678
G1 X146.623 Y62.211 E.18517
G1 X146.088 Y62.211 E.01681
G1 X150.789 Y66.912 E.20895
G1 X150.789 Y67.446 E.01678
G1 X145.554 Y62.211 E.23268
G1 X145.019 Y62.211 E.01681
G1 X150.789 Y67.981 E.25646
G1 X150.789 Y68.515 E.01678
G1 X144.485 Y62.211 E.2802
G1 X143.95 Y62.211 E.01681
G1 X150.789 Y69.05 E.30398
G1 X150.789 Y69.584 E.01678
G1 X143.416 Y62.211 E.32771
G1 X142.881 Y62.211 E.01681
G1 X150.789 Y70.119 E.35149
G1 X150.789 Y70.653 E.01678
G1 X142.347 Y62.211 E.37523
G1 X141.812 Y62.211 E.01681
G1 X150.789 Y71.188 E.399
G1 X150.789 Y71.723 E.01681
G1 X141.277 Y62.211 E.42278
G1 X140.743 Y62.211 E.01678
G1 X150.789 Y72.257 E.44652
G1 X150.789 Y72.792 E.01681
G1 X140.208 Y62.211 E.4703
G1 X139.674 Y62.211 E.01678
M73 P0 R161
G1 X150.789 Y73.326 E.49403
G1 X150.789 Y73.861 E.01681
G1 X139.139 Y62.211 E.51781
G1 X138.605 Y62.211 E.01678
G1 X150.789 Y74.395 E.54155
G1 X150.789 Y74.93 E.01681
G1 X138.07 Y62.211 E.56533
G1 X137.536 Y62.211 E.01678
G1 X150.789 Y75.464 E.58906
G1 X150.789 Y75.999 E.01681
G1 X137.001 Y62.211 E.61284
G1 X136.467 Y62.211 E.01678
G1 X150.789 Y76.533 E.63658
G1 X150.789 Y77.068 E.01681
G1 X135.932 Y62.211 E.66036
G1 X135.397 Y62.211 E.01681
G1 X150.789 Y77.603 E.68413
G1 X150.789 Y78.137 E.01678
G1 X134.863 Y62.211 E.70787
G1 X134.328 Y62.211 E.01681
G1 X150.789 Y78.672 E.73165
G1 X150.789 Y79.206 E.01678
G1 X133.794 Y62.211 E.75538
G1 X133.259 Y62.211 E.01681
G1 X150.789 Y79.741 E.77916
G1 X150.789 Y80.275 E.01678
G1 X132.725 Y62.211 E.8029
G1 X132.19 Y62.211 E.01681
G1 X150.789 Y80.81 E.82668
G1 X150.789 Y81.344 E.01678
G1 X131.656 Y62.211 E.85041
G1 X131.121 Y62.211 E.01681
G1 X150.789 Y81.879 E.87419
G1 X150.789 Y82.413 E.01678
G1 X130.587 Y62.211 E.89793
G1 X130.052 Y62.211 E.01681
G1 X150.789 Y82.948 E.92171
G1 X150.789 Y83.482 E.01678
G1 X129.518 Y62.211 E.94544
G1 X128.983 Y62.211 E.01681
M73 P1 R161
M73 Q1 S162
G1 X150.789 Y84.017 E.96922
G1 X150.789 Y84.552 E.01681
G1 X128.448 Y62.211 E.993
G1 X127.914 Y62.211 E.01678
M73 Q1 S161
G1 X150.789 Y85.086 E1.01674
G1 X150.789 Y85.621 E.01681
G1 X127.379 Y62.211 E1.04051
G1 X126.845 Y62.211 E.01678
G1 X150.789 Y86.155 E1.06425
G1 X150.789 Y86.69 E.01681
G1 X126.31 Y62.211 E1.08803
G1 X125.776 Y62.211 E.01678
G1 X150.789 Y87.224 E1.11176
G1 X150.789 Y87.759 E.01681
G1 X125.241 Y62.211 E1.13554
G1 X124.707 Y62.211 E.01678
G1 X150.789 Y88.293 E1.15928
G1 X150.789 Y88.828 E.01681
G1 X124.172 Y62.211 E1.18306
G1 X123.638 Y62.211 E.01678
G1 X150.789 Y89.362 E1.20679
G1 X150.789 Y89.897 E.01681
G1 X123.103 Y62.211 E1.23057
G1 X122.568 Y62.211 E.01681
G1 X150.789 Y90.432 E1.25435
G1 X150.789 Y90.966 E.01678
G1 X122.034 Y62.211 E1.27809
G1 X121.499 Y62.211 E.01681
G1 X150.789 Y91.501 E1.30187
G1 X150.789 Y92.035 E.01678
G1 X120.965 Y62.211 E1.3256
G1 X120.43 Y62.211 E.01681
G1 X150.789 Y92.57 E1.34938
G1 X150.789 Y93.104 E.01678
G1 X119.896 Y62.211 E1.37311
G1 X119.361 Y62.211 E.01681
G1 X150.789 Y93.639 E1.39689
G1 X150.789 Y94.173 E.01678
M73 P1 R160
G1 X118.827 Y62.211 E1.42063
G1 X118.292 Y62.211 E.01681
G1 X150.789 Y94.708 E1.44441
G1 X150.789 Y95.242 E.01678
G1 X117.758 Y62.211 E1.46814
G1 X117.223 Y62.211 E.01681
G1 X150.789 Y95.777 E1.49192
G1 X150.789 Y96.312 E.01681
G1 X116.688 Y62.211 E1.5157
G1 X116.154 Y62.211 E.01678
G1 X150.789 Y96.846 E1.53944
G1 X150.789 Y97.381 E.01681
G1 X115.619 Y62.211 E1.56322
G1 X115.085 Y62.211 E.01678
G1 X150.789 Y97.915 E1.58695
G1 X150.789 Y98.45 E.01681
G1 X114.55 Y62.211 E1.61073
G1 X114.016 Y62.211 E.01678
G1 X150.789 Y98.984 E1.63447
G1 X150.789 Y99.519 E.01681
G1 X113.481 Y62.211 E1.65824
G1 X112.947 Y62.211 E.01678
M73 Q1 S160
G1 X150.789 Y100.053 E1.68198
G1 X150.789 Y100.588 E.01681
G1 X112.412 Y62.211 E1.70576
G1 X111.878 Y62.211 E.01678
G1 X150.789 Y101.122 E1.72949
G1 X150.789 Y101.657 E.01681
G1 X111.343 Y62.211 E1.75327
G1 X110.809 Y62.211 E.01678
G1 X150.789 Y102.191 E1.77701
G1 X150.789 Y102.726 E.01681
G1 X110.274 Y62.211 E1.80079
G1 X109.739 Y62.211 E.01681
G1 X150.789 Y103.261 E1.82457
G1 X150.789 Y103.795 E.01678
G1 X109.205 Y62.211 E1.8483
G1 X108.67 Y62.211 E.01681
G1 X150.789 Y104.33 E1.87208
G1 X150.789 Y104.864 E.01678
G1 X108.136 Y62.211 E1.89582
G1 X107.601 Y62.211 E.01681
G1 X150.789 Y105.399 E1.9196
G1 X150.789 Y105.933 E.01678
G1 X107.067 Y62.211 E1.94333
G1 X106.532 Y62.211 E.01681
M73 P2 R159
M73 Q2 S160
G1 X150.789 Y106.468 E1.96711
G1 X150.789 Y107.002 E.01678
G1 X105.998 Y62.211 E1.99085
G1 X105.463 Y62.211 E.01681
G1 X150.789 Y107.537 E2.01462
G1 X150.789 Y108.071 E.01678
G1 X104.929 Y62.211 E2.03836
G1 X104.394 Y62.211 E.01681
G1 X150.789 Y108.606 E2.06214
G1 X150.789 Y109.141 E.01681
G1 X103.859 Y62.211 E2.08592
G1 X103.325 Y62.211 E.01678
G1 X150.789 Y109.675 E2.10965
G1 X150.789 Y110.21 E.01681
G1 X102.79 Y62.211 E2.13343
G1 X102.256 Y62.211 E.01678
M73 Q2 S159
G1 X150.789 Y110.744 E2.15717
G1 X150.789 Y111.279 E.01681
G1 X101.721 Y62.211 E2.18095
G1 X101.187 Y62.211 E.01678
G1 X150.789 Y111.813 E2.20468
G1 X150.789 Y112.348 E.01681
G1 X100.652 Y62.211 E2.22846
G1 X100.118 Y62.211 E.01678
G1 X150.789 Y112.882 E2.2522
G1 X150.789 Y113.417 E.01681
G1 X99.583 Y62.211 E2.27598
G1 X99.211 Y62.211 E.01169
G1 X99.211 Y62.372 E.00506
G1 X150.789 Y113.951 E2.29253
G1 X150.789 Y114.486 E.01681
G1 X99.211 Y62.907 E2.29253
G1 X99.211 Y63.442 E.01681
G1 X150.789 Y115.021 E2.29253
G1 X150.789 Y115.555 E.01678
M73 P2 R158
G1 X99.211 Y63.976 E2.29253
G1 X99.211 Y64.511 E.01681
G1 X150.789 Y116.09 E2.29253
G1 X150.789 Y116.624 E.01678
G1 X99.211 Y65.045 E2.29253
G1 X99.211 Y65.58 E.01681
G1 X150.789 Y117.159 E2.29253
G1 X150.789 Y117.693 E.01678
G1 X99.211 Y66.114 E2.29253
G1 X99.211 Y66.649 E.01681
G1 X150.789 Y118.228 E2.29253
G1 X150.789 Y118.762 E.01678
G1 X99.211 Y67.183 E2.29253
G1 X99.211 Y67.718 E.01681
M73 Q2 S158
G1 X150.789 Y119.297 E2.29253
G1 X150.789 Y119.831 E.01678
G1 X99.211 Y68.252 E2.29253
G1 X99.211 Y68.787 E.01681
G1 X150.789 Y120.366 E2.29253
G1 X150.789 Y120.901 E.01681
G1 X99.211 Y69.322 E2.29253
G1 X99.211 Y69.856 E.01678
M73 P3 R158
M73 Q3 S158
G1 X150.789 Y121.435 E2.29253
G1 X150.789 Y121.97 E.01681
G1 X99.211 Y70.391 E2.29253
G1 X99.211 Y70.925 E.01678
G1 X150.789 Y122.504 E2.29253
G1 X150.789 Y123.039 E.01681
G1 X99.211 Y71.46 E2.29253
G1 X99.211 Y71.994 E.01678
G1 X150.789 Y123.573 E2.29253
G1 X150.789 Y124.108 E.01681
M73 P3 R157
G1 X99.211 Y72.529 E2.29253
G1 X99.211 Y73.063 E.01678
G1 X150.789 Y124.642 E2.29253
G1 X150.789 Y125.177 E.01681
G1 X99.211 Y73.598 E2.29253
G1 X99.211 Y74.132 E.01678
G1 X150.789 Y125.711 E2.29253
G1 X150.789 Y126.246 E.01681
G1 X99.211 Y74.667 E2.29253
G1 X99.211 Y75.201 E.01678
G1 X150.789 Y126.78 E2.29253
G1 X150.789 Y127.315 E.01681
G1 X99.211 Y75.736 E2.29253
G1 X99.211 Y76.271 E.01681
M73 Q3 S157
G1 X150.789 Y127.85 E2.29253
G1 X150.789 Y128.384 E.01678
G1 X99.211 Y76.805 E2.29253
G1 X99.211 Y77.34 E.01681
G1 X150.789 Y128.919 E2.29253
G1 X150.789 Y129.453 E.01678
G1 X99.211 Y77.874 E2.29253
G1 X99.211 Y78.409 E.01681
G1 X150.789 Y129.988 E2.29253
G1 X150.789 Y130.522 E.01678
G1 X99.211 Y78.943 E2.29253
G1 X99.211 Y79.478 E.01681
G1 X150.789 Y131.057 E2.29253
G1 X150.789 Y131.591 E.01678
G1 X99.211 Y80.012 E2.29253
G1 X99.211 Y80.547 E.01681
G1 X150.789 Y132.126 E2.29253
G1 X150.789 Y132.66 E.01678
G1 X99.211 Y81.081 E2.29253
G1 X99.211 Y81.616 E.01681
M73 P3 R156
G1 X150.789 Y133.195 E2.29253
G1 X150.789 Y133.73 E.01681
G1 X99.211 Y82.151 E2.29253
G1 X99.211 Y82.685 E.01678
G1 X150.789 Y134.264 E2.29253
G1 X150.789 Y134.799 E.01681
G1 X99.211 Y83.22 E2.29253
G1 X99.211 Y83.754 E.01678
M73 P4 R156
M73 Q4 S157
G1 X150.789 Y135.333 E2.29253
G1 X150.789 Y135.868 E.01681
G1 X99.211 Y84.289 E2.29253
G1 X99.211 Y84.823 E.01678
G1 X150.789 Y136.402 E2.29253
G1 X150.789 Y136.937 E.01681
M73 Q4 S156
G1 X99.211 Y85.358 E2.29253
G1 X99.211 Y85.892 E.01678
G1 X150.789 Y137.471 E2.29253
G1 X150.789 Y138.006 E.01681
G1 X99.211 Y86.427 E2.29253
G1 X99.211 Y86.961 E.01678
G1 X150.789 Y138.54 E2.29253
G1 X150.789 Y139.075 E.01681
G1 X99.211 Y87.496 E2.29253
G1 X99.211 Y88.031 E.01681
G1 X150.789 Y139.61 E2.29253
G1 X150.789 Y140.144 E.01678
G1 X99.211 Y88.565 E2.29253
G1 X99.211 Y89.1 E.01681
G1 X150.789 Y140.679 E2.29253
G1 X150.789 Y141.213 E.01678
G1 X99.211 Y89.634 E2.29253
G1 X99.211 Y90.169 E.01681
M73 P4 R155
G1 X150.789 Y141.748 E2.29253
G1 X150.789 Y142.282 E.01678
G1 X99.211 Y90.703 E2.29253
G1 X99.211 Y91.238 E.01681
G1 X150.789 Y142.817 E2.29253
G1 X150.789 Y143.351 E.01678
G1 X99.211 Y91.772 E2.29253
G1 X99.211 Y92.307 E.01681
G1 X150.789 Y143.886 E2.29253
G1 X150.789 Y144.42 E.01678
G1 X99.211 Y92.841 E2.29253
G1 X99.211 Y93.376 E.01681
G1 X150.789 Y144.955 E2.29253
G1 X150.789 Y145.489 E.01678
M73 Q4 S155
G1 X99.211 Y93.91 E2.29253
G1 X99.211 Y94.445 E.01681
G1 X150.789 Y146.024 E2.29253
G1 X150.789 Y146.559 E.01681
G1 X99.211 Y94.98 E2.29253
G1 X99.211 Y95.514 E.01678
G1 X150.789 Y147.093 E2.29253
G1 X150.789 Y147.628 E.01681
G1 X99.211 Y96.049 E2.29253
G1 X99.211 Y96.583 E.01678
G1 X150.417 Y147.789 E2.27598
G1 X149.882 Y147.789 E.01681
G1 X99.211 Y97.118 E2.2522
G1 X99.211 Y97.652 E.01678
G1 X149.348 Y147.789 E2.22846
G1 X148.813 Y147.789 E.01681
M73 P5 R155
M73 Q5 S155
G1 X99.211 Y98.187 E2.20468
G1 X99.211 Y98.721 E.01678
M73 P5 R154
G1 X148.279 Y147.789 E2.18095
G1 X147.744 Y147.789 E.01681
G1 X99.211 Y99.256 E2.15717
G1 X99.211 Y99.79 E.01678
G1 X147.21 Y147.789 E2.13343
G1 X146.675 Y147.789 E.01681
G1 X99.211 Y100.325 E2.10965
G1 X99.211 Y100.86 E.01681
G1 X146.14 Y147.789 E2.08587
G1 X145.606 Y147.789 E.01678
G1 X99.211 Y101.394 E2.06214
G1 X99.211 Y101.929 E.01681
G1 X145.071 Y147.789 E2.03836
G1 X144.537 Y147.789 E.01678
G1 X99.211 Y102.463 E2.01462
G1 X99.211 Y102.998 E.01681
M73 Q5 S154
G1 X144.002 Y147.789 E1.99085
G1 X143.468 Y147.789 E.01678
G1 X99.211 Y103.532 E1.96711
G1 X99.211 Y104.067 E.01681
G1 X142.933 Y147.789 E1.94333
G1 X142.399 Y147.789 E.01678
G1 X99.211 Y104.601 E1.9196
G1 X99.211 Y105.136 E.01681
G1 X141.864 Y147.789 E1.89582
G1 X141.33 Y147.789 E.01678
G1 X99.211 Y105.67 E1.87208
G1 X99.211 Y106.205 E.01681
G1 X140.795 Y147.789 E1.8483
G1 X140.26 Y147.789 E.01681
G1 X99.211 Y106.74 E1.82452
G1 X99.211 Y107.274 E.01678
G1 X139.726 Y147.789 E1.80079
G1 X139.191 Y147.789 E.01681
G1 X99.211 Y107.809 E1.77701
G1 X99.211 Y108.343 E.01678
G1 X138.657 Y147.789 E1.75327
G1 X138.122 Y147.789 E.01681
M73 P5 R153
G1 X99.211 Y108.878 E1.72949
G1 X99.211 Y109.412 E.01678
G1 X137.588 Y147.789 E1.70576
G1 X137.053 Y147.789 E.01681
G1 X99.211 Y109.947 E1.68198
G1 X99.211 Y110.481 E.01678
G1 X136.519 Y147.789 E1.65824
G1 X135.984 Y147.789 E.01681
G1 X99.211 Y111.016 E1.63447
G1 X99.211 Y111.55 E.01678
G1 X135.45 Y147.789 E1.61073
G1 X134.915 Y147.789 E.01681
G1 X99.211 Y112.085 E1.58695
G1 X99.211 Y112.619 E.01678
G1 X134.381 Y147.789 E1.56322
G1 X133.846 Y147.789 E.01681
G1 X99.211 Y113.154 E1.53944
G1 X99.211 Y113.689 E.01681
G1 X133.311 Y147.789 E1.51566
G1 X132.777 Y147.789 E.01678
M73 Q5 S153
G1 X99.211 Y114.223 E1.49192
G1 X99.211 Y114.758 E.01681
G1 X132.242 Y147.789 E1.46814
G1 X131.708 Y147.789 E.01678
G1 X99.211 Y115.292 E1.44441
G1 X99.211 Y115.827 E.01681
M73 P6 R153
M73 Q6 S153
G1 X131.173 Y147.789 E1.42063
G1 X130.639 Y147.789 E.01678
G1 X99.211 Y116.361 E1.39689
G1 X99.211 Y116.896 E.01681
G1 X130.104 Y147.789 E1.37311
G1 X129.57 Y147.789 E.01678
G1 X99.211 Y117.43 E1.34938
G1 X99.211 Y117.965 E.01681
G1 X129.035 Y147.789 E1.3256
G1 X128.501 Y147.789 E.01678
G1 X99.211 Y118.499 E1.30187
G1 X99.211 Y119.034 E.01681
G1 X127.966 Y147.789 E1.27809
G1 X127.431 Y147.789 E.01681
G1 X99.211 Y119.569 E1.25431
G1 X99.211 Y120.103 E.01678
G1 X126.897 Y147.789 E1.23057
G1 X126.362 Y147.789 E.01681
G1 X99.211 Y120.638 E1.20679
G1 X99.211 Y121.172 E.01678
G1 X125.828 Y147.789 E1.18306
G1 X125.293 Y147.789 E.01681
G1 X99.211 Y121.707 E1.15928
G1 X99.211 Y122.241 E.01678
G1 X124.759 Y147.789 E1.13554
G1 X124.224 Y147.789 E.01681
M73 P6 R152
G1 X99.211 Y122.776 E1.11176
G1 X99.211 Y123.31 E.01678
G1 X123.69 Y147.789 E1.08803
G1 X123.155 Y147.789 E.01681
G1 X99.211 Y123.845 E1.06425
G1 X99.211 Y124.379 E.01678
G1 X122.621 Y147.789 E1.04051
