; generated by PrusaSlicer 2.6.0+win64 on 2023-08-06 at 23:43:19 UTC


;
;
; 

; external perimeters extrusion width = 0.45mm
; perimeters extrusion width = 0.45mm
; infill extrusion width = 0.45mm
; solid infill extrusion width = 0.45mm
; top infill extrusion width = 0.40mm
; first layer extrusion width = 0.42mm

; external perimeters extrusion width = 0.45mm
; perimeters extrusion width = 0.45mm
; infill extrusion width = 0.45mm
; solid infill extrusion width = 0.45mm
; top infill extrusion width = 0.40mm
; first layer extrusion width = 0.42mm

M73 P0 R105
M73 Q0 S110
M201 X1000 Y1000 Z200 E5000 ; sets maximum accelerations, mm/sec^2
M203 X200 Y200 Z12 E120 ; sets maximum feedrates, mm / sec
M204 S1250 T1250 ; sets acceleration (S) and retract acceleration (R), mm/sec^2
M205 X8.00 Y8.00 Z0.40 E4.50 ; sets the jerk limits, mm/sec
M205 S0 T0 ; sets the minimum extruding and travel feed rate, mm/sec
;TYPE:Custom
M862.3 P "MK3S" ; printer model check
M862.1 P0.4 ; nozzle diameter check
M115 U3.12.2 ; tell printer latest fw version
G90 ; use absolute coordinates
M83 ; extruder relative mode
M104 S215 ; set extruder temp
M140 S60 ; set bed temp
M190 S60 ; wait for bed temp
M109 S215 ; wait for extruder temp
G28 W ; home all without mesh bed level
G80 ; mesh bed leveling

G1 Z0.2 F720
G1 Y-3 F1000 ; go outside print area
G92 E0
G1 X60 E9 F1000 ; intro line
G1 X100 E12.5 F1000 ; intro line

G92 E0
M221 S95

; Don't change E values below. Excessive value can damage the printer.
M907 E430 ; set extruder motor current
G21 ; set units to millimeters
G90 ; use absolute coordinates
M83 ; use relative distances for extrusion
M900 K0.05 ; Filament gcode LA 1.5
M900 K30 ; Filament gcode LA 1.0
M107
;LAYER_CHANGE
;Z:0.2
;HEIGHT:0.2
;BEFORE_LAYER_CHANGE
G92 E0.0
;0.2


G1 E-.8 F2100
G1 Z.4 F720
;AFTER_LAYER_CHANGE
;0.2
G1 X78.712 Y45.775 F10800
G1 Z.2 F720
G1 E.8 F2100
M204 S800
;TYPE:Skirt/Brim
;WIDTH:0.42
G1 F1200
G1 X79.232 Y45.244 E.0233
G1 X79.875 Y44.863 E.02343
G1 X81 Y44.633 E.036
G1 X169.106 Y44.635 E2.7625
G1 X170.103 Y44.855 E.03201
M73 P0 R104
G1 X170.923 Y45.372 E.03039
G1 X171.366 Y45.886 E.02128
G1 X171.696 Y46.526 E.02258
G1 X171.866 Y47.421 E.02856
G1 X171.867 Y162.5 E3.60822
G1 X171.716 Y163.418 E.02917
M73 Q0 S109
G1 X171.288 Y164.225 E.02864
G1 X170.768 Y164.756 E.0233
G1 X170.125 Y165.137 E.02343
G1 X169 Y165.367 E.036
G1 X81 Y165.367 E2.75918
G1 X80.179 Y165.248 E.02601
G1 X79.316 Y164.819 E.03022
G1 X78.757 Y164.286 E.02422
G1 X78.52 Y163.935 E.01328
G1 X78.229 Y163.237 E.02371
G1 X78.133 Y162.5 E.0233
G1 X78.133 Y47.5 E3.60574
G1 X78.284 Y46.581 E.0292
G1 X78.684 Y45.828 E.02673
M204 S1000
; printing object Btm.stl id:0 copy 0
;WIPE_START
G1 F8640
G1 X79.232 Y45.244 E-.18492
G1 X79.875 Y44.863 E-.17258
G1 X81 Y44.633 E-.26514
G1 X81.768 Y44.633 E-.17736
;WIPE_END
G1 Z.6 F720
G1 X168.506 Y108.996 F10800
G1 Z.2 F720
G1 E.8 F2100
M204 S800
;TYPE:Perimeter
;WIDTH:0.419999
G1 F1200
G1 X168.506 Y162.006 E1.66209
G1 X81.501 Y162.006 E2.72798
G1 X81.494 Y108.994 E1.66215
G1 X168.446 Y108.996 E2.72631
M204 S1000
G1 X168.883 Y108.619 F10800
M204 S800
;TYPE:External perimeter
G1 F1200
G1 X168.883 Y162.383 E1.68573
G1 X81.124 Y162.383 E2.75162
G1 X81.117 Y108.617 E1.68579
G1 X168.823 Y108.619 E2.74996
M204 S1000
G1 X168.749 Y108.996 F10800
;WIPE_START
G1 F8640
G1 X168.827 Y112.084 E-.8
;WIPE_END
G1 Z.6 F720
G1 X168.336 Y109.929 F10800
G1 Z.2 F720
G1 E.8 F2100
M204 S800
;TYPE:Solid infill
;WIDTH:0.420615
G1 F1200
G1 X167.742 Y109.336 E.02636
G1 X167.208 Y109.336 E.01677
G1 X168.167 Y110.294 E.04257
G1 X168.167 Y110.828 E.01677
G1 X166.674 Y109.336 E.06629
G1 X166.14 Y109.335 E.01677
G1 X168.167 Y111.362 E.09003
G1 X168.167 Y111.896 E.01677
G1 X165.606 Y109.335 E.11374
G1 X165.072 Y109.335 E.01677
G1 X168.167 Y112.43 E.13746
G1 X168.167 Y112.965 E.0168
G1 X164.537 Y109.335 E.16122
G1 X164.003 Y109.335 E.01677
G1 X168.167 Y113.499 E.18494
G1 X168.167 Y114.033 E.01677
G1 X163.469 Y109.335 E.20866
G1 X162.935 Y109.335 E.01677
G1 X168.167 Y114.567 E.23237
G1 X168.167 Y115.101 E.01677
G1 X162.401 Y109.335 E.25609
G1 X161.867 Y109.335 E.01677
G1 X168.167 Y115.635 E.27981
G1 X168.167 Y116.169 E.01677
G1 X161.333 Y109.335 E.30353
G1 X160.798 Y109.335 E.0168
G1 X168.167 Y116.704 E.32729
G1 X168.167 Y117.238 E.01677
G1 X160.264 Y109.335 E.351
G1 X159.73 Y109.335 E.01677
G1 X168.167 Y117.772 E.37472
G1 X168.167 Y118.306 E.01677
M73 P1 R104
G1 X159.196 Y109.335 E.39844
G1 X158.662 Y109.335 E.01677
G1 X168.167 Y118.84 E.42216
G1 X168.167 Y119.374 E.01677
G1 X158.128 Y109.335 E.44587
G1 X157.593 Y109.335 E.0168
G1 X168.167 Y119.908 E.46961
G1 X168.167 Y120.443 E.0168
M73 Q1 S109
G1 X157.059 Y109.335 E.49335
G1 X156.525 Y109.335 E.01677
G1 X168.167 Y120.977 E.51707
G1 X168.167 Y121.511 E.01677
G1 X155.991 Y109.335 E.54079
G1 X155.457 Y109.335 E.01677
M73 P1 R103
G1 X168.167 Y122.045 E.5645
G1 X168.167 Y122.579 E.01677
G1 X154.923 Y109.335 E.58822
G1 X154.388 Y109.335 E.0168
G1 X168.167 Y123.113 E.61196
G1 X168.167 Y123.647 E.01677
G1 X153.854 Y109.335 E.63568
G1 X153.32 Y109.335 E.01677
M73 Q1 S108
G1 X168.167 Y124.182 E.65942
G1 X168.167 Y124.716 E.01677
G1 X152.786 Y109.335 E.68313
G1 X152.252 Y109.335 E.01677
G1 X168.167 Y125.25 E.70685
G1 X168.167 Y125.784 E.01677
G1 X151.718 Y109.335 E.73057
G1 X151.184 Y109.335 E.01677
G1 X168.167 Y126.318 E.75428
G1 X168.167 Y126.852 E.01677
G1 X150.649 Y109.335 E.77802
G1 X150.115 Y109.335 E.01677
G1 X168.167 Y127.386 E.80174
G1 X168.167 Y127.921 E.0168
G1 X149.581 Y109.335 E.82548
G1 X149.047 Y109.335 E.01677
G1 X168.167 Y128.455 E.8492
G1 X168.167 Y128.989 E.01677
G1 X148.513 Y109.335 E.87291
G1 X147.979 Y109.335 E.01677
G1 X168.167 Y129.523 E.89663
G1 X168.167 Y130.057 E.01677
G1 X147.444 Y109.335 E.92037
G1 X146.91 Y109.335 E.01677
G1 X168.167 Y130.591 E.94409
G1 X168.167 Y131.125 E.01677
G1 X146.376 Y109.335 E.9678
G1 X145.842 Y109.335 E.01677
G1 X168.167 Y131.66 E.99154
G1 X168.167 Y132.194 E.01677
G1 X145.308 Y109.335 E1.01526
G1 X144.774 Y109.335 E.01677
G1 X168.167 Y132.728 E1.03898
G1 X168.167 Y133.262 E.01677
G1 X144.24 Y109.335 E1.06269
G1 X143.705 Y109.335 E.0168
G1 X168.167 Y133.796 E1.08643
G1 X168.167 Y134.33 E.01677
G1 X143.171 Y109.335 E1.11015
G1 X142.637 Y109.335 E.01677
G1 X168.167 Y134.864 E1.13387
G1 X168.167 Y135.399 E.0168
G1 X142.103 Y109.335 E1.15761
G1 X141.569 Y109.335 E.01677
G1 X168.167 Y135.933 E1.18132
G1 X168.167 Y136.467 E.01677
G1 X141.035 Y109.335 E1.20504
G1 X140.5 Y109.335 E.0168
G1 X168.167 Y137.001 E1.22878
G1 X168.167 Y137.535 E.01677
G1 X139.966 Y109.335 E1.2525
G1 X139.432 Y109.335 E.01677
G1 X168.167 Y138.069 E1.27622
G1 X168.167 Y138.603 E.01677
G1 X138.898 Y109.335 E1.29993
G1 X138.364 Y109.335 E.01677
G1 X168.167 Y139.138 E1.32367
G1 X168.167 Y139.672 E.01677
G1 X137.83 Y109.335 E1.34739
G1 X137.296 Y109.335 E.01677
G1 X168.167 Y140.206 E1.37111
G1 X168.167 Y140.74 E.01677
G1 X136.761 Y109.335 E1.39485
G1 X136.227 Y109.335 E.01677
M73 P2 R103
G1 X168.167 Y141.274 E1.41856
G1 X168.167 Y141.808 E.01677
M73 P2 R102
G1 X135.693 Y109.335 E1.44228
G1 X135.159 Y109.335 E.01677
G1 X168.167 Y142.342 E1.466
G1 X168.167 Y142.877 E.0168
M73 Q2 S107
G1 X134.625 Y109.335 E1.48974
G1 X134.091 Y109.335 E.01677
G1 X168.167 Y143.411 E1.51345
G1 X168.167 Y143.945 E.01677
G1 X133.556 Y109.335 E1.53719
G1 X133.022 Y109.335 E.01677
G1 X168.167 Y144.479 E1.56091
G1 X168.167 Y145.013 E.01677
G1 X132.488 Y109.335 E1.58463
G1 X131.954 Y109.335 E.01677
G1 X168.167 Y145.547 E1.60834
G1 X168.167 Y146.081 E.01677
G1 X131.42 Y109.335 E1.63206
G1 X130.886 Y109.335 E.01677
G1 X168.167 Y146.616 E1.6558
G1 X168.167 Y147.15 E.01677
G1 X130.352 Y109.335 E1.67952
G1 X129.817 Y109.335 E.0168
G1 X168.167 Y147.684 E1.70326
G1 X168.167 Y148.218 E.01677
G1 X129.283 Y109.335 E1.72697
G1 X128.749 Y109.335 E.01677
G1 X168.167 Y148.752 E1.75069
G1 X168.167 Y149.286 E.01677
G1 X128.215 Y109.335 E1.77441
G1 X127.681 Y109.335 E.01677
G1 X168.167 Y149.82 E1.79812
G1 X168.167 Y150.354 E.01677
G1 X127.147 Y109.335 E1.82184
G1 X126.612 Y109.335 E.0168
G1 X168.167 Y150.889 E1.8456
G1 X168.167 Y151.423 E.01677
G1 X126.078 Y109.335 E1.86932
G1 X125.544 Y109.335 E.01677
G1 X168.167 Y151.957 E1.89304
G1 X168.167 Y152.491 E.01677
G1 X125.01 Y109.334 E1.91678
G1 X124.476 Y109.334 E.01677
G1 X168.167 Y153.025 E1.94049
G1 X168.167 Y153.559 E.01677
M73 P2 R101
G1 X123.942 Y109.334 E1.96421
G1 X123.408 Y109.334 E.01677
M73 P3 R101
G1 X168.167 Y154.093 E1.98793
G1 X168.167 Y154.628 E.0168
M73 Q2 S106
G1 X122.873 Y109.334 E2.01169
G1 X122.339 Y109.334 E.01677
M73 Q3 S106
G1 X168.167 Y155.162 E2.03541
G1 X168.167 Y155.696 E.01677
G1 X121.805 Y109.334 E2.05912
G1 X121.271 Y109.334 E.01677
G1 X168.167 Y156.23 E2.08284
G1 X168.167 Y156.764 E.01677
G1 X120.737 Y109.334 E2.10656
G1 X120.203 Y109.334 E.01677
G1 X168.167 Y157.298 E2.13027
G1 X168.167 Y157.832 E.01677
G1 X119.668 Y109.334 E2.15401
G1 X119.134 Y109.334 E.01677
G1 X168.167 Y158.367 E2.17775
G1 X168.167 Y158.901 E.01677
G1 X118.6 Y109.334 E2.20147
G1 X118.066 Y109.334 E.01677
G1 X168.167 Y159.435 E2.22519
G1 X168.167 Y159.969 E.01677
G1 X117.532 Y109.334 E2.2489
G1 X116.998 Y109.334 E.01677
G1 X168.167 Y160.503 E2.27262
G1 X168.167 Y161.037 E.01677
G1 X116.464 Y109.334 E2.29634
G1 X115.929 Y109.334 E.0168
G1 X168.167 Y161.571 E2.32008
G1 X168.167 Y161.667 E.00301
G1 X167.728 Y161.667 E.01379
G1 X115.395 Y109.334 E2.32432
G1 X114.861 Y109.334 E.01677
G1 X167.193 Y161.667 E2.3243
G1 X166.659 Y161.667 E.01677
M73 P3 R100
G1 X114.327 Y109.334 E2.3243
G1 X113.793 Y109.334 E.01677
M73 P4 R100
M73 Q3 S105
G1 X166.125 Y161.667 E2.3243
G1 X165.591 Y161.667 E.01677
G1 X113.259 Y109.334 E2.3243
G1 X112.724 Y109.334 E.0168
G1 X165.057 Y161.667 E2.32432
G1 X164.523 Y161.667 E.01677
M73 Q4 S105
G1 X112.19 Y109.334 E2.32432
G1 X111.656 Y109.334 E.01677
G1 X163.989 Y161.667 E2.32432
G1 X163.454 Y161.667 E.0168
G1 X111.122 Y109.334 E2.3243
G1 X110.588 Y109.334 E.01677
G1 X162.92 Y161.667 E2.3243
G1 X162.386 Y161.667 E.01677
G1 X110.054 Y109.334 E2.3243
G1 X109.52 Y109.334 E.01677
G1 X161.852 Y161.667 E2.3243
G1 X161.318 Y161.667 E.01677
G1 X108.985 Y109.334 E2.32432
G1 X108.451 Y109.334 E.01677
G1 X160.784 Y161.667 E2.32432
G1 X160.25 Y161.667 E.01677
G1 X107.917 Y109.334 E2.32432
G1 X107.383 Y109.334 E.01677
G1 X159.715 Y161.667 E2.3243
G1 X159.181 Y161.667 E.01677
G1 X106.849 Y109.334 E2.3243
G1 X106.315 Y109.334 E.01677
G1 X158.647 Y161.667 E2.3243
G1 X158.113 Y161.667 E.01677
M73 P4 R99
G1 X105.78 Y109.334 E2.32432
G1 X105.246 Y109.334 E.01677
M73 Q4 S104
G1 X157.579 Y161.667 E2.32432
G1 X157.045 Y161.667 E.01677
M73 P5 R99
G1 X104.712 Y109.334 E2.32432
G1 X104.178 Y109.334 E.01677
G1 X156.511 Y161.667 E2.32432
G1 X155.976 Y161.667 E.0168
G1 X103.644 Y109.334 E2.3243
G1 X103.11 Y109.334 E.01677
G1 X155.442 Y161.667 E2.3243
M73 Q5 S104
G1 X154.908 Y161.667 E.01677
G1 X102.576 Y109.334 E2.3243
G1 X102.041 Y109.334 E.0168
G1 X154.374 Y161.667 E2.32432
G1 X153.84 Y161.667 E.01677
G1 X101.507 Y109.334 E2.32432
G1 X100.973 Y109.334 E.01677
G1 X153.306 Y161.667 E2.32432
G1 X152.772 Y161.667 E.01677
G1 X100.439 Y109.334 E2.32432
G1 X99.905 Y109.334 E.01677
G1 X152.237 Y161.667 E2.3243
G1 X151.703 Y161.667 E.01677
G1 X99.371 Y109.334 E2.3243
G1 X98.836 Y109.334 E.0168
G1 X151.169 Y161.667 E2.32432
G1 X150.635 Y161.667 E.01677
G1 X98.302 Y109.334 E2.32432
G1 X97.768 Y109.334 E.01677
G1 X150.101 Y161.667 E2.32432
G1 X149.567 Y161.667 E.01677
M73 P5 R98
G1 X97.234 Y109.334 E2.32432
G1 X96.7 Y109.334 E.01677
M73 Q5 S103
G1 X149.033 Y161.667 E2.32432
G1 X148.498 Y161.667 E.0168
M73 P6 R98
G1 X96.166 Y109.334 E2.3243
G1 X95.632 Y109.334 E.01677
G1 X147.964 Y161.667 E2.3243
G1 X147.43 Y161.667 E.01677
G1 X95.097 Y109.334 E2.32432
G1 X94.563 Y109.334 E.01677
G1 X146.896 Y161.667 E2.32432
G1 X146.362 Y161.667 E.01677
G1 X94.029 Y109.334 E2.32432
G1 X93.495 Y109.334 E.01677
M73 Q6 S103
G1 X145.828 Y161.667 E2.32432
G1 X145.294 Y161.667 E.01677
G1 X92.961 Y109.334 E2.32432
G1 X92.427 Y109.334 E.01677
G1 X144.759 Y161.667 E2.3243
G1 X144.225 Y161.667 E.01677
G1 X91.892 Y109.334 E2.32432
G1 X91.358 Y109.334 E.01677
G1 X143.691 Y161.667 E2.32432
G1 X143.157 Y161.667 E.01677
G1 X90.824 Y109.334 E2.32432
G1 X90.29 Y109.334 E.01677
G1 X142.623 Y161.667 E2.32432
G1 X142.089 Y161.667 E.01677
G1 X89.756 Y109.334 E2.32432
G1 X89.222 Y109.334 E.01677
G1 X141.555 Y161.667 E2.32432
G1 X141.02 Y161.667 E.0168
M73 P6 R97
G1 X88.688 Y109.334 E2.3243
G1 X88.153 Y109.334 E.0168
M73 Q6 S102
G1 X140.486 Y161.667 E2.32432
G1 X139.952 Y161.667 E.01677
G1 X87.619 Y109.334 E2.32432
G1 X87.085 Y109.334 E.01677
M73 P7 R97
G1 X139.418 Y161.667 E2.32432
G1 X138.884 Y161.667 E.01677
G1 X86.551 Y109.334 E2.32432
G1 X86.017 Y109.334 E.01677
G1 X138.35 Y161.667 E2.32432
G1 X137.816 Y161.667 E.01677
G1 X85.483 Y109.334 E2.32432
G1 X84.948 Y109.334 E.0168
G1 X137.281 Y161.667 E2.32432
G1 X136.747 Y161.667 E.01677
G1 X84.414 Y109.334 E2.32432
G1 X83.88 Y109.333 E.01677
M73 Q7 S102
G1 X136.213 Y161.667 E2.32434
G1 X135.679 Y161.667 E.01677
G1 X83.346 Y109.333 E2.32434
G1 X82.812 Y109.333 E.01677
G1 X135.145 Y161.667 E2.32434
G1 X134.611 Y161.667 E.01677
G1 X82.278 Y109.333 E2.32434
G1 X81.834 Y109.333 E.01394
G1 X81.834 Y109.423 E.00283
G1 X134.077 Y161.667 E2.32034
G1 X133.543 Y161.667 E.01677
G1 X81.834 Y109.958 E2.29661
G1 X81.834 Y110.492 E.01677
G1 X133.008 Y161.667 E2.27287
G1 X132.474 Y161.667 E.01677
M73 P7 R96
G1 X81.834 Y111.026 E2.24915
G1 X81.834 Y111.56 E.01677
M73 Q7 S101
G1 X131.94 Y161.667 E2.22543
G1 X131.406 Y161.667 E.01677
G1 X81.834 Y112.095 E2.20169
G1 X81.834 Y112.629 E.01677
G1 X130.872 Y161.667 E2.17798
G1 X130.338 Y161.667 E.01677
M73 P8 R96
G1 X81.834 Y113.163 E2.15426
G1 X81.834 Y113.697 E.01677
G1 X129.804 Y161.667 E2.13054
G1 X129.269 Y161.667 E.0168
G1 X81.834 Y114.231 E2.1068
G1 X81.834 Y114.766 E.0168
G1 X128.735 Y161.667 E2.08306
G1 X128.201 Y161.667 E.01677
G1 X81.834 Y115.3 E2.05935
G1 X81.834 Y115.834 E.01677
G1 X127.667 Y161.667 E2.03563
G1 X127.133 Y161.667 E.01677
G1 X81.834 Y116.368 E2.01191
G1 X81.835 Y116.902 E.01677
M73 Q8 S101
G1 X126.599 Y161.667 E1.98817
G1 X126.065 Y161.667 E.01677
G1 X81.835 Y117.437 E1.96443
G1 X81.835 Y117.971 E.01677
G1 X125.53 Y161.667 E1.94069
G1 X124.996 Y161.667 E.01677
G1 X81.835 Y118.505 E1.91698
G1 X81.835 Y119.039 E.01677
G1 X124.462 Y161.667 E1.89326
G1 X123.928 Y161.667 E.01677
G1 X81.835 Y119.574 E1.86952
G1 X81.835 Y120.108 E.01677
G1 X123.394 Y161.667 E1.8458
G1 X122.86 Y161.667 E.01677
M73 P8 R95
G1 X81.835 Y120.642 E1.82209
G1 X81.835 Y121.176 E.01677
M73 Q8 S100
G1 X122.326 Y161.667 E1.79837
G1 X121.791 Y161.667 E.0168
G1 X81.835 Y121.71 E1.77463
G1 X81.835 Y122.245 E.0168
G1 X121.257 Y161.667 E1.75089
G1 X120.723 Y161.667 E.01677
G1 X81.835 Y122.779 E1.72717
G1 X81.835 Y123.313 E.01677
G1 X120.189 Y161.667 E1.70346
G1 X119.655 Y161.667 E.01677
G1 X81.836 Y123.847 E1.67972
G1 X81.836 Y124.381 E.01677
M73 P9 R95
G1 X119.121 Y161.667 E1.656
G1 X118.587 Y161.667 E.01677
G1 X81.836 Y124.916 E1.63226
G1 X81.836 Y125.45 E.01677
G1 X118.052 Y161.667 E1.60852
G1 X117.518 Y161.667 E.01677
G1 X81.836 Y125.984 E1.5848
G1 X81.836 Y126.518 E.01677
G1 X116.984 Y161.667 E1.56109
G1 X116.45 Y161.667 E.01677
G1 X81.836 Y127.053 E1.53735
G1 X81.836 Y127.587 E.01677
G1 X115.916 Y161.667 E1.51363
G1 X115.382 Y161.667 E.01677
G1 X81.836 Y128.121 E1.48991
G1 X81.836 Y128.655 E.01677
G1 X114.848 Y161.667 E1.4662
G1 X114.313 Y161.667 E.0168
G1 X81.836 Y129.189 E1.44246
G1 X81.836 Y129.724 E.0168
M73 Q9 S100
G1 X113.779 Y161.667 E1.41872
G1 X113.245 Y161.667 E.01677
G1 X81.836 Y130.258 E1.395
G1 X81.836 Y130.792 E.01677
G1 X112.711 Y161.667 E1.37128
G1 X112.177 Y161.667 E.01677
G1 X81.837 Y131.326 E1.34754
G1 X81.837 Y131.86 E.01677
G1 X111.643 Y161.667 E1.32383
G1 X111.109 Y161.667 E.01677
G1 X81.837 Y132.395 E1.30009
G1 X81.837 Y132.929 E.01677
G1 X110.574 Y161.667 E1.27635
G1 X110.04 Y161.667 E.01677
M73 P9 R94
G1 X81.837 Y133.463 E1.25263
G1 X81.837 Y133.997 E.01677
M73 Q9 S99
G1 X109.506 Y161.667 E1.22891
G1 X108.972 Y161.667 E.01677
