; generated by PrusaSlicer 2.6.1+win64 on 2023-11-11 at 23:56:09 UTC


;
;
; 

; external perimeters extrusion width = 0.45mm
; perimeters extrusion width = 0.45mm
; infill extrusion width = 0.45mm
; solid infill extrusion width = 0.45mm
; top infill extrusion width = 0.40mm
; first layer extrusion width = 0.42mm

; external perimeters extrusion width = 0.45mm
; perimeters extrusion width = 0.45mm
; infill extrusion width = 0.45mm
; solid infill extrusion width = 0.45mm
; top infill extrusion width = 0.40mm
; first layer extrusion width = 0.42mm

M73 P0 R143
M73 Q0 S146
M201 X1000 Y1000 Z200 E5000 ; sets maximum accelerations, mm/sec^2
M203 X200 Y200 Z12 E120 ; sets maximum feedrates, mm / sec
M204 S1250 T1250 ; sets acceleration (S) and retract acceleration (R), mm/sec^2
M205 X8.00 Y8.00 Z0.40 E4.50 ; sets the jerk limits, mm/sec
M205 S0 T0 ; sets the minimum extruding and travel feed rate, mm/sec
;TYPE:Custom
M862.3 P "MK3S" ; printer model check
M862.1 P0.4 ; nozzle diameter check
M115 U3.12.2 ; tell printer latest fw version
G90 ; use absolute coordinates
M83 ; extruder relative mode
M104 S215 ; set extruder temp
M140 S60 ; set bed temp
M190 S60 ; wait for bed temp
M109 S215 ; wait for extruder temp
G28 W ; home all without mesh bed level
G80 ; mesh bed leveling

G1 Z0.2 F720
G1 Y-3 F1000 ; go outside print area
G92 E0
G1 X60 E9 F1000 ; intro line
G1 X100 E12.5 F1000 ; intro line

G92 E0
M221 S95

; Don't change E values below. Excessive value can damage the printer.

M907 E538 ; set extruder motor current
G21 ; set units to millimeters
G90 ; use absolute coordinates
M83 ; use relative distances for extrusion
M900 K0.05 ; Filament gcode LA 1.5
M900 K30 ; Filament gcode LA 1.0
M107
;LAYER_CHANGE
;Z:0.2
;HEIGHT:0.2
;BEFORE_LAYER_CHANGE
G92 E0.0
;0.2


G1 E-.8 F2100
G1 Z.4 F720
;AFTER_LAYER_CHANGE
;0.2
G1 X67.606 Y38.012 F10800
G1 Z.2 F720
G1 E.8 F2100
M204 S800
;TYPE:Skirt/Brim
;WIDTH:0.42
G1 F1200
G1 X68.102 Y37.131 E.0317
G1 X68.612 Y36.648 E.02202
G1 X69.144 Y36.337 E.01932
G1 X69.752 Y36.142 E.02002
G1 X70.316 Y36.085 E.01777
G1 X179.753 Y36.086 E3.43132
G1 X180.248 Y36.142 E.01562
G1 X180.856 Y36.337 E.02002
G1 X181.392 Y36.651 E.01948
G1 X181.821 Y37.042 E.0182
G1 X182.164 Y37.513 E.01827
G1 X182.393 Y38.009 E.01713
G1 X182.555 Y38.931 E.02935
G1 X182.555 Y102.254 E1.98545
G1 X181.561 Y171.283 E2.16458
G1 X181.151 Y172.584 E.04277
M73 P0 R142
G1 X180.093 Y173.446 E.04279
G1 X179.184 Y173.626 E.02905
G1 X70.816 Y173.626 E3.3978
G1 X69.509 Y173.234 E.04278
G1 X68.632 Y172.189 E.04277
G1 X68.439 Y171.283 E.02904
G1 X67.445 Y102.238 E2.16508
G1 X67.445 Y38.94 E1.98466
G1 X67.596 Y38.071 E.02766
M204 S1000
; printing object BTM_ESP.stl id:0 copy 0
;WIPE_START
G1 F8640
G1 X68.102 Y37.131 E-.2465
G1 X68.612 Y36.648 E-.16219
G1 X69.144 Y36.337 E-.14229
G1 X69.752 Y36.142 E-.14743
G1 X70.19 Y36.098 E-.10159
;WIPE_END
G1 Z.6 F720
G1 X71.603 Y170.462 F10800
G1 Z.2 F720
G1 E.8 F2100
M204 S800
;TYPE:Perimeter
;WIDTH:0.419999
G1 F1200
G1 X71.603 Y109.787 E1.90242
G1 X178.397 Y109.787 E3.34845
G1 X178.397 Y170.462 E1.90242
G1 X71.663 Y170.462 E3.34656
M204 S1000
G1 X71.226 Y170.839 F10800
M204 S800
;TYPE:External perimeter
M73 Q0 S145
G1 F1200
G1 X71.226 Y109.41 E1.92606
G1 X178.774 Y109.41 E3.37209
G1 X178.774 Y170.839 E1.92606
G1 X71.286 Y170.839 E3.37021
M204 S1000
G1 X71.363 Y170.463 F10800
;WIPE_START
G1 F8640
G1 X71.283 Y167.374 E-.8
;WIPE_END
G1 Z.6 F720
G1 X172.885 Y113.837 F10800
G1 Z.2 F720
G1 E.8 F2100
M204 S800
;TYPE:Perimeter
G1 F1200
G1 X173.326 Y114.038 E.0152
G1 X173.782 Y114.403 E.01831
G1 X174.146 Y114.859 E.01829
G1 X174.366 Y115.331 E.01633
G1 X174.467 Y115.742 E.01327
G1 X174.496 Y116.164 E.01326
G1 X174.45 Y116.584 E.01325
G1 X174.333 Y116.99 E.01325
G1 X174.146 Y117.37 E.01328
G1 X173.897 Y117.711 E.01324
G1 X173.591 Y118.004 E.01328
G1 X173.24 Y118.24 E.01326
G1 X172.853 Y118.411 E.01327
G1 X172.443 Y118.512 E.01324
G1 X172.021 Y118.54 E.01326
G1 X171.6 Y118.495 E.01328
G1 X171.194 Y118.377 E.01326
G1 X170.814 Y118.191 E.01327
G1 X170.358 Y117.826 E.01831
G1 X169.994 Y117.37 E.01829
G1 X169.774 Y116.898 E.01633
G1 X169.673 Y116.487 E.01327
G1 X169.644 Y116.065 E.01326
G1 X169.69 Y115.645 E.01325
G1 X169.807 Y115.238 E.01328
G1 X169.994 Y114.859 E.01325
G1 X170.243 Y114.517 E.01326
G1 X170.549 Y114.224 E.01328
G1 X170.9 Y113.989 E.01324
G1 X171.287 Y113.818 E.01327
G1 X171.747 Y113.715 E.01478
G1 X172.393 Y113.715 E.02025
G1 X172.826 Y113.822 E.01398
M204 S1000
G1 X172.758 Y114.186 F10800
M204 S800
;TYPE:External perimeter
G1 F1200
G1 X173.109 Y114.347 E.01211
G1 X173.515 Y114.669 E.01625
G1 X173.837 Y115.075 E.01625
G1 X174.002 Y115.429 E.01225
G1 X174.092 Y115.775 E.01121
G1 X174.12 Y116.131 E.0112
G1 X174.086 Y116.487 E.01121
G1 X173.991 Y116.831 E.01119
G1 X173.837 Y117.154 E.01122
G1 X173.63 Y117.445 E.0112
G1 X173.375 Y117.695 E.0112
G1 X173.081 Y117.898 E.0112
G1 X172.756 Y118.047 E.01121
G1 X172.41 Y118.136 E.0112
G1 X172.054 Y118.165 E.0112
G1 X171.698 Y118.131 E.01121
G1 X171.353 Y118.035 E.01123
G1 X171.031 Y117.882 E.01118
G1 X170.625 Y117.56 E.01625
G1 X170.303 Y117.154 E.01625
G1 X170.138 Y116.8 E.01225
G1 X170.048 Y116.454 E.01121
G1 X170.02 Y116.098 E.0112
G1 X170.054 Y115.742 E.01121
G1 X170.149 Y115.398 E.01119
G1 X170.303 Y115.075 E.01122
G1 X170.51 Y114.784 E.0112
G1 X170.765 Y114.533 E.01122
G1 X171.059 Y114.331 E.01118
G1 X171.384 Y114.182 E.01121
G1 X171.747 Y114.092 E.01173
G1 X172.393 Y114.092 E.02025
G1 X172.7 Y114.171 E.00994
M204 S1000
G1 X173.046 Y113.929 F10800
;WIPE_START
G1 F8640
G1 X173.109 Y114.347 E-.10281
G1 X173.515 Y114.669 E-.11965
G1 X173.837 Y115.075 E-.11965
G1 X174.002 Y115.429 E-.09018
G1 X174.092 Y115.775 E-.08255
G1 X174.12 Y116.131 E-.08246
G1 X174.086 Y116.487 E-.08258
G1 X173.991 Y116.831 E-.0824
G1 X173.921 Y116.978 E-.03772
;WIPE_END
G1 Z.6 F720
G1 X172.885 Y161.857 F10800
G1 Z.2 F720
G1 E.8 F2100
M204 S800
;TYPE:Perimeter
G1 F1200
G1 X173.326 Y162.058 E.0152
G1 X173.667 Y162.308 E.01326
G1 X173.96 Y162.613 E.01326
G1 X174.195 Y162.964 E.01324
G1 X174.366 Y163.351 E.01327
G1 X174.467 Y163.762 E.01327
G1 X174.496 Y164.184 E.01326
G1 X174.45 Y164.604 E.01325
G1 X174.333 Y165.01 E.01325
G1 X174.146 Y165.39 E.01328
G1 X173.96 Y165.656 E.01018
G1 X173.591 Y166.024 E.01634
G1 X173.24 Y166.26 E.01326
G1 X172.853 Y166.431 E.01327
G1 X172.443 Y166.532 E.01324
G1 X172.021 Y166.56 E.01326
G1 X171.6 Y166.515 E.01328
G1 X171.194 Y166.397 E.01326
G1 X170.814 Y166.211 E.01327
G1 X170.473 Y165.961 E.01326
G1 X170.18 Y165.656 E.01326
G1 X169.945 Y165.305 E.01324
G1 X169.774 Y164.918 E.01327
G1 X169.673 Y164.507 E.01327
G1 X169.644 Y164.085 E.01326
G1 X169.69 Y163.665 E.01325
G1 X169.807 Y163.258 E.01328
G1 X169.994 Y162.879 E.01325
G1 X170.358 Y162.423 E.01829
G1 X170.814 Y162.058 E.01831
G1 X171.287 Y161.838 E.01636
G1 X171.747 Y161.735 E.01478
G1 X172.393 Y161.735 E.02025
G1 X172.827 Y161.842 E.01402
M204 S1000
G1 X172.735 Y162.2 F10800
M204 S800
;TYPE:External perimeter
G1 F1200
G1 X173.109 Y162.367 E.01284
G1 X173.4 Y162.575 E.01122
G1 X173.651 Y162.829 E.0112
G1 X173.854 Y163.124 E.01123
G1 X174.002 Y163.449 E.0112
G1 X174.092 Y163.795 E.01121
G1 X174.12 Y164.151 E.0112
G1 X174.086 Y164.507 E.01121
G1 X173.991 Y164.851 E.01119
G1 X173.837 Y165.174 E.01122
G1 X173.651 Y165.44 E.01018
G1 X173.375 Y165.715 E.01222
G1 X173.081 Y165.918 E.0112
G1 X172.756 Y166.067 E.01121
G1 X172.41 Y166.156 E.0112
G1 X172.054 Y166.185 E.0112
G1 X171.698 Y166.151 E.01121
G1 X171.353 Y166.055 E.01123
G1 X171.031 Y165.902 E.01118
G1 X170.74 Y165.694 E.01122
G1 X170.489 Y165.44 E.0112
G1 X170.286 Y165.145 E.01123
G1 X170.138 Y164.82 E.0112
G1 X170.048 Y164.474 E.01121
G1 X170.02 Y164.118 E.0112
G1 X170.054 Y163.762 E.01121
G1 X170.149 Y163.418 E.01119
G1 X170.303 Y163.095 E.01122
G1 X170.625 Y162.689 E.01625
G1 X171.031 Y162.367 E.01625
G1 X171.384 Y162.202 E.01222
G1 X171.747 Y162.112 E.01173
G1 X172.393 Y162.112 E.02025
G1 X172.677 Y162.185 E.00919
M204 S1000
G1 X173.031 Y161.931 F10800
;WIPE_START
G1 F8640
G1 X173.109 Y162.367 E-.10824
G1 X173.4 Y162.575 E-.08259
G1 X173.651 Y162.829 E-.08245
G1 X173.854 Y163.124 E-.08269
G1 X174.002 Y163.449 E-.08246
G1 X174.092 Y163.795 E-.08255
G1 X174.12 Y164.151 E-.08246
G1 X174.086 Y164.507 E-.08258
G1 X173.991 Y164.851 E-.0824
G1 X173.932 Y164.974 E-.03158
;WIPE_END
G1 Z.6 F720
G1 X75.831 Y165.342 F10800
G1 Z.2 F720
G1 E.8 F2100
M204 S800
;TYPE:Perimeter
G1 F1200
G1 X75.634 Y164.918 E.01466
G1 X75.533 Y164.507 E.01327
G1 X75.504 Y164.085 E.01326
G1 X75.55 Y163.665 E.01325
G1 X75.667 Y163.258 E.01328
G1 X75.854 Y162.879 E.01325
G1 X76.103 Y162.537 E.01326
G1 X76.409 Y162.244 E.01328
G1 X76.76 Y162.009 E.01324
G1 X77.147 Y161.838 E.01327
G1 X77.607 Y161.735 E.01478
G1 X78.253 Y161.735 E.02025
G1 X78.747 Y161.848 E.01589
G1 X79.186 Y162.058 E.01526
G1 X79.642 Y162.423 E.01831
G1 X79.846 Y162.655 E.00969
G1 X80.17 Y163.214 E.02026
G1 X80.321 Y163.71 E.01626
G1 X80.356 Y164.184 E.0149
G1 X80.31 Y164.604 E.01325
G1 X80.193 Y165.01 E.01325
G1 X80.006 Y165.39 E.01328
G1 X79.757 Y165.731 E.01324
G1 X79.451 Y166.024 E.01328
G1 X79.1 Y166.26 E.01326
G1 X78.806 Y166.397 E.01017
G1 X78.303 Y166.532 E.01633
G1 X77.881 Y166.56 E.01326
G1 X77.46 Y166.515 E.01328
G1 X77.054 Y166.397 E.01326
G1 X76.674 Y166.211 E.01327
G1 X76.218 Y165.846 E.01831
G1 X75.858 Y165.395 E.01809
M204 S1000
G1 X76.252 Y165.286 F10800
M204 S800
;TYPE:External perimeter
G1 F1200
G1 X76.163 Y165.174 E.00449
G1 X75.998 Y164.82 E.01225
G1 X75.908 Y164.474 E.01121
G1 X75.88 Y164.118 E.0112
G1 X75.914 Y163.762 E.01121
G1 X76.009 Y163.418 E.01119
G1 X76.163 Y163.095 E.01122
G1 X76.37 Y162.804 E.0112
G1 X76.625 Y162.553 E.01122
G1 X76.919 Y162.351 E.01118
G1 X77.244 Y162.202 E.01121
G1 X77.607 Y162.112 E.01173
G1 X78.253 Y162.112 E.02025
G1 X78.647 Y162.214 E.01276
G1 X78.969 Y162.367 E.01118
G1 X79.375 Y162.689 E.01625
G1 X79.52 Y162.843 E.00663
G1 X79.843 Y163.403 E.02027
G1 X79.952 Y163.795 E.01276
G1 X79.98 Y164.151 E.0112
G1 X79.946 Y164.507 E.01121
G1 X79.851 Y164.851 E.01119
G1 X79.697 Y165.174 E.01122
G1 X79.49 Y165.465 E.0112
G1 X79.235 Y165.715 E.0112
G1 X78.941 Y165.918 E.0112
G1 X78.647 Y166.055 E.01017
G1 X78.27 Y166.156 E.01224
G1 X77.914 Y166.185 E.0112
G1 X77.558 Y166.151 E.01121
G1 X77.213 Y166.055 E.01123
G1 X76.891 Y165.902 E.01118
G1 X76.485 Y165.58 E.01625
G1 X76.289 Y165.333 E.00989
M204 S1000
G1 X76.111 Y165.313 F10800
;WIPE_START
G1 F8640
G1 X76.163 Y165.174 E-.04684
G1 X75.998 Y164.82 E-.09018
G1 X75.908 Y164.474 E-.08255
G1 X75.88 Y164.118 E-.08246
G1 X75.914 Y163.762 E-.08258
G1 X76.009 Y163.418 E-.0824
G1 X76.163 Y163.095 E-.08262
G1 X76.37 Y162.804 E-.08246
G1 X76.625 Y162.553 E-.08262
G1 X76.919 Y162.351 E-.08236
G1 X76.931 Y162.346 E-.00293
;WIPE_END
G1 Z.6 F720
G1 X78.745 Y113.837 F10800
G1 Z.2 F720
G1 E.8 F2100
M204 S800
;TYPE:Perimeter
G1 F1200
G1 X79.186 Y114.038 E.0152
G1 X79.527 Y114.288 E.01326
G1 X79.82 Y114.593 E.01326
G1 X80.055 Y114.944 E.01324
G1 X80.226 Y115.331 E.01327
G1 X80.327 Y115.742 E.01327
G1 X80.356 Y116.164 E.01326
G1 X80.31 Y116.584 E.01325
G1 X80.193 Y116.99 E.01325
G1 X80.006 Y117.37 E.01328
G1 X79.642 Y117.826 E.01829
G1 X79.186 Y118.191 E.01831
G1 X78.713 Y118.411 E.01636
G1 X78.303 Y118.512 E.01324
G1 X77.881 Y118.54 E.01326
G1 X77.46 Y118.495 E.01328
G1 X77.054 Y118.377 E.01326
G1 X76.674 Y118.191 E.01327
G1 X76.333 Y117.941 E.01326
G1 X76.014 Y117.594 E.01478
G1 X75.69 Y117.034 E.02029
G1 X75.539 Y116.536 E.01632
G1 X75.504 Y116.164 E.01172
G1 X75.55 Y115.645 E.01634
G1 X75.667 Y115.238 E.01328
G1 X75.854 Y114.859 E.01325
G1 X76.218 Y114.403 E.01829
G1 X76.674 Y114.038 E.01831
G1 X77.147 Y113.818 E.01636
G1 X77.607 Y113.715 E.01478
G1 X78.253 Y113.715 E.02025
G1 X78.687 Y113.822 E.01402
M204 S1000
G1 X78.611 Y114.184 F10800
M204 S800
;TYPE:External perimeter
G1 F1200
G1 X78.969 Y114.347 E.01233
G1 X79.26 Y114.555 E.01122
G1 X79.511 Y114.809 E.0112
G1 X79.714 Y115.104 E.01123
G1 X79.862 Y115.429 E.0112
G1 X79.952 Y115.775 E.01121
G1 X79.98 Y116.131 E.0112
G1 X79.946 Y116.487 E.01121
G1 X79.851 Y116.831 E.01119
G1 X79.697 Y117.154 E.01122
G1 X79.375 Y117.56 E.01625
G1 X78.969 Y117.882 E.01625
G1 X78.616 Y118.047 E.01222
G1 X78.27 Y118.136 E.0112
G1 X77.914 Y118.165 E.0112
G1 X77.558 Y118.131 E.01121
G1 X77.213 Y118.035 E.01123
G1 X76.891 Y117.882 E.01118
G1 X76.6 Y117.674 E.01122
G1 X76.34 Y117.406 E.01171
G1 X76.017 Y116.846 E.02027
G1 X75.908 Y116.454 E.01276
G1 X75.88 Y116.131 E.01017
G1 X75.914 Y115.742 E.01224
G1 X76.009 Y115.398 E.01119
G1 X76.163 Y115.075 E.01122
G1 X76.485 Y114.669 E.01625
G1 X76.891 Y114.347 E.01625
G1 X77.244 Y114.182 E.01222
G1 X77.607 Y114.092 E.01173
G1 X78.253 Y114.092 E.02025
G1 X78.553 Y114.169 E.00971
M204 S1000
G1 X78.904 Y113.921 F10800
;WIPE_START
G1 F8640
G1 X78.969 Y114.347 E-.10448
G1 X79.26 Y114.555 E-.08259
G1 X79.511 Y114.809 E-.08245
G1 X79.714 Y115.104 E-.08269
G1 X79.862 Y115.429 E-.08246
G1 X79.952 Y115.775 E-.08255
G1 X79.98 Y116.131 E-.08246
G1 X79.946 Y116.487 E-.08258
G1 X79.851 Y116.831 E-.0824
G1 X79.785 Y116.969 E-.03534
;WIPE_END
G1 Z.6 F720
G1 X177.463 Y109.957 F10800
G1 Z.2 F720
G1 E.8 F2100
M204 S800
;TYPE:Solid infill
;WIDTH:0.421099
G1 F1200
G1 X178.058 Y110.552 E.02646
G1 X178.058 Y111.087 E.01682
G1 X177.098 Y110.126 E.04271
G1 X176.563 Y110.126 E.01682
G1 X178.058 Y111.621 E.06648
G1 X178.058 Y112.156 E.01682
G1 X176.028 Y110.126 E.09028
G1 X175.493 Y110.126 E.01682
M73 P0 R141
G1 X178.058 Y112.691 E.11407
G1 X178.058 Y113.226 E.01682
G1 X174.959 Y110.126 E.13784
G1 X174.424 Y110.126 E.01682
G1 X178.058 Y113.761 E.16163
G1 X178.058 Y114.295 E.01679
G1 X173.889 Y110.126 E.1854
G1 X173.354 Y110.126 E.01682
G1 X178.058 Y114.83 E.20919
G1 X178.058 Y115.365 E.01682
G1 X172.819 Y110.126 E.23298
G1 X172.284 Y110.126 E.01682
G1 X178.058 Y115.9 E.25678
G1 X178.058 Y116.435 E.01682
G1 X171.75 Y110.126 E.28055
G1 X171.215 Y110.126 E.01682
G1 X178.058 Y116.97 E.30434
G1 X178.058 Y117.504 E.01679
G1 X170.68 Y110.126 E.32811
G1 X170.145 Y110.126 E.01682
G1 X178.058 Y118.039 E.3519
G1 X178.058 Y118.574 E.01682
G1 X174.668 Y115.184 E.15076
G1 X174.498 Y114.791 E.01346
G1 X174.233 Y114.39 E.01511
G1 X173.899 Y114.04 E.01521
G1 X173.394 Y113.686 E.01939
G1 X172.996 Y113.513 E.01365
G1 X169.61 Y110.126 E.1506
G1 X169.076 Y110.126 E.01679
G1 X172.325 Y113.376 E.14451
G1 X171.798 Y113.384 E.01657
G1 X168.541 Y110.126 E.14486
G1 X168.006 Y110.126 E.01682
G1 X171.334 Y113.455 E.14802
G1 X171.188 Y113.493 E.00474
G1 X170.944 Y113.6 E.00838
G1 X167.471 Y110.126 E.15447
G1 X166.936 Y110.126 E.01682
G1 X170.596 Y113.786 E.16276
G1 X170.285 Y114.01 E.01205
G1 X166.401 Y110.126 E.17273
G1 X165.867 Y110.126 E.01679
G1 X170.011 Y114.271 E.18431
G1 X169.781 Y114.576 E.01201
G1 X165.332 Y110.126 E.19787
G1 X164.797 Y110.126 E.01682
G1 X169.588 Y114.918 E.21308
G1 X169.495 Y115.105 E.00657
G1 X169.441 Y115.305 E.00651
G1 X164.262 Y110.126 E.23032
G1 X163.727 Y110.126 E.01682
M73 P1 R141
G1 X169.333 Y115.732 E.2493
G1 X169.302 Y116.119 E.01221
M73 Q1 S145
G1 X169.316 Y116.25 E.00414
G1 X163.023 Y109.957 E.27986
M204 S1000
;WIPE_START
G1 F8640
G1 X165.473 Y112.407 E-.8
;WIPE_END
G1 Z.6 F720
G1 X174.621 Y115.672 F10800
G1 Z.2 F720
G1 E.8 F2100
M204 S800
G1 F1200
G1 X178.058 Y119.109 E.15285
G1 X178.058 Y119.644 E.01682
G1 X174.813 Y116.399 E.14431
G1 X174.796 Y116.596 E.00622
G1 X174.725 Y116.845 E.00814
G1 X178.058 Y120.179 E.14824
G1 X178.058 Y120.713 E.01679
G1 X174.587 Y117.242 E.15436
G1 X174.404 Y117.594 E.01248
G1 X178.058 Y121.248 E.1625
G1 X178.058 Y121.783 E.01682
G1 X174.175 Y117.9 E.17268
G1 X173.914 Y118.174 E.0119
G1 X178.058 Y122.318 E.18429
G1 X178.058 Y122.853 E.01682
G1 X173.609 Y118.403 E.19787
G1 X173.513 Y118.474 E.00375
G1 X173.267 Y118.596 E.00863
G1 X178.058 Y123.388 E.21308
G1 X178.058 Y123.922 E.01679
G1 X172.883 Y118.747 E.23014
G1 X172.618 Y118.825 E.00869
G1 X172.444 Y118.843 E.0055
G1 X178.058 Y124.457 E.24966
G1 X178.058 Y124.992 E.01682
G1 X171.75 Y118.684 E.28052
M204 S1000
;WIPE_START
G1 F8640
G1 X174.2 Y121.134 E-.8
;WIPE_END
G1 Z.6 F720
