; generated by PrusaSlicer 2.6.0+win64 on 2023-08-07 at 19:51:56 UTC


;
;
; 

; external perimeters extrusion width = 0.45mm
; perimeters extrusion width = 0.45mm
; infill extrusion width = 0.45mm
; solid infill extrusion width = 0.45mm
; top infill extrusion width = 0.40mm
; support material extrusion width = 0.35mm
; first layer extrusion width = 0.42mm

M73 P0 R71
M73 Q0 S73
M201 X1000 Y1000 Z200 E5000 ; sets maximum accelerations, mm/sec^2
M203 X200 Y200 Z12 E120 ; sets maximum feedrates, mm / sec
M204 S1250 T1250 ; sets acceleration (S) and retract acceleration (R), mm/sec^2
M205 X8.00 Y8.00 Z0.40 E4.50 ; sets the jerk limits, mm/sec
M205 S0 T0 ; sets the minimum extruding and travel feed rate, mm/sec
;TYPE:Custom
M862.3 P "MK3S" ; printer model check
M862.1 P0.4 ; nozzle diameter check
M115 U3.12.2 ; tell printer latest fw version
G90 ; use absolute coordinates
M83 ; extruder relative mode
M104 S215 ; set extruder temp
M140 S60 ; set bed temp
M190 S60 ; wait for bed temp
M109 S215 ; wait for extruder temp
G28 W ; home all without mesh bed level
G80 ; mesh bed leveling

G1 Z0.2 F720
G1 Y-3 F1000 ; go outside print area
G92 E0
G1 X60 E9 F1000 ; intro line
G1 X100 E12.5 F1000 ; intro line

G92 E0
M221 S95

; Don't change E values below. Excessive value can damage the printer.
M907 E430 ; set extruder motor current
G21 ; set units to millimeters
G90 ; use absolute coordinates
M83 ; use relative distances for extrusion
M900 K0.05 ; Filament gcode LA 1.5
M900 K30 ; Filament gcode LA 1.0
M107
;LAYER_CHANGE
;Z:0.2
;HEIGHT:0.2
;BEFORE_LAYER_CHANGE
G92 E0.0
;0.2


G1 E-.8 F2100
G1 Z.4 F720
;AFTER_LAYER_CHANGE
;0.2
G1 X78.965 Y75.534 F10800
G1 Z.2 F720
G1 E.8 F2100
M204 S800
;TYPE:Skirt/Brim
;WIDTH:0.42
G1 F1200
G1 X79.466 Y75.151 E.01977
G1 X80.19 Y74.826 E.02488
G1 X80.928 Y74.702 E.02346
G1 X161.657 Y71.862 E2.53277
G1 X174.305 Y71.86 E.39657
G1 X175.612 Y72.252 E.04278
G1 X176.488 Y73.298 E.04278
G1 X176.682 Y74.237 E.03006
G1 X176.682 Y135.763 E1.9291
G1 X176.29 Y137.07 E.04278
G1 X175.245 Y137.946 E.04275
G1 X174.305 Y138.14 E.03009
G1 X161.657 Y138.138 E.39657
G1 X80.966 Y135.296 E2.53158
G1 X80.552 Y135.254 E.01305
G1 X79.743 Y134.996 E.02662
G1 X79.02 Y134.524 E.02707
G1 X78.648 Y134.118 E.01727
G1 X78.234 Y133.402 E.02593
G1 X78.058 Y132.831 E.01873
G1 X78.003 Y132.25 E.0183
G1 X78 Y77.712 E1.71
G1 X78.126 Y76.89 E.02607
G1 X78.451 Y76.166 E.02488
G1 X78.927 Y75.581 E.02365
M204 S1000
; printing object CaseV2.stl id:0 copy 0
;WIPE_START
G1 F8640
G1 X79.466 Y75.151 E-.15921
G1 X80.19 Y74.826 E-.18324
G1 X80.928 Y74.702 E-.17279
G1 X82.16 Y74.659 E-.28476
;WIPE_END
G1 Z.6 F720
G1 X174.305 Y135.763 F10800
G1 Z.2 F720
G1 E.8 F2100
M204 S800
;TYPE:Support material
G1 F1200
G1 X161.741 Y135.763 E.39394
G1 X164.983 Y133.104 E.13147
G1 X169.019 Y133.099 E.12655
G1 X169.296 Y133.025 E.00899
G1 X169.508 Y132.881 E.00804
G1 X169.677 Y132.677 E.00831
G1 X169.793 Y132.357 E.01067
G1 X169.804 Y108.801 E.73858
G1 X169.523 Y108.52 E.01246
G1 X158.971 Y108.52 E.33085
G1 X158.339 Y108.465 E.01989
G1 X157.747 Y108.306 E.01922
G1 X157.191 Y108.047 E.01923
G1 X156.689 Y107.695 E.01922
G1 X156.255 Y107.261 E.01924
G1 X155.903 Y106.759 E.01922
G1 X155.644 Y106.203 E.01923
G1 X155.485 Y105.611 E.01922
G1 X155.432 Y105 E.01923
G1 X155.485 Y104.389 E.01923
G1 X155.644 Y103.797 E.01922
G1 X155.903 Y103.241 E.01923
G1 X156.255 Y102.739 E.01922
G1 X156.689 Y102.305 E.01924
G1 X157.191 Y101.953 E.01922
G1 X157.747 Y101.694 E.01923
G1 X158.339 Y101.535 E.01922
G1 X158.971 Y101.48 E.01989
G1 X169.523 Y101.48 E.33085
G1 X169.804 Y101.199 E.01246
G1 X169.793 Y77.641 E.73864
G1 X169.677 Y77.323 E.01061
G1 X169.508 Y77.119 E.00831
G1 X169.296 Y76.975 E.00804
G1 X169.019 Y76.901 E.00899
G1 X164.983 Y76.896 E.12655
G1 X161.741 Y74.237 E.13147
G1 X174.305 Y74.237 E.39394
G1 X174.305 Y135.706 E1.92732
M204 S1000
G1 X173.601 Y135.593 F10800
M204 S800
G1 F1200
G1 X173.601 Y74.577 E1.91311
G1 X173.182 Y74.577 E.01314
G1 X173.182 Y135.423 E1.90778
G1 X172.763 Y135.423 E.01314
G1 X172.763 Y74.577 E1.90778
G1 X172.344 Y74.577 E.01314
G1 X172.344 Y135.423 E1.90778
G1 X171.925 Y135.423 E.01314
M73 P1 R71
M73 Q1 S73
G1 X171.925 Y74.577 E1.90778
G1 X171.506 Y74.577 E.01314
G1 X171.506 Y135.423 E1.90778
G1 X171.087 Y135.423 E.01314
G1 X171.087 Y74.577 E1.90778
G1 X170.668 Y74.577 E.01314
G1 X170.668 Y135.423 E1.90778
G1 X170.25 Y135.423 E.01311
M73 P1 R70
M73 Q1 S72
G1 X170.25 Y74.577 E1.90778
G1 X169.831 Y74.577 E.01314
G1 X169.831 Y76.969 E.075
G1 X169.735 Y76.866 E.00441
G1 X169.565 Y76.731 E.00681
G1 X169.412 Y76.655 E.00536
G1 X169.412 Y74.577 E.06515
G1 X168.993 Y74.577 E.01314
G1 X168.993 Y76.557 E.06208
G1 X168.574 Y76.557 E.01314
G1 X168.574 Y74.577 E.06208
G1 X168.155 Y74.577 E.01314
G1 X168.155 Y76.557 E.06208
G1 X167.736 Y76.557 E.01314
G1 X167.736 Y74.577 E.06208
G1 X167.317 Y74.577 E.01314
G1 X167.317 Y76.557 E.06208
G1 X166.898 Y76.557 E.01314
G1 X166.898 Y74.577 E.06208
G1 X166.479 Y74.577 E.01314
G1 X166.479 Y76.557 E.06208
G1 X166.06 Y76.557 E.01314
G1 X166.06 Y74.577 E.06208
G1 X165.641 Y74.577 E.01314
G1 X165.641 Y76.557 E.06208
G1 X165.222 Y76.557 E.01314
G1 X165.222 Y74.577 E.06208
G1 X164.803 Y74.577 E.01314
G1 X164.803 Y76.309 E.05431
G1 X164.384 Y75.966 E.01698
G1 X164.384 Y74.577 E.04355
G1 X163.965 Y74.577 E.01314
G1 X163.965 Y75.622 E.03277
G1 X163.546 Y75.279 E.01698
G1 X163.546 Y74.577 E.02201
G1 X163.127 Y74.577 E.01314
G1 X163.127 Y74.935 E.01122
G1 X162.708 Y74.592 E.01698
G1 X162.708 Y74.407 E.0058
M204 S1000
;WIPE_START
G1 F8640
G1 X162.708 Y74.592 E-.04272
G1 X163.127 Y74.935 E-.12503
G1 X163.127 Y74.577 E-.08266
G1 X163.546 Y74.577 E-.09675
G1 X163.546 Y75.279 E-.16209
G1 X163.965 Y75.622 E-.12503
G1 X163.965 Y74.904 E-.16572
;WIPE_END
G1 Z.6 F720
G1 X169.831 Y135.593 F10800
G1 Z.2 F720
G1 E.8 F2100
M204 S800
G1 F1200
G1 X169.831 Y133.031 E.08033
G1 X169.735 Y133.134 E.00441
G1 X169.565 Y133.269 E.00681
G1 X169.412 Y133.345 E.00536
G1 X169.412 Y135.423 E.06515
G1 X168.993 Y135.423 E.01314
G1 X168.993 Y133.443 E.06208
G1 X168.574 Y133.443 E.01314
G1 X168.574 Y135.423 E.06208
G1 X168.155 Y135.423 E.01314
G1 X168.155 Y133.443 E.06208
G1 X167.736 Y133.443 E.01314
G1 X167.736 Y135.423 E.06208
G1 X167.317 Y135.423 E.01314
G1 X167.317 Y133.443 E.06208
G1 X166.898 Y133.443 E.01314
G1 X166.898 Y135.423 E.06208
G1 X166.479 Y135.423 E.01314
G1 X166.479 Y133.443 E.06208
G1 X166.06 Y133.443 E.01314
G1 X166.06 Y135.423 E.06208
G1 X165.641 Y135.423 E.01314
G1 X165.641 Y133.443 E.06208
G1 X165.222 Y133.443 E.01314
G1 X165.222 Y135.423 E.06208
G1 X164.803 Y135.423 E.01314
G1 X164.803 Y133.691 E.05431
G1 X164.384 Y134.034 E.01698
G1 X164.384 Y135.423 E.04355
G1 X163.965 Y135.423 E.01314
G1 X163.965 Y134.378 E.03277
G1 X163.546 Y134.721 E.01698
G1 X163.546 Y135.423 E.02201
G1 X163.127 Y135.423 E.01314
G1 X163.127 Y135.065 E.01122
G1 X162.708 Y135.408 E.01698
G1 X162.708 Y135.593 E.0058
M204 S1000
;WIPE_START
G1 F8640
G1 X162.708 Y135.408 E-.04272
G1 X163.127 Y135.065 E-.12503
G1 X163.127 Y135.423 E-.08266
G1 X163.546 Y135.423 E-.09675
G1 X163.546 Y134.721 E-.16209
G1 X163.965 Y134.378 E-.12503
G1 X163.965 Y135.096 E-.16572
;WIPE_END
G1 Z.6 F720
G1 X169.831 Y108.588 F10800
G1 Z.2 F720
G1 E.8 F2100
M204 S800
G1 F1200
G1 X169.831 Y101.652 E.21747
G1 X169.663 Y101.819 E.00743
G1 X169.412 Y101.819 E.00787
G1 X169.412 Y108.181 E.19948
G1 X168.993 Y108.181 E.01314
G1 X168.993 Y101.819 E.19948
G1 X168.574 Y101.819 E.01314
G1 X168.574 Y108.181 E.19948
G1 X168.155 Y108.181 E.01314
G1 X168.155 Y101.819 E.19948
G1 X167.736 Y101.819 E.01314
G1 X167.736 Y108.181 E.19948
G1 X167.317 Y108.181 E.01314
G1 X167.317 Y101.819 E.19948
G1 X166.898 Y101.819 E.01314
G1 X166.898 Y108.181 E.19948
G1 X166.479 Y108.181 E.01314
G1 X166.479 Y101.819 E.19948
G1 X166.06 Y101.819 E.01314
G1 X166.06 Y108.181 E.19948
G1 X165.641 Y108.181 E.01314
G1 X165.641 Y101.819 E.19948
G1 X165.222 Y101.819 E.01314
G1 X165.222 Y108.181 E.19948
G1 X164.803 Y108.181 E.01314
G1 X164.803 Y101.819 E.19948
G1 X164.384 Y101.819 E.01314
G1 X164.384 Y108.181 E.19948
G1 X163.965 Y108.181 E.01314
G1 X163.965 Y101.819 E.19948
G1 X163.546 Y101.819 E.01314
G1 X163.546 Y108.181 E.19948
G1 X163.127 Y108.181 E.01314
G1 X163.127 Y101.819 E.19948
G1 X162.708 Y101.819 E.01314
G1 X162.708 Y108.181 E.19948
G1 X162.289 Y108.181 E.01314
G1 X162.289 Y101.819 E.19948
G1 X161.87 Y101.819 E.01314
G1 X161.87 Y108.181 E.19948
G1 X161.451 Y108.181 E.01314
G1 X161.451 Y101.819 E.19948
G1 X161.032 Y101.819 E.01314
G1 X161.032 Y108.181 E.19948
G1 X160.613 Y108.181 E.01314
G1 X160.613 Y101.819 E.19948
G1 X160.194 Y101.819 E.01314
G1 X160.194 Y108.181 E.19948
G1 X159.775 Y108.181 E.01314
G1 X159.775 Y101.819 E.19948
G1 X159.356 Y101.819 E.01314
G1 X159.356 Y108.181 E.19948
G1 X158.937 Y108.176 E.01314
G1 X158.937 Y101.824 E.19916
G1 X158.518 Y101.86 E.01319
G1 X158.518 Y108.14 E.1969
G1 X158.398 Y108.129 E.00378
G1 X158.099 Y108.049 E.0097
G1 X158.099 Y101.951 E.1912
G1 X157.863 Y102.014 E.00766
G1 X157.68 Y102.099 E.00633
G1 X157.68 Y107.901 E.18192
G1 X157.361 Y107.752 E.01104
G1 X157.261 Y107.682 E.00383
G1 X157.261 Y102.318 E.16818
G1 X156.908 Y102.566 E.01353
G1 X156.842 Y102.631 E.0029
G1 X156.842 Y107.369 E.14856
G1 X156.516 Y107.042 E.01448
G1 X156.423 Y106.91 E.00506
G1 X156.423 Y103.09 E.11977
G1 X156.198 Y103.411 E.01229
G1 X156.004 Y103.827 E.01439
G1 X156.004 Y106.574 E.08613
M204 S1000
;WIPE_START
G1 F8640
G1 X156.004 Y103.827 E-.63429
G1 X156.198 Y103.411 E-.10599
G1 X156.346 Y103.199 E-.05972
;WIPE_END
G1 Z.6 F720
G1 X81.463 Y131.837 F10800
G1 Z.2 F720
G1 E.8 F2100
M204 S800
;TYPE:Perimeter
;WIDTH:0.419999
G1 F1200
G1 X81.463 Y78.163 E1.68291
G1 X168.537 Y78.163 E2.73014
G1 X168.537 Y100.213 E.69136
M73 P2 R70
G1 X158.94 Y100.213 E.30091
M73 Q2 S72
G1 X158.07 Y100.295 E.0274
G1 X157.267 Y100.52 E.02615
G1 X156.514 Y100.88 E.02617
G1 X155.836 Y101.366 E.02616
G1 X155.252 Y101.962 E.02616
G1 X154.781 Y102.65 E.02614
G1 X154.436 Y103.409 E.02614
G1 X154.228 Y104.218 E.02619
G1 X154.164 Y105.049 E.02613
G1 X154.245 Y105.88 E.02618
G1 X154.47 Y106.683 E.02615
G1 X154.83 Y107.436 E.02617
G1 X155.316 Y108.114 E.02616
G1 X155.912 Y108.698 E.02616
G1 X156.6 Y109.169 E.02614
G1 X157.359 Y109.514 E.02614
G1 X158.07 Y109.705 E.02308
G1 X158.94 Y109.787 E.0274
G1 X168.537 Y109.787 E.30091
G1 X168.537 Y131.837 E.69136
G1 X81.523 Y131.837 E2.72826
M204 S1000
G1 X81.086 Y132.189 F10800
M204 S800
;TYPE:External perimeter
G1 F1200
G1 X81.086 Y77.837 E1.70417
G1 X81.109 Y77.786 E.00175
G1 X168.889 Y77.786 E2.75228
G1 X168.914 Y77.847 E.00207
G1 X168.914 Y100.59 E.71309
G1 X158.94 Y100.59 E.31273
G1 X158.168 Y100.66 E.0243
G1 X157.426 Y100.861 E.0241
G1 X156.731 Y101.189 E.0241
G1 X156.103 Y101.632 E.0241
G1 X155.561 Y102.178 E.02412
G1 X155.123 Y102.809 E.02408
G1 X154.8 Y103.507 E.02411
G1 X154.604 Y104.25 E.02409
G1 X154.54 Y105.016 E.0241
G1 X154.61 Y105.782 E.02412
G1 X154.811 Y106.524 E.0241
G1 X155.139 Y107.219 E.0241
G1 X155.582 Y107.847 E.0241
G1 X156.128 Y108.389 E.02412
G1 X156.759 Y108.827 E.02408
G1 X157.457 Y109.15 E.02411
G1 X158.2 Y109.346 E.02409
G1 X158.94 Y109.41 E.02329
G1 X168.914 Y109.41 E.31273
G1 X168.914 Y132.153 E.71309
G1 X168.889 Y132.214 E.00207
G1 X81.142 Y132.212 E2.75124
M204 S1000
G1 X81.286 Y131.842 F10800
;WIPE_START
G1 F8640
G1 X81.138 Y128.747 E-.8
;WIPE_END
G1 Z.6 F720
G1 X167.602 Y78.333 F10800
G1 Z.2 F720
G1 E.8 F2100
M204 S800
;TYPE:Solid infill
;WIDTH:0.421151
G1 F1200
G1 X168.197 Y78.928 E.02646
G1 X168.197 Y79.463 E.01683
G1 X167.237 Y78.503 E.0427
G1 X166.702 Y78.503 E.01683
G1 X168.197 Y79.998 E.06649
G1 X168.197 Y80.533 E.01683
G1 X166.167 Y78.503 E.09029
G1 X165.633 Y78.503 E.01679
G1 X168.197 Y81.068 E.11406
G1 X168.197 Y81.602 E.01679
G1 X165.098 Y78.503 E.13783
G1 X164.563 Y78.503 E.01683
G1 X168.197 Y82.137 E.16163
G1 X168.197 Y82.672 E.01683
G1 X164.028 Y78.503 E.18542
G1 X163.493 Y78.503 E.01683
G1 X168.197 Y83.207 E.20922
G1 X168.197 Y83.742 E.01683
G1 X162.958 Y78.503 E.23302
G1 X162.423 Y78.503 E.01683
G1 X168.197 Y84.277 E.25681
G1 X168.197 Y84.812 E.01683
G1 X161.888 Y78.503 E.28061
G1 X161.353 Y78.503 E.01683
G1 X168.197 Y85.347 E.3044
G1 X168.197 Y85.882 E.01683
G1 X160.818 Y78.503 E.3282
G1 X160.284 Y78.503 E.01679
G1 X168.197 Y86.417 E.35197
G1 X168.197 Y86.951 E.01679
M73 Q2 S71
G1 X159.749 Y78.503 E.37574
G1 X159.214 Y78.503 E.01683
M73 P2 R69
G1 X168.197 Y87.486 E.39954
G1 X168.197 Y88.021 E.01683
G1 X158.679 Y78.503 E.42333
G1 X158.144 Y78.503 E.01683
G1 X168.197 Y88.556 E.44713
G1 X168.197 Y89.091 E.01683
G1 X157.609 Y78.503 E.47092
G1 X157.074 Y78.503 E.01683
G1 X168.197 Y89.626 E.49472
G1 X168.197 Y90.161 E.01683
G1 X156.539 Y78.503 E.51851
G1 X156.004 Y78.503 E.01683
G1 X168.197 Y90.696 E.54231
G1 X168.197 Y91.231 E.01683
G1 X155.469 Y78.503 E.5661
G1 X154.935 Y78.503 E.01679
G1 X168.197 Y91.765 E.58985
G1 X168.197 Y92.3 E.01683
G1 X154.4 Y78.503 E.61365
G1 X153.865 Y78.503 E.01683
G1 X168.197 Y92.835 E.63745
G1 X168.197 Y93.37 E.01683
G1 X153.33 Y78.503 E.66124
G1 X152.795 Y78.503 E.01683
G1 X168.197 Y93.905 E.68504
G1 X168.197 Y94.44 E.01683
G1 X152.26 Y78.503 E.70883
G1 X151.725 Y78.503 E.01683
M73 P3 R69
G1 X168.197 Y94.975 E.73263
G1 X168.197 Y95.51 E.01683
G1 X151.19 Y78.503 E.75642
G1 X150.655 Y78.503 E.01683
M73 Q3 S71
G1 X168.197 Y96.045 E.78022
G1 X168.197 Y96.58 E.01683
G1 X150.12 Y78.503 E.80401
G1 X149.586 Y78.503 E.01679
G1 X168.197 Y97.114 E.82776
G1 X168.197 Y97.649 E.01683
G1 X149.051 Y78.503 E.85156
G1 X148.516 Y78.503 E.01683
G1 X168.197 Y98.184 E.87535
G1 X168.197 Y98.719 E.01683
G1 X147.981 Y78.503 E.89915
G1 X147.446 Y78.503 E.01683
G1 X168.197 Y99.254 E.92294
G1 X168.197 Y99.789 E.01683
G1 X146.911 Y78.503 E.94674
G1 X146.376 Y78.503 E.01683
G1 X167.747 Y99.874 E.95052
G1 X167.212 Y99.874 E.01683
G1 X145.841 Y78.503 E.95052
G1 X145.306 Y78.503 E.01683
G1 X166.677 Y99.874 E.95052
G1 X166.142 Y99.874 E.01683
G1 X144.771 Y78.503 E.95052
G1 X144.237 Y78.503 E.01679
G1 X165.608 Y99.874 E.95052
G1 X165.073 Y99.874 E.01683
G1 X143.702 Y78.503 E.95052
G1 X143.167 Y78.503 E.01683
G1 X164.538 Y99.874 E.95052
G1 X164.003 Y99.874 E.01683
G1 X142.632 Y78.503 E.95052
G1 X142.097 Y78.503 E.01683
G1 X163.468 Y99.874 E.95052
G1 X162.933 Y99.874 E.01683
G1 X141.562 Y78.503 E.95052
G1 X141.027 Y78.503 E.01683
G1 X162.398 Y99.874 E.95052
G1 X161.863 Y99.874 E.01683
G1 X140.492 Y78.503 E.95052
G1 X139.957 Y78.503 E.01683
G1 X161.328 Y99.874 E.95052
G1 X160.793 Y99.874 E.01683
G1 X139.422 Y78.503 E.95052
G1 X138.888 Y78.503 E.01679
G1 X160.259 Y99.874 E.95052
G1 X159.724 Y99.874 E.01683
G1 X138.353 Y78.503 E.95052
G1 X137.818 Y78.503 E.01683
G1 X159.189 Y99.874 E.95052
G1 X158.676 Y99.896 E.01615
G1 X137.283 Y78.503 E.9515
G1 X136.748 Y78.503 E.01683
G1 X158.184 Y99.939 E.95341
G1 X158.06 Y99.95 E.00392
M73 P4 R69
G1 X157.744 Y100.034 E.01028
G1 X136.213 Y78.503 E.95764
G1 X135.678 Y78.503 E.01683
G1 X157.322 Y100.146 E.96264
G1 X157.217 Y100.174 E.00342
M73 Q4 S71
G1 X156.942 Y100.301 E.00953
G1 X135.143 Y78.503 E.96953
G1 X134.608 Y78.503 E.01683
M73 P4 R68
M73 Q4 S70
G1 X156.576 Y100.47 E.97705
G1 X156.405 Y100.548 E.00591
G1 X156.236 Y100.665 E.00646
G1 X134.073 Y78.503 E.98572
G1 X133.539 Y78.503 E.01679
G1 X155.92 Y100.884 E.99544
G1 X155.706 Y101.031 E.00817
G1 X155.619 Y101.118 E.00387
G1 X133.004 Y78.503 E1.00585
G1 X132.469 Y78.503 E.01683
G1 X155.352 Y101.386 E1.01777
G1 X155.085 Y101.653 E.01188
G1 X131.934 Y78.503 E1.02967
G1 X131.399 Y78.503 E.01683
G1 X154.847 Y101.95 E1.04288
G1 X154.627 Y102.266 E.01211
G1 X130.864 Y78.503 E1.05691
G1 X130.329 Y78.503 E.01683
G1 X154.431 Y102.604 E1.07196
G1 X154.261 Y102.969 E.01266
G1 X129.794 Y78.503 E1.0882
G1 X129.259 Y78.503 E.01683
G1 X154.104 Y103.347 E1.10501
G1 X153.991 Y103.769 E.01374
G1 X128.724 Y78.503 E1.12378
G1 X128.19 Y78.503 E.01679
G1 X153.893 Y104.206 E1.14319
G1 X153.849 Y104.697 E.0155
G1 X127.655 Y78.503 E1.16503
G1 X127.12 Y78.503 E.01683
G1 X153.842 Y105.225 E1.18852
G1 X153.894 Y105.812 E.01853
G1 X126.585 Y78.503 E1.21462
G1 X126.05 Y78.503 E.01683
