;FLAVOR:Marlin
;TIME:2068
;Filament used: 1.84807m, 0m, 0m, 0m
;Layer height: 0.1
;MINX:82.307
;MINY:94.299
;MINZ:0.24
;MAXX:127.691
;MAXY:115.7
;MAXZ:23.26
;Generated with Cura_SteamEngine 4.6.1
T0
M140 S60
M105
M190 S60
M104 S200
M105
M109 S200
M82 ;absolute extrusion mode
G28
G29
M501
M420 S1
G92 E0 ;zero the extruded length
G1 F200 E3 ;extrude 3mm of feed stock
G92 E0 ;zero the extruded length again
G1 F200
M117 Printing...
G5
G92 E0
G92 E0
G1 F2400 E-4
;LAYER_COUNT:133
;LAYER:-7
M107
M204 S4000
M205 X30 Y30
G0 F12000 X85.705 Y98.21 Z0.24
M204 S3000
M205 X8 Y8
;TYPE:SUPPORT-INTERFACE
G1 F2400 E0
G1 F900 X85.971 Y97.988 E0.04148
G1 X86.115 Y97.875 E0.0634
G1 X86.433 Y97.642 E0.1106
G1 X86.578 Y97.542 E0.1317
G1 X86.994 Y97.277 E0.19075
G1 X87.469 Y97.013 E0.25582
G1 X87.936 Y96.788 E0.31789
G1 X88.507 Y96.556 E0.39169
G1 X88.976 Y96.4 E0.45087
G1 X89.386 Y96.286 E0.50182
G1 X89.528 Y96.252 E0.51931
G1 X90.057 Y96.139 E0.58408
G1 X90.348 Y96.088 E0.61945
G1 X100.134 Y94.683 E1.80321
G1 X100.601 Y94.631 E1.85947
G1 X101.163 Y94.603 E1.92685
G1 X108.758 Y94.602 E2.83624
G1 X108.999 Y94.609 E2.86511
G1 X109.522 Y94.644 E2.92787
G1 X109.895 Y94.685 E2.97281
G1 X119.324 Y96.04 E4.1134
G1 X120.027 Y96.152 E4.19864
G1 X120.502 Y96.255 E4.25683
G1 X121.009 Y96.393 E4.31975
G1 X121.569 Y96.583 E4.39055
G1 X121.922 Y96.726 E4.43616
G1 X122.076 Y96.794 E4.45631
G1 X122.399 Y96.947 E4.49911
G1 X122.578 Y97.038 E4.52315
G1 X123.008 Y97.279 E4.58217
G1 X123.483 Y97.582 E4.64963
G1 X123.892 Y97.879 E4.71016
G1 X124.321 Y98.231 E4.7766
G1 X124.721 Y98.606 E4.84225
G1 X125.009 Y98.904 E4.89187
G1 X125.139 Y99.049 E4.91519
G1 X125.455 Y99.426 E4.97409
G1 X125.805 Y99.897 E5.04436
G1 X126.082 Y100.324 E5.1053
G1 X126.357 Y100.809 E5.17206
G1 X126.588 Y101.282 E5.23508
G1 X126.801 Y101.792 E5.30126
G1 X126.976 Y102.294 E5.36492
G1 X127.133 Y102.863 E5.43559
G1 X127.242 Y103.369 E5.49757
G1 X127.331 Y103.957 E5.56878
G1 X127.374 Y104.427 E5.62529
G1 X127.392 Y104.999 E5.69381
G1 X127.378 Y105.52 E5.75622
G1 X127.324 Y106.12 E5.82835
G1 X127.247 Y106.621 E5.88904
G1 X127.161 Y107.031 E5.9392
G1 X127.121 Y107.195 E5.95941
G1 X126.981 Y107.689 E6.02089
G1 X126.795 Y108.229 E6.08928
G1 X126.661 Y108.556 E6.13159
G1 X126.587 Y108.722 E6.15335
G1 X126.338 Y109.225 E6.22056
G1 X126.078 Y109.681 E6.28341
G1 X125.76 Y110.167 E6.35295
G1 X125.546 Y110.46 E6.39639
G1 X125.463 Y110.565 E6.41242
G1 X125.091 Y111.006 E6.4815
G1 X124.746 Y111.371 E6.54164
G1 X124.42 Y111.679 E6.59534
G1 X124.295 Y111.79 E6.61536
G1 X124.029 Y112.012 E6.65684
G1 X123.89 Y112.121 E6.67799
G1 X123.567 Y112.358 E6.72596
G1 X123.422 Y112.458 E6.74705
G1 X123.114 Y112.657 E6.79096
G1 X122.534 Y112.985 E6.87074
G1 X122.064 Y113.212 E6.93324
G1 X121.493 Y113.444 E7.00703
G1 X121.024 Y113.6 E7.06621
G1 X120.614 Y113.714 E7.11717
G1 X120.471 Y113.748 E7.13477
G1 X119.953 Y113.859 E7.1982
G1 X119.637 Y113.914 E7.23661
G1 X109.723 Y115.333 E8.43577
G1 X109.173 Y115.381 E8.50188
G1 X108.719 Y115.399 E8.55628
G1 X101.256 Y115.399 E9.44987
G1 X100.912 Y115.385 E9.4911
G1 X100.439 Y115.352 E9.54787
G1 X100.093 Y115.314 E9.58955
G1 X90.674 Y113.96 E10.72894
G1 X89.973 Y113.848 E10.81394
G1 X89.498 Y113.745 E10.87213
G1 X88.991 Y113.607 E10.93505
G1 X88.431 Y113.417 E11.00586
G1 X88.078 Y113.274 E11.05146
G1 X87.924 Y113.206 E11.07162
G1 X87.601 Y113.053 E11.11441
G1 X87.422 Y112.962 E11.13845
G1 X86.992 Y112.721 E11.19748
G1 X86.517 Y112.418 E11.26494
G1 X86.099 Y112.114 E11.32682
G1 X85.678 Y111.768 E11.39207
G1 X85.383 Y111.496 E11.44012
G1 X85.268 Y111.383 E11.45942
G1 X84.976 Y111.08 E11.50981
G1 X84.859 Y110.949 E11.53084
G1 X84.533 Y110.559 E11.5917
G1 X84.192 Y110.098 E11.66036
G1 X83.918 Y109.676 E11.72061
G1 X83.696 Y109.29 E11.77392
G1 X83.628 Y109.161 E11.79138
G1 X83.405 Y108.702 E11.85249
G1 X83.199 Y108.208 E11.91657
G1 X83.019 Y107.689 E11.98235
G1 X82.861 Y107.113 E12.05386
G1 X82.757 Y106.631 E12.1129
G1 X82.669 Y106.042 E12.18421
G1 X82.625 Y105.546 E12.24383
G1 X82.608 Y104.987 E12.3108
G1 X82.615 Y104.615 E12.35535
G1 X82.623 Y104.467 E12.37309
G1 X82.661 Y104.013 E12.42764
G1 X82.679 Y103.86 E12.44609
G1 X82.753 Y103.379 E12.50436
G1 X82.879 Y102.803 E12.57496
G1 X82.976 Y102.448 E12.61903
G1 X83.019 Y102.31 E12.63633
G1 X83.208 Y101.763 E12.70563
G1 X83.416 Y101.272 E12.76948
G1 X83.593 Y100.907 E12.81805
G1 X83.668 Y100.765 E12.83728
G1 X83.922 Y100.319 E12.89873
G1 X84.24 Y99.833 E12.96827
G1 X84.454 Y99.54 E13.01172
G1 X84.537 Y99.435 E13.02774
G1 X84.909 Y98.994 E13.09682
G1 X85.254 Y98.629 E13.15696
G1 X85.541 Y98.358 E13.20422
G0 F810 X85.58 Y98.321
G0 X85.705 Y98.21
M204 S4000
M205 X30 Y30
G0 F12000 X86.4 Y97.666
M204 S3000
M205 X8 Y8
G1 F900 X86.4 Y112.332 E14.96028
M204 S4000
M205 X30 Y30
G0 F12000 X88.8 Y113.542
M204 S3000
M205 X8 Y8
G1 F900 X88.8 Y96.458 E17.00586
M204 S4000
M205 X30 Y30
G0 F12000 X91.2 Y95.965
M204 S3000
M205 X8 Y8
G1 F900 X91.2 Y114.035 E19.1695
M204 S4000
M205 X30 Y30
G0 F12000 X93.6 Y114.38
M204 S3000
M205 X8 Y8
G1 F900 X93.6 Y95.621 E21.41563
M204 S4000
M205 X30 Y30
G0 F12000 X96 Y95.276
M204 S3000
M205 X8 Y8
G1 F900 X96 Y114.725 E23.74439
M204 S4000
M205 X30 Y30
G0 F12000 X98.4 Y115.07
M204 S3000
M205 X8 Y8
G1 F900 X98.4 Y94.931 E26.15576
M204 S4000
M205 X30 Y30
G0 F12000 X100.8 Y94.621
M204 S3000
M205 X8 Y8
G1 F900 X100.8 Y115.377 E28.64101
M204 S4000
M205 X30 Y30
G0 F12000 X103.2 Y115.399
M204 S3000
M205 X8 Y8
G1 F900 X103.2 Y94.602 E31.13117
M204 S4000
M205 X30 Y30
G0 F12000 X105.6 Y94.602
M204 S3000
M205 X8 Y8
G1 F900 X105.6 Y115.399 E33.62133
M204 S4000
M205 X30 Y30
G0 F12000 X108 Y115.399
M204 S3000
M205 X8 Y8
G1 F900 X108 Y94.602 E36.11149
M204 S4000
M205 X30 Y30
G0 F12000 X110.4 Y94.758
M204 S3000
M205 X8 Y8
G1 F900 X110.4 Y115.237 E38.56357
M204 S4000
M205 X30 Y30
G0 F12000 X112.8 Y114.893
M204 S3000
M205 X8 Y8
G1 F900 X112.8 Y95.103 E40.93316
M204 S4000
M205 X30 Y30
G0 F12000 X115.2 Y95.448
M204 S3000
M205 X8 Y8
G1 F900 X115.2 Y114.55 E43.22037
M204 S4000
M205 X30 Y30
G0 F12000 X117.6 Y114.206
M204 S3000
M205 X8 Y8
G1 F900 X117.6 Y95.793 E45.42507
M204 S4000
M205 X30 Y30
G0 F12000 X120 Y96.148
M204 S3000
M205 X8 Y8
G1 F900 X120 Y113.849 E47.54453
M204 S4000
M205 X30 Y30
G0 F12000 X122.4 Y113.05
M204 S3000
M205 X8 Y8
G1 F900 X122.4 Y96.948 E49.47253
M204 S4000
M205 X30 Y30
G0 F12000 X124.8 Y98.688
M204 S3000
M205 X8 Y8
G1 F900 X124.8 Y111.314 E50.98432
M204 S4000
M205 X30 Y30
G0 F12000 X127.2 Y106.846
M204 S3000
M205 X8 Y8
G1 F900 X127.2 Y103.175 E51.42387
M204 S4000
M205 X30 Y30
G0 F12000 X84 Y100.199
M204 S3000
M205 X8 Y8
G1 F900 X84 Y109.802 E52.5737
M204 S4000
M205 X30 Y30
G0 F600 X84 Y109.802 Z0.39
G0 F12000 X83.918 Y109.675
;TIME_ELAPSED:33.788628
;LAYER:-6
M140 S60
G1 F2400 E48.5737
M204 S3000
M205 X8 Y8
;TYPE:SUPPORT
G1 F2400 E52.5737
G1 F900 X84.191 Y110.097 E52.61131
G1 X84.532 Y110.558 E52.65423
G1 X84.859 Y110.948 E52.69231
G1 X84.975 Y111.079 E52.70541
G1 X85.267 Y111.382 E52.7369
G1 X85.383 Y111.495 E52.74902
G1 X85.678 Y111.767 E52.77905
G1 X86.098 Y112.113 E52.81977
G1 X86.517 Y112.417 E52.85851
G1 X86.964 Y112.702 E52.89818
G1 X83.892 Y109.631 E53.22325
M204 S4000
M205 X30 Y30
G0 F12000 X86.964 Y112.702
M204 S3000
M205 X8 Y8
G1 F900 X86.991 Y112.72 E53.22567
G1 X87.421 Y112.961 E53.26256
G1 X87.6 Y113.052 E53.27759
G1 X87.923 Y113.205 E53.30434
G1 X88.077 Y113.273 E53.31694
G1 X88.431 Y113.416 E53.34551
G1 X88.99 Y113.606 E53.38969
G1 X89.497 Y113.744 E53.42901
G1 X89.972 Y113.847 E53.46538
G1 X90.11 Y113.869 E53.47584
G1 X82.736 Y106.495 E54.25626
G1 X82.668 Y106.041 E54.29061
G1 X82.624 Y105.544 E54.32795
G1 X82.607 Y104.986 E54.36973
G1 X82.614 Y104.614 E54.39757
G1 X82.622 Y104.466 E54.40866
G1 X82.627 Y104.406 E54.41317
G1 X92.432 Y114.211 E55.45086
G1 X94.745 Y114.544 E55.62574
G1 X82.905 Y102.704 E56.8788
G1 X82.976 Y102.447 E56.89876
G1 X83.019 Y102.309 E56.90957
G1 X83.208 Y101.762 E56.95288
G1 X83.415 Y101.271 E56.99276
G1 X83.427 Y101.246 E56.99483
G1 X97.057 Y114.876 E58.43734
G1 X99.369 Y115.208 E58.61213
G1 X84.142 Y99.981 E60.22365
G1 X84.24 Y99.832 E60.237
G1 X84.454 Y99.539 E60.26415
G1 X84.536 Y99.434 E60.27412
G1 X84.909 Y98.993 E60.31735
G1 X85.018 Y98.877 E60.32926
G1 X101.539 Y115.398 E62.07773
G1 X103.519 Y115.398 E62.2259
G1 X86.047 Y97.927 E64.07496
G1 X86.114 Y97.874 E64.08136
G1 X86.433 Y97.64 E64.11096
G1 X86.578 Y97.541 E64.1241
G1 X86.993 Y97.276 E64.16095
G1 X87.24 Y97.14 E64.18205
G1 X105.498 Y115.398 E66.11435
G1 X107.478 Y115.398 E66.26253
G1 X88.604 Y96.523 E68.26007
G1 X88.975 Y96.399 E68.28935
G1 X89.385 Y96.285 E68.32119
G1 X89.528 Y96.251 E68.33219
G1 X90.057 Y96.138 E68.37267
G1 X90.178 Y96.117 E68.38187
G1 X109.418 Y115.358 E70.41815
G1 X109.723 Y115.331 E70.44106
G1 X111.165 Y115.125 E70.55007
G1 X91.904 Y95.864 E72.58852
G1 X93.635 Y95.615 E72.71939
G1 X112.897 Y114.877 E74.75795
G1 X114.629 Y114.629 E74.88889
G1 X95.367 Y95.367 E76.92744
G1 X97.098 Y95.118 E77.05832
G1 X116.362 Y114.382 E79.09709
G1 X118.093 Y114.134 E79.22795
G1 X98.83 Y94.87 E81.26667
G1 X100.133 Y94.683 E81.36518
G1 X100.573 Y94.634 E81.39831
G1 X119.821 Y113.881 E83.43533
G1 X119.952 Y113.859 E83.44527
G1 X120.469 Y113.748 E83.48484
G1 X120.613 Y113.713 E83.49593
G1 X121.023 Y113.6 E83.52776
G1 X121.395 Y113.475 E83.55713
G1 X102.522 Y94.603 E85.55446
G1 X104.502 Y94.603 E85.70263
G1 X122.757 Y112.857 E87.63457
G1 X123.113 Y112.656 E87.66516
G1 X123.421 Y112.458 E87.69256
G1 X123.566 Y112.358 E87.70574
G1 X123.888 Y112.12 E87.73571
G1 X123.95 Y112.071 E87.74162
G1 X106.482 Y94.603 E89.59031
G1 X108.462 Y94.603 E89.73849
G1 X124.981 Y111.121 E91.48669
G1 X125.09 Y111.005 E91.4986
G1 X125.461 Y110.564 E91.54173
G1 X125.545 Y110.459 E91.55179
G1 X125.758 Y110.167 E91.57884
G1 X125.857 Y110.018 E91.59223
G1 X110.629 Y94.79 E93.20386
G1 X112.941 Y95.122 E93.37865
G1 X126.571 Y108.752 E94.82115
G1 X126.586 Y108.721 E94.82373
G1 X126.66 Y108.555 E94.83733
G1 X126.794 Y108.229 E94.86371
G1 X126.98 Y107.688 E94.90652
G1 X127.092 Y107.293 E94.93725
G1 X115.254 Y95.455 E96.1901
G1 X117.566 Y95.787 E96.36489
G1 X127.37 Y105.591 E97.40248
G1 X127.376 Y105.52 E97.40781
G1 X127.391 Y104.998 E97.44689
G1 X127.373 Y104.427 E97.48965
G1 X127.33 Y103.957 E97.52497
G1 X127.261 Y103.502 E97.5594
G1 X119.889 Y96.13 E98.33961
G1 X120.026 Y96.151 E98.34998
G1 X120.501 Y96.254 E98.38635
G1 X121.008 Y96.392 E98.42567
G1 X121.567 Y96.583 E98.46988
G1 X121.921 Y96.725 E98.49842
G1 X122.075 Y96.793 E98.51102
G1 X122.398 Y96.947 E98.5378
G1 X122.576 Y97.037 E98.55273
G1 X123.007 Y97.278 E98.58968
G1 X123.035 Y97.296 E98.59217
G1 X126.106 Y100.367 E98.91719
M204 S4000
M205 X30 Y30
G0 F12000 X126.081 Y100.324
M204 S3000
M205 X8 Y8
G1 F900 X125.804 Y99.897 E98.95528
G1 X125.454 Y99.425 E98.99925
G1 X125.138 Y99.048 E99.03606
G1 X125.008 Y98.903 E99.05064
G1 X124.72 Y98.606 E99.0816
G1 X124.32 Y98.231 E99.12263
G1 X123.89 Y97.879 E99.16421
G1 X123.482 Y97.582 E99.20198
G1 X123.035 Y97.296 E99.24169
M204 S4000
M205 X30 Y30
G1 F2400 E95.24169
G0 F600 X123.035 Y97.296 Z0.49
G0 F12000 X109.942 Y94.389
;TIME_ELAPSED:75.918114
;LAYER:-5
M204 S3000
M205 X8 Y8
;TYPE:SUPPORT-INTERFACE
G1 F2400 E99.24169
G1 F1200 X109.433 Y94.335 E99.25446
G1 X108.64 Y94.3 E99.27426
G1 X101.031 Y94.307 E99.46407
G1 X100.479 Y94.341 E99.47786
G1 X99.959 Y94.403 E99.49093
G1 X97.217 Y94.8 E99.56004
G1 X112.805 Y94.8 E99.94888
G1 X116.985 Y95.4 E100.05422
G1 X93.071 Y95.4 E100.65076
G1 X89.996 Y95.845 E100.72827
G1 X89.458 Y95.96 E100.74199
G1 X89.31 Y96 E100.74581
G1 X120.711 Y96 E101.52911
G1 X120.953 Y96.062 E101.53535
G1 X121.539 Y96.252 E101.55071
G1 X122.036 Y96.447 E101.56403
G1 X122.367 Y96.6 E101.57313
G1 X87.637 Y96.6 E102.43947
G1 X87.329 Y96.748 E102.448
G1 X86.839 Y97.021 E102.46199
G1 X86.557 Y97.2 E102.47032
G1 X123.447 Y97.2 E103.39054
G1 X123.546 Y97.262 E103.39346
G1 X123.976 Y97.566 E103.40659
G1 X124.268 Y97.8 E103.41593
G1 X85.734 Y97.8 E104.37716
G1 X85.52 Y97.974 E104.38404
G1 X85.06 Y98.4 E104.39968
G1 X124.937 Y98.4 E105.39442
G1 X125.24 Y98.71 E105.40523
G1 X125.492 Y99 E105.41482
G1 X84.513 Y99 E106.43704
G1 X84.307 Y99.243 E106.44499
G1 X84.041 Y99.6 E106.45609
G1 X125.963 Y99.6 E107.50184
G1 X126.257 Y100.036 E107.51496
G1 X126.354 Y100.2 E107.51971
G1 X83.647 Y100.2 E108.58504
G1 X83.411 Y100.61 E108.59684
G1 X83.317 Y100.8 E108.60213
G1 X126.686 Y100.8 E109.68398
G1 X126.806 Y101.039 E109.69065
G1 X126.963 Y101.4 E109.70047
G1 X83.037 Y101.4 E110.79621
G1 X82.931 Y101.65 E110.80298
G1 X82.81 Y102 E110.81222
G1 X127.193 Y102 E111.91936
G1 X127.225 Y102.09 E111.92174
G1 X127.375 Y102.6 E111.935
G1 X82.625 Y102.6 E113.05129
G1 X82.592 Y102.715 E113.05428
G1 X82.486 Y103.2 E113.06666
G1 X127.514 Y103.2 E114.18989
G1 X127.605 Y103.735 E114.20343
G1 X127.612 Y103.8 E114.20506
G1 X82.386 Y103.8 E115.33322
G1 X82.38 Y103.834 E115.33408
G1 X82.328 Y104.4 E115.34826
G1 X127.671 Y104.4 E116.47935
G1 X127.691 Y104.84 E116.49034
G1 X127.689 Y105 E116.49433
G1 X82.308 Y105 E117.62636
G1 X82.325 Y105.572 E117.64064
G1 X82.327 Y105.6 E117.64134
G1 X127.668 Y105.6 E118.77237
G1 X127.639 Y106.004 E118.78248
G1 X127.611 Y106.2 E118.78742
G1 X82.388 Y106.2 E119.91551
G1 X82.46 Y106.669 E119.92734
G1 X82.487 Y106.8 E119.93068
G1 X127.512 Y106.8 E121.05383
G1 X127.452 Y107.101 E121.06149
G1 X127.373 Y107.4 E121.0692
G1 X82.628 Y107.4 E122.18537
G1 X82.733 Y107.778 E122.19516
G1 X82.809 Y108 E122.20101
G1 X127.191 Y108 E123.30813
G1 X127.131 Y108.185 E123.31298
G1 X126.965 Y108.6 E123.32413
G1 X83.038 Y108.6 E124.41989
G1 X83.133 Y108.827 E124.42603
G1 X83.313 Y109.2 E124.43636
G1 X126.688 Y109.2 E125.51835
G1 X126.681 Y109.215 E125.51877
G1 X126.412 Y109.705 E125.53271
G1 X126.352 Y109.8 E125.53551
G1 X83.643 Y109.8 E126.60089
G1 X83.663 Y109.834 E126.60188
G1 X83.947 Y110.272 E126.6149
G1 X84.041 Y110.4 E126.61886
G1 X125.957 Y110.4 E127.66446
G1 X125.781 Y110.646 E127.67201
G1 X125.489 Y111 E127.68345
G1 X84.51 Y111 E128.70568
G1 X84.633 Y111.146 E128.71044
G1 X85.057 Y111.597 E128.72588
M204 S4000
M205 X30 Y30
G0 F12000 X85.06 Y111.6
M204 S3000
M205 X8 Y8
G1 F1200 X124.934 Y111.6 E129.72054
G1 X124.619 Y111.902 E129.73143
G1 X124.27 Y112.2 E129.74288
G1 X85.733 Y112.2 E130.70418
G1 X86.017 Y112.428 E130.71327
G1 X86.455 Y112.737 E130.72664
G1 X86.556 Y112.8 E130.72961
G1 X123.44 Y112.8 E131.64969
G1 X123.281 Y112.905 E131.65444
G1 X122.774 Y113.197 E131.66903
G1 X122.368 Y113.4 E131.68036
G1 X87.636 Y113.4 E132.54675
G1 X87.965 Y113.552 E132.55579
G1 X88.46 Y113.747 E132.56906
G1 X89.044 Y113.936 E132.58437
G1 X89.295 Y114 E132.59083
G1 X120.701 Y114 E133.37426
G1 X120.684 Y114.005 E133.3747
G1 X120.082 Y114.139 E133.39009
G1 X119.688 Y114.209 E133.40007
G1 X116.971 Y114.6 E133.46854
G1 X93.019 Y114.6 E134.06603
G1 X97.192 Y115.2 E134.1712
G1 X112.803 Y115.2 E134.56061
G1 X110.08 Y115.592 E134.62924
G1 X109.275 Y115.675 E134.64943
G1 X108.727 Y115.699 E134.66311
G1 X101.311 Y115.7 E134.8481
G1 X100.57 Y115.664 E134.86661
G1 X100.058 Y115.612 E134.87945
M204 S4000
M205 X30 Y30
G1 F2400 E130.87945
G0 F600 X100.058 Y115.612 Z0.59
G0 F12000 X127.315 Y107.619
;TIME_ELAPSED:147.971239
;LAYER:-4
M204 S3000
M205 X8 Y8
;TYPE:SUPPORT-INTERFACE
G1 F2400 E134.87945
G1 F1200 X127.451 Y107.101 E134.89281
G1 X127.559 Y106.566 E134.90642
G1 X127.638 Y106.004 E134.92058
G1 X127.684 Y105.38 E134.93618
G1 X127.69 Y104.84 E134.94966
G1 X127.665 Y104.304 E134.96304
G1 X127.604 Y103.735 E134.97732
G1 X127.508 Y103.171 E134.99159
G1 X127.386 Y102.643 E135.00511
G1 X127.224 Y102.09 E135.01948
G1 X127.199 Y102.021 E135.02131
G1 X127.199 Y107.974 E135.16981
G1 X127.13 Y108.185 E135.17535
G1 X126.934 Y108.677 E135.18856
G1 X126.68 Y109.215 E135.2034
G1 X126.599 Y109.363 E135.20761
G1 X126.599 Y100.631 E135.42543
G1 X126.567 Y100.567 E135.42721
G1 X126.256 Y100.036 E135.44256
G1 X125.999 Y99.656 E135.45401
G1 X125.999 Y110.341 E135.72055
G1 X125.78 Y110.646 E135.72991
G1 X125.436 Y111.064 E135.74342
G1 X125.399 Y111.105 E135.74479
G1 X125.399 Y98.895 E136.04937
G1 X125.239 Y98.71 E136.05547
G1 X124.833 Y98.295 E136.06996
