;FLAVOR:Marlin
;TIME:2630
;Filament used: 0.581049m
;Layer height: 0.1
;MINX:62.338
;MINY:75.214
;MINZ:0.36
;MAXX:148.562
;MAXY:135.682
;MAXZ:9.86
;Generated with Cura_SteamEngine 4.8.0
M140 S60
M105
M190 S60
M104 S200
M105
M109 S200
M82 ;absolute extrusion mode
140 S60
M105
M190 S60
M104 S200
M105
M109 S200
M82 ;absolute extrusion mode
G28
G29
M501
G92 E0 ;zero the extruded length
G1 F200 E3 ;extrude 3mm of feed stock
G92 E0 ;zero the extruded length again
G1 F100
M117 Printing...
G92 E0
G92 E0
;LAYER_COUNT:88
;LAYER:-9
M107
G0 F7200 X70.432 Y81.149 Z0.36
;TYPE:SUPPORT-INTERFACE
G1 F1350 X71.241 Y80.472 E0.04762
G1 X71.61 Y80.183 E0.06878
G1 X71.704 Y80.112 E0.0741
G1 X72.476 Y79.55 E0.11721
G1 X73.005 Y79.194 E0.146
G1 X73.88 Y78.648 E0.19256
G1 X74.33 Y78.388 E0.21602
G1 X75.209 Y77.919 E0.261
G1 X75.325 Y77.86 E0.26687
G1 X75.849 Y77.606 E0.29316
G1 X76.695 Y77.229 E0.33498
G1 X77.216 Y77.017 E0.36037
G1 X77.321 Y76.976 E0.36546
G1 X78.202 Y76.654 E0.40781
G1 X78.746 Y76.475 E0.43366
G1 X79.781 Y76.177 E0.48228
G1 X79.853 Y76.157 E0.48566
G1 X80.38 Y76.027 E0.51016
G1 X81.352 Y75.82 E0.55503
G1 X81.865 Y75.728 E0.57856
G1 X81.982 Y75.709 E0.58391
G1 X83.031 Y75.563 E0.63172
G1 X83.545 Y75.508 E0.65506
G1 X84.591 Y75.435 E0.7024
G1 X85.193 Y75.415 E0.72959
G1 X86.213 Y75.415 E0.77564
G1 X86.696 Y75.43 E0.79745
G1 X87.733 Y75.501 E0.84438
G1 X87.874 Y75.513 E0.85077
G1 X88.389 Y75.567 E0.87414
G1 X89.386 Y75.706 E0.91959
G1 X89.988 Y75.812 E0.94718
G1 X91.01 Y76.028 E0.99434
G1 X91.603 Y76.178 E1.02196
G1 X92.511 Y76.438 E1.0646
G1 X93.028 Y76.603 E1.0891
G1 X93.152 Y76.646 E1.09502
G1 X94.006 Y76.956 E1.13604
G1 X94.134 Y77.004 E1.14221
G1 X94.601 Y77.193 E1.16495
G1 X95.568 Y77.622 E1.21271
G1 X96.111 Y77.887 E1.23999
G1 X97.013 Y78.367 E1.28612
G1 X97.517 Y78.657 E1.31237
G1 X98.344 Y79.174 E1.3564
G1 X98.835 Y79.503 E1.38308
G1 X99.67 Y80.106 E1.42958
G1 X99.943 Y80.318 E1.44518
G1 X100.496 Y80.696 E1.47542
G1 X101.104 Y81.007 E1.50625
G1 X101.746 Y81.238 E1.53706
G1 X102.412 Y81.387 E1.56787
G1 X103.091 Y81.45 E1.59865
G1 X103.631 Y81.439 E1.62304
G1 X103.92 Y81.42 E1.63611
G1 X104.505 Y81.401 E1.66253
G1 X105.52 Y81.401 E1.70836
G1 X106.152 Y81.424 E1.73691
G1 X107.211 Y81.5 E1.78484
G1 X107.821 Y81.566 E1.81254
G1 X108.712 Y81.691 E1.85316
G1 X108.857 Y81.714 E1.85978
G1 X109.416 Y81.813 E1.88541
G1 X110.439 Y82.031 E1.93263
G1 X110.994 Y82.17 E1.95846
G1 X111.923 Y82.435 E2.00208
G1 X112.508 Y82.622 E2.0298
G1 X113.51 Y82.983 E2.07789
G1 X114.049 Y83.2 E2.10412
G1 X114.142 Y83.239 E2.10867
G1 X115.081 Y83.657 E2.15507
G1 X115.62 Y83.92 E2.18215
G1 X116.507 Y84.392 E2.22751
G1 X116.59 Y84.438 E2.23179
G1 X117.099 Y84.733 E2.25835
G1 X117.866 Y85.212 E2.29918
G1 X117.978 Y85.285 E2.30521
G1 X118.459 Y85.61 E2.33142
G1 X119.296 Y86.217 E2.37809
G1 X119.397 Y86.296 E2.38388
G1 X119.951 Y86.673 E2.41414
G1 X120.56 Y86.983 E2.44499
G1 X121.203 Y87.213 E2.47582
G1 X121.869 Y87.361 E2.50662
G1 X122.547 Y87.422 E2.53735
G1 X123.054 Y87.413 E2.56024
G1 X123.153 Y87.406 E2.56472
G1 X123.818 Y87.384 E2.59476
G1 X124.829 Y87.384 E2.6404
G1 X125.51 Y87.409 E2.67117
G1 X126.534 Y87.482 E2.71751
G1 X127.147 Y87.546 E2.74534
G1 X128.129 Y87.683 E2.7901
G1 X128.758 Y87.793 E2.81893
G1 X129.772 Y88.008 E2.86572
G1 X129.843 Y88.024 E2.86901
G1 X130.494 Y88.188 E2.89931
G1 X131.469 Y88.47 E2.94514
G1 X131.979 Y88.634 E2.96932
G1 X133.034 Y89.017 E3.01999
G1 X133.622 Y89.254 E3.04861
G1 X134.49 Y89.641 E3.09152
G1 X135.131 Y89.95 E3.12364
G1 X136.03 Y90.427 E3.16959
G1 X136.662 Y90.794 E3.20258
G1 X137.419 Y91.267 E3.24288
G1 X137.952 Y91.624 E3.27184
G1 X138.053 Y91.694 E3.27739
G1 X138.855 Y92.276 E3.32212
G1 X139.372 Y92.68 E3.35174
G1 X140.161 Y93.34 E3.39818
G1 X140.558 Y93.696 E3.42225
G1 X140.651 Y93.782 E3.42797
G1 X141.313 Y94.42 E3.46948
G1 X141.434 Y94.541 E3.47721
G1 X141.776 Y94.895 E3.49943
G1 X141.866 Y94.991 E3.50537
G1 X142.543 Y95.743 E3.55105
G1 X142.952 Y96.232 E3.57983
G1 X143.559 Y97.008 E3.6243
G1 X143.952 Y97.549 E3.65449
G1 X144.513 Y98.378 E3.69968
G1 X144.551 Y98.435 E3.70277
G1 X144.844 Y98.905 E3.72778
G1 X144.901 Y98.999 E3.73274
G1 X145.394 Y99.854 E3.7773
G1 X145.687 Y100.403 E3.80539
G1 X146.111 Y101.269 E3.84892
G1 X146.166 Y101.387 E3.8548
G1 X146.409 Y101.934 E3.88182
G1 X146.811 Y102.929 E3.93027
G1 X147.034 Y103.547 E3.95993
G1 X147.33 Y104.453 E4.00296
G1 X147.515 Y105.098 E4.03325
G1 X147.768 Y106.11 E4.08034
G1 X147.898 Y106.718 E4.10841
G1 X148.071 Y107.697 E4.15329
G1 X148.091 Y107.822 E4.15901
G1 X148.176 Y108.436 E4.18699
G1 X148.279 Y109.41 E4.23121
G1 X148.326 Y110.073 E4.26122
G1 X148.362 Y111.107 E4.30792
G1 X148.361 Y111.772 E4.33795
G1 X148.33 Y112.712 E4.38041
G1 X148.289 Y113.316 E4.40774
G1 X148.278 Y113.448 E4.41372
G1 X148.185 Y114.348 E4.45456
G1 X148.166 Y114.507 E4.46179
G1 X148.082 Y115.1 E4.48883
G1 X147.915 Y116.056 E4.53264
G1 X147.786 Y116.671 E4.56101
G1 X147.763 Y116.772 E4.56569
G1 X147.513 Y117.776 E4.6124
G1 X147.364 Y118.293 E4.63669
G1 X147.319 Y118.445 E4.64385
G1 X147.05 Y119.271 E4.68306
G1 X147.008 Y119.396 E4.68902
G1 X146.795 Y119.978 E4.717
G1 X146.436 Y120.868 E4.76032
G1 X146.387 Y120.985 E4.76605
G1 X146.139 Y121.539 E4.79345
G1 X145.73 Y122.377 E4.83555
G1 X145.443 Y122.92 E4.86327
G1 X145.387 Y123.022 E4.86853
G1 X144.885 Y123.896 E4.91403
G1 X144.504 Y124.503 E4.94638
G1 X143.941 Y125.334 E4.9917
G1 X143.565 Y125.85 E5.02052
G1 X142.921 Y126.673 E5.0677
G1 X142.489 Y127.184 E5.09791
G1 X141.851 Y127.892 E5.14093
G1 X141.458 Y128.3 E5.16651
G1 X141.353 Y128.405 E5.17321
G1 X140.692 Y129.044 E5.21472
G1 X140.587 Y129.143 E5.22123
G1 X140.144 Y129.54 E5.24809
G1 X139.395 Y130.168 E5.29221
G1 X138.916 Y130.544 E5.31971
G1 X138.814 Y130.621 E5.32547
G1 X138.018 Y131.199 E5.36989
G1 X137.55 Y131.515 E5.39538
G1 X137.476 Y131.564 E5.39939
G1 X136.653 Y132.079 E5.44321
G1 X136.112 Y132.393 E5.47145
G1 X136.029 Y132.439 E5.47574
G1 X135.115 Y132.924 E5.52245
G1 X134.511 Y133.216 E5.55274
G1 X133.708 Y133.574 E5.59243
G1 X133.586 Y133.626 E5.59842
G1 X133.059 Y133.84 E5.62409
G1 X132.089 Y134.194 E5.67071
G1 X132.005 Y134.223 E5.67472
G1 X131.398 Y134.418 E5.7035
G1 X130.506 Y134.674 E5.7454
G1 X130.353 Y134.715 E5.75255
G1 X129.789 Y134.854 E5.77877
G1 X128.889 Y135.047 E5.82033
G1 X128.237 Y135.164 E5.85023
G1 X127.216 Y135.31 E5.8968
G1 X127.098 Y135.325 E5.90217
G1 X126.501 Y135.388 E5.92927
G1 X125.467 Y135.46 E5.97606
G1 X124.803 Y135.482 E6.00605
G1 X123.779 Y135.481 E6.05228
G1 X123.134 Y135.458 E6.08142
G1 X122.1 Y135.386 E6.12821
G1 X121.467 Y135.318 E6.15695
G1 X120.43 Y135.172 E6.20423
G1 X119.765 Y135.053 E6.23473
G1 X118.883 Y134.865 E6.27544
G1 X118.752 Y134.835 E6.28151
G1 X118.139 Y134.68 E6.31006
G1 X117.218 Y134.418 E6.35328
G1 X116.57 Y134.208 E6.38404
G1 X115.581 Y133.848 E6.43155
G1 X114.975 Y133.602 E6.46108
G1 X114.037 Y133.183 E6.50746
G1 X113.488 Y132.915 E6.53504
G1 X112.578 Y132.433 E6.58153
G1 X112.05 Y132.127 E6.60908
G1 X111.956 Y132.071 E6.61402
G1 X111.194 Y131.595 E6.65458
G1 X110.65 Y131.23 E6.68415
G1 X110.559 Y131.167 E6.68915
G1 X109.764 Y130.59 E6.7335
G1 X109.299 Y130.228 E6.7601
G1 X108.841 Y129.847 E6.787
G1 X108.301 Y129.45 E6.81725
G1 X107.704 Y129.12 E6.84805
G1 X107.07 Y128.866 E6.87888
G1 X106.409 Y128.695 E6.90971
G1 X105.738 Y128.61 E6.94024
G1 X105.388 Y128.599 E6.95605
G1 X104.48 Y128.599 E6.99704
G1 X103.848 Y128.576 E7.02559
G1 X102.789 Y128.5 E7.07352
G1 X102.177 Y128.434 E7.10131
G1 X101.287 Y128.309 E7.14189
G1 X101.137 Y128.285 E7.14874
G1 X100.579 Y128.186 E7.17433
G1 X99.562 Y127.969 E7.22127
G1 X98.997 Y127.828 E7.24756
G1 X98.077 Y127.565 E7.29076
G1 X97.492 Y127.378 E7.31849
G1 X96.49 Y127.017 E7.36657
G1 X95.944 Y126.798 E7.39313
G1 X94.971 Y126.367 E7.44117
G1 X94.387 Y126.084 E7.47047
G1 X93.489 Y125.606 E7.51639
G1 X92.957 Y125.3 E7.5441
G1 X92.893 Y125.262 E7.54746
G1 X92.128 Y124.784 E7.58819
G1 X92.022 Y124.715 E7.5939
G1 X91.535 Y124.386 E7.62043
G1 X90.703 Y123.782 E7.66684
G1 X90.265 Y123.441 E7.6919
G1 X89.695 Y122.963 E7.72549
G1 X89.154 Y122.567 E7.75575
G1 X88.557 Y122.235 E7.78659
G1 X87.923 Y121.981 E7.81743
G1 X87.263 Y121.81 E7.84821
G1 X86.592 Y121.724 E7.87875
G1 X86.223 Y121.713 E7.89541
G1 X85.17 Y121.713 E7.94295
G1 X84.684 Y121.697 E7.9649
G1 X84.558 Y121.69 E7.9706
G1 X83.547 Y121.62 E8.01635
G1 X82.979 Y121.559 E8.04214
G1 X81.914 Y121.408 E8.0907
G1 X81.447 Y121.325 E8.11212
G1 X81.319 Y121.301 E8.11799
G1 X80.374 Y121.1 E8.16161
G1 X79.78 Y120.95 E8.18927
G1 X78.872 Y120.69 E8.23191
G1 X78.349 Y120.523 E8.25669
G1 X78.225 Y120.48 E8.26262
G1 X77.364 Y120.167 E8.30398
G1 X77.249 Y120.124 E8.30952
G1 X76.703 Y119.901 E8.33615
G1 X75.792 Y119.495 E8.38117
G1 X75.235 Y119.222 E8.40918
G1 X74.377 Y118.765 E8.45306
G1 X73.899 Y118.489 E8.47798
G1 X73.809 Y118.435 E8.48272
G1 X73.067 Y117.972 E8.52221
G1 X72.936 Y117.886 E8.52928
G1 X72.485 Y117.581 E8.55386
G1 X71.68 Y116.998 E8.59873
G1 X71.213 Y116.632 E8.62552
G1 X70.476 Y116.016 E8.66888
G1 X70.058 Y115.643 E8.69417
G1 X69.963 Y115.555 E8.70002
G1 X69.308 Y114.924 E8.74108
G1 X69.195 Y114.811 E8.74829
G1 X68.83 Y114.433 E8.77202
G1 X68.126 Y113.651 E8.81952
G1 X67.79 Y113.251 E8.8431
G1 X67.145 Y112.427 E8.89034
G1 X66.82 Y111.982 E8.91522
G1 X66.24 Y111.123 E8.96201
G1 X66.171 Y111.017 E8.96772
G1 X65.891 Y110.568 E8.99161
G1 X65.429 Y109.768 E9.03332
G1 X65.364 Y109.651 E9.03936
G1 X65.116 Y109.184 E9.06323
G1 X64.65 Y108.227 E9.11128
G1 X64.439 Y107.755 E9.13462
G1 X64.045 Y106.785 E9.18189
G1 X63.843 Y106.231 E9.20851
G1 X63.814 Y106.148 E9.21248
G1 X63.55 Y105.336 E9.25103
G1 X63.502 Y105.18 E9.2584
G1 X63.372 Y104.727 E9.27967
G1 X63.129 Y103.765 E9.32447
G1 X63.09 Y103.6 E9.33212
G1 X62.98 Y103.076 E9.35629
G1 X62.814 Y102.131 E9.39961
G1 X62.795 Y102.011 E9.40509
G1 X62.73 Y101.549 E9.42616
G1 X62.621 Y100.541 E9.47193
G1 X62.576 Y99.91 E9.50049
G1 X62.539 Y98.872 E9.54738
G1 X62.54 Y98.254 E9.57528
G1 X62.575 Y97.262 E9.62009
G1 X62.608 Y96.772 E9.64226
G1 X62.619 Y96.637 E9.64837
G1 X62.722 Y95.636 E9.6938
G1 X62.797 Y95.096 E9.71842
G1 X62.979 Y94.052 E9.76626
G1 X63.1 Y93.482 E9.79257
G1 X63.359 Y92.446 E9.84078
G1 X63.497 Y91.969 E9.86319
G1 X63.546 Y91.805 E9.87092
G1 X63.81 Y90.994 E9.90942
G1 X63.855 Y90.864 E9.91563
G1 X64.041 Y90.354 E9.94014
G1 X64.427 Y89.4 E9.9866
G1 X64.647 Y88.907 E10.01097
G1 X65.106 Y87.96 E10.05848
G1 X65.353 Y87.495 E10.08225
G1 X65.412 Y87.389 E10.08773
G1 X65.889 Y86.562 E10.13083
G1 X66.162 Y86.125 E10.15409
G1 X66.239 Y86.006 E10.16049
G1 X66.746 Y85.254 E10.20144
G1 X66.822 Y85.145 E10.20744
G1 X67.084 Y84.784 E10.22757
G1 X67.174 Y84.664 E10.23434
G1 X67.746 Y83.932 E10.27628
G1 X68.115 Y83.491 E10.30224
G1 X68.165 Y83.433 E10.3057
G1 X68.825 Y82.7 E10.35023
G1 X69.172 Y82.34 E10.3728
G1 X69.292 Y82.22 E10.38046
G1 X69.987 Y81.55 E10.42405
G1 X70.432 Y81.149 E10.45109
G0 F7200 X70.4 Y81.177
G1 F1350 X70.4 Y115.948 E12.02084
G0 F7200 X72 Y117.229
G1 F1350 X72 Y79.896 E13.70625
G0 F7200 X73.6 Y78.822
G1 F1350 X73.6 Y118.304 E15.48868
G0 F7200 X75.2 Y119.203
G1 F1350 X75.2 Y77.923 E17.35228
G0 F7200 X76.8 Y77.186
G1 F1350 X76.8 Y119.94 E19.28242
G0 F7200 X78.4 Y120.539
G1 F1350 X78.4 Y76.588 E21.2666
G0 F7200 X80 Y76.12
G1 F1350 X80 Y121.005 E23.29295
G0 F7200 X81.6 Y121.352
G1 F1350 X81.6 Y75.775 E25.35054
G0 F7200 X83.2 Y75.544
G1 F1350 X83.2 Y121.582 E27.42894
G0 F7200 X84.8 Y121.7
G1 F1350 X84.8 Y75.428 E29.51791
G0 F7200 X86.4 Y75.421
G1 F1350 X86.4 Y121.718 E31.608
G0 F7200 X88 Y122.011
G1 F1350 X88 Y75.527 E33.70653
G0 F7200 X89.6 Y75.744
G1 F1350 X89.6 Y122.893 E35.83509
G0 F7200 X91.2 Y124.142
G1 F1350 X91.2 Y76.077 E38.005
G0 F7200 X92.8 Y76.531
G1 F1350 X92.8 Y125.203 E40.20232
G0 F7200 X94.4 Y126.09
G1 F1350 X94.4 Y77.112 E42.41344
G0 F7200 X96 Y77.833
G1 F1350 X96 Y126.82 E44.62498
G0 F7200 X97.6 Y127.412
G1 F1350 X97.6 Y78.709 E46.82369
G0 F7200 X99.2 Y79.767
G1 F1350 X99.2 Y127.878 E48.99568
G0 F7200 X100.8 Y128.225
G1 F1350 X100.8 Y80.852 E51.13435
G0 F7200 X102.4 Y81.385
G1 F1350 X102.4 Y128.458 E53.25948
G0 F7200 X104 Y128.581
G1 F1350 X104 Y81.417 E55.38871
G0 F7200 X105.6 Y81.404
G1 F1350 X105.6 Y128.605 E57.51962
G0 F7200 X107.2 Y128.918
G1 F1350 X107.2 Y81.5 E59.66032
G0 F7200 X108.8 Y81.705
G1 F1350 X108.8 Y129.816 E61.8323
G0 F7200 X110.4 Y131.051
G1 F1350 X110.4 Y82.023 E64.04569
G0 F7200 X112 Y82.46
G1 F1350 X112 Y132.097 E66.28657
G0 F7200 X113.6 Y132.969
G1 F1350 X113.6 Y83.02 E68.54153
G0 F7200 X115.2 Y83.716
G1 F1350 X115.2 Y133.693 E70.79776
G0 F7200 X116.8 Y134.282
G1 F1350 X116.8 Y84.56 E73.04248
G0 F7200 X118.4 Y85.571
G1 F1350 X118.4 Y134.745 E75.26245
G0 F7200 X120 Y135.095
G1 F1350 X120 Y86.698 E77.44735
G0 F7200 X121.6 Y87.302
G1 F1350 X121.6 Y135.332 E79.61568
G0 F7200 X123.2 Y135.46
G1 F1350 X123.2 Y87.404 E81.78519
G0 F7200 X124.8 Y87.384
G1 F1350 X124.8 Y135.481 E83.95654
G0 F7200 X126.4 Y135.396
G1 F1350 X126.4 Y87.473 E86.12004
G0 F7200 X128 Y87.666
G1 F1350 X128 Y135.198 E88.26589
G0 F7200 X129.6 Y134.895
G1 F1350 X129.6 Y87.972 E90.38425
G0 F7200 X131.2 Y88.393
G1 F1350 X131.2 Y134.475 E92.46463
G0 F7200 X132.8 Y133.935
G1 F1350 X132.8 Y88.933 E94.49626
G0 F7200 X134.4 Y89.601
G1 F1350 X134.4 Y133.266 E96.46753
G0 F7200 X136 Y132.455
G1 F1350 X136 Y90.412 E98.36558
G0 F7200 X137.6 Y91.389
G1 F1350 X137.6 Y131.482 E100.17559
G0 F7200 X139.2 Y130.322
G1 F1350 X139.2 Y92.546 E101.881
G0 F7200 X140.8 Y93.926
G1 F1350 X140.8 Y128.94 E103.46172
G0 F7200 X142.4 Y127.283
G1 F1350 X142.4 Y95.585 E104.89274
G0 F7200 X144 Y97.62
G1 F1350 X144 Y125.247 E106.13997
G0 F7200 X145.6 Y122.623
G1 F1350 X145.6 Y100.24 E107.15046
G0 F7200 X147.2 Y104.056
G1 F1350 X147.2 Y118.811 E107.81658
G0 F7200 X68.8 Y114.399
G1 F1350 X68.8 Y82.727 E109.24642
G0 F7200 X67.2 Y84.63
G1 F1350 X67.2 Y112.497 E110.50448
G0 F7200 X65.6 Y110.064
G1 F1350 X65.6 Y87.063 E111.54287
G0 F7200 X64 Y90.466
G1 F1350 X64 Y106.661 E112.274
G0 F600 X64 Y106.661 Z0.51
G0 F7200 X67.144 Y112.426
;TIME_ELAPSED:114.332551
;LAYER:-8
;TYPE:SUPPORT
G1 F1350 X67.79 Y113.25 E112.2937
G1 X68.125 Y113.65 E112.30351
G1 X68.829 Y114.432 E112.3233
G1 X69.194 Y114.81 E112.33319
G1 X69.307 Y114.923 E112.33619
G1 X69.963 Y115.554 E112.35331
G1 X70.058 Y115.642 E112.35575
G1 X70.475 Y116.015 E112.36627
G1 X71.212 Y116.631 E112.38434
G1 X71.68 Y116.997 E112.39552
G1 X71.904 Y117.159 E112.40072
G1 X67.071 Y112.326 E112.52929
G1 X66.82 Y111.981 E112.53731
G1 X66.239 Y111.122 E112.55682
G1 X66.171 Y111.015 E112.5592
G1 X65.891 Y110.567 E112.56914
G1 X65.428 Y109.767 E112.58653
G1 X65.364 Y109.65 E112.58904
G1 X65.116 Y109.182 E112.599
G1 X64.901 Y108.741 E112.60823
G1 X75.519 Y119.36 E112.8907
G1 X75.791 Y119.493 E112.8964
G1 X76.703 Y119.9 E112.91519
G1 X77.248 Y120.123 E112.92626
G1 X77.363 Y120.166 E112.92857
G1 X77.954 Y120.38 E112.9404
G1 X63.865 Y106.292 E113.31518
G1 X63.843 Y106.23 E113.31642
G1 X63.814 Y106.147 E113.31807
G1 X63.549 Y105.335 E113.33414
G1 X63.502 Y105.179 E113.3372
G1 X63.371 Y104.726 E113.34607
G1 X63.255 Y104.267 E113.35498
G1 X79.989 Y121.001 E113.80014
G1 X80.373 Y121.099 E113.80759
G1 X81.318 Y121.299 E113.82576
G1 X81.446 Y121.324 E113.82822
G1 X81.786 Y121.384 E113.83471
G1 X62.873 Y102.471 E114.33784
G1 X62.813 Y102.13 E114.34435
G1 X62.795 Y102.01 E114.34663
G1 X62.729 Y101.548 E114.35541
G1 X62.652 Y100.836 E114.36888
G1 X83.421 Y121.605 E114.92138
G1 X83.546 Y121.618 E114.92375
G1 X84.557 Y121.689 E114.94281
G1 X84.683 Y121.696 E114.94518
G1 X84.934 Y121.704 E114.94991
G1 X62.554 Y99.323 E115.54528
G1 X62.538 Y98.871 E115.55379
G1 X62.54 Y98.253 E115.56541
G1 X62.552 Y97.907 E115.57192
G1 X86.361 Y121.716 E116.20529
G1 X86.591 Y121.723 E116.20962
G1 X87.262 Y121.809 E116.22235
G1 X87.923 Y121.98 E116.23519
G1 X88.116 Y122.057 E116.2391
G1 X62.625 Y96.566 E116.91721
G1 X62.722 Y95.635 E116.93482
G1 X62.769 Y95.296 E116.94126
G1 X92.47 Y124.997 E117.73137
G1 X92.892 Y125.261 E117.74073
G1 X92.957 Y125.299 E117.74215
G1 X93.488 Y125.605 E117.75368
G1 X94.386 Y126.083 E117.77281
G1 X94.97 Y126.366 E117.78502
G1 X95.478 Y126.591 E117.79547
