;FLAVOR:Marlin
;TIME:1593
;Filament used: 1.42032m, 0m, 0m, 0m
;Layer height: 0.25
;MINX:17.109
;MINY:82.828
;MINZ:0.2
;MAXX:192.891
;MAXY:127.162
;MAXZ:1.95
;Generated with Cura_SteamEngine 4.3.0
T0
M140 S60
M105
M190 S60
M104 S215
M105
M109 S215
M82 ;absolute extrusion mode
G21 ;metric values
G90 ;absolute positioning
M82 ;set extruder to absolute mode
M107 ;start with the fan off
G28 X0 Y0 ;move X/Y to min endstops
G28 Z0 ;move Z to min endstops
G1 Z15.0 F100 ;move the platform down 15mm
G92 E0 ;zero the extruded length
G1 F200 E3 ;extrude 3mm of feed stock
G92 E0 ;zero the extruded length again
G1 F100
M117 Printing...
G5
G92 E0
G92 E0
G1 F2400 E-4
;LAYER_COUNT:8
;LAYER:0
M106 S255
M204 S3000
M205 X10 Y10
G1 F600 Z0.275
G0 F2666.7 X23.694 Y88.001 Z0.275
M204 S1800
M205 X8 Y8
;TYPE:SKIRT
G1 F600 Z0.2
G1 F2400 E0
G1 F1800 X24.406 Y87.812 E0.0343
G1 X25.106 Y87.668 E0.06758
G1 X25.553 Y87.617 E0.08853
G1 X26.036 Y87.58 E0.11108
G1 X28.723 Y87.336 E0.23672
G1 X31.354 Y87.023 E0.36009
G1 X33.946 Y86.641 E0.48209
G1 X36.807 Y86.132 E0.6174
G1 X37.416 Y86.053 E0.646
G1 X38.052 Y86.002 E0.67571
G1 X40.696 Y85.759 E0.79934
G1 X43.325 Y85.442 E0.92265
G1 X45.948 Y85.05 E1.04614
G1 X47.306 Y84.803 E1.11041
G1 X47.385 Y84.789 E1.11415
G1 X48.784 Y84.553 E1.18021
G1 X49.26 Y84.491 E1.20256
G1 X50.072 Y84.416 E1.24053
G1 X50.161 Y84.409 E1.24469
G1 X51.315 Y84.319 E1.29859
G1 X53.969 Y84.035 E1.42288
G1 X56.595 Y83.679 E1.54627
G1 X59.187 Y83.253 E1.66859
G1 X59.572 Y83.179 E1.68684
G1 X59.667 Y83.162 E1.69134
G1 X60.662 Y82.986 E1.73839
G1 X61.56 Y82.892 E1.78043
G1 X61.796 Y82.884 E1.79142
G1 X62.102 Y82.881 E1.80567
G1 X62.603 Y82.888 E1.829
G1 X63.137 Y82.917 E1.85391
G1 X64.21 Y83.022 E1.90411
G1 X64.308 Y83.033 E1.9087
G1 X64.886 Y83.099 E1.93579
G1 X67.531 Y83.324 E2.0594
G1 X70.204 Y83.475 E2.18406
G1 X72.81 Y83.549 E2.30546
G1 X75.489 Y83.549 E2.4302
G1 X78.095 Y83.475 E2.5516
G1 X80.751 Y83.325 E2.67547
G1 X84.736 Y82.958 E2.86181
G1 X85.317 Y82.893 E2.88903
G1 X85.895 Y82.854 E2.91601
G1 X87.069 Y82.829 E2.97069
G1 X87.205 Y82.828 E2.97702
G1 X123.129 Y82.828 E4.64979
G1 X123.221 Y82.829 E4.65408
G1 X123.919 Y82.839 E4.68658
G1 X124.451 Y82.869 E4.71139
G1 X125.349 Y82.957 E4.75341
G1 X125.412 Y82.963 E4.75636
G1 X127.133 Y83.149 E4.83696
G1 X129.771 Y83.358 E4.96018
G1 X132.444 Y83.495 E5.08481
G1 X135.052 Y83.554 E5.20628
G1 X137.73 Y83.539 E5.33098
G1 X140.335 Y83.451 E5.45235
G1 X143.015 Y83.284 E5.57738
G1 X145.662 Y83.044 E5.70115
G1 X146.625 Y82.936 E5.74627
G1 X147.013 Y82.904 E5.7644
G1 X147.326 Y82.888 E5.77899
G1 X147.74 Y82.881 E5.79827
G1 X148.257 Y82.888 E5.82235
G1 X148.97 Y82.937 E5.85562
G1 X149.336 Y82.994 E5.87287
G1 X149.92 Y83.102 E5.90053
G1 X152.563 Y83.555 E6.02539
G1 X155.192 Y83.93 E6.14905
G1 X157.81 Y84.227 E6.27173
G1 X159.244 Y84.349 E6.33875
G1 X159.273 Y84.352 E6.34011
G1 X160.657 Y84.476 E6.40481
G1 X161.149 Y84.539 E6.42791
G1 X161.873 Y84.661 E6.46209
G1 X161.987 Y84.681 E6.46748
G1 X163.243 Y84.916 E6.52698
G1 X165.838 Y85.327 E6.64932
G1 X168.454 Y85.664 E6.77214
G1 X171.129 Y85.932 E6.89732
G1 X172.463 Y86.037 E6.95963
G1 X173.133 Y86.125 E6.9911
G1 X173.766 Y86.243 E7.02108
G1 X176.377 Y86.69 E7.14443
G1 X179.019 Y87.066 E7.26869
G1 X181.626 Y87.362 E7.39086
G1 X183 Y87.47 E7.45504
G1 X183.111 Y87.479 E7.46023
G1 X184.494 Y87.612 E7.52492
G1 X185.206 Y87.722 E7.55847
G1 X185.447 Y87.773 E7.56994
G1 X185.857 Y87.874 E7.5896
G1 X186.347 Y88.012 E7.61331
G1 X187.024 Y88.244 E7.64663
G1 X187.576 Y88.5 E7.67496
G1 X187.863 Y88.65 E7.69004
G1 X188.113 Y88.788 E7.70334
G1 X188.497 Y89.011 E7.72402
G1 X189.095 Y89.404 E7.75734
G1 X189.661 Y89.877 E7.79168
G1 X190.079 Y90.269 E7.81837
G1 X190.239 Y90.424 E7.82874
G1 X190.423 Y90.609 E7.84089
G1 X190.898 Y91.143 E7.87417
G1 X191.305 Y91.719 E7.90701
G1 X191.44 Y91.934 E7.91883
G1 X191.612 Y92.224 E7.93453
G1 X191.838 Y92.63 E7.95617
G1 X192.274 Y93.594 E8.00543
G1 X192.346 Y93.796 E8.01542
G1 X192.496 Y94.275 E8.03879
G1 X192.662 Y94.889 E8.06841
G1 X192.81 Y95.589 E8.10172
G1 X192.881 Y96.348 E8.13722
G1 X192.889 Y96.591 E8.14854
G1 X192.891 Y96.889 E8.16242
G1 X192.886 Y97.256 E8.17951
G1 X192.852 Y97.842 E8.20684
G1 X192.731 Y98.987 E8.26045
G1 X192.714 Y99.13 E8.26716
G1 X192.682 Y99.379 E8.27885
G1 X192.679 Y99.398 E8.27974
G1 X190.19 Y118.306 E9.16777
G1 X190.178 Y118.395 E9.17196
G1 X190.073 Y119.115 E9.20584
G1 X189.97 Y119.655 E9.23144
G1 X189.915 Y119.889 E9.24263
G1 X189.846 Y120.158 E9.25556
G1 X189.709 Y120.645 E9.27912
G1 X189.477 Y121.322 E9.31244
G1 X189.152 Y122.003 E9.34758
G1 X188.901 Y122.458 E9.37177
G1 X188.796 Y122.64 E9.38156
G1 X188.671 Y122.85 E9.39294
G1 X188.272 Y123.444 E9.42626
G1 X187.889 Y123.903 E9.45409
G1 X187.701 Y124.108 E9.46704
G1 X187.509 Y124.307 E9.47992
G1 X187.165 Y124.651 E9.50257
G1 X186.632 Y125.128 E9.53588
G1 X186.008 Y125.568 E9.57143
G1 X185.562 Y125.844 E9.59586
G1 X185.389 Y125.948 E9.60525
G1 X185.113 Y126.107 E9.62009
G1 X184.474 Y126.428 E9.65338
G1 X183.715 Y126.704 E9.69099
G1 X183.462 Y126.778 E9.70327
G1 X183.22 Y126.843 E9.71493
G1 X182.757 Y126.959 E9.73716
G1 X182.055 Y127.094 E9.77045
G1 X181.517 Y127.143 E9.7956
G1 X181.294 Y127.154 E9.806
G1 X180.979 Y127.162 E9.82067
G1 X180.429 Y127.162 E9.84628
G1 X179.715 Y127.122 E9.87958
G1 X179.35 Y127.07 E9.89675
G1 X178.52 Y126.928 E9.93596
G1 X178.434 Y126.913 E9.94002
G1 X177.267 Y126.697 E9.99528
G1 X174.664 Y126.29 E10.11796
G1 X172.018 Y125.953 E10.24217
G1 X169.375 Y125.692 E10.36584
G1 X169.151 Y125.676 E10.37629
G1 X169.066 Y125.67 E10.38026
G1 X167.971 Y125.576 E10.43144
G1 X167.453 Y125.51 E10.45575
G1 X166.724 Y125.387 E10.49018
G1 X166.612 Y125.367 E10.49547
G1 X165.361 Y125.133 E10.55474
G1 X162.766 Y124.722 E10.67708
G1 X160.15 Y124.385 E10.79989
G1 X157.475 Y124.117 E10.92508
G1 X156.141 Y124.012 E10.98739
G1 X155.471 Y123.924 E11.01885
G1 X154.768 Y123.793 E11.05215
G1 X152.157 Y123.346 E11.1755
G1 X149.515 Y122.97 E11.29976
G1 X146.895 Y122.673 E11.42254
G1 X144.195 Y122.443 E11.54872
G1 X143.234 Y122.287 E11.59405
G1 X142.729 Y122.165 E11.61824
G1 X142.503 Y122.106 E11.62912
G1 X142.25 Y122.035 E11.64136
G1 X141.648 Y121.833 E11.67092
G1 X139.313 Y120.92 E11.78767
G1 X136.766 Y120.003 E11.91372
G1 X134.305 Y119.195 E12.03433
G1 X131.729 Y118.429 E12.15947
G1 X129.173 Y117.747 E12.28265
G1 X126.605 Y117.139 E12.40554
G1 X123.988 Y116.596 E12.52999
G1 X121.405 Y116.139 E12.65213
G1 X118.791 Y115.751 E12.77519
G1 X116.187 Y115.438 E12.89731
G1 X113.494 Y115.192 E13.02323
G1 X110.889 Y115.029 E13.14477
G1 X108.248 Y114.938 E13.26782
G1 X106.204 Y114.918 E13.363
G1 X103.628 Y114.92 E13.48295
G1 X100.966 Y114.96 E13.60692
G1 X98.325 Y115.074 E13.73001
G1 X95.657 Y115.265 E13.85456
G1 X93.054 Y115.525 E13.97637
G1 X90.398 Y115.867 E14.10106
G1 X87.783 Y116.279 E14.22433
G1 X85.196 Y116.762 E14.34687
G1 X82.63 Y117.317 E14.46912
G1 X80.053 Y117.951 E14.59269
G1 X77.468 Y118.663 E14.71754
G1 X74.968 Y119.431 E14.83932
G1 X72.448 Y120.283 E14.96319
G1 X68.812 Y121.654 E15.14413
G1 X68.467 Y121.793 E15.16145
G1 X67.926 Y121.983 E15.18815
G1 X67.67 Y122.06 E15.2006
G1 X67.388 Y122.138 E15.21423
G1 X66.911 Y122.258 E15.23713
G1 X66.209 Y122.393 E15.27042
G1 X65.85 Y122.431 E15.28723
G1 X65.355 Y122.47 E15.31035
G1 X62.635 Y122.717 E15.43752
G1 X59.98 Y123.035 E15.56203
G1 X57.373 Y123.421 E15.68475
G1 X54.618 Y123.91 E15.81504
G1 X54.06 Y123.984 E15.84125
G1 X53.469 Y124.036 E15.86888
G1 X50.749 Y124.285 E15.99606
G1 X48.114 Y124.602 E16.11964
G1 X45.505 Y124.991 E16.24247
G1 X44.024 Y125.255 E16.31252
G1 X43.998 Y125.259 E16.31374
G1 X42.606 Y125.501 E16.37953
G1 X42.1 Y125.569 E16.40331
G1 X41.312 Y125.642 E16.44016
G1 X41.221 Y125.65 E16.44441
G1 X39.98 Y125.747 E16.50237
G1 X37.359 Y126.027 E16.62511
G1 X34.733 Y126.383 E16.74851
G1 X32.076 Y126.82 E16.87389
G1 X30.815 Y127.045 E16.93354
G1 X29.886 Y127.142 E16.97703
G1 X29.334 Y127.159 E17.00274
G1 X29.137 Y127.162 E17.01192
G1 X28.901 Y127.162 E17.02291
G1 X28.187 Y127.122 E17.05621
G1 X27.439 Y126.993 E17.09155
G1 X26.872 Y126.86 E17.11867
G1 X26.69 Y126.814 E17.12741
G1 X26.438 Y126.747 E17.13955
G1 X25.758 Y126.525 E17.17286
G1 X25.069 Y126.208 E17.20818
G1 X24.891 Y126.113 E17.21757
G1 X24.632 Y125.968 E17.23139
G1 X24.173 Y125.695 E17.25626
G1 X23.58 Y125.295 E17.28957
G1 X23.1 Y124.893 E17.31872
G1 X22.834 Y124.647 E17.33559
G1 X22.633 Y124.453 E17.3486
G1 X22.308 Y124.125 E17.3701
G1 X21.834 Y123.589 E17.40342
G1 X21.425 Y123.01 E17.43643
G1 X21.302 Y122.813 E17.44724
G1 X21.144 Y122.544 E17.46177
G1 X20.896 Y122.1 E17.48545
G1 X20.582 Y121.457 E17.51877
G1 X20.369 Y120.871 E17.5478
G1 X20.291 Y120.619 E17.56009
G1 X20.223 Y120.383 E17.57152
G1 X20.092 Y119.894 E17.5951
G1 X19.942 Y119.171 E17.62948
G1 X19.826 Y118.384 E17.66652
G1 X19.813 Y118.288 E17.67103
G1 X17.249 Y98.849 E18.58403
G1 X17.238 Y98.762 E18.58812
G1 X17.158 Y98.084 E18.61991
G1 X17.117 Y97.518 E18.64633
G1 X17.111 Y97.309 E18.65607
G1 X17.109 Y97.038 E18.66868
G1 X17.116 Y96.521 E18.69276
G1 X17.165 Y95.808 E18.72604
G1 X17.269 Y95.213 E18.75416
G1 X17.336 Y94.913 E18.76848
G1 X17.399 Y94.655 E18.78084
G1 X17.515 Y94.221 E18.80176
G1 X17.738 Y93.542 E18.83504
G1 X18.06 Y92.845 E18.87079
G1 X18.349 Y92.307 E18.89923
G1 X18.459 Y92.111 E18.9097
G1 X18.564 Y91.931 E18.9194
G1 X18.958 Y91.335 E18.95267
G1 X19.291 Y90.924 E18.9773
G1 X19.44 Y90.755 E18.98779
G1 X19.775 Y90.403 E19.01042
G1 X20.164 Y90.024 E19.03571
G1 X20.703 Y89.554 E19.06901
G1 X21.188 Y89.212 E19.09664
G1 X21.42 Y89.064 E19.10945
G1 X21.668 Y88.914 E19.12295
G1 X22.142 Y88.641 E19.14842
G1 X22.781 Y88.319 E19.18174
G1 X23.155 Y88.188 E19.20019
G0 F1620 X23.694 Y88.001
M204 S3000
M205 X10 Y10
G0 F2666.7 X23.838 Y88.542
M204 S1800
M205 X8 Y8
G1 F1800 X24.55 Y88.353 E19.23449
G1 X25.219 Y88.217 E19.26628
G1 X25.597 Y88.175 E19.28399
G1 X26.113 Y88.135 E19.30809
G1 X28.767 Y87.895 E19.43218
G1 X31.432 Y87.578 E19.55714
G1 X34.023 Y87.196 E19.6791
G1 X36.905 Y86.683 E19.8154
G1 X37.461 Y86.612 E19.8415
G1 X38.076 Y86.563 E19.87023
G1 X40.744 Y86.317 E19.99499
G1 X43.406 Y85.996 E20.11984
G1 X46.034 Y85.603 E20.24357
G1 X47.406 Y85.354 E20.3085
G1 X47.479 Y85.341 E20.31196
G1 X48.878 Y85.105 E20.37802
G1 X49.312 Y85.049 E20.3984
G1 X50.124 Y84.974 E20.43637
G1 X50.205 Y84.967 E20.44015
G1 X51.38 Y84.875 E20.49503
G1 X54.034 Y84.592 E20.61932
G1 X56.657 Y84.236 E20.74257
G1 X59.31 Y83.8 E20.86777
G1 X59.678 Y83.729 E20.88522
G1 X59.765 Y83.713 E20.88934
G1 X60.76 Y83.537 E20.93639
G1 X61.579 Y83.451 E20.97473
G1 X61.815 Y83.443 E20.98573
G1 X62.095 Y83.441 E20.99877
G1 X62.596 Y83.448 E21.0221
G1 X63.083 Y83.475 E21.04481
G1 X64.156 Y83.58 E21.09501
G1 X64.245 Y83.589 E21.09918
G1 X64.846 Y83.657 E21.12734
G1 X67.489 Y83.882 E21.25085
G1 X70.156 Y84.033 E21.37524
G1 X72.829 Y84.109 E21.49976
G1 X75.47 Y84.109 E21.62273
G1 X78.143 Y84.033 E21.74725
G1 X80.804 Y83.883 E21.87135
G1 X84.75 Y83.52 E22.05587
G1 X85.379 Y83.449 E22.08535
G1 X85.907 Y83.414 E22.10999
G1 X87.081 Y83.389 E22.16466
G1 X87.205 Y83.388 E22.17044
G1 X123.129 Y83.388 E23.84321
G1 X123.213 Y83.389 E23.84712
G1 X123.911 Y83.399 E23.87963
G1 X124.397 Y83.426 E23.90229
G1 X125.295 Y83.514 E23.94431
G1 X125.352 Y83.52 E23.94698
G1 X127.066 Y83.705 E24.02725
G1 X129.767 Y83.92 E24.15342
G1 X132.367 Y84.052 E24.27464
G1 X135.078 Y84.113 E24.40091
G1 X137.717 Y84.099 E24.52379
G1 X140.389 Y84.009 E24.64828
G1 X143.066 Y83.842 E24.77318
G1 X145.729 Y83.601 E24.89768
G1 X146.688 Y83.493 E24.94262
G1 X147.042 Y83.464 E24.95916
G1 X147.355 Y83.448 E24.97375
G1 X147.732 Y83.441 E24.99131
G1 X148.249 Y83.448 E25.01539
G1 X149.234 Y83.545 E25.06148
G1 X149.792 Y83.648 E25.0879
G1 X152.464 Y84.107 E25.21414
G1 X155.12 Y84.485 E25.33906
G1 X157.773 Y84.786 E25.46339
G1 X159.196 Y84.907 E25.52989
G1 X159.223 Y84.909 E25.53115
G1 X160.607 Y85.033 E25.59585
G1 X161.056 Y85.091 E25.61693
G1 X161.78 Y85.213 E25.65112
G1 X161.884 Y85.232 E25.65604
G1 X163.122 Y85.464 E25.71469
G1 X165.754 Y85.88 E25.83877
G1 X168.396 Y86.221 E25.96281
G1 X171.075 Y86.49 E26.08819
G1 X172.419 Y86.595 E26.15096
G1 X173.031 Y86.676 E26.17971
G1 X173.639 Y86.789 E26.2085
G1 X176.278 Y87.241 E26.33317
G1 X178.947 Y87.621 E26.45871
G1 X181.578 Y87.92 E26.58201
G1 X182.956 Y88.028 E26.64637
G1 X183.057 Y88.037 E26.65109
G1 X184.44 Y88.17 E26.71579
G1 X185.09 Y88.27 E26.74641
G1 X185.331 Y88.321 E26.75788
G1 X185.705 Y88.413 E26.77581
G1 X186.195 Y88.551 E26.79952
G1 X186.841 Y88.774 E26.83134
G1 X187.317 Y88.996 E26.8558
G1 X187.604 Y89.146 E26.87087
G1 X187.832 Y89.272 E26.883
G1 X188.216 Y89.495 E26.90368
G1 X188.786 Y89.872 E26.9355
G1 X189.278 Y90.285 E26.96541
G1 X189.696 Y90.677 E26.9921
G1 X189.842 Y90.819 E27.00158
G1 X190.026 Y91.004 E27.01373
G1 X190.478 Y91.515 E27.0455
G1 X190.831 Y92.016 E27.07404
G1 X190.966 Y92.231 E27.08586
G1 X191.123 Y92.497 E27.10024
G1 X191.349 Y92.903 E27.12188
G1 X191.747 Y93.782 E27.16681
G1 X191.819 Y93.984 E27.17679
G1 X191.956 Y94.421 E27.19812
G1 X192.122 Y95.035 E27.22773
G1 X192.261 Y95.704 E27.25955
G1 X192.321 Y96.367 E27.29055
G1 X192.329 Y96.61 E27.30187
G1 X192.331 Y96.882 E27.31454
G1 X192.326 Y97.249 E27.33163
G1 X192.295 Y97.783 E27.35653
G1 X192.174 Y98.928 E27.41015
G1 X192.158 Y99.058 E27.41625
G1 X192.126 Y99.307 E27.42794
G1 X192.124 Y99.325 E27.42878
G1 X189.635 Y118.233 E28.31681
G1 X189.624 Y118.314 E28.32062
G1 X189.519 Y119.034 E28.3545
G1 X189.425 Y119.527 E28.37787
G1 X189.37 Y119.761 E28.38906
G1 X189.307 Y120.006 E28.40084
G1 X189.17 Y120.493 E28.4244
G1 X188.947 Y121.139 E28.45622
G1 X188.662 Y121.733 E28.4869
G1 X188.411 Y122.188 E28.51109
G1 X188.315 Y122.354 E28.52002
G1 X188.19 Y122.564 E28.5314
G1 X187.807 Y123.13 E28.56322
G1 X187.476 Y123.524 E28.58719
G1 X187.288 Y123.729 E28.60014
G1 X187.114 Y123.912 E28.6119
G1 X186.77 Y124.256 E28.63455
G1 X186.259 Y124.71 E28.66638
G1 X185.713 Y125.092 E28.69741
G1 X185.267 Y125.368 E28.72183
G1 X185.109 Y125.462 E28.73039
G1 X184.833 Y125.621 E28.74522
G1 X184.222 Y125.927 E28.77704
G1 X183.557 Y126.166 E28.80995
G1 X183.304 Y126.24 E28.82222
G1 X183.084 Y126.3 E28.83284
G1 X182.621 Y126.416 E28.85506
G1 X181.95 Y126.543 E28.88686
G1 X181.49 Y126.584 E28.90837
G1 X181.267 Y126.595 E28.91876
G1 X180.979 Y126.602 E28.93218
G1 X180.429 Y126.602 E28.95779
G1 X179.444 Y126.518 E29.00382
G1 X178.614 Y126.376 E29.04303
G1 X178.536 Y126.362 E29.04672
G1 X177.381 Y126.148 E29.10142
G1 X174.718 Y125.732 E29.22692
G1 X172.11 Y125.4 E29.34934
G1 X169.43 Y125.135 E29.47474
G1 X169.192 Y125.118 E29.48585
G1 X169.114 Y125.112 E29.4895
G1 X168.019 Y125.018 E29.54067
G1 X167.546 Y124.958 E29.56287
G1 X166.817 Y124.835 E29.5973
G1 X166.715 Y124.816 E29.60213
G1 X165.482 Y124.585 E29.66054
G1 X162.85 Y124.169 E29.78462
G1 X160.208 Y123.828 E29.90866
G1 X157.529 Y123.559 E30.03403
G1 X156.185 Y123.454 E30.09681
G1 X155.573 Y123.373 E30.12555
G1 X154.895 Y123.247 E30.15766
G1 X152.256 Y122.795 E30.28234
G1 X149.587 Y122.415 E30.40787
G1 X146.936 Y122.114 E30.5321
G1 X144.242 Y121.885 E30.658
G1 X143.366 Y121.743 E30.69932
G1 X142.861 Y121.621 E30.72352
G1 X142.654 Y121.567 E30.73348
G1 X142.401 Y121.496 E30.74571
G1 X141.852 Y121.312 E30.77267
G1 X139.486 Y120.387 E30.89097
G1 X136.964 Y119.479 E31.01578
G1 X134.452 Y118.654 E31.1389
G1 X131.898 Y117.894 E31.26297
G1 X129.302 Y117.202 E31.38808
G1 X126.738 Y116.595 E31.51077
G1 X124.096 Y116.046 E31.63642
G1 X121.517 Y115.591 E31.75836
G1 X118.831 Y115.191 E31.88481
G1 X116.238 Y114.88 E32.00642
G1 X113.577 Y114.637 E32.13084
G1 X110.908 Y114.47 E32.25536
G1 X108.231 Y114.378 E32.38009
G1 X106.209 Y114.358 E32.47425
G1 X103.62 Y114.36 E32.5948
G1 X100.969 Y114.399 E32.71826
G1 X98.261 Y114.516 E32.84447
G1 X95.631 Y114.705 E32.96725
G1 X92.961 Y114.972 E33.0922
G1 X90.343 Y115.309 E33.21511
G1 X87.702 Y115.725 E33.3396
G1 X85.084 Y116.213 E33.4636
G1 X82.481 Y116.777 E33.58762
G1 X79.915 Y117.408 E33.71067
G1 X77.332 Y118.12 E33.83543
G1 X74.77 Y118.906 E33.96021
G1 X72.275 Y119.75 E34.08286
G1 X68.639 Y121.121 E34.2638
