;FLAVOR:Marlin
;TIME:7403
;Filament used: 1.482m, 0m, 0m, 0m
;Layer height: 0.2
;MINX:141.119
;MINY:7.505
;MINZ:0.3
;MAXX:200.799
;MAXY:38.109
;MAXZ:47.9
;Generated with Cura_SteamEngine 4.9.1
T0
M140 S60
M105
M190 S60
M104 S215
M105
M109 S215
M82 ;absolute extrusion mode
M82 ;absolute extrusion mode
G28
G29
M501
G92 E0 ;zero the extruded length
G1 F200 E3 ;extrude 3mm of feed stock
G92 E0 ;zero the extruded length again
G1 F100
G92 E0
G92 E0
G1 F1500 E-6.5
;LAYER_COUNT:239
;LAYER:0
M107
G0 F5400 X141.168 Y17.295 Z0.3
;TYPE:SKIRT
G1 F1500 E0
G1 F1800 X141.297 Y16.511 E0.01495
G1 X141.486 Y15.89 E0.02716
G1 X141.658 Y15.465 E0.03578
G1 X141.917 Y14.971 E0.04627
G1 X142.074 Y14.716 E0.05191
G1 X142.576 Y14.062 E0.06741
G1 X142.956 Y13.676 E0.0776
G1 X143.138 Y13.509 E0.08225
G1 X143.608 Y13.138 E0.09351
G1 X144.099 Y12.84 E0.10432
G1 X144.967 Y12.457 E0.12216
G1 X145.632 Y12.272 E0.13515
G1 X146.31 Y12.166 E0.14806
G1 X147.329 Y12.087 E0.16728
G1 X169.614 Y10.727 E0.58725
G1 X170.334 Y10.691 E0.60081
G1 X171.022 Y10.68 E0.61376
G1 X171.92 Y10.697 E0.63065
G1 X172.461 Y10.727 E0.64085
G1 X173.022 Y10.778 E0.65144
G1 X173.654 Y10.858 E0.66342
G1 X174.222 Y10.944 E0.67423
G1 X174.858 Y11.062 E0.6864
G1 X175.625 Y11.236 E0.70119
G1 X176.501 Y11.473 E0.71826
G1 X177.175 Y11.69 E0.73158
G1 X177.719 Y11.884 E0.74245
G1 X178.33 Y12.123 E0.75479
G1 X178.829 Y12.339 E0.76502
G1 X179.386 Y12.602 E0.7766
G1 X179.89 Y12.857 E0.78723
G1 X180.044 Y12.939 E0.79051
G1 X180.679 Y13.296 E0.80421
G1 X181.119 Y13.566 E0.81392
G1 X181.54 Y13.837 E0.82334
G1 X182.068 Y14.198 E0.83537
G1 X182.343 Y14.398 E0.84177
G1 X182.992 Y14.899 E0.85719
G1 X183.583 Y15.395 E0.8717
G1 X183.958 Y15.736 E0.88124
G1 X184.388 Y16.146 E0.89242
G1 X184.66 Y16.424 E0.89973
G1 X185.116 Y16.913 E0.91231
G1 X185.574 Y17.439 E0.92543
G1 X185.941 Y17.879 E0.93621
G1 X186.232 Y18.262 E0.94525
G1 X186.534 Y18.674 E0.95486
G1 X186.897 Y19.205 E0.96696
G1 X187.29 Y19.831 E0.98087
G1 X187.647 Y20.498 E0.9951
G1 X187.797 Y20.843 E1.00217
G1 X187.985 Y21.376 E1.0128
G1 X188.106 Y21.945 E1.02375
G1 X188.175 Y22.668 E1.03741
G1 X188.176 Y22.943 E1.04258
G1 X188.098 Y23.746 E1.05776
G1 X188.054 Y23.965 E1.06196
G1 X187.846 Y24.663 E1.07566
G1 X187.567 Y25.293 E1.08862
G1 X187.189 Y25.95 E1.10288
G1 X186.8 Y26.55 E1.11633
G1 X186.723 Y26.664 E1.11892
G1 X186.352 Y27.191 E1.13104
G1 X186.034 Y27.618 E1.14105
G1 X185.921 Y27.76 E1.14447
G1 X185.427 Y28.355 E1.15902
G1 X184.985 Y28.851 E1.17151
G1 X184.408 Y29.447 E1.18712
G1 X184.039 Y29.804 E1.19677
G1 X183.632 Y30.174 E1.20712
G1 X183.24 Y30.509 E1.21682
G1 X182.594 Y31.031 E1.23244
G1 X182.127 Y31.375 E1.24335
G1 X181.657 Y31.701 E1.25411
G1 X181.172 Y32.019 E1.26502
G1 X181 Y32.126 E1.26883
G1 X180.245 Y32.568 E1.28529
G1 X179.748 Y32.835 E1.2959
G1 X179.235 Y33.088 E1.30666
G1 X178.655 Y33.352 E1.31865
G1 X178.15 Y33.566 E1.32897
G1 X177.763 Y33.717 E1.33678
G1 X177.2 Y33.919 E1.34803
G1 X176.61 Y34.108 E1.35969
G1 X175.915 Y34.304 E1.37327
G1 X175.369 Y34.442 E1.38386
G1 X174.62 Y34.6 E1.39826
G1 X174.028 Y34.701 E1.40956
G1 X173.93 Y34.717 E1.41143
G1 X173.398 Y34.793 E1.42154
G1 X173.194 Y34.817 E1.4254
G1 X172.512 Y34.879 E1.43828
G1 X171.961 Y34.915 E1.44867
G1 X171.237 Y34.935 E1.46229
G1 X170.602 Y34.931 E1.47424
G1 X170.435 Y34.926 E1.47738
G1 X169.409 Y34.876 E1.4967
G1 X159.626 Y34.277 E1.68107
G1 X158.202 Y34.192 E1.7079
G1 X147.479 Y33.536 E1.90999
G1 X146.355 Y33.443 E1.9312
G1 X145.943 Y33.395 E1.939
G1 X145.388 Y33.286 E1.94964
G1 X144.76 Y33.072 E1.96212
G1 X144.3 Y32.869 E1.97158
G1 X144.033 Y32.731 E1.97724
G1 X143.474 Y32.381 E1.98964
G1 X143.359 Y32.295 E1.99234
G1 X142.948 Y31.942 E2.00253
G1 X142.748 Y31.745 E2.00781
G1 X142.297 Y31.216 E2.02089
G1 X142.121 Y30.969 E2.0266
G1 X141.798 Y30.431 E2.0384
G1 X141.685 Y30.204 E2.04317
G1 X141.445 Y29.605 E2.05531
G1 X141.361 Y29.334 E2.06064
G1 X141.235 Y28.8 E2.07097
G1 X141.145 Y28.128 E2.08372
G1 X141.125 Y27.714 E2.09152
G1 X141.119 Y27.155 E2.10203
G1 X141.119 Y18.522 E2.26442
G1 X141.129 Y17.83 E2.27744
G1 X141.168 Y17.295 E2.28753
G0 F5400 X141.602 Y17.046
G1 F1800 X141.71 Y16.506 E2.29789
G1 X141.864 Y16.02 E2.30748
G1 X142.025 Y15.625 E2.3155
G1 X142.257 Y15.181 E2.32493
G1 X142.414 Y14.926 E2.33056
G1 X142.867 Y14.337 E2.34454
G1 X143.226 Y13.97 E2.35419
G1 X143.408 Y13.803 E2.35884
G1 X143.832 Y13.469 E2.36899
G1 X144.296 Y13.189 E2.37919
G1 X145.09 Y12.838 E2.39552
G1 X145.71 Y12.664 E2.40763
G1 X146.341 Y12.565 E2.41965
G1 X147.354 Y12.487 E2.43876
G1 X169.635 Y11.127 E2.85866
G1 X170.346 Y11.091 E2.87205
G1 X171.026 Y11.08 E2.88484
G1 X171.911 Y11.097 E2.90149
G1 X172.428 Y11.126 E2.91123
G1 X172.981 Y11.176 E2.92168
G1 X173.075 Y11.186 E2.92345
G1 X173.603 Y11.254 E2.93347
G1 X174.151 Y11.338 E2.9439
G1 X174.769 Y11.452 E2.95572
G1 X175.624 Y11.647 E2.97221
G1 X176.391 Y11.858 E2.98718
G1 X177.049 Y12.069 E3.00017
G1 X177.573 Y12.256 E3.01064
G1 X178.184 Y12.495 E3.02298
G1 X178.659 Y12.702 E3.03273
G1 X179.205 Y12.959 E3.04408
G1 X179.709 Y13.214 E3.0547
G1 X179.848 Y13.288 E3.05767
G1 X180.483 Y13.645 E3.07137
G1 X180.949 Y13.932 E3.08166
G1 X181.413 Y14.233 E3.09207
G1 X181.916 Y14.58 E3.10356
G1 X182.099 Y14.715 E3.10784
G1 X182.74 Y15.21 E3.12307
G1 X183.32 Y15.697 E3.13732
G1 X184.02 Y16.346 E3.15528
G1 X184.368 Y16.697 E3.16457
G1 X184.89 Y17.258 E3.17899
G1 X185.242 Y17.666 E3.18913
G1 X185.629 Y18.13 E3.20049
G1 X185.91 Y18.499 E3.20922
G1 X186.212 Y18.911 E3.21882
G1 X186.558 Y19.418 E3.23037
G1 X186.951 Y20.044 E3.24427
G1 X187.28 Y20.658 E3.25738
G1 X187.43 Y21.003 E3.26445
G1 X187.607 Y21.509 E3.27454
G1 X187.713 Y22.019 E3.28434
G1 X187.775 Y22.67 E3.29664
G1 X187.776 Y22.945 E3.30181
G1 X187.705 Y23.667 E3.31546
G1 X187.661 Y23.886 E3.31966
G1 X187.475 Y24.514 E3.33198
G1 X187.215 Y25.105 E3.34412
G1 X186.847 Y25.742 E3.35796
G1 X186.79 Y25.833 E3.35998
G1 X186.465 Y26.332 E3.37118
G1 X186.395 Y26.435 E3.37353
G1 X186.03 Y26.953 E3.38545
G1 X185.72 Y27.37 E3.39522
G1 X185.613 Y27.505 E3.39846
G1 X185.119 Y28.1 E3.41301
G1 X184.697 Y28.574 E3.42495
G1 X184.203 Y29.086 E3.43833
G1 X183.77 Y29.508 E3.4497
G1 X183.363 Y29.878 E3.46005
G1 X182.989 Y30.198 E3.46931
G1 X182.343 Y30.72 E3.48493
G1 X181.893 Y31.05 E3.49543
G1 X181.438 Y31.367 E3.50586
G1 X180.953 Y31.685 E3.51677
G1 X180.798 Y31.781 E3.5202
G1 X180.043 Y32.223 E3.53665
G1 X179.57 Y32.477 E3.54675
G1 X179.069 Y32.724 E3.55726
G1 X178.4 Y33.027 E3.57107
G1 X177.74 Y33.298 E3.5845
G1 X177.628 Y33.34 E3.58675
G1 X177.065 Y33.542 E3.598
G1 X176.5 Y33.724 E3.60916
G1 X175.92 Y33.889 E3.62051
G1 X175.271 Y34.054 E3.6331
G1 X174.543 Y34.208 E3.6471
G1 X173.962 Y34.307 E3.65819
G1 X173.341 Y34.397 E3.66999
G1 X173.158 Y34.418 E3.67345
G1 X172.378 Y34.488 E3.68819
G1 X171.835 Y34.521 E3.69842
G1 X171.231 Y34.535 E3.70978
G1 X170.605 Y34.531 E3.72156
G1 X170.455 Y34.527 E3.72438
G1 X169.433 Y34.476 E3.74363
G1 X159.655 Y33.878 E3.9279
G1 X147.503 Y33.136 E4.15691
G1 X146.388 Y33.045 E4.17796
G1 X145.992 Y32.998 E4.18546
G1 X145.466 Y32.893 E4.19555
G1 X144.898 Y32.696 E4.20686
G1 X144.217 Y32.376 E4.22101
G1 X143.714 Y32.061 E4.23218
G1 X143.229 Y31.657 E4.24405
G1 X143.029 Y31.46 E4.24933
G1 X142.623 Y30.984 E4.2611
G1 X142.447 Y30.737 E4.2668
G1 X142.156 Y30.252 E4.27744
G1 X142.043 Y30.025 E4.28221
G1 X141.827 Y29.487 E4.29312
G1 X141.63 Y28.735 E4.30774
G1 X141.545 Y28.103 E4.31974
G1 X141.525 Y27.71 E4.32714
G1 X141.519 Y27.151 E4.33765
G1 X141.519 Y18.528 E4.49986
G1 X141.529 Y17.836 E4.51287
G1 X141.602 Y17.046 E4.5278
G0 F5400 X141.999 Y17.096
G1 F1800 X142.098 Y16.604 E4.53724
G1 X142.335 Y15.913 E4.55098
G1 X142.598 Y15.39 E4.56199
G1 X142.755 Y15.135 E4.56762
G1 X143.157 Y14.612 E4.58003
G1 X143.679 Y14.098 E4.59381
G1 X144.107 Y13.766 E4.604
G1 X144.747 Y13.408 E4.6178
G1 X145.214 Y13.219 E4.62727
G1 X145.787 Y13.056 E4.63848
G1 X146.372 Y12.964 E4.64962
G1 X147.378 Y12.886 E4.6686
G1 X169.656 Y11.526 E5.08844
G1 X170.358 Y11.49 E5.10166
G1 X171.03 Y11.48 E5.11431
G1 X171.903 Y11.497 E5.13073
G1 X172.7 Y11.55 E5.14576
G1 X173.024 Y11.583 E5.15188
G1 X173.623 Y11.661 E5.16324
G1 X174.535 Y11.813 E5.18064
G1 X174.681 Y11.842 E5.18344
G1 X175.526 Y12.035 E5.19974
G1 X176.281 Y12.242 E5.21447
G1 X176.923 Y12.449 E5.22715
G1 X177.428 Y12.629 E5.23724
G1 X178.039 Y12.868 E5.24958
G1 X178.935 Y13.272 E5.26807
G1 X179.529 Y13.571 E5.28058
G1 X179.652 Y13.637 E5.2832
G1 X180.287 Y13.994 E5.29691
G1 X180.732 Y14.268 E5.30674
G1 X181.186 Y14.562 E5.31691
G1 X181.681 Y14.904 E5.32823
G1 X181.855 Y15.032 E5.33229
G1 X182.488 Y15.52 E5.34733
G1 X183.058 Y15.999 E5.36133
G1 X183.745 Y16.636 E5.37896
G1 X184.075 Y16.97 E5.38779
G1 X184.59 Y17.523 E5.402
G1 X184.938 Y17.926 E5.41202
G1 X185.318 Y18.381 E5.42317
G1 X185.587 Y18.735 E5.43153
G1 X185.889 Y19.147 E5.44114
G1 X186.219 Y19.631 E5.45216
G1 X186.612 Y20.257 E5.46606
G1 X186.914 Y20.817 E5.47803
G1 X187.064 Y21.162 E5.48511
G1 X187.274 Y21.848 E5.4986
G1 X187.32 Y22.093 E5.50329
G1 X187.375 Y22.671 E5.51421
G1 X187.376 Y22.946 E5.51939
G1 X187.313 Y23.588 E5.53152
G1 X187.269 Y23.807 E5.53572
G1 X187.103 Y24.365 E5.54667
G1 X186.862 Y24.916 E5.55799
G1 X186.505 Y25.533 E5.5714
G1 X186.129 Y26.113 E5.5844
G1 X186.068 Y26.205 E5.58647
G1 X185.708 Y26.716 E5.59823
G1 X185.406 Y27.123 E5.60777
G1 X185.305 Y27.249 E5.6108
G1 X184.811 Y27.844 E5.62535
G1 X184.409 Y28.296 E5.63673
G1 X183.849 Y28.875 E5.65188
G1 X183.501 Y29.212 E5.66099
G1 X183.094 Y29.582 E5.67134
G1 X182.737 Y29.887 E5.68017
G1 X182.091 Y30.409 E5.6958
G1 X181.66 Y30.725 E5.70585
G1 X181.219 Y31.032 E5.71596
G1 X180.734 Y31.35 E5.72687
G1 X180.596 Y31.436 E5.72992
G1 X179.841 Y31.878 E5.74638
G1 X179.391 Y32.119 E5.75598
G1 X178.904 Y32.359 E5.7662
G1 X178.244 Y32.658 E5.77983
G1 X177.593 Y32.926 E5.79307
G1 X177.493 Y32.964 E5.79508
G1 X176.93 Y33.166 E5.80633
G1 X176.391 Y33.339 E5.81698
G1 X175.811 Y33.504 E5.82832
G1 X175.173 Y33.666 E5.84071
G1 X174.465 Y33.815 E5.85431
G1 X173.895 Y33.913 E5.86519
G1 X173.285 Y34.001 E5.87679
G1 X173.122 Y34.02 E5.87987
G1 X172.352 Y34.089 E5.89442
G1 X171.821 Y34.121 E5.90442
G1 X171.226 Y34.135 E5.91562
G1 X170.608 Y34.131 E5.92724
G1 X170.474 Y34.127 E5.92977
G1 X169.457 Y34.077 E5.94892
G1 X159.674 Y33.478 E6.13329
G1 X158.251 Y33.393 E6.1601
G1 X147.459 Y32.732 E6.36349
G1 X146.422 Y32.646 E6.38306
G1 X146.042 Y32.601 E6.39026
G1 X145.335 Y32.43 E6.40394
G1 X144.668 Y32.159 E6.41748
G1 X144.401 Y32.021 E6.42314
G1 X143.954 Y31.741 E6.43306
G1 X143.509 Y31.372 E6.44393
G1 X143.309 Y31.175 E6.44921
G1 X142.949 Y30.752 E6.45966
G1 X142.773 Y30.505 E6.46537
G1 X142.514 Y30.074 E6.47482
G1 X142.401 Y29.847 E6.47959
G1 X142.209 Y29.368 E6.4893
G1 X142.025 Y28.67 E6.50288
G1 X141.944 Y28.079 E6.5141
G1 X141.925 Y27.705 E6.52115
G1 X141.919 Y27.146 E6.53166
G1 X141.919 Y18.534 E6.69366
G1 X141.929 Y17.842 E6.70668
G1 X141.999 Y17.096 E6.72077
G1 F1500 E0.22077
;MESH:3DBenchy.stl
G0 F5400 X163.95 Y24.074
;TYPE:WALL-INNER
G1 F1500 E6.72077
G1 F1800 X163.949 Y24.075 E6.7208
G1 X163.738 Y24.085 E6.72477
G1 X163.738 Y23.874 E6.72731
G1 X163.739 Y23.872 E6.72735
G1 X163.741 Y23.676 E6.73103
G1 X163.743 Y21.661 E6.76894
G1 X163.743 Y21.66 E6.76896
G1 X163.743 Y21.453 E6.77285
G1 X163.95 Y21.46 E6.77535
G1 X163.951 Y21.461 E6.77538
G1 X164.187 Y21.472 E6.77982
G1 X164.637 Y21.554 E6.78842
G1 X164.743 Y21.623 E6.7908
G1 X164.852 Y21.781 E6.79441
G1 X164.981 Y22.168 E6.80209
G1 X165.033 Y22.632 E6.81087
G1 X165.016 Y23.112 E6.8199
G1 X164.921 Y23.555 E6.82843
G1 X164.774 Y23.839 E6.83444
G1 X164.624 Y23.971 E6.8382
G1 X164.38 Y24.049 E6.84302
G1 X163.95 Y24.074 E6.85112
G0 F5400 X163.536 Y24.489
;TYPE:WALL-OUTER
G1 F1800 X163.404 Y24.49 E6.8536
G1 X163.332 Y24.366 E6.8563
G1 X163.334 Y24.234 E6.85878
G1 X163.344 Y23.777 E6.86738
G1 X163.341 Y23.676 E6.86928
G1 X163.343 Y21.366 E6.91274
G1 X163.348 Y21.093 E6.91787
G1 X163.348 Y21.083 E6.91806
G1 X163.726 Y21.052 E6.9252
G1 X163.736 Y21.052 E6.92538
G1 X164.233 Y21.073 E6.93474
G1 X164.788 Y21.174 E6.94535
G1 X165.026 Y21.331 E6.95071
G1 X165.213 Y21.6 E6.95688
G1 X165.375 Y22.086 E6.96651
G1 X165.434 Y22.615 E6.97653
G1 X165.415 Y23.16 E6.98678
G1 X165.301 Y23.689 E6.99696
G1 X165.093 Y24.092 E7.00549
G1 X164.826 Y24.326 E7.01217
G1 X164.455 Y24.445 E7.0195
G1 X163.715 Y24.487 E7.03344
G1 X163.536 Y24.489 E7.03681
G0 F5400 X163.404 Y24.49
G0 X163.37 Y24.432
G1 F1500 E0.53681
G0 F5400 X164.131 Y23.671
;TYPE:SKIN
G1 F1500 E7.03681
G1 F1800 X164.133 Y21.86 E7.07088
G1 X164.475 Y21.921 E7.07741
G1 X164.597 Y22.25 E7.08401
G1 X164.642 Y22.648 E7.09155
G1 X164.628 Y23.061 E7.09932
G1 X164.55 Y23.423 E7.10629
G1 X164.43 Y23.623 E7.11067
G1 X164.131 Y23.671 E7.11637
G0 F5400 X164.448 Y23.027
G1 F1800 X164.31 Y22.889 E7.12004
G0 F5400 X164.437 Y22.45
G1 F1800 X164.311 Y22.324 E7.12339
G1 F1500 E0.62339
G0 F5400 X158.402 Y21.361
;TYPE:WALL-INNER
G1 F1500 E7.12339
G1 F1800 X158.515 Y21.305 E7.12576
G1 X158.73 Y21.198 E7.13028
G1 X158.53 Y21.335 E7.1305
G1 X158.402 Y21.361 E7.13065
G1 F1500 E0.63065
G0 F5400 X178.327 Y26.461
G1 F1500 E7.13065
G1 F1800 X178.731 Y26.511 E7.13831
G1 X179.308 Y26.481 E7.14918
G1 X180.077 Y26.49 E7.16365
G1 X180.353 Y26.49 E7.16884
G1 X180.692 Y26.49 E7.17521
G1 X180.852 Y26.489 E7.17822
G1 X180.693 Y26.64 E7.17965
G1 X180.435 Y26.86 E7.18416
G1 X180.076 Y27.166 E7.19303
G1 X179.68 Y27.474 E7.20247
G1 X179.261 Y27.773 E7.21215
G1 X178.691 Y28.152 E7.22502
G1 X178.259 Y28.411 E7.2345
G1 X177.41 Y28.866 E7.25262
G1 X176.968 Y29.074 E7.26181
G1 X176.462 Y29.289 E7.27215
G1 X175.974 Y29.478 E7.28199
G1 X175.494 Y29.641 E7.29153
G1 X174.74 Y29.864 E7.30632
G1 X174.112 Y30.015 E7.31847
G1 X173.524 Y30.131 E7.32974
G1 X173.022 Y30.209 E7.3393
G1 X172.426 Y30.279 E7.35059
G1 X171.937 Y30.316 E7.35981
G1 X171.303 Y30.341 E7.37175
G1 X170.693 Y30.337 E7.38322
G1 X170.34 Y30.324 E7.38987
G1 X162.454 Y29.84 E7.53848
G1 X160.476 Y29.721 E7.57576
G1 X160.179 Y29.701 E7.58136
G1 X158.572 Y29.606 E7.61164
G1 X154.227 Y29.339 E7.69353
G1 X149.154 Y29.031 E7.78913
G1 X146.787 Y28.883 E7.83374
G1 X146.448 Y28.811 E7.84026
G1 X146.19 Y28.676 E7.84574
G1 X145.971 Y28.464 E7.85147
G1 X145.822 Y28.209 E7.85702
G1 X145.731 Y27.849 E7.86401
G1 X145.719 Y27.574 E7.86919
G1 X145.719 Y25.217 E7.91352
G1 X145.719 Y24.923 E7.91905
G1 X145.719 Y24.404 E7.92882
G1 X145.936 Y24.923 E7.93213
G1 X146.102 Y25.165 E7.93644
G1 X146.298 Y25.449 E7.94293
G1 X146.813 Y25.92 E7.95606
G1 X147.426 Y26.252 E7.96917
G1 X148.025 Y26.417 E7.98086
G1 X148.72 Y26.463 E7.99396
G1 X149.294 Y26.402 E8.00482
G1 X149.908 Y26.202 E8.01696
G1 X150.415 Y25.861 E8.02846
G1 X150.771 Y25.431 E8.03896
G1 X150.994 Y24.917 E8.0495
G1 X150.932 Y24.456 E8.05825
G1 X150.641 Y24.045 E8.06772
G1 X150.231 Y23.812 E8.07659
G1 X149.787 Y23.738 E8.08506
G1 X149.337 Y23.836 E8.09372
G1 X148.91 Y24.2 E8.10428
G1 X148.707 Y24.259 E8.10825
G1 X148.429 Y24.253 E8.11348
G1 X148.184 Y24.172 E8.11834
G1 X147.971 Y24.006 E8.12342
G1 X147.832 Y23.776 E8.12847
G1 X147.722 Y23.375 E8.13629
G1 X147.678 Y22.74 E8.14827
G1 X147.73 Y22.128 E8.15982
G1 X147.854 Y21.722 E8.1678
G1 X147.983 Y21.524 E8.17225
G1 X148.189 Y21.367 E8.17712
G1 X148.411 Y21.293 E8.18152
G1 X148.611 Y21.288 E8.18529
G1 X148.821 Y21.373 E8.18955
G1 X149.288 Y21.653 E8.19979
G1 X149.797 Y21.813 E8.20983
G1 X150.292 Y21.738 E8.21925
G1 X150.671 Y21.455 E8.22814
G1 X150.805 Y21.233 E8.23302
G1 X150.893 Y21.088 E8.23621
G1 X150.913 Y20.964 E8.23857
G1 X150.932 Y20.851 E8.24073
G1 X150.977 Y20.974 E8.24113
G1 X150.994 Y20.991
G1 X151.111 Y21.114 E8.24349
G1 X151.288 Y21.301 E8.24834
G1 X151.693 Y21.444 E8.25642
G1 X152.116 Y21.437 E8.26437
G1 X152.459 Y21.396 E8.27087
G1 X152.628 Y21.377 E8.27407
G1 X152.723 Y21.395 E8.27589
G1 X152.731 Y21.429 E8.27655
G1 X152.721 Y21.598 E8.27973
G1 X152.698 Y21.943 E8.28624
G1 X152.707 Y22.508 E8.29687
G1 X152.703 Y24.141 E8.32758
G1 X152.715 Y24.669 E8.33752
G1 X152.674 Y25.238 E8.34825
G1 X152.739 Y25.731 E8.3576
G1 X153.038 Y26.111 E8.3667
G1 X153.466 Y26.294 E8.37545
G1 X153.976 Y26.307 E8.38505
G1 X154.423 Y26.108 E8.39425
