;FLAVOR:Marlin
;TIME:1457
;Filament used: 0.721549m, 0m, 0m, 0m
;Layer height: 0.1
;MINX:70.131
;MINY:86.372
;MINZ:0.24
;MAXX:139.863
;MAXY:139.37
;MAXZ:5.14
;Generated with Cura_SteamEngine 4.3.0
T0
M140 S60
M105
M190 S60
M104 S215
M105
M109 S215
M82 ;absolute extrusion mode
G21 ;metric values
G90 ;absolute positioning
M82 ;set extruder to absolute mode
M107 ;start with the fan off
G28 X0 Y0 ;move X/Y to min endstops
G28 Z0 ;move Z to min endstops
G1 Z15.0 F100 ;move the platform down 15mm
G92 E0 ;zero the extruded length
G1 F200 E3 ;extrude 3mm of feed stock
G92 E0 ;zero the extruded length again
G1 F100
M117 Printing...
G5
G92 E0
G92 E0
G1 F2400 E-4
;LAYER_COUNT:43
;LAYER:-8
M107
M204 S3000
M205 X10 Y10
G0 F6000 X77.131 Y90.714 Z0.24
M204 S1800
M205 X8 Y8
;TYPE:SUPPORT-INTERFACE
G1 F2400 E0
G1 F1012.5 X77.814 Y90.167 E0.06985
G1 X77.974 Y90.05 E0.08567
G1 X79.099 Y89.299 E0.19365
G1 X79.46 Y89.082 E0.22727
G1 X80.245 Y88.644 E0.29902
G1 X80.447 Y88.542 E0.31709
G1 X81.792 Y87.944 E0.43458
G1 X82.571 Y87.645 E0.50119
G1 X83.457 Y87.341 E0.57596
G1 X83.611 Y87.295 E0.58879
G1 X84.864 Y86.977 E0.69198
G1 X85.347 Y86.879 E0.73132
G1 X86.224 Y86.731 E0.80232
G1 X86.428 Y86.706 E0.81873
G1 X87.937 Y86.591 E0.93953
G1 X88.739 Y86.571 E1.00357
G1 X89.682 Y86.579 E1.07885
G1 X89.839 Y86.587 E1.09139
G1 X91.241 Y86.723 E1.20383
G1 X91.7 Y86.792 E1.24088
G1 X92.588 Y86.953 E1.31292
G1 X92.774 Y86.995 E1.32814
G1 X94.159 Y87.375 E1.44279
G1 X94.922 Y87.626 E1.5069
G1 X95.794 Y87.947 E1.58108
G1 X96.011 Y88.038 E1.59986
G1 X97.204 Y88.598 E1.70506
G1 X97.343 Y88.671 E1.71759
G1 X97.955 Y88.944 E1.77109
G1 X98.609 Y89.141 E1.82561
G1 X99.282 Y89.255 E1.8801
G1 X99.97 Y89.283 E1.93506
G1 X100.426 Y89.23 E1.9717
G1 X100.433 Y89.262 E1.97432
G1 X101.084 Y89.146 E2.0271
G1 X101.953 Y89.024 E2.09715
G1 X102.142 Y89.004 E2.11232
G1 X103.171 Y88.937 E2.19464
G1 X104.035 Y88.912 E2.26363
G1 X104.352 Y88.908 E2.28894
G1 X111.528 Y88.91 E2.86176
G1 X112.366 Y88.935 E2.92868
G1 X123.471 Y89.617 E3.8168
G1 X123.727 Y89.626 E3.83725
G1 X124.051 Y89.63 E3.86311
G1 X124.185 Y89.637 E3.87382
G1 X125.523 Y89.77 E3.98116
G1 X125.8 Y89.812 E4.00352
G1 X126.731 Y89.981 E4.07905
G1 X126.888 Y90.015 E4.09187
G1 X127.727 Y90.231 E4.16103
G1 X127.935 Y90.295 E4.1784
G1 X129.346 Y90.798 E4.29798
G1 X129.88 Y91.023 E4.34423
G1 X130.712 Y91.405 E4.41731
G1 X130.876 Y91.487 E4.43195
G1 X131.656 Y91.916 E4.50301
G1 X131.806 Y92.006 E4.51697
G1 X132.564 Y92.498 E4.58911
G1 X132.694 Y92.59 E4.60182
G1 X133.539 Y93.238 E4.68682
G1 X134.024 Y93.655 E4.73788
G1 X134.443 Y94.033 E4.78292
G1 X135.131 Y94.696 E4.85919
G1 X135.244 Y94.813 E4.87218
G1 X135.838 Y95.474 E4.94311
G1 X135.937 Y95.593 E4.95547
G1 X136.57 Y96.416 E5.03835
G1 X137.037 Y97.106 E5.10486
G1 X137.537 Y97.925 E5.18146
G1 X137.618 Y98.068 E5.19457
G1 X138.017 Y98.845 E5.2643
G1 X138.111 Y99.047 E5.28208
G1 X138.659 Y100.402 E5.39876
G1 X138.859 Y100.984 E5.44788
G1 X139.118 Y101.826 E5.5182
G1 X139.168 Y102.012 E5.53357
G1 X139.361 Y102.854 E5.60253
G1 X139.402 Y103.069 E5.62
G1 X139.532 Y103.914 E5.68825
G1 X139.554 Y104.101 E5.70328
G1 X139.64 Y105.298 E5.79907
G1 X139.664 Y106.039 E5.85825
G1 X139.66 Y107.008 E5.9356
G1 X139.654 Y107.181 E5.94942
G1 X139.571 Y108.216 E6.0323
G1 X139.502 Y108.732 E6.07386
G1 X139.406 Y109.344 E6.12331
G1 X139.226 Y110.287 E6.19994
G1 X139.184 Y110.469 E6.21485
G1 X138.957 Y111.314 E6.2847
G1 X138.901 Y111.492 E6.29959
G1 X138.483 Y112.656 E6.39832
G1 X138.381 Y112.907 E6.41994
G1 X137.985 Y113.79 E6.49719
G1 X137.903 Y113.957 E6.51204
G1 X137.492 Y114.721 E6.58129
G1 X137.397 Y114.881 E6.59615
G1 X136.658 Y116.009 E6.70379
G1 X136.323 Y116.47 E6.74928
G1 X135.755 Y117.201 E6.82318
G1 X135.643 Y117.335 E6.83712
G1 X135.037 Y118.009 E6.90947
G1 X134.938 Y118.111 E6.92082
G1 X134.05 Y118.949 E7.01828
G1 X133.805 Y119.161 E7.04414
G1 X132.94 Y119.853 E7.13257
G1 X132.204 Y120.364 E7.20409
G1 X132.046 Y120.464 E7.21901
G1 X130.841 Y121.152 E7.32978
G1 X130.32 Y121.417 E7.37644
G1 X129.477 Y121.81 E7.45068
G1 X129.296 Y121.886 E7.46635
G1 X128.477 Y122.197 E7.53628
G1 X128.31 Y122.254 E7.55037
G1 X127.246 Y122.565 E7.63886
G1 X126.92 Y122.647 E7.66569
G1 X125.925 Y122.856 E7.74685
G1 X125.275 Y123.013 E7.80022
G1 X124.636 Y123.255 E7.85477
G1 X124.033 Y123.577 E7.90933
G1 X123.476 Y123.971 E7.9638
G1 X122.973 Y124.432 E8.01826
G1 X122.532 Y124.954 E8.07281
G1 X122.161 Y125.528 E8.12736
G1 X121.866 Y126.139 E8.18152
G1 X121.704 Y126.596 E8.22023
G1 X121.467 Y127.378 E8.28545
G1 X121.399 Y127.568 E8.30156
G1 X120.835 Y128.958 E8.42131
G1 X120.632 Y129.389 E8.45933
G1 X120.222 Y130.191 E8.53123
G1 X120.126 Y130.361 E8.54682
G1 X119.353 Y131.588 E8.66258
G1 X119.069 Y131.99 E8.70187
G1 X118.543 Y132.687 E8.77157
G1 X118.383 Y132.881 E8.79164
G1 X117.427 Y133.936 E8.90529
G1 X117.105 Y134.257 E8.94159
G1 X116.421 Y134.891 E9.01603
G1 X116.264 Y135.025 E9.03251
G1 X115.113 Y135.917 E9.14875
G1 X114.717 Y136.191 E9.18719
G1 X113.981 Y136.667 E9.25715
G1 X113.782 Y136.784 E9.27558
G1 X112.506 Y137.457 E9.39074
G1 X112.096 Y137.647 E9.42681
G1 X111.257 Y138.002 E9.49953
G1 X111.049 Y138.079 E9.51723
G1 X109.678 Y138.519 E9.63217
G1 X109.188 Y138.647 E9.6726
G1 X108.321 Y138.845 E9.74359
G1 X108.105 Y138.885 E9.76112
G1 X106.727 Y139.075 E9.87216
G1 X106.249 Y139.115 E9.91045
G1 X104.922 Y139.17 E10.01647
G1 X103.809 Y139.168 E10.10531
G1 X102.664 Y139.121 E10.19679
G1 X102.159 Y139.081 E10.23723
G1 X101.263 Y138.979 E10.30921
G1 X101.028 Y138.94 E10.32823
G1 X99.518 Y138.623 E10.45139
G1 X99.089 Y138.508 E10.48684
G1 X98.187 Y138.235 E10.56207
G1 X97.991 Y138.165 E10.57868
G1 X96.606 Y137.603 E10.69799
G1 X96.174 Y137.398 E10.73616
G1 X95.373 Y136.989 E10.80796
G1 X95.21 Y136.896 E10.82294
G1 X93.975 Y136.118 E10.93945
G1 X93.581 Y135.84 E10.97794
G1 X92.865 Y135.3 E11.04953
G1 X92.699 Y135.162 E11.06676
G1 X91.634 Y134.197 E11.18148
G1 X91.341 Y133.904 E11.21456
G1 X91.005 Y133.551 E11.25346
G1 X90.991 Y133.565 E11.25504
G1 X90.822 Y133.404 E11.27367
G1 X90.272 Y132.999 E11.32819
G1 X89.681 Y132.669 E11.38223
G1 X88.531 Y132.161 E11.48258
G1 X87.685 Y131.734 E11.55823
G1 X87.532 Y131.649 E11.5722
G1 X86.785 Y131.202 E11.64169
G1 X86.617 Y131.093 E11.65767
G1 X85.891 Y130.581 E11.72859
G1 X85.769 Y130.488 E11.74083
G1 X84.835 Y129.714 E11.83766
G1 X84.154 Y129.077 E11.9121
G1 X84.018 Y128.939 E11.92756
G1 X83.418 Y128.29 E11.99812
G1 X83.307 Y128.16 E12.01176
G1 X82.65 Y127.328 E12.09639
G1 X82.042 Y126.432 E12.18282
G1 X81.971 Y126.318 E12.19354
G1 X81.498 Y125.517 E12.2678
G1 X81.425 Y125.382 E12.28005
G1 X81.021 Y124.568 E12.35259
G1 X80.946 Y124.402 E12.36713
G1 X80.612 Y123.584 E12.43766
G1 X80.549 Y123.412 E12.45228
G1 X80.404 Y122.967 E12.48964
G1 X80.156 Y122.343 E12.54324
G1 X79.824 Y121.747 E12.5977
G1 X79.421 Y121.196 E12.65219
G1 X78.947 Y120.697 E12.70713
G1 X78.686 Y120.495 E12.73347
G1 X78.702 Y120.473 E12.73564
G1 X78.114 Y120.053 E12.79333
G1 X76.94 Y119.129 E12.91258
G1 X76.337 Y118.602 E12.97651
G1 X75.653 Y117.961 E13.05134
G1 X75.522 Y117.828 E13.06624
G1 X74.622 Y116.829 E13.17357
G1 X74.361 Y116.509 E13.20654
G1 X73.801 Y115.775 E13.28023
G1 X73.673 Y115.592 E13.29806
G1 X72.899 Y114.364 E13.41393
G1 X72.485 Y113.624 E13.48162
G1 X72.06 Y112.797 E13.55584
G1 X71.981 Y112.626 E13.57087
G1 X71.486 Y111.425 E13.67457
G1 X71.333 Y110.997 E13.71085
G1 X71.059 Y110.146 E13.78221
G1 X70.994 Y109.908 E13.80191
G1 X70.667 Y108.434 E13.92243
G1 X70.532 Y107.631 E13.98743
G1 X70.411 Y106.712 E14.06142
G1 X70.393 Y106.516 E14.07713
G1 X70.332 Y105.246 E14.17862
G1 X70.332 Y104.764 E14.2171
G1 X70.36 Y103.879 E14.28778
G1 X70.377 Y103.657 E14.30555
G1 X70.558 Y102.191 E14.42346
G1 X70.694 Y101.414 E14.48643
G1 X70.891 Y100.48 E14.56263
G1 X70.933 Y100.318 E14.57598
G1 X71.341 Y98.977 E14.68787
G1 X71.493 Y98.555 E14.72368
G1 X71.84 Y97.684 E14.79852
G1 X71.918 Y97.508 E14.81389
G1 X72.562 Y96.232 E14.92798
G1 X72.982 Y95.495 E14.99569
G1 X73.448 Y94.74 E15.06652
G1 X73.568 Y94.562 E15.08365
G1 X74.376 Y93.473 E15.19189
G1 X74.635 Y93.156 E15.22457
G1 X75.26 Y92.444 E15.3002
G1 X75.411 Y92.287 E15.31758
G1 X76.486 Y91.264 E15.43604
G1 X77.131 Y90.714 E15.5037
M204 S3000
M205 X10 Y10
G0 F6000 X76.8 Y90.996
M204 S1800
M205 X8 Y8
G1 F1012.5 X76.8 Y119.006 E17.73958
M204 S3000
M205 X10 Y10
G0 F6000 X78.4 Y120.257
M204 S1800
M205 X8 Y8
G1 F1012.5 X78.4 Y89.765 E20.17359
M204 S3000
M205 X10 Y10
G0 F6000 X80 Y88.78
M204 S1800
M205 X8 Y8
G1 F1012.5 X80 Y122.062 E22.8303
M204 S3000
M205 X10 Y10
G0 F6000 X81.6 Y125.689
M204 S1800
M205 X8 Y8
G1 F1012.5 X81.6 Y88.029 E25.83648
M204 S3000
M205 X10 Y10
G0 F6000 X83.2 Y87.429
M204 S1800
M205 X8 Y8
G1 F1012.5 X83.2 Y128.024 E29.07695
M204 S3000
M205 X10 Y10
G0 F6000 X84.8 Y129.681
M204 S1800
M205 X8 Y8
G1 F1012.5 X84.8 Y86.993 E32.48449
M204 S3000
M205 X10 Y10
G0 F6000 X86.4 Y86.709
M204 S1800
M205 X8 Y8
G1 F1012.5 X86.4 Y130.939 E36.01512
M204 S3000
M205 X10 Y10
G0 F6000 X88 Y131.892
M204 S1800
M205 X8 Y8
G1 F1012.5 X88 Y86.589 E39.63141
M204 S3000
M205 X10 Y10
G0 F6000 X89.6 Y86.579
M204 S1800
M205 X8 Y8
G1 F1012.5 X89.6 Y132.633 E43.30763
M204 S3000
M205 X10 Y10
G0 F6000 X91.2 Y133.755
M204 S1800
M205 X8 Y8
G1 F1012.5 X91.2 Y86.72 E47.06217
M204 S3000
M205 X10 Y10
G0 F6000 X92.8 Y87.003
M204 S1800
M205 X8 Y8
G1 F1012.5 X92.8 Y135.245 E50.91306
M204 S3000
M205 X10 Y10
G0 F6000 X94.4 Y136.385
M204 S1800
M205 X8 Y8
G1 F1012.5 X94.4 Y87.455 E54.81886
M204 S3000
M205 X10 Y10
G0 F6000 X96 Y88.034
M204 S1800
M205 X8 Y8
G1 F1012.5 X96 Y137.309 E58.7522
M204 S3000
M205 X10 Y10
G0 F6000 X97.6 Y138.006
M204 S1800
M205 X8 Y8
G1 F1012.5 X97.6 Y88.786 E62.68116
M204 S3000
M205 X10 Y10
G0 F6000 X99.2 Y89.242
M204 S1800
M205 X8 Y8
G1 F1012.5 X99.2 Y138.537 E66.6161
M204 S3000
M205 X10 Y10
G0 F6000 X100.8 Y138.892
M204 S1800
M205 X8 Y8
G1 F1012.5 X100.8 Y89.196 E70.58305
M204 S3000
M205 X10 Y10
G0 F6000 X102.4 Y88.987
M204 S1800
M205 X8 Y8
G1 F1012.5 X102.4 Y139.1 E74.58328
M204 S3000
M205 X10 Y10
G0 F6000 X104 Y139.168
M204 S1800
M205 X8 Y8
G1 F1012.5 X104 Y88.913 E78.59486
M204 S3000
M205 X10 Y10
G0 F6000 X105.6 Y88.909
M204 S1800
M205 X8 Y8
G1 F1012.5 X105.6 Y139.142 E82.60467
M204 S3000
M205 X10 Y10
G0 F6000 X107.2 Y139.01
M204 S1800
M205 X8 Y8
G1 F1012.5 X107.2 Y88.909 E86.60395
M204 S3000
M205 X10 Y10
G0 F6000 X108.8 Y88.91
M204 S1800
M205 X8 Y8
G1 F1012.5 X108.8 Y138.736 E90.58128
M204 S3000
M205 X10 Y10
G0 F6000 X110.4 Y138.288
M204 S1800
M205 X8 Y8
G1 F1012.5 X110.4 Y88.91 E94.52284
M204 S3000
M205 X10 Y10
G0 F6000 X112 Y88.925
M204 S1800
M205 X8 Y8
G1 F1012.5 X112 Y137.688 E98.41531
M204 S3000
M205 X10 Y10
G0 F6000 X113.6 Y136.88
M204 S1800
M205 X8 Y8
G1 F1012.5 X113.6 Y89.011 E102.23643
M204 S3000
M205 X10 Y10
G0 F6000 X115.2 Y89.11
M204 S1800
M205 X8 Y8
G1 F1012.5 X115.2 Y135.85 E105.96741
M204 S3000
M205 X10 Y10
G0 F6000 X116.8 Y134.54
M204 S1800
M205 X8 Y8
G1 F1012.5 X116.8 Y89.208 E109.58601
M204 S3000
M205 X10 Y10
G0 F6000 X118.4 Y89.306
M204 S1800
M205 X8 Y8
G1 F1012.5 X118.4 Y132.861 E113.06276
M204 S3000
M205 X10 Y10
G0 F6000 X120 Y130.562
M204 S1800
M205 X8 Y8
G1 F1012.5 X120 Y89.404 E116.34817
M204 S3000
M205 X10 Y10
G0 F6000 X121.6 Y89.503
M204 S1800
M205 X8 Y8
G1 F1012.5 X121.6 Y126.94 E119.33655
M204 S3000
M205 X10 Y10
G0 F6000 X123.2 Y124.224
M204 S1800
M205 X8 Y8
G1 F1012.5 X123.2 Y89.601 E122.10031
M204 S3000
M205 X10 Y10
G0 F6000 X124.8 Y89.699
M204 S1800
M205 X8 Y8
G1 F1012.5 X124.8 Y123.193 E124.77395
M204 S3000
M205 X10 Y10
G0 F6000 X126.4 Y122.757
M204 S1800
M205 X8 Y8
G1 F1012.5 X126.4 Y89.921 E127.39506
M204 S3000
M205 X10 Y10
G0 F6000 X128 Y90.319
M204 S1800
M205 X8 Y8
G1 F1012.5 X128 Y122.345 E129.95151
M204 S3000
M205 X10 Y10
G0 F6000 X129.6 Y121.753
M204 S1800
M205 X8 Y8
G1 F1012.5 X129.6 Y90.906 E132.41385
M204 S3000
M205 X10 Y10
G0 F6000 X131.2 Y91.666
M204 S1800
M205 X8 Y8
G1 F1012.5 X131.2 Y120.948 E134.75127
M204 S3000
M205 X10 Y10
G0 F6000 X132.8 Y119.951
M204 S1800
M205 X8 Y8
G1 F1012.5 X132.8 Y92.672 E136.92879
M204 S3000
M205 X10 Y10
G0 F6000 X134.4 Y93.995
M204 S1800
M205 X8 Y8
G1 F1012.5 X134.4 Y118.619 E138.89439
M204 S3000
M205 X10 Y10
G0 F6000 X136 Y116.886
M204 S1800
M205 X8 Y8
G1 F1012.5 X136 Y95.675 E140.58754
M204 S3000
M205 X10 Y10
G0 F6000 X137.6 Y98.037
M204 S1800
M205 X8 Y8
G1 F1012.5 X137.6 Y114.521 E141.90337
M204 S3000
M205 X10 Y10
G0 F6000 X139.2 Y110.4
M204 S1800
M205 X8 Y8
G1 F1012.5 X139.2 Y102.152 E142.56176
M204 S3000
M205 X10 Y10
G0 F6000 X75.2 Y92.512
M204 S1800
M205 X8 Y8
G1 F1012.5 X75.2 Y117.47 E144.55401
M204 S3000
M205 X10 Y10
G0 F6000 X73.6 Y115.476
M204 S1800
M205 X8 Y8
G1 F1012.5 X73.6 Y94.518 E146.22697
M204 S3000
M205 X10 Y10
G0 F6000 X72 Y97.345
M204 S1800
M205 X8 Y8
G1 F1012.5 X72 Y112.667 E147.45004
M204 S3000
M205 X10 Y10
G0 F6000 X70.4 Y106.592
M204 S1800
M205 X8 Y8
G1 F1012.5 X70.4 Y103.47 E147.69925
M204 S3000
M205 X10 Y10
G0 F600 X70.4 Y103.47 Z0.39
G0 F6000 X81.31 Y125.15
;TIME_ELAPSED:116.178251
;LAYER:-7
M140 S60
M204 S1800
M205 X8 Y8
;TYPE:SUPPORT
G1 F1012.5 X88.104 Y131.944 E148.1786
G1 X87.684 Y131.733 E148.20205
G1 X87.532 Y131.648 E148.21074
G1 X86.785 Y131.201 E148.25417
G1 X86.617 Y131.092 E148.26416
G1 X85.89 Y130.579 E148.30856
G1 X85.768 Y130.487 E148.31618
G1 X84.835 Y129.713 E148.37666
G1 X84.154 Y129.076 E148.42318
G1 X84.018 Y128.938 E148.43285
G1 X83.418 Y128.289 E148.47694
G1 X83.307 Y128.158 E148.48551
G1 X82.649 Y127.327 E148.53839
G1 X82.042 Y126.431 E148.59238
G1 X81.97 Y126.317 E148.59911
G1 X81.497 Y125.516 E148.64552
G1 X81.424 Y125.381 E148.65318
M204 S3000
M205 X10 Y10
G0 F6000 X88.104 Y131.944
M204 S1800
M205 X8 Y8
G1 F1012.5 X88.53 Y132.16 E148.67701
G1 X89.68 Y132.668 E148.73973
G1 X90.272 Y132.998 E148.77354
G1 X90.821 Y133.403 E148.80758
G1 X90.991 Y133.564 E148.81926
G1 X91.005 Y133.55 E148.82025
G1 X91.341 Y133.903 E148.84456
G1 X91.633 Y134.196 E148.8652
G1 X92.699 Y135.161 E148.93694
G1 X92.865 Y135.299 E148.94771
G1 X92.898 Y135.325 E148.9498
G1 X80.314 Y122.741 E149.83767
G1 X80.156 Y122.342 E149.85908
G1 X79.823 Y121.746 E149.89314
G1 X79.42 Y121.195 E149.9272
G1 X78.947 Y120.696 E149.9615
G1 X78.686 Y120.494 E149.97797
G1 X78.701 Y120.471 E149.97934
G1 X78.114 Y120.052 E150.01532
G1 X76.939 Y119.128 E150.08989
G1 X76.337 Y118.6 E150.12984
G1 X75.652 Y117.96 E150.17661
G1 X75.522 Y117.827 E150.18589
G1 X74.622 Y116.828 E150.25298
G1 X74.36 Y116.508 E150.27361
G1 X73.8 Y115.774 E150.31967
G1 X73.672 Y115.591 E150.33081
G1 X72.898 Y114.363 E150.40323
G1 X72.484 Y113.622 E150.44558
G1 X72.351 Y113.363 E150.4601
G1 X96.575 Y137.588 E152.16927
G1 X96.605 Y137.602 E152.17092
G1 X97.99 Y138.164 E152.24549
G1 X98.186 Y138.234 E152.25588
G1 X98.83 Y138.428 E152.28943
G1 X71.301 Y110.899 E154.23175
G1 X71.059 Y110.145 E154.27126
G1 X70.994 Y109.907 E154.28357
G1 X70.785 Y108.969 E154.33151
G1 X100.682 Y138.866 E156.44091
G1 X101.028 Y138.939 E156.45855
G1 X101.262 Y138.978 E156.47038
G1 X102.159 Y139.08 E156.51542
G1 X102.323 Y139.092 E156.52363
G1 X70.482 Y107.251 E158.77018
G1 X70.41 Y106.71 E158.79741
G1 X70.393 Y106.515 E158.80718
G1 X70.354 Y105.709 E158.84744
G1 X103.811 Y139.167 E161.20804
G1 X104.922 Y139.169 E161.26347
G1 X105.215 Y139.156 E161.2781
G1 X70.346 Y104.287 E163.7383
G1 X70.359 Y103.878 E163.75872
G1 X70.376 Y103.656 E163.76982
G1 X70.458 Y102.985 E163.80355
G1 X106.56 Y139.087 E166.35074
G1 X106.727 Y139.074 E166.3591
G1 X107.811 Y138.924 E166.41369
G1 X70.635 Y101.747 E169.0367
G1 X70.693 Y101.413 E169.05361
G1 X70.871 Y100.569 E169.09664
G1 X108.992 Y138.69 E171.78628
G1 X109.187 Y138.645 E171.79627
G1 X109.677 Y138.517 E171.82154
G1 X110.098 Y138.382 E171.84359
G1 X71.189 Y99.473 E174.58883
G1 X71.341 Y98.976 E174.61476
G1 X71.493 Y98.554 E174.63714
G1 X71.547 Y98.417 E174.64449
G1 X111.164 Y138.035 E177.43971
G1 X111.256 Y138.001 E177.44461
G1 X112.095 Y137.646 E177.49006
G1 X112.159 Y137.615 E177.49361
G1 X71.962 Y97.418 E180.32972
G1 X72.436 Y96.478 E180.38224
G1 X113.1 Y137.141 E183.25127
G1 X113.781 Y136.782 E183.28968
G1 X113.98 Y136.666 E183.30117
