;FLAVOR:Marlin
;TIME:25776
;Filament used: 49.5871m, 0m, 0m, 0m
;Layer height: 0.3
;MINX:55.199
;MINY:85.329
;MINZ:0.24
;MAXX:154.8
;MAXY:123.3
;MAXZ:158.24
;Generated with Cura_SteamEngine 4.3.0
T0
M140 S60
M105
M190 S60
M104 S215
M105
M109 S215
M82 ;absolute extrusion mode
G21 ;metric values
G90 ;absolute positioning
M82 ;set extruder to absolute mode
M107 ;start with the fan off
G28 X0 Y0 ;move X/Y to min endstops
G28 Z0 ;move Z to min endstops
G1 Z15.0 F100 ;move the platform down 15mm
G92 E0 ;zero the extruded length
G1 F200 E3 ;extrude 3mm of feed stock
G92 E0 ;zero the extruded length again
G1 F100
M117 Printing...
G5
G92 E0
G92 E0
G1 F2400 E-4
;LAYER_COUNT:523
;LAYER:-5
M107
M204 S3000
M205 X10 Y10
G0 F6000 X57.697 Y87.627 Z0.24
M204 S1800
M205 X8 Y8
;TYPE:SUPPORT-INTERFACE
G1 F2400 E0
G1 F1012.5 X57.965 Y87.469 E0.02483
G1 X58.222 Y87.339 E0.04782
G1 X58.492 Y87.223 E0.07128
G1 X58.748 Y87.131 E0.093
G1 X59.04 Y87.047 E0.11725
G1 X59.301 Y86.991 E0.13856
G1 X59.621 Y86.943 E0.16439
G1 X60.564 Y86.87 E0.23989
G1 X60.564 Y86.86 E0.24069
G1 X60.77 Y86.839 E0.25721
G1 X61.435 Y86.686 E0.31168
G1 X62.075 Y86.451 E0.36611
G1 X62.629 Y86.166 E0.41584
G1 X62.725 Y86.11 E0.42471
G1 X62.966 Y85.988 E0.44627
G1 X63.243 Y85.869 E0.47034
G1 X63.499 Y85.777 E0.49205
G1 X63.788 Y85.694 E0.51605
G1 X64.053 Y85.636 E0.53771
G1 X64.379 Y85.588 E0.56401
G1 X64.814 Y85.553 E0.59885
G1 X64.99 Y85.545 E0.61291
G1 X67.607 Y85.534 E0.82181
G1 X67.992 Y85.555 E0.85259
G1 X68.282 Y85.591 E0.87592
G1 X68.571 Y85.645 E0.89939
G1 X68.849 Y85.714 E0.92225
G1 X69.135 Y85.806 E0.94623
G1 X69.38 Y85.902 E0.96724
G1 X69.667 Y86.036 E0.99252
G1 X69.925 Y86.177 E1.01599
G1 X70.133 Y86.308 E1.03561
G1 X70.407 Y86.51 E1.06279
G1 X70.775 Y86.823 E1.10135
G1 X70.943 Y86.98 E1.1197
G1 X71.043 Y87.087 E1.1314
G1 X71.302 Y87.382 E1.16273
G1 X71.469 Y87.597 E1.18446
G1 X71.625 Y87.828 E1.20671
G1 X71.783 Y88.096 E1.23155
G1 X71.915 Y88.355 E1.25475
G1 X72.018 Y88.594 E1.27553
G1 X72.125 Y88.892 E1.3008
G1 X72.204 Y89.168 E1.32372
G1 X72.262 Y89.434 E1.34545
G1 X72.309 Y89.75 E1.37095
G1 X72.345 Y90.213 E1.40802
G1 X72.352 Y90.398 E1.4228
G1 X72.352 Y100.143 E2.20069
G1 X72.394 Y100.811 E2.25412
G1 X72.523 Y101.482 E2.30866
G1 X72.736 Y102.131 E2.36318
G1 X73.028 Y102.748 E2.41767
G1 X73.396 Y103.323 E2.47217
G1 X73.834 Y103.847 E2.52668
G1 X74.334 Y104.311 E2.58113
G1 X74.89 Y104.71 E2.63576
G1 X75.49 Y105.034 E2.69019
G1 X76.126 Y105.28 E2.74463
G1 X76.795 Y105.446 E2.79965
G1 X77.734 Y105.53 E2.8749
G1 X136.765 Y105.53 E7.58701
G1 X137.433 Y105.488 E7.64044
G1 X138.104 Y105.359 E7.69498
G1 X138.753 Y105.146 E7.74951
G1 X139.37 Y104.854 E7.804
G1 X139.945 Y104.486 E7.85849
G1 X140.469 Y104.048 E7.91301
G1 X140.933 Y103.548 E7.96746
G1 X141.332 Y102.992 E8.02208
G1 X141.656 Y102.392 E8.07652
G1 X141.902 Y101.756 E8.13095
G1 X142.068 Y101.087 E8.18597
G1 X142.152 Y100.148 E8.26123
G1 X142.156 Y90.244 E9.05181
G1 X142.18 Y89.862 E9.08236
G1 X142.217 Y89.567 E9.10609
G1 X142.272 Y89.285 E9.12903
G1 X142.349 Y88.987 E9.15359
G1 X142.432 Y88.736 E9.1747
G1 X142.543 Y88.457 E9.19867
G1 X142.665 Y88.199 E9.22145
G1 X142.811 Y87.936 E9.24546
G1 X142.948 Y87.721 E9.26581
G1 X143.146 Y87.455 E9.29228
G1 X143.45 Y87.101 E9.32953
G1 X143.614 Y86.926 E9.34867
G1 X143.708 Y86.839 E9.3589
G1 X144.003 Y86.58 E9.39023
G1 X144.218 Y86.413 E9.41196
G1 X144.449 Y86.257 E9.43421
G1 X144.717 Y86.099 E9.45905
G1 X144.974 Y85.969 E9.48204
G1 X145.244 Y85.853 E9.5055
G1 X145.5 Y85.761 E9.52721
G1 X145.792 Y85.677 E9.55146
G1 X146.053 Y85.621 E9.57277
G1 X146.373 Y85.573 E9.5986
G1 X146.841 Y85.537 E9.63607
G1 X147.033 Y85.53 E9.65141
G1 X149.638 Y85.534 E9.85935
G1 X150.015 Y85.558 E9.8895
G1 X150.313 Y85.595 E9.91347
G1 X150.598 Y85.65 E9.93664
G1 X150.881 Y85.724 E9.95999
G1 X151.153 Y85.813 E9.98284
G1 X151.425 Y85.921 E10.0062
G1 X151.683 Y86.043 E10.02898
G1 X151.941 Y86.186 E10.05253
G1 X152.18 Y86.338 E10.07514
G1 X152.427 Y86.52 E10.09963
G1 X152.628 Y86.689 E10.12059
G1 X152.86 Y86.908 E10.14606
G1 X153.048 Y87.111 E10.16814
G1 X153.236 Y87.341 E10.19186
G1 X153.397 Y87.565 E10.21388
G1 X153.561 Y87.828 E10.23862
G1 X153.686 Y88.059 E10.25958
G1 X153.817 Y88.34 E10.28433
G1 X153.919 Y88.603 E10.30685
G1 X154.014 Y88.906 E10.3322
G1 X154.07 Y89.132 E10.35078
G1 X154.129 Y89.483 E10.37919
G1 X154.181 Y90.033 E10.42329
G1 X154.189 Y90.196 E10.43632
G1 X154.349 Y113.532 E12.29914
G1 X154.395 Y114.197 E12.35235
G1 X154.474 Y114.637 E12.38804
G1 X154.512 Y114.811 E12.40225
G1 X154.557 Y115.119 E12.4271
G1 X154.593 Y115.582 E12.46417
G1 X154.6 Y115.767 E12.47895
G1 X154.596 Y118.386 E12.68801
G1 X154.572 Y118.763 E12.71816
G1 X154.535 Y119.061 E12.74214
G1 X154.48 Y119.345 E12.76523
G1 X154.404 Y119.636 E12.78923
G1 X154.32 Y119.894 E12.81089
G1 X154.209 Y120.173 E12.83486
G1 X154.087 Y120.431 E12.85764
G1 X153.943 Y120.69 E12.8813
G1 X153.804 Y120.909 E12.902
G1 X153.606 Y121.175 E12.92847
G1 X153.302 Y121.529 E12.96572
G1 X153.151 Y121.691 E12.9834
G1 X153.044 Y121.791 E12.99509
G1 X152.751 Y122.048 E13.0262
G1 X152.534 Y122.217 E13.04816
G1 X152.303 Y122.373 E13.07041
G1 X152.035 Y122.531 E13.09524
G1 X151.778 Y122.661 E13.11823
G1 X151.509 Y122.776 E13.14158
G1 X151.252 Y122.869 E13.1634
G1 X150.96 Y122.953 E13.18765
G1 X150.699 Y123.009 E13.20896
G1 X150.379 Y123.057 E13.23479
G1 X149.911 Y123.093 E13.27226
G1 X149.719 Y123.1 E13.2876
G1 X60.24 Y123.1 E20.4302
G1 X60.114 Y123.096 E20.44026
G1 X59.737 Y123.072 E20.47041
G1 X59.439 Y123.035 E20.49438
G1 X59.155 Y122.98 E20.51748
G1 X58.864 Y122.904 E20.54148
G1 X58.604 Y122.819 E20.56332
G1 X58.327 Y122.709 E20.58711
G1 X58.068 Y122.586 E20.61
G1 X57.81 Y122.443 E20.63354
G1 X57.591 Y122.304 E20.65425
G1 X57.325 Y122.106 E20.68072
G1 X56.971 Y121.802 E20.71797
G1 X56.809 Y121.651 E20.73565
G1 X56.701 Y121.535 E20.7483
G1 X56.45 Y121.249 E20.77867
G1 X56.283 Y121.034 E20.8004
G1 X56.124 Y120.798 E20.82312
G1 X55.969 Y120.535 E20.84749
G1 X55.839 Y120.278 E20.87048
G1 X55.723 Y120.008 E20.89393
G1 X55.631 Y119.752 E20.91565
G1 X55.547 Y119.46 E20.9399
G1 X55.491 Y119.199 E20.96121
G1 X55.443 Y118.879 E20.98704
G1 X55.406 Y118.401 E21.02531
G1 X55.4 Y118.233 E21.03873
G1 X55.404 Y91.614 E23.16357
G1 X55.428 Y91.237 E23.19373
G1 X55.465 Y90.939 E23.2177
G1 X55.52 Y90.655 E23.24079
G1 X55.598 Y90.357 E23.26538
G1 X55.68 Y90.106 E23.28646
G1 X55.791 Y89.827 E23.31043
G1 X55.913 Y89.569 E23.33321
G1 X56.059 Y89.306 E23.35722
G1 X56.196 Y89.091 E23.37757
G1 X56.394 Y88.825 E23.40404
G1 X56.698 Y88.471 E23.44129
G1 X56.849 Y88.309 E23.45896
G1 X56.956 Y88.209 E23.47065
G1 X57.251 Y87.95 E23.50199
G1 X57.466 Y87.783 E23.52372
G1 X57.697 Y87.627 E23.54597
M204 S3000
M205 X10 Y10
G0 F6000 X57.6 Y87.692
M204 S1800
M205 X8 Y8
G1 F1012.5 X57.6 Y122.309 E26.30925
M204 S3000
M205 X10 Y10
G0 F6000 X59.2 Y122.988
M204 S1800
M205 X8 Y8
G1 F1012.5 X59.2 Y87.012 E29.18101
M204 S3000
M205 X10 Y10
G0 F6000 X60.8 Y86.832
M204 S1800
M205 X8 Y8
G1 F1012.5 X60.8 Y123.1 E32.07608
M204 S3000
M205 X10 Y10
G0 F6000 X62.4 Y123.1
M204 S1800
M205 X8 Y8
G1 F1012.5 X62.4 Y86.283 E35.01497
M204 S3000
M205 X10 Y10
G0 F6000 X64 Y85.647
M204 S1800
M205 X8 Y8
G1 F1012.5 X64 Y123.1 E38.00463
M204 S3000
M205 X10 Y10
G0 F6000 X65.6 Y123.1
M204 S1800
M205 X8 Y8
G1 F1012.5 X65.6 Y85.542 E41.00267
M204 S3000
M205 X10 Y10
G0 F6000 X67.2 Y85.535
M204 S1800
M205 X8 Y8
G1 F1012.5 X67.2 Y123.1 E44.00128
M204 S3000
M205 X10 Y10
G0 F6000 X68.8 Y123.1
M204 S1800
M205 X8 Y8
G1 F1012.5 X68.8 Y85.702 E46.98655
M204 S3000
M205 X10 Y10
G0 F6000 X70.4 Y86.505
M204 S1800
M205 X8 Y8
G1 F1012.5 X70.4 Y123.1 E49.90772
M204 S3000
M205 X10 Y10
G0 F6000 X72 Y123.1
M204 S1800
M205 X8 Y8
G1 F1012.5 X72 Y88.553 E52.66541
M204 S3000
M205 X10 Y10
G0 F6000 X72.853 Y100.756
G0 X73.6 Y103.568
M204 S1800
M205 X8 Y8
G1 F1012.5 X73.6 Y123.1 E54.22454
M204 S3000
M205 X10 Y10
G0 F6000 X75.2 Y123.1
M204 S1800
M205 X8 Y8
G1 F1012.5 X75.2 Y104.878 E55.67909
M204 S3000
M205 X10 Y10
G0 F6000 X76.8 Y105.447
M204 S1800
M205 X8 Y8
G1 F1012.5 X76.8 Y123.1 E57.08823
M204 S3000
M205 X10 Y10
G0 F6000 X78.4 Y123.1
M204 S1800
M205 X8 Y8
G1 F1012.5 X78.4 Y105.53 E58.49075
M204 S3000
M205 X10 Y10
G0 F6000 X80 Y105.53
M204 S1800
M205 X8 Y8
G1 F1012.5 X80 Y123.1 E59.89326
M204 S3000
M205 X10 Y10
G0 F6000 X81.6 Y123.1
M204 S1800
M205 X8 Y8
G1 F1012.5 X81.6 Y105.53 E61.29577
M204 S3000
M205 X10 Y10
G0 F6000 X83.2 Y105.53
M204 S1800
M205 X8 Y8
G1 F1012.5 X83.2 Y123.1 E62.69829
M204 S3000
M205 X10 Y10
G0 F6000 X84.8 Y123.1
M204 S1800
M205 X8 Y8
G1 F1012.5 X84.8 Y105.53 E64.1008
M204 S3000
M205 X10 Y10
G0 F6000 X86.4 Y105.53
M204 S1800
M205 X8 Y8
G1 F1012.5 X86.4 Y123.1 E65.50331
M204 S3000
M205 X10 Y10
G0 F6000 X88 Y123.1
M204 S1800
M205 X8 Y8
G1 F1012.5 X88 Y105.53 E66.90583
M204 S3000
M205 X10 Y10
G0 F6000 X89.6 Y105.53
M204 S1800
M205 X8 Y8
G1 F1012.5 X89.6 Y123.1 E68.30834
M204 S3000
M205 X10 Y10
G0 F6000 X91.2 Y123.1
M204 S1800
M205 X8 Y8
G1 F1012.5 X91.2 Y105.53 E69.71085
M204 S3000
M205 X10 Y10
G0 F6000 X92.8 Y105.53
M204 S1800
M205 X8 Y8
G1 F1012.5 X92.8 Y123.1 E71.11337
M204 S3000
M205 X10 Y10
G0 F6000 X94.4 Y123.1
M204 S1800
M205 X8 Y8
G1 F1012.5 X94.4 Y105.53 E72.51588
M204 S3000
M205 X10 Y10
G0 F6000 X96 Y105.53
M204 S1800
M205 X8 Y8
G1 F1012.5 X96 Y123.1 E73.91839
M204 S3000
M205 X10 Y10
G0 F6000 X97.6 Y123.1
M204 S1800
M205 X8 Y8
G1 F1012.5 X97.6 Y105.53 E75.32091
M204 S3000
M205 X10 Y10
G0 F6000 X99.2 Y105.53
M204 S1800
M205 X8 Y8
G1 F1012.5 X99.2 Y123.1 E76.72342
M204 S3000
M205 X10 Y10
G0 F6000 X100.8 Y123.1
M204 S1800
M205 X8 Y8
G1 F1012.5 X100.8 Y105.53 E78.12593
M204 S3000
M205 X10 Y10
G0 F6000 X102.4 Y105.53
M204 S1800
M205 X8 Y8
G1 F1012.5 X102.4 Y123.1 E79.52845
M204 S3000
M205 X10 Y10
G0 F6000 X104 Y123.1
M204 S1800
M205 X8 Y8
G1 F1012.5 X104 Y105.53 E80.93096
M204 S3000
M205 X10 Y10
G0 F6000 X105.6 Y105.53
M204 S1800
M205 X8 Y8
G1 F1012.5 X105.6 Y123.1 E82.33347
M204 S3000
M205 X10 Y10
G0 F6000 X107.2 Y123.1
M204 S1800
M205 X8 Y8
G1 F1012.5 X107.2 Y105.53 E83.73599
M204 S3000
M205 X10 Y10
G0 F6000 X108.8 Y105.53
M204 S1800
M205 X8 Y8
G1 F1012.5 X108.8 Y123.1 E85.1385
M204 S3000
M205 X10 Y10
G0 F6000 X110.4 Y123.1
M204 S1800
M205 X8 Y8
G1 F1012.5 X110.4 Y105.53 E86.54101
M204 S3000
M205 X10 Y10
G0 F6000 X112 Y105.53
M204 S1800
M205 X8 Y8
G1 F1012.5 X112 Y123.1 E87.94353
M204 S3000
M205 X10 Y10
G0 F6000 X113.6 Y123.1
M204 S1800
M205 X8 Y8
G1 F1012.5 X113.6 Y105.53 E89.34604
M204 S3000
M205 X10 Y10
G0 F6000 X115.2 Y105.53
M204 S1800
M205 X8 Y8
G1 F1012.5 X115.2 Y123.1 E90.74855
M204 S3000
M205 X10 Y10
G0 F6000 X116.8 Y123.1
M204 S1800
M205 X8 Y8
G1 F1012.5 X116.8 Y105.53 E92.15107
M204 S3000
M205 X10 Y10
G0 F6000 X118.4 Y105.53
M204 S1800
M205 X8 Y8
G1 F1012.5 X118.4 Y123.1 E93.55358
M204 S3000
M205 X10 Y10
G0 F6000 X120 Y123.1
M204 S1800
M205 X8 Y8
G1 F1012.5 X120 Y105.53 E94.95609
M204 S3000
M205 X10 Y10
G0 F6000 X121.6 Y105.53
M204 S1800
M205 X8 Y8
G1 F1012.5 X121.6 Y123.1 E96.35861
M204 S3000
M205 X10 Y10
G0 F6000 X123.2 Y123.1
M204 S1800
M205 X8 Y8
G1 F1012.5 X123.2 Y105.53 E97.76112
M204 S3000
M205 X10 Y10
G0 F6000 X124.8 Y105.53
M204 S1800
M205 X8 Y8
G1 F1012.5 X124.8 Y123.1 E99.16363
M204 S3000
M205 X10 Y10
G0 F6000 X126.4 Y123.1
M204 S1800
M205 X8 Y8
G1 F1012.5 X126.4 Y105.53 E100.56615
M204 S3000
M205 X10 Y10
G0 F6000 X128 Y105.53
M204 S1800
M205 X8 Y8
G1 F1012.5 X128 Y123.1 E101.96866
M204 S3000
M205 X10 Y10
G0 F6000 X129.6 Y123.1
M204 S1800
M205 X8 Y8
G1 F1012.5 X129.6 Y105.53 E103.37117
M204 S3000
M205 X10 Y10
G0 F6000 X131.2 Y105.53
M204 S1800
M205 X8 Y8
G1 F1012.5 X131.2 Y123.1 E104.77369
M204 S3000
M205 X10 Y10
G0 F6000 X132.8 Y123.1
M204 S1800
M205 X8 Y8
G1 F1012.5 X132.8 Y105.53 E106.1762
M204 S3000
M205 X10 Y10
G0 F6000 X134.4 Y105.53
M204 S1800
M205 X8 Y8
G1 F1012.5 X134.4 Y123.1 E107.57871
M204 S3000
M205 X10 Y10
G0 F6000 X136 Y123.1
M204 S1800
M205 X8 Y8
G1 F1012.5 X136 Y105.53 E108.98123
M204 S3000
M205 X10 Y10
G0 F6000 X137.6 Y105.455
M204 S1800
M205 X8 Y8
G1 F1012.5 X137.6 Y123.1 E110.38973
M204 S3000
M205 X10 Y10
G0 F6000 X139.2 Y123.1
M204 S1800
M205 X8 Y8
G1 F1012.5 X139.2 Y104.934 E111.83982
M204 S3000
M205 X10 Y10
G0 F6000 X140.8 Y103.691
M204 S1800
M205 X8 Y8
G1 F1012.5 X140.8 Y123.1 E113.38913
M204 S3000
M205 X10 Y10
G0 F6000 X142.4 Y123.1
M204 S1800
M205 X8 Y8
G1 F1012.5 X142.4 Y88.832 E116.12455
M204 S3000
M205 X10 Y10
G0 F6000 X144 Y86.582
M204 S1800
M205 X8 Y8
G1 F1012.5 X144 Y123.1 E119.03957
M204 S3000
M205 X10 Y10
G0 F6000 X145.6 Y123.1
M204 S1800
M205 X8 Y8
G1 F1012.5 X145.6 Y85.732 E122.02245
M204 S3000
M205 X10 Y10
G0 F6000 X147.2 Y85.531
M204 S1800
M205 X8 Y8
G1 F1012.5 X147.2 Y123.1 E125.02137
M204 S3000
M205 X10 Y10
G0 F6000 X148.8 Y123.1
M204 S1800
M205 X8 Y8
G1 F1012.5 X148.8 Y85.533 E128.02013
M204 S3000
M205 X10 Y10
G0 F6000 X150.4 Y85.612
M204 S1800
M205 X8 Y8
G1 F1012.5 X150.4 Y123.054 E131.00891
M204 S3000
M205 X10 Y10
G0 F6000 X152 Y122.549
M204 S1800
M205 X8 Y8
G1 F1012.5 X152 Y86.224 E133.90853
M204 S3000
M205 X10 Y10
G0 F6000 X153.6 Y87.901
M204 S1800
M205 X8 Y8
G1 F1012.5 X153.6 Y121.182 E136.56516
M204 S3000
M205 X10 Y10
G0 F6000 X56 Y120.587
M204 S1800
M205 X8 Y8
G1 F1012.5 X56 Y89.412 E139.05369
M204 S3000
M205 X10 Y10
G0 F600 X56 Y89.412 Z0.69
G0 F6000 X63.242 Y85.869
;TIME_ELAPSED:110.586939
;LAYER:-4
M140 S60
M204 S1800
M205 X8 Y8
;TYPE:SUPPORT
G1 F1012.5 X72.351 Y94.979 E140.98186
G1 X72.351 Y96.393 E141.19349
G1 X62.295 Y86.337 E143.32201
G1 X62.074 Y86.45 E143.35916
G1 X61.434 Y86.685 E143.4612
G1 X61.268 Y86.724 E143.48672
G1 X72.351 Y97.807 E145.83262
G1 X72.351 Y99.221 E146.04425
G1 X60.04 Y86.91 E148.65008
G1 X59.621 Y86.942 E148.71297
G1 X59.301 Y86.99 E148.7614
G1 X59.04 Y87.046 E148.80135
G1 X58.824 Y87.109 E148.83503
G1 X72.385 Y100.67 E151.70544
G1 X72.394 Y100.81 E151.72643
G1 X72.522 Y101.481 E151.82867
G1 X72.735 Y102.13 E151.93091
G1 X73.009 Y102.707 E152.02651
G1 X57.842 Y87.541 E155.23674
G1 X57.697 Y87.626 E155.2619
G1 X57.465 Y87.782 E155.30374
G1 X57.25 Y87.949 E155.34449
G1 X57.03 Y88.143 E155.38839
G1 X91.986 Y123.098 E162.78729
G1 X90.571 Y123.098 E162.99907
G1 X56.352 Y88.879 E170.24208
G1 X56.195 Y89.09 E170.28144
G1 X56.058 Y89.305 E170.3196
G1 X55.913 Y89.568 E170.36455
G1 X55.821 Y89.762 E170.39669
G1 X89.157 Y123.098 E177.45279
G1 X87.743 Y123.098 E177.66442
G1 X55.483 Y90.839 E184.49267
G1 X55.465 Y90.938 E184.50773
G1 X55.427 Y91.235 E184.55254
G1 X55.403 Y91.613 E184.60923
G1 X55.403 Y92.172 E184.6929
G1 X86.329 Y123.098 E191.23889
G1 X84.915 Y123.098 E191.45052
G1 X55.403 Y93.586 E197.69722
G1 X55.403 Y95.001 E197.909
G1 X83.5 Y123.098 E203.85619
G1 X82.086 Y123.098 E204.06782
G1 X55.403 Y96.415 E209.71571
G1 X55.402 Y97.828 E209.92719
G1 X80.672 Y123.098 E215.276
G1 X79.258 Y123.098 E215.48763
G1 X55.402 Y99.243 E220.53704
G1 X55.402 Y100.657 E220.74867
G1 X77.843 Y123.098 E225.49867
G1 X76.429 Y123.098 E225.71031
G1 X55.402 Y102.071 E230.16101
G1 X55.401 Y103.485 E230.37265
G1 X75.015 Y123.098 E234.52416
G1 X73.601 Y123.098 E234.73579
G1 X55.401 Y104.899 E238.58801
G1 X55.401 Y106.313 E238.79965
G1 X72.187 Y123.098 E242.35257
G1 X70.772 Y123.098 E242.56435
G1 X55.401 Y107.727 E245.81788
G1 X55.401 Y109.141 E246.02951
G1 X69.358 Y123.098 E248.98374
G1 X67.944 Y123.098 E249.19537
G1 X55.401 Y110.555 E251.8503
G1 X55.401 Y111.969 E252.06193
G1 X66.53 Y123.098 E254.41757
G1 X65.116 Y123.098 E254.6292
G1 X55.4 Y113.383 E256.68564
G1 X55.4 Y114.797 E256.89728
G1 X63.701 Y123.098 E258.65432
G1 X62.287 Y123.098 E258.86595
G1 X55.4 Y116.211 E260.3237
G1 X55.4 Y117.625 E260.53533
G1 X60.873 Y123.098 E261.69378
G1 X60.239 Y123.098 E261.78867
G1 X60.114 Y123.095 E261.80739
G1 X59.737 Y123.071 E261.86393
G1 X59.438 Y123.034 E261.90902
G1 X59.384 Y123.023 E261.91727
G1 X55.478 Y119.118 E262.74393
M204 S3000
M205 X10 Y10
G0 F6000 X55.49 Y119.198
M204 S1800
M205 X8 Y8
G1 F1012.5 X55.546 Y119.459 E262.78388
G1 X55.63 Y119.751 E262.82936
G1 X55.722 Y120.007 E262.87007
G1 X55.838 Y120.277 E262.91406
G1 X55.968 Y120.534 E262.95716
G1 X56.123 Y120.797 E263.00285
G1 X56.283 Y121.033 E263.04553
