;FLAVOR:Marlin
;TIME:4778
;Filament used: 4.72502m, 0m, 0m, 0m
;Layer height: 0.25
;MINX:69.552
;MINY:81.68
;MINZ:0.24
;MAXX:141.126
;MAXY:127.054
;MAXZ:43.465
;Generated with Cura_SteamEngine 4.3.0
T0
M140 S60
M105
M190 S60
M104 S215
M105
M109 S215
M82 ;absolute extrusion mode
G21 ;metric values
G90 ;absolute positioning
M82 ;set extruder to absolute mode
M107 ;start with the fan off
G28 X0 Y0 ;move X/Y to min endstops
G28 Z0 ;move Z to min endstops
G1 Z15.0 F100 ;move the platform down 15mm
G92 E0 ;zero the extruded length
G1 F200 E3 ;extrude 3mm of feed stock
G92 E0 ;zero the extruded length again
G1 F100
M117 Printing...
G5
G92 E0
G92 E0
G1 F2400 E-4
;LAYER_COUNT:169
;LAYER:-5
M107
M204 S3000
M205 X10 Y10
G0 F6000 X75.434 Y85.493 Z0.24
M204 S1800
M205 X8 Y8
;TYPE:SUPPORT-INTERFACE
G1 F2400 E0
G1 F1012.5 X75.573 Y85.374 E0.01461
G1 X76.264 Y84.82 E0.0853
G1 X76.403 Y84.716 E0.09916
G1 X77.118 Y84.223 E0.16849
G1 X77.302 Y84.107 E0.18585
G1 X78.058 Y83.664 E0.2558
G1 X78.2 Y83.587 E0.26869
G1 X79.145 Y83.128 E0.35255
G1 X79.995 Y82.785 E0.42572
G1 X80.168 Y82.723 E0.44039
G1 X81.006 Y82.454 E0.51064
G1 X81.17 Y82.408 E0.52424
G1 X82.042 Y82.196 E0.59587
G1 X82.204 Y82.163 E0.60907
G1 X83.097 Y82.015 E0.68133
G1 X83.274 Y81.992 E0.69557
G1 X84.168 Y81.909 E0.76724
G1 X84.31 Y81.902 E0.77859
G1 X85.051 Y81.881 E0.83777
G1 X126.212 Y81.882 E4.12341
G1 X127.336 Y81.927 E4.21321
G1 X128.253 Y82.029 E4.28686
G1 X128.428 Y82.054 E4.30097
G1 X129.317 Y82.218 E4.37313
G1 X129.44 Y82.246 E4.3832
G1 X130.334 Y82.48 E4.45697
G1 X130.497 Y82.529 E4.47055
G1 X131.339 Y82.816 E4.54156
G1 X131.505 Y82.879 E4.55574
G1 X132.308 Y83.22 E4.62538
G1 X132.497 Y83.308 E4.64202
G1 X133.408 Y83.782 E4.72399
G1 X134.187 Y84.257 E4.79682
G1 X134.338 Y84.357 E4.81128
G1 X135.052 Y84.868 E4.88137
G1 X135.2 Y84.981 E4.89623
G1 X136 Y85.654 E4.97968
G1 X136.668 Y86.293 E5.05347
G1 X137.314 Y86.989 E5.12927
G1 X137.433 Y87.128 E5.14388
G1 X137.987 Y87.819 E5.21458
G1 X138.091 Y87.958 E5.22844
G1 X138.584 Y88.673 E5.29776
G1 X138.7 Y88.857 E5.31513
G1 X139.213 Y89.74 E5.39664
G1 X139.618 Y90.563 E5.46986
G1 X139.679 Y90.7 E5.48183
G1 X140.021 Y91.545 E5.5546
G1 X140.08 Y91.711 E5.56866
G1 X140.351 Y92.553 E5.63927
G1 X140.398 Y92.719 E5.65304
G1 X140.609 Y93.588 E5.72442
G1 X140.643 Y93.751 E5.73772
G1 X140.791 Y94.643 E5.80989
G1 X140.815 Y94.829 E5.82486
G1 X140.905 Y95.865 E5.90787
G1 X140.926 Y96.598 E5.96641
G1 X140.926 Y104.35 E6.58521
G1 X140.89 Y105.356 E6.66556
G1 X140.88 Y105.491 E6.67637
G1 X140.778 Y106.408 E6.75002
G1 X140.753 Y106.583 E6.76413
G1 X140.591 Y107.461 E6.8354
G1 X140.56 Y107.599 E6.84669
G1 X140.419 Y108.139 E6.89124
G1 X140.291 Y108.795 E6.94459
G1 X140.246 Y109.454 E6.99732
G1 X140.213 Y110.379 E7.0712
G1 X140.088 Y111.942 E7.19636
G1 X139.952 Y112.837 E7.26863
G1 X139.917 Y113.023 E7.28373
G1 X139.722 Y113.88 E7.35389
G1 X139.68 Y114.039 E7.36702
G1 X139.371 Y115.038 E7.45049
G1 X139.036 Y115.901 E7.52439
G1 X138.965 Y116.067 E7.5388
G1 X138.592 Y116.852 E7.60818
G1 X138.496 Y117.037 E7.62481
G1 X138.073 Y117.783 E7.69327
G1 X137.971 Y117.949 E7.70882
G1 X137.476 Y118.692 E7.78009
G1 X137.386 Y118.816 E7.79232
G1 X136.822 Y119.54 E7.86558
G1 X136.711 Y119.671 E7.87928
G1 X135.828 Y120.626 E7.98311
G1 X135.123 Y121.281 E8.05993
G1 X134.984 Y121.4 E8.07453
G1 X134.293 Y121.954 E8.14523
G1 X134.154 Y122.058 E8.15909
G1 X133.439 Y122.551 E8.22841
G1 X133.255 Y122.667 E8.24578
G1 X132.499 Y123.11 E8.31572
G1 X132.357 Y123.187 E8.32861
G1 X131.412 Y123.646 E8.41248
G1 X130.557 Y123.991 E8.48607
G1 X130.394 Y124.049 E8.49988
G1 X129.551 Y124.32 E8.57057
G1 X129.387 Y124.366 E8.58416
G1 X128.515 Y124.578 E8.6558
G1 X128.353 Y124.611 E8.66899
G1 X127.46 Y124.759 E8.74125
G1 X127.283 Y124.782 E8.7555
G1 X126.248 Y124.872 E8.83843
G1 X125.338 Y124.889 E8.91108
G1 X125.156 Y124.886 E8.92561
G1 X125.005 Y124.877 E8.93769
G1 X124.335 Y124.882 E8.99117
G1 X123.659 Y124.973 E9.04562
G1 X123.004 Y125.148 E9.09974
G1 X122.652 Y125.28 E9.12974
G1 X122.282 Y125.434 E9.16174
G1 X122.103 Y125.5 E9.17696
G1 X121.287 Y125.772 E9.24563
G1 X121.102 Y125.825 E9.26099
G1 X120.242 Y126.042 E9.33179
G1 X120.057 Y126.082 E9.3469
G1 X119.027 Y126.258 E9.43031
G1 X118.121 Y126.35 E9.503
G1 X117.875 Y126.362 E9.52266
G1 X117.292 Y126.401 E9.5693
G1 X116.403 Y126.424 E9.64029
G1 X114.88 Y126.422 E9.76186
G1 X114.034 Y126.443 E9.82941
G1 X114.034 Y126.464 E9.83109
G1 X113.616 Y126.495 E9.86455
G1 X112.646 Y126.65 E9.94296
G1 X111.721 Y126.765 E10.01737
G1 X111.542 Y126.78 E10.0317
G1 X110.659 Y126.825 E10.10228
G1 X110.476 Y126.828 E10.11689
G1 X109.548 Y126.806 E10.19099
G1 X109.163 Y126.811 E10.22172
G1 X108.722 Y126.834 E10.25697
G1 X108.584 Y126.836 E10.26799
G1 X107.622 Y126.814 E10.3448
G1 X107.27 Y126.818 E10.3729
G1 X106.402 Y126.854 E10.44225
G1 X103.526 Y126.853 E10.67182
G1 X102.525 Y126.817 E10.75178
G1 X102.23 Y126.815 E10.77533
G1 X101.366 Y126.832 E10.84431
G1 X101.202 Y126.83 E10.8574
G1 X100.912 Y126.814 E10.88059
G1 X100.324 Y126.816 E10.92752
G1 X99.44 Y126.83 E10.9981
G1 X99.259 Y126.827 E11.01255
G1 X98.225 Y126.763 E11.09524
G1 X97.233 Y126.634 E11.1751
G1 X96.508 Y126.516 E11.23373
G1 X96.059 Y126.486 E11.26965
G1 X96.059 Y126.458 E11.27189
G1 X93.058 Y126.437 E11.51144
G1 X92.631 Y126.414 E11.54558
G1 X91.907 Y126.385 E11.60342
G1 X91.741 Y126.373 E11.6167
G1 X90.863 Y126.273 E11.68724
G1 X90.686 Y126.247 E11.70152
G1 X89.822 Y126.083 E11.77172
G1 X89.643 Y126.043 E11.78636
G1 X88.786 Y125.816 E11.85713
G1 X88.6 Y125.759 E11.87266
G1 X87.79 Y125.481 E11.94102
G1 X87.592 Y125.404 E11.95798
G1 X87.375 Y125.311 E11.97682
G1 X86.744 Y125.087 E12.03027
G1 X86.073 Y124.94 E12.08511
G1 X85.201 Y124.879 E12.15488
G1 X84.244 Y124.892 E12.23128
G1 X84.092 Y124.888 E12.24342
G1 X83.038 Y124.822 E12.32772
G1 X82.129 Y124.7 E12.40093
G1 X81.982 Y124.675 E12.41283
G1 X81.106 Y124.494 E12.48424
G1 X80.927 Y124.451 E12.49893
G1 X79.918 Y124.158 E12.5828
G1 X79.065 Y123.845 E12.65533
G1 X78.894 Y123.775 E12.67008
G1 X77.95 Y123.344 E12.75292
G1 X77.125 Y122.897 E12.82782
G1 X77.017 Y122.832 E12.83788
G1 X76.121 Y122.252 E12.92308
G1 X75.404 Y121.715 E12.99458
G1 X75.251 Y121.589 E13.01041
G1 X74.064 Y120.51 E13.13845
G1 X73.418 Y119.815 E13.2142
G1 X73.301 Y119.678 E13.22858
G1 X72.747 Y118.987 E13.29928
G1 X72.643 Y118.848 E13.31313
G1 X72.15 Y118.133 E13.38246
G1 X72.034 Y117.949 E13.39982
G1 X71.591 Y117.193 E13.46977
G1 X71.514 Y117.051 E13.48266
G1 X71.055 Y116.106 E13.56652
G1 X70.707 Y115.245 E13.64065
G1 X70.65 Y115.084 E13.65429
G1 X70.378 Y114.236 E13.72537
G1 X70.332 Y114.072 E13.73897
G1 X70.121 Y113.2 E13.81059
G1 X70.088 Y113.039 E13.8237
G1 X69.941 Y112.149 E13.89571
G1 X69.919 Y111.977 E13.90955
G1 X69.829 Y110.921 E13.99415
G1 X69.823 Y110.771 E14.00614
G1 X69.752 Y109.335 E14.1209
G1 X69.753 Y103.621 E14.57702
G1 X69.789 Y102.615 E14.65737
G1 X69.799 Y102.48 E14.66818
G1 X69.901 Y101.562 E14.74191
G1 X69.926 Y101.387 E14.75602
G1 X70.086 Y100.521 E14.82632
G1 X70.153 Y100.24 E14.84938
G1 X70.281 Y99.583 E14.90281
G1 X70.326 Y98.899 E14.95753
G1 X70.326 Y96.612 E15.14009
G1 X70.362 Y95.606 E15.22044
G1 X70.372 Y95.471 E15.23125
G1 X70.473 Y94.556 E15.30473
G1 X70.499 Y94.381 E15.31885
G1 X70.661 Y93.501 E15.39028
G1 X70.691 Y93.367 E15.40124
G1 X70.922 Y92.481 E15.47433
G1 X70.974 Y92.31 E15.48859
G1 X71.261 Y91.468 E15.5596
G1 X71.324 Y91.302 E15.57378
G1 X71.665 Y90.499 E15.64342
G1 X71.746 Y90.324 E15.65881
G1 X72.227 Y89.399 E15.74203
G1 X72.702 Y88.62 E15.81486
G1 X72.802 Y88.469 E15.82932
G1 X73.318 Y87.748 E15.90009
G1 X73.426 Y87.607 E15.91427
G1 X74.099 Y86.807 E15.99772
G1 X74.738 Y86.139 E16.07151
G1 X75.191 Y85.718 E16.12088
G0 F911.2 X75.434 Y85.493
M204 S3000
M205 X10 Y10
G0 F6000 X75.2 Y85.71
M204 S1800
M205 X8 Y8
G1 F1012.5 X75.2 Y121.542 E18.98114
M204 S3000
M205 X10 Y10
G0 F6000 X76.8 Y122.691
M204 S1800
M205 X8 Y8
G1 F1012.5 X76.8 Y84.442 E22.03434
M204 S3000
M205 X10 Y10
G0 F6000 X78.4 Y83.489
M204 S1800
M205 X8 Y8
G1 F1012.5 X78.4 Y123.549 E25.23211
M204 S3000
M205 X10 Y10
G0 F6000 X80 Y124.181
M204 S1800
M205 X8 Y8
G1 F1012.5 X80 Y82.783 E28.53667
M204 S3000
M205 X10 Y10
G0 F6000 X81.6 Y82.303
M204 S1800
M205 X8 Y8
G1 F1012.5 X81.6 Y124.596 E31.91268
M204 S3000
M205 X10 Y10
G0 F6000 X83.2 Y124.832
M204 S1800
M205 X8 Y8
G1 F1012.5 X83.2 Y82.001 E35.33164
M204 S3000
M205 X10 Y10
G0 F6000 X84.8 Y81.888
M204 S1800
M205 X8 Y8
G1 F1012.5 X84.8 Y124.885 E38.76385
M204 S3000
M205 X10 Y10
G0 F6000 X86.4 Y125.011
M204 S1800
M205 X8 Y8
G1 F1012.5 X86.4 Y81.882 E42.20659
M204 S3000
M205 X10 Y10
G0 F6000 X88 Y81.882
M204 S1800
M205 X8 Y8
G1 F1012.5 X88 Y125.553 E45.6926
M204 S3000
M205 X10 Y10
G0 F6000 X89.6 Y126.031
M204 S1800
M205 X8 Y8
G1 F1012.5 X89.6 Y81.882 E49.21676
M204 S3000
M205 X10 Y10
G0 F6000 X91.2 Y81.882
M204 S1800
M205 X8 Y8
G1 F1012.5 X91.2 Y126.311 E52.76328
M204 S3000
M205 X10 Y10
G0 F6000 X92.8 Y126.423
M204 S1800
M205 X8 Y8
G1 F1012.5 X92.8 Y81.882 E56.31873
M204 S3000
M205 X10 Y10
G0 F6000 X94.4 Y81.882
M204 S1800
M205 X8 Y8
G1 F1012.5 X94.4 Y126.446 E59.87602
M204 S3000
M205 X10 Y10
G0 F6000 X96 Y126.457
M204 S1800
M205 X8 Y8
G1 F1012.5 X96 Y81.882 E63.43419
M204 S3000
M205 X10 Y10
G0 F6000 X97.6 Y81.882
M204 S1800
M205 X8 Y8
G1 F1012.5 X97.6 Y126.681 E67.01024
M204 S3000
M205 X10 Y10
G0 F6000 X99.2 Y126.823
M204 S1800
M205 X8 Y8
G1 F1012.5 X99.2 Y81.882 E70.59763
M204 S3000
M205 X10 Y10
G0 F6000 X100.8 Y81.882
M204 S1800
M205 X8 Y8
G1 F1012.5 X100.8 Y126.815 E74.18437
M204 S3000
M205 X10 Y10
G0 F6000 X102.4 Y126.816
M204 S1800
M205 X8 Y8
G1 F1012.5 X102.4 Y81.882 E77.7712
M204 S3000
M205 X10 Y10
G0 F6000 X104 Y81.882
M204 S1800
M205 X8 Y8
G1 F1012.5 X104 Y126.853 E81.36098
M204 S3000
M205 X10 Y10
G0 F6000 X105.6 Y126.853
M204 S1800
M205 X8 Y8
G1 F1012.5 X105.6 Y81.882 E84.95076
M204 S3000
M205 X10 Y10
G0 F6000 X107.2 Y81.882
M204 S1800
M205 X8 Y8
G1 F1012.5 X107.2 Y126.821 E88.53798
M204 S3000
M205 X10 Y10
G0 F6000 X108.8 Y126.83
M204 S1800
M205 X8 Y8
G1 F1012.5 X108.8 Y81.882 E92.12593
M204 S3000
M205 X10 Y10
G0 F6000 X110.4 Y81.882
M204 S1800
M205 X8 Y8
G1 F1012.5 X110.4 Y126.826 E95.71355
M204 S3000
M205 X10 Y10
G0 F6000 X112 Y126.731
M204 S1800
M205 X8 Y8
G1 F1012.5 X112 Y81.882 E99.29359
M204 S3000
M205 X10 Y10
G0 F6000 X113.6 Y81.882
M204 S1800
M205 X8 Y8
G1 F1012.5 X113.6 Y126.498 E102.85504
M204 S3000
M205 X10 Y10
G0 F6000 X115.2 Y126.422
M204 S1800
M205 X8 Y8
G1 F1012.5 X115.2 Y81.882 E106.41041
M204 S3000
M205 X10 Y10
G0 F6000 X116.8 Y81.882
M204 S1800
M205 X8 Y8
G1 F1012.5 X116.8 Y126.414 E109.96515
M204 S3000
M205 X10 Y10
G0 F6000 X118.4 Y126.322
M204 S1800
M205 X8 Y8
G1 F1012.5 X118.4 Y81.882 E113.51254
M204 S3000
M205 X10 Y10
G0 F6000 X120 Y81.882
M204 S1800
M205 X8 Y8
G1 F1012.5 X120 Y126.092 E117.04157
M204 S3000
M205 X10 Y10
G0 F6000 X121.6 Y125.668
M204 S1800
M205 X8 Y8
G1 F1012.5 X121.6 Y81.882 E120.53676
M204 S3000
M205 X10 Y10
G0 F6000 X123.2 Y81.882
M204 S1800
M205 X8 Y8
G1 F1012.5 X123.2 Y125.096 E123.98629
M204 S3000
M205 X10 Y10
G0 F6000 X124.8 Y124.879
M204 S1800
M205 X8 Y8
G1 F1012.5 X124.8 Y81.882 E127.4185
M204 S3000
M205 X10 Y10
G0 F6000 X126.4 Y81.89
M204 S1800
M205 X8 Y8
G1 F1012.5 X126.4 Y124.859 E130.84847
M204 S3000
M205 X10 Y10
G0 F6000 X128 Y124.67
M204 S1800
M205 X8 Y8
G1 F1012.5 X128 Y82.001 E134.25449
M204 S3000
M205 X10 Y10
G0 F6000 X129.6 Y82.288
M204 S1800
M205 X8 Y8
G1 F1012.5 X129.6 Y124.305 E137.60847
M204 S3000
M205 X10 Y10
G0 F6000 X131.2 Y123.732
M204 S1800
M205 X8 Y8
G1 F1012.5 X131.2 Y82.769 E140.87832
M204 S3000
M205 X10 Y10
G0 F6000 X132.8 Y83.466
M204 S1800
M205 X8 Y8
G1 F1012.5 X132.8 Y122.934 E144.02882
M204 S3000
M205 X10 Y10
G0 F6000 X134.4 Y121.869
M204 S1800
M205 X8 Y8
G1 F1012.5 X134.4 Y84.402 E147.0196
M204 S3000
M205 X10 Y10
G0 F6000 X136 Y85.654
M204 S1800
M205 X8 Y8
G1 F1012.5 X136 Y120.44 E149.79637
M204 S3000
M205 X10 Y10
G0 F6000 X137.6 Y118.506
M204 S1800
M205 X8 Y8
G1 F1012.5 X137.6 Y87.337 E152.28441
M204 S3000
M205 X10 Y10
G0 F6000 X139.2 Y89.718
M204 S1800
M205 X8 Y8
G1 F1012.5 X139.2 Y115.479 E154.34077
M204 S3000
M205 X10 Y10
G0 F6000 X140.8 Y106.211
M204 S1800
M205 X8 Y8
G1 F1012.5 X140.8 Y94.713 E155.25859
M204 S3000
M205 X10 Y10
G0 F6000 X73.6 Y87.4
M204 S1800
M205 X8 Y8
G1 F1012.5 X73.6 Y120.01 E157.86166
M204 S3000
M205 X10 Y10
G0 F6000 X72 Y117.89
M204 S1800
M205 X8 Y8
G1 F1012.5 X72 Y89.835 E160.10113
M204 S3000
M205 X10 Y10
G0 F6000 X70.4 Y95.217
M204 S1800
M205 X8 Y8
G1 F1012.5 X70.4 Y114.304 E161.62474
M204 S3000
M205 X10 Y10
G0 F600 X70.4 Y114.304 Z0.615
G0 F6000 X71.513 Y117.05
;TIME_ELAPSED:126.309738
;LAYER:-4
M140 S60
M204 S1800
M205 X8 Y8
;TYPE:SUPPORT
G1 F1012.5 X71.591 Y117.192 E161.64494
G1 X72.034 Y117.948 E161.75423
G1 X72.15 Y118.132 E161.78136
G1 X72.643 Y118.846 E161.88958
G1 X72.747 Y118.986 E161.91133
G1 X73.3 Y119.677 E162.02172
G1 X73.418 Y119.814 E162.04427
G1 X74.063 Y120.509 E162.16254
G1 X75.251 Y121.587 E162.36262
G1 X75.404 Y121.714 E162.38742
G1 X76.12 Y122.25 E162.49897
G1 X77.016 Y122.831 E162.63217
G1 X77.124 Y122.895 E162.64782
G1 X77.95 Y123.343 E162.76503
G1 X78.204 Y123.459 E162.79985
G1 X71.248 Y116.502 E164.0269
G1 X71.055 Y116.104 E164.08207
G1 X70.706 Y115.244 E164.19783
G1 X70.649 Y115.083 E164.21913
G1 X70.377 Y114.235 E164.33021
G1 X70.37 Y114.211 E164.33332
G1 X80.48 Y124.32 E166.11652
G1 X80.926 Y124.45 E166.17447
G1 X81.106 Y124.493 E166.19755
G1 X81.981 Y124.674 E166.30899
G1 X82.129 Y124.699 E166.32771
G1 X82.295 Y124.721 E166.3486
G1 X69.984 Y112.41 E168.52012
G1 X69.941 Y112.148 E168.55323
G1 X69.918 Y111.976 E168.57488
G1 X69.828 Y110.92 E168.70707
G1 X69.825 Y110.837 E168.71742
G1 X83.86 Y124.872 E171.19304
G1 X84.091 Y124.887 E171.22191
G1 X84.243 Y124.891 E171.24087
G1 X85.2 Y124.877 E171.36025
G1 X85.285 Y124.883 E171.37088
G1 X69.752 Y109.35 E174.11072
G1 X69.751 Y109.334 E174.11272
G1 X69.751 Y107.935 E174.28721
G1 X86.988 Y125.172 E177.32762
G1 X87.375 Y125.309 E177.37882
G1 X87.591 Y125.403 E177.4082
G1 X87.79 Y125.48 E177.43482
G1 X88.599 Y125.758 E177.54151
G1 X88.785 Y125.815 E177.56578
G1 X89.139 Y125.908 E177.61143
G1 X69.751 Y106.521 E181.03116
G1 X69.751 Y105.107 E181.20752
G1 X90.923 Y126.278 E184.94193
G1 X91.74 Y126.372 E185.0445
G1 X91.906 Y126.384 E185.06526
G1 X92.465 Y126.406 E185.13504
G1 X69.751 Y103.692 E189.14153
G1 X69.752 Y103.62 E189.15051
G1 X69.789 Y102.614 E189.27607
G1 X69.799 Y102.478 E189.29307
G1 X69.814 Y102.34 E189.31039
G1 X93.915 Y126.442 E193.56162
G1 X95.339 Y126.451 E193.73923
G1 X69.979 Y101.092 E198.21235
G1 X70.086 Y100.52 E198.28493
G1 X70.153 Y100.239 E198.32096
G1 X70.215 Y99.914 E198.36223
G1 X96.875 Y126.574 E203.06475
G1 X97.232 Y126.632 E203.10986
G1 X98.224 Y126.762 E203.23464
G1 X98.494 Y126.778 E203.26838
G1 X70.325 Y98.609 E208.23707
G1 X70.325 Y97.195 E208.41343
G1 X99.95 Y126.821 E213.63903
G1 X100.324 Y126.815 E213.68568
G1 X100.911 Y126.813 E213.75889
G1 X101.201 Y126.828 E213.79511
G1 X101.365 Y126.831 E213.81557
G1 X101.375 Y126.83 E213.81682
G1 X70.354 Y95.81 E219.28848
G1 X70.362 Y95.605 E219.31407
G1 X70.371 Y95.47 E219.33095
G1 X70.473 Y94.555 E219.44578
G1 X70.478 Y94.519 E219.45031
G1 X102.783 Y126.825 E225.14863
G1 X103.526 Y126.852 E225.24136
G1 X104.224 Y126.852 E225.32842
G1 X70.7 Y93.328 E231.24167
G1 X70.922 Y92.48 E231.351
G1 X70.974 Y92.309 E231.37329
G1 X71.004 Y92.218 E231.38524
G1 X105.638 Y126.852 E237.49428
G1 X106.401 Y126.852 E237.58945
G1 X107.027 Y126.826 E237.66759
G1 X71.376 Y91.175 E243.95602
G1 X71.665 Y90.498 E244.04783
G1 X71.745 Y90.322 E244.07194
G1 X71.811 Y90.196 E244.08969
G1 X108.447 Y126.832 E250.55185
G1 X108.584 Y126.835 E250.56895
G1 X108.721 Y126.833 E250.58604
G1 X109.162 Y126.81 E250.64111
G1 X109.547 Y126.805 E250.68914
G1 X109.841 Y126.811 E250.72581
G1 X72.302 Y89.272 E257.34726
G1 X72.701 Y88.618 E257.44282
G1 X72.801 Y88.468 E257.4653
G1 X72.847 Y88.403 E257.47523
G1 X111.238 Y126.794 E264.24696
G1 X111.542 Y126.779 E264.28493
G1 X111.721 Y126.764 E264.30733
G1 X112.521 Y126.664 E264.40789
G1 X73.442 Y87.585 E271.30097
