;FLAVOR:Marlin
;TIME:22745
;Filament used: 38.5484m, 0m, 0m, 0m
;Layer height: 0.3
;MINX:34.688
;MINY:43.435
;MINZ:0.24
;MAXX:175.316
;MAXY:166.519
;MAXZ:68.465
;Generated with Cura_SteamEngine 4.6.1
T0
M140 S60
M105
M190 S60
M104 S215
M105
M109 S215
M82 ;absolute extrusion mode
G21 ;metric values
G90 ;absolute positioning
M82 ;set extruder to absolute mode
M107 ;start with the fan off
G28 X0 Y0 ;move X/Y to min endstops
G28 Z0 ;move Z to min endstops
G1 Z15.0 F100 ;move the platform down 15mm
G92 E0 ;zero the extruded length
G1 F200 E3 ;extrude 3mm of feed stock
G92 E0 ;zero the extruded length again
G1 F100
M117 Printing...
G5
G92 E0
G92 E0
G1 F2400 E-4
;LAYER_COUNT:226
;LAYER:-5
M107
M204 S3000
M205 X10 Y10
G0 F6000 X36.608 Y44.648 Z0.24
M204 S1800
M205 X8 Y8
;TYPE:SUPPORT-INTERFACE
G1 F2400 E0
G1 F1012.5 X36.83 Y44.482 E0.02213
G1 X37.077 Y44.32 E0.04571
G1 X37.348 Y44.166 E0.07059
G1 X37.583 Y44.051 E0.09147
G1 X37.863 Y43.936 E0.11563
G1 X38.129 Y43.846 E0.13805
G1 X38.417 Y43.768 E0.16187
G1 X38.711 Y43.708 E0.18582
G1 X39.015 Y43.666 E0.21032
G1 X39.256 Y43.645 E0.22963
G1 X39.543 Y43.636 E0.25255
G1 X170.404 Y43.637 E10.69844
G1 X170.488 Y43.639 E10.70515
G1 X170.886 Y43.658 E10.73695
G1 X171.188 Y43.692 E10.76121
G1 X171.461 Y43.74 E10.78334
G1 X171.76 Y43.813 E10.80791
G1 X172.02 Y43.895 E10.82967
G1 X172.311 Y44.005 E10.8545
G1 X172.567 Y44.122 E10.87697
G1 X172.815 Y44.256 E10.89947
G1 X173.066 Y44.411 E10.92302
G1 X173.293 Y44.572 E10.94523
G1 X173.535 Y44.767 E10.97004
G1 X173.737 Y44.953 E10.99196
G1 X173.945 Y45.171 E11.01601
G1 X174.133 Y45.395 E11.03936
G1 X174.303 Y45.624 E11.06212
G1 X174.459 Y45.867 E11.08517
G1 X174.601 Y46.121 E11.1084
G1 X174.726 Y46.38 E11.13136
G1 X174.83 Y46.638 E11.15356
G1 X174.934 Y46.95 E11.17982
G1 X175 Y47.204 E11.20077
G1 X175.057 Y47.495 E11.22444
G1 X175.094 Y47.767 E11.24635
G1 X175.115 Y48.075 E11.27099
G1 X175.116 Y48.374 E11.29486
G1 X175.101 Y48.631 E11.31541
G1 X175.061 Y48.955 E11.34147
G1 X175.015 Y49.202 E11.36152
G1 X174.931 Y49.528 E11.3884
G1 X174.856 Y49.766 E11.40832
G1 X174.728 Y50.089 E11.43605
G1 X174.638 Y50.288 E11.45348
G1 X174.472 Y50.599 E11.48162
G1 X109.019 Y163.968 E21.93118
G1 X108.932 Y164.108 E21.94434
G1 X108.706 Y164.438 E21.97627
G1 X108.53 Y164.665 E21.99919
G1 X108.348 Y164.871 E22.02114
G1 X108.137 Y165.081 E22.0449
G1 X107.911 Y165.278 E22.06883
G1 X107.682 Y165.455 E22.09194
G1 X107.439 Y165.618 E22.11529
G1 X107.198 Y165.76 E22.13762
G1 X106.926 Y165.896 E22.1619
G1 X106.664 Y166.008 E22.18464
G1 X106.403 Y166.099 E22.20671
G1 X106.101 Y166.185 E22.23177
G1 X105.824 Y166.244 E22.25438
G1 X105.541 Y166.288 E22.27724
G1 X105.268 Y166.312 E22.29912
G1 X104.96 Y166.319 E22.32371
G1 X104.661 Y166.306 E22.3476
G1 X104.392 Y166.278 E22.36919
G1 X104.085 Y166.228 E22.39402
G1 X103.824 Y166.166 E22.41543
G1 X103.532 Y166.078 E22.43977
G1 X103.259 Y165.977 E22.46301
G1 X103.007 Y165.864 E22.48505
G1 X102.738 Y165.723 E22.5093
G1 X102.483 Y165.569 E22.53308
G1 X102.261 Y165.413 E22.55474
G1 X102.025 Y165.225 E22.57882
G1 X101.806 Y165.027 E22.60239
G1 X101.645 Y164.862 E22.62079
G1 X101.405 Y164.573 E22.65078
G1 X101.065 Y164.091 E22.69786
G1 X100.951 Y163.916 E22.71453
G1 X35.548 Y50.634 E33.15608
G1 X35.479 Y50.506 E33.16769
G1 X35.301 Y50.15 E33.19946
G1 X35.194 Y49.899 E33.22124
G1 X35.095 Y49.617 E33.2451
G1 X35.02 Y49.352 E33.26708
G1 X34.957 Y49.059 E33.29101
G1 X34.915 Y48.779 E33.31361
G1 X34.888 Y48.468 E33.33853
G1 X34.883 Y48.204 E33.3596
G1 X34.896 Y47.898 E33.38405
G1 X34.927 Y47.596 E33.40829
G1 X34.974 Y47.323 E33.4304
G1 X35.034 Y47.066 E33.45146
G1 X35.123 Y46.772 E33.47598
G1 X35.231 Y46.482 E33.50069
G1 X35.348 Y46.223 E33.52337
G1 X35.475 Y45.98 E33.54526
G1 X35.635 Y45.717 E33.56983
G1 X35.795 Y45.486 E33.59226
G1 X35.979 Y45.258 E33.61565
G1 X36.175 Y45.042 E33.63893
G1 X36.372 Y44.85 E33.66089
G1 X36.608 Y44.648 E33.68569
M204 S3000
M205 X10 Y10
G0 F6000 X95.3 Y79.469
M204 S1800
M205 X8 Y8
G1 F1012.5 X94.901 Y80.023 E33.74019
G1 X94.576 Y80.624 E33.79473
G1 X94.329 Y81.26 E33.84919
G1 X94.164 Y81.922 E33.90365
G1 X94.084 Y82.6 E33.95815
G1 X94.09 Y83.283 E34.01267
G1 X94.183 Y83.96 E34.06722
G1 X94.36 Y84.619 E34.12169
G1 X94.616 Y85.246 E34.17575
G1 X94.797 Y85.586 E34.20649
G1 X100.33 Y95.17 E35.08987
G1 X100.701 Y95.728 E35.14336
G1 X101.147 Y96.244 E35.1978
G1 X101.656 Y96.7 E35.25235
G1 X102.218 Y97.088 E35.30686
G1 X102.824 Y97.402 E35.36135
G1 X103.465 Y97.637 E35.41584
G1 X104.13 Y97.79 E35.47031
G1 X104.81 Y97.857 E35.52486
G1 X105.493 Y97.837 E35.5794
G1 X106.168 Y97.732 E35.63393
G1 X106.823 Y97.542 E35.68837
G1 X107.45 Y97.272 E35.74286
G1 X108.038 Y96.924 E35.7974
G1 X108.578 Y96.505 E35.85196
G1 X109.059 Y96.021 E35.90643
G1 X109.473 Y95.486 E35.96043
G1 X109.673 Y95.165 E35.99062
G1 X115.198 Y85.596 E36.87264
G1 X115.496 Y84.996 E36.92612
G1 X115.719 Y84.35 E36.98067
G1 X115.86 Y83.683 E37.03509
G1 X115.915 Y83.002 E37.08963
G1 X115.883 Y82.319 E37.14421
G1 X115.767 Y81.648 E37.19856
G1 X115.566 Y80.994 E37.25318
G1 X115.284 Y80.373 E37.30762
G1 X114.926 Y79.791 E37.36216
G1 X114.498 Y79.259 E37.41667
G1 X114.006 Y78.786 E37.47115
G1 X113.457 Y78.378 E37.52575
G1 X112.863 Y78.043 E37.58018
G1 X112.23 Y77.786 E37.63472
G1 X111.57 Y77.61 E37.68924
G1 X110.9 Y77.52 E37.74321
G1 X110.529 Y77.507 E37.77284
G1 X99.472 Y77.492 E38.65546
G1 X98.803 Y77.533 E38.70896
G1 X98.132 Y77.662 E38.7635
G1 X97.483 Y77.872 E38.81795
G1 X96.865 Y78.164 E38.87251
G1 X96.289 Y78.532 E38.92708
G1 X95.765 Y78.969 E38.98154
G1 X95.3 Y79.469 E39.03605
M204 S3000
M205 X10 Y10
G0 F6000 X96 Y78.774
M204 S1800
M205 X8 Y8
G1 F1012.5 X96 Y43.637 E41.84083
M204 S3000
M205 X10 Y10
G0 F6000 X94.4 Y43.637
M204 S1800
M205 X8 Y8
G1 F1012.5 X94.4 Y81.078 E44.82954
M204 S3000
M205 X10 Y10
G0 F6000 X94.4 Y84.717
M204 S1800
M205 X8 Y8
G1 F1012.5 X94.4 Y152.569 E50.24578
M204 S3000
M205 X10 Y10
G0 F6000 X96 Y155.34
M204 S1800
M205 X8 Y8
G1 F1012.5 X96 Y87.67 E55.64749
M204 S3000
M205 X10 Y10
G0 F6000 X97.6 Y90.442
M204 S1800
M205 X8 Y8
G1 F1012.5 X97.6 Y158.111 E61.04912
M204 S3000
M205 X10 Y10
G0 F6000 X99.2 Y160.883
M204 S1800
M205 X8 Y8
G1 F1012.5 X99.2 Y93.213 E66.45083
M204 S3000
M205 X10 Y10
G0 F6000 X100.8 Y95.843
M204 S1800
M205 X8 Y8
G1 F1012.5 X100.8 Y163.654 E71.8638
M204 S3000
M205 X10 Y10
G0 F6000 X102.4 Y165.51
M204 S1800
M205 X8 Y8
G1 F1012.5 X102.4 Y97.183 E77.31796
M204 S3000
M205 X10 Y10
G0 F6000 X104 Y97.761
M204 S1800
M205 X8 Y8
G1 F1012.5 X104 Y166.207 E82.78161
M204 S3000
M205 X10 Y10
G0 F6000 X105.6 Y166.279
M204 S1800
M205 X8 Y8
G1 F1012.5 X105.6 Y97.82 E88.2463
M204 S3000
M205 X10 Y10
G0 F6000 X107.2 Y97.379
M204 S1800
M205 X8 Y8
G1 F1012.5 X107.2 Y165.759 E93.70469
M204 S3000
M205 X10 Y10
G0 F6000 X108.8 Y164.301
M204 S1800
M205 X8 Y8
G1 F1012.5 X108.8 Y96.281 E99.13434
M204 S3000
M205 X10 Y10
G0 F6000 X110.4 Y93.905
M204 S1800
M205 X8 Y8
G1 F1012.5 X110.4 Y161.577 E104.53621
M204 S3000
M205 X10 Y10
G0 F6000 X112 Y158.805
M204 S1800
M205 X8 Y8
G1 F1012.5 X112 Y91.134 E109.93801
M204 S3000
M205 X10 Y10
G0 F6000 X113.6 Y88.363
M204 S1800
M205 X8 Y8
G1 F1012.5 X113.6 Y156.034 E115.3398
M204 S3000
M205 X10 Y10
G0 F6000 X115.2 Y153.263
M204 S1800
M205 X8 Y8
G1 F1012.5 X115.2 Y85.591 E120.74167
M204 S3000
M205 X10 Y10
G0 F6000 X115.453 Y82.992
G0 X115.2 Y80.236
M204 S1800
M205 X8 Y8
G1 F1012.5 X115.2 Y43.637 E123.66316
M204 S3000
M205 X10 Y10
G0 F6000 X113.6 Y43.637
M204 S1800
M205 X8 Y8
G1 F1012.5 X113.6 Y78.484 E126.4448
M204 S3000
M205 X10 Y10
G0 F6000 X112 Y77.724
M204 S1800
M205 X8 Y8
G1 F1012.5 X112 Y43.637 E129.16577
M204 S3000
M205 X10 Y10
G0 F6000 X110.4 Y43.637
M204 S1800
M205 X8 Y8
G1 F1012.5 X110.4 Y77.506 E131.86934
M204 S3000
M205 X10 Y10
G0 F6000 X108.8 Y77.504
M204 S1800
M205 X8 Y8
G1 F1012.5 X108.8 Y43.637 E134.57275
M204 S3000
M205 X10 Y10
G0 F6000 X107.2 Y43.637
M204 S1800
M205 X8 Y8
G1 F1012.5 X107.2 Y77.502 E137.276
M204 S3000
M205 X10 Y10
G0 F6000 X105.6 Y77.5
M204 S1800
M205 X8 Y8
G1 F1012.5 X105.6 Y43.637 E139.97909
M204 S3000
M205 X10 Y10
G0 F6000 X104 Y43.637
M204 S1800
M205 X8 Y8
G1 F1012.5 X104 Y77.498 E142.68202
M204 S3000
M205 X10 Y10
G0 F6000 X102.4 Y77.495
M204 S1800
M205 X8 Y8
G1 F1012.5 X102.4 Y43.637 E145.38472
M204 S3000
M205 X10 Y10
G0 F6000 X100.8 Y43.637
M204 S1800
M205 X8 Y8
G1 F1012.5 X100.8 Y77.493 E148.08725
M204 S3000
M205 X10 Y10
G0 F6000 X99.2 Y77.509
M204 S1800
M205 X8 Y8
G1 F1012.5 X99.2 Y43.637 E150.79106
M204 S3000
M205 X10 Y10
G0 F6000 X97.6 Y43.637
M204 S1800
M205 X8 Y8
G1 F1012.5 X97.6 Y77.835 E153.52089
M204 S3000
M205 X10 Y10
G0 F6000 X92.8 Y43.637
M204 S1800
M205 X8 Y8
G1 F1012.5 X92.8 Y149.797 E161.99504
M204 S3000
M205 X10 Y10
G0 F6000 X91.2 Y147.026
M204 S1800
M205 X8 Y8
G1 F1012.5 X91.2 Y43.637 E170.248
M204 S3000
M205 X10 Y10
G0 F6000 X89.6 Y43.637
M204 S1800
M205 X8 Y8
G1 F1012.5 X89.6 Y144.255 E178.27976
M204 S3000
M205 X10 Y10
G0 F6000 X88 Y141.484
M204 S1800
M205 X8 Y8
G1 F1012.5 X88 Y43.637 E186.09033
M204 S3000
M205 X10 Y10
G0 F6000 X86.4 Y43.637
M204 S1800
M205 X8 Y8
G1 F1012.5 X86.4 Y138.712 E193.67963
M204 S3000
M205 X10 Y10
G0 F6000 X84.8 Y135.941
M204 S1800
M205 X8 Y8
G1 F1012.5 X84.8 Y43.637 E201.04773
M204 S3000
M205 X10 Y10
G0 F6000 X83.2 Y43.637
M204 S1800
M205 X8 Y8
G1 F1012.5 X83.2 Y133.17 E208.19464
M204 S3000
M205 X10 Y10
G0 F6000 X81.6 Y130.398
M204 S1800
M205 X8 Y8
G1 F1012.5 X81.6 Y43.637 E215.12028
M204 S3000
M205 X10 Y10
G0 F6000 X80 Y43.637
M204 S1800
M205 X8 Y8
G1 F1012.5 X80 Y127.627 E221.82473
M204 S3000
M205 X10 Y10
G0 F6000 X78.4 Y124.856
M204 S1800
M205 X8 Y8
G1 F1012.5 X78.4 Y43.637 E228.30798
M204 S3000
M205 X10 Y10
G0 F6000 X76.8 Y43.637
M204 S1800
M205 X8 Y8
G1 F1012.5 X76.8 Y122.084 E234.56996
M204 S3000
M205 X10 Y10
G0 F6000 X75.2 Y119.313
M204 S1800
M205 X8 Y8
G1 F1012.5 X75.2 Y43.637 E240.61074
M204 S3000
M205 X10 Y10
G0 F6000 X73.6 Y43.637
M204 S1800
M205 X8 Y8
G1 F1012.5 X73.6 Y116.542 E246.43034
M204 S3000
M205 X10 Y10
G0 F6000 X72 Y113.771
M204 S1800
M205 X8 Y8
G1 F1012.5 X72 Y43.637 E252.02873
M204 S3000
M205 X10 Y10
G0 F6000 X70.4 Y43.637
M204 S1800
M205 X8 Y8
G1 F1012.5 X70.4 Y110.999 E257.40586
M204 S3000
M205 X10 Y10
G0 F6000 X68.8 Y108.228
M204 S1800
M205 X8 Y8
G1 F1012.5 X68.8 Y43.637 E262.56179
M204 S3000
M205 X10 Y10
G0 F6000 X67.2 Y43.637
M204 S1800
M205 X8 Y8
G1 F1012.5 X67.2 Y105.457 E267.49653
M204 S3000
M205 X10 Y10
G0 F6000 X65.6 Y102.685
M204 S1800
M205 X8 Y8
G1 F1012.5 X65.6 Y43.637 E272.21
M204 S3000
M205 X10 Y10
G0 F6000 X64 Y43.637
M204 S1800
M205 X8 Y8
G1 F1012.5 X64 Y99.914 E276.70227
M204 S3000
M205 X10 Y10
G0 F6000 X62.4 Y97.143
M204 S1800
M205 X8 Y8
G1 F1012.5 X62.4 Y43.637 E280.97335
M204 S3000
M205 X10 Y10
G0 F6000 X60.8 Y43.637
M204 S1800
M205 X8 Y8
G1 F1012.5 X60.8 Y94.372 E285.02324
M204 S3000
M205 X10 Y10
G0 F6000 X59.2 Y91.6
M204 S1800
M205 X8 Y8
G1 F1012.5 X59.2 Y43.637 E288.85186
M204 S3000
M205 X10 Y10
G0 F6000 X57.6 Y43.637
M204 S1800
M205 X8 Y8
G1 F1012.5 X57.6 Y88.829 E292.45928
M204 S3000
M205 X10 Y10
G0 F6000 X56 Y86.058
M204 S1800
M205 X8 Y8
G1 F1012.5 X56 Y43.637 E295.8455
M204 S3000
M205 X10 Y10
G0 F6000 X54.4 Y43.637
M204 S1800
M205 X8 Y8
G1 F1012.5 X54.4 Y83.286 E299.01046
M204 S3000
M205 X10 Y10
G0 F6000 X52.8 Y80.515
M204 S1800
M205 X8 Y8
G1 F1012.5 X52.8 Y43.637 E301.95422
M204 S3000
M205 X10 Y10
G0 F6000 X51.2 Y43.637
M204 S1800
M205 X8 Y8
G1 F1012.5 X51.2 Y77.744 E304.67679
M204 S3000
M205 X10 Y10
G0 F6000 X49.6 Y74.972
M204 S1800
M205 X8 Y8
G1 F1012.5 X49.6 Y43.637 E307.17808
M204 S3000
M205 X10 Y10
G0 F6000 X48 Y43.637
M204 S1800
M205 X8 Y8
G1 F1012.5 X48 Y72.201 E309.45819
M204 S3000
M205 X10 Y10
G0 F6000 X46.4 Y69.43
M204 S1800
M205 X8 Y8
G1 F1012.5 X46.4 Y43.637 E311.51709
M204 S3000
M205 X10 Y10
G0 F6000 X44.8 Y43.637
M204 S1800
M205 X8 Y8
G1 F1012.5 X44.8 Y66.659 E313.35481
M204 S3000
M205 X10 Y10
G0 F6000 X43.2 Y63.887
M204 S1800
M205 X8 Y8
G1 F1012.5 X43.2 Y43.637 E314.97125
M204 S3000
M205 X10 Y10
G0 F6000 X41.6 Y43.637
M204 S1800
M205 X8 Y8
G1 F1012.5 X41.6 Y61.116 E316.3665
M204 S3000
M205 X10 Y10
G0 F6000 X40 Y58.345
M204 S1800
M205 X8 Y8
G1 F1012.5 X40 Y43.637 E317.54056
M204 S3000
M205 X10 Y10
G0 F6000 X38.4 Y43.772
M204 S1800
M205 X8 Y8
G1 F1012.5 X38.4 Y55.573 E318.48256
M204 S3000
M205 X10 Y10
G0 F6000 X36.8 Y52.802
M204 S1800
M205 X8 Y8
G1 F1012.5 X36.8 Y44.504 E319.14495
M204 S3000
M205 X10 Y10
G0 F6000 X35.2 Y46.565
M204 S1800
M205 X8 Y8
G1 F1012.5 X35.2 Y49.913 E319.4122
M204 S3000
M205 X10 Y10
G0 F6000 X116.8 Y43.637
M204 S1800
M205 X8 Y8
G1 F1012.5 X116.8 Y150.491 E327.94175
M204 S3000
M205 X10 Y10
G0 F6000 X118.4 Y147.72
M204 S1800
M205 X8 Y8
G1 F1012.5 X118.4 Y43.637 E336.2501
M204 S3000
M205 X10 Y10
G0 F6000 X120 Y43.637
M204 S1800
M205 X8 Y8
G1 F1012.5 X120 Y144.949 E344.33726
M204 S3000
M205 X10 Y10
G0 F6000 X121.6 Y142.177
M204 S1800
M205 X8 Y8
G1 F1012.5 X121.6 Y43.637 E352.20315
M204 S3000
M205 X10 Y10
G0 F6000 X123.2 Y43.637
M204 S1800
M205 X8 Y8
G1 F1012.5 X123.2 Y139.406 E359.84785
M204 S3000
M205 X10 Y10
G0 F6000 X124.8 Y136.635
M204 S1800
M205 X8 Y8
G1 F1012.5 X124.8 Y43.637 E367.27135
M204 S3000
M205 X10 Y10
G0 F6000 X126.4 Y43.637
M204 S1800
M205 X8 Y8
G1 F1012.5 X126.4 Y133.863 E374.47358
M204 S3000
M205 X10 Y10
G0 F6000 X128 Y131.092
M204 S1800
M205 X8 Y8
G1 F1012.5 X128 Y43.637 E381.45462
M204 S3000
M205 X10 Y10
G0 F6000 X129.6 Y43.637
M204 S1800
M205 X8 Y8
G1 F1012.5 X129.6 Y128.321 E388.21446
M204 S3000
M205 X10 Y10
G0 F6000 X131.2 Y125.55
M204 S1800
M205 X8 Y8
G1 F1012.5 X131.2 Y43.637 E394.75311
M204 S3000
M205 X10 Y10
G0 F6000 X132.8 Y43.637
M204 S1800
M205 X8 Y8
G1 F1012.5 X132.8 Y122.778 E401.07049
M204 S3000
M205 X10 Y10
G0 F6000 X134.4 Y120.007
M204 S1800
M205 X8 Y8
G1 F1012.5 X134.4 Y43.637 E407.16667
M204 S3000
M205 X10 Y10
G0 F6000 X136 Y43.637
M204 S1800
M205 X8 Y8
G1 F1012.5 X136 Y117.236 E413.04166
M204 S3000
M205 X10 Y10
G0 F6000 X137.6 Y114.464
M204 S1800
M205 X8 Y8
G1 F1012.5 X137.6 Y43.637 E418.69538
M204 S3000
M205 X10 Y10
G0 F6000 X139.2 Y43.637
M204 S1800
M205 X8 Y8
G1 F1012.5 X139.2 Y111.693 E424.1279
M204 S3000
M205 X10 Y10
G0 F6000 X140.8 Y108.922
M204 S1800
M205 X8 Y8
G1 F1012.5 X140.8 Y43.637 E429.33923
M204 S3000
M205 X10 Y10
G0 F6000 X142.4 Y43.637
M204 S1800
M205 X8 Y8
G1 F1012.5 X142.4 Y106.15 E434.32929
M204 S3000
M205 X10 Y10
G0 F6000 X144 Y103.379
M204 S1800
M205 X8 Y8
G1 F1012.5 X144 Y43.637 E439.09816
M204 S3000
M205 X10 Y10
G0 F6000 X145.6 Y43.637
M204 S1800
M205 X8 Y8
G1 F1012.5 X145.6 Y100.608 E443.64583
M204 S3000
M205 X10 Y10
G0 F6000 X147.2 Y97.836
M204 S1800
M205 X8 Y8
G1 F1012.5 X147.2 Y43.637 E447.97223
M204 S3000
M205 X10 Y10
G0 F6000 X148.8 Y43.637
M204 S1800
M205 X8 Y8
G1 F1012.5 X148.8 Y95.065 E452.07743
M204 S3000
M205 X10 Y10
G0 F6000 X150.4 Y92.294
M204 S1800
M205 X8 Y8
G1 F1012.5 X150.4 Y43.637 E455.96144
M204 S3000
M205 X10 Y10
G0 F6000 X152 Y43.637
M204 S1800
M205 X8 Y8
G1 F1012.5 X152 Y89.523 E459.62426
M204 S3000
M205 X10 Y10
G0 F6000 X153.6 Y86.751
M204 S1800
M205 X8 Y8
G1 F1012.5 X153.6 Y43.637 E463.06581
M204 S3000
M205 X10 Y10
G0 F6000 X155.2 Y43.637
M204 S1800
M205 X8 Y8
G1 F1012.5 X155.2 Y83.98 E466.28616
M204 S3000
M205 X10 Y10
G0 F6000 X156.8 Y81.209
M204 S1800
M205 X8 Y8
G1 F1012.5 X156.8 Y43.637 E469.28532
M204 S3000
M205 X10 Y10
G0 F6000 X158.4 Y43.637
M204 S1800
M205 X8 Y8
G1 F1012.5 X158.4 Y78.437 E472.06321
M204 S3000
M205 X10 Y10
G0 F6000 X160 Y75.666
M204 S1800
M205 X8 Y8
G1 F1012.5 X160 Y43.637 E474.6199
M204 S3000
M205 X10 Y10
G0 F6000 X161.6 Y43.637
M204 S1800
M205 X8 Y8
G1 F1012.5 X161.6 Y72.895 E476.9554
M204 S3000
M205 X10 Y10
G0 F6000 X163.2 Y70.123
M204 S1800
M205 X8 Y8
G1 F1012.5 X163.2 Y43.637 E479.06963
M204 S3000
M205 X10 Y10
G0 F6000 X164.8 Y43.637
M204 S1800
M205 X8 Y8
G1 F1012.5 X164.8 Y67.352 E480.96266
M204 S3000
M205 X10 Y10
G0 F6000 X166.4 Y64.581
M204 S1800
M205 X8 Y8
G1 F1012.5 X166.4 Y43.637 E482.6345
M204 S3000
M205 X10 Y10
G0 F6000 X168 Y43.637
M204 S1800
M205 X8 Y8
G1 F1012.5 X168 Y61.809 E484.08507
M204 S3000
M205 X10 Y10
G0 F6000 X169.6 Y59.038
M204 S1800
M205 X8 Y8
G1 F1012.5 X169.6 Y43.637 E485.31444
