;FLAVOR:Marlin
;TIME:1884
;Filament used: 1.17704m
;Layer height: 0.1
;MINX:73.881
;MINY:67.715
;MINZ:0.36
;MAXX:136.074
;MAXY:108.908
;MAXZ:25.21
;Generated with Cura_SteamEngine 4.8.0
M140 S60
M105
M190 S60
M104 S215
M105
M109 S215
M82 ;absolute extrusion mode
M140 S60
M105
M190 S60
M104 S200
M105
M109 S200
M82 ;absolute extrusion mode
G28
G29
M501
G92 E0 ;zero the extruded length
G1 F200 E3 ;extrude 3mm of feed stock
G92 E0 ;zero the extruded length again
G1 F100
M117 Printing...
G92 E0
G92 E0
;LAYER_COUNT:297
;LAYER:-9
M107
G0 F7200 X79.936 Y74.515 Z0.36
;TYPE:SUPPORT-INTERFACE
G1 F2025 X80.577 Y73.864 E0.16409
G1 X80.679 Y73.768 E0.18925
G1 X81.354 Y73.175 E0.35062
G1 X81.478 Y73.074 E0.37934
G1 X82.202 Y72.527 E0.54232
G1 X82.302 Y72.456 E0.56434
G1 X83.075 Y71.957 E0.72959
G1 X83.195 Y71.885 E0.75473
G1 X83.987 Y71.452 E0.91684
G1 X84.113 Y71.389 E0.94215
G1 X84.955 Y71.004 E1.10843
G1 X85.101 Y70.944 E1.13678
G1 X86.015 Y70.61 E1.31156
G1 X86.167 Y70.557 E1.34047
G1 X88.71 Y69.734 E1.82053
G1 X88.813 Y69.702 E1.8399
G1 X89.707 Y69.449 E2.00677
G1 X89.858 Y69.412 E2.0347
G1 X90.736 Y69.23 E2.19574
G1 X90.904 Y69.202 E2.22633
G1 X91.918 Y69.071 E2.40996
G1 X94.21 Y68.863 E2.82331
G1 X94.884 Y68.758 E2.94582
G1 X95.294 Y68.652 E3.02188
G1 X95.752 Y68.513 E3.10785
G1 X95.92 Y68.469 E3.13904
G1 X96.817 Y68.269 E3.3041
G1 X96.927 Y68.249 E3.32418
G1 X97.841 Y68.114 E3.49012
G1 X97.978 Y68.099 E3.51487
G1 X98.877 Y68.032 E3.67678
G1 X99.034 Y68.024 E3.70502
G1 X99.552 Y68.016 E3.79806
G1 X104.232 Y68.017 E4.63861
G1 X105.236 Y68.053 E4.81905
G1 X105.352 Y68.061 E4.83994
G1 X106.24 Y68.16 E5.00041
G1 X106.417 Y68.185 E5.03252
G1 X107.29 Y68.347 E5.19199
G1 X107.425 Y68.377 E5.21683
G1 X108.332 Y68.613 E5.38516
G1 X108.541 Y68.677 E5.42441
G1 X109.211 Y68.834 E5.54801
G1 X109.915 Y68.908 E5.67515
G1 X110.603 Y68.892 E5.79875
G1 X111.287 Y68.834 E5.92204
G1 X111.287 Y68.82 E5.92455
G1 X111.754 Y68.773 E6.00885
G1 X112.69 Y68.709 E6.17735
G1 X112.848 Y68.703 E6.20575
G1 X113.751 Y68.707 E6.36794
G1 X113.89 Y68.712 E6.39292
G1 X114.479 Y68.749 E6.49891
G1 X115.684 Y68.849 E6.71608
G1 X117.085 Y68.931 E6.96814
G1 X117.201 Y68.94 E6.98904
G1 X118.093 Y69.025 E7.14997
G1 X118.288 Y69.051 E7.1853
G1 X119.124 Y69.194 E7.33763
G1 X119.334 Y69.239 E7.3762
G1 X120.634 Y69.581 E7.61764
G1 X120.781 Y69.624 E7.64514
G1 X123.954 Y70.641 E8.24359
G1 X124.096 Y70.69 E8.27057
G1 X124.929 Y70.992 E8.42971
G1 X125.114 Y71.066 E8.46549
G1 X125.906 Y71.419 E8.62123
G1 X126.042 Y71.486 E8.64846
G1 X126.857 Y71.923 E8.81455
G1 X126.978 Y71.994 E8.83975
G1 X127.73 Y72.472 E8.99979
G1 X127.866 Y72.565 E9.02938
G1 X128.581 Y73.097 E9.18944
G1 X128.701 Y73.193 E9.21704
G1 X129.381 Y73.779 E9.37827
G1 X129.483 Y73.873 E9.40318
G1 X130.011 Y74.391 E9.53603
G1 X130.68 Y75.138 E9.71613
G1 X130.792 Y75.27 E9.74722
G1 X131.355 Y75.997 E9.91237
G1 X131.437 Y76.11 E9.93745
G1 X131.842 Y76.603 E10.05204
G1 X132.04 Y76.816 E10.10427
G1 X132.154 Y76.947 E10.13546
G1 X132.72 Y77.651 E10.2977
G1 X132.798 Y77.754 E10.32091
G1 X133.299 Y78.481 E10.47948
G1 X133.408 Y78.653 E10.51605
G1 X133.844 Y79.394 E10.67047
G1 X133.922 Y79.537 E10.69973
G1 X134.31 Y80.324 E10.85732
G1 X134.391 Y80.502 E10.89244
G1 X134.727 Y81.332 E11.05327
G1 X134.768 Y81.444 E11.07469
G1 X135.046 Y82.308 E11.2377
G1 X135.09 Y82.464 E11.26681
G1 X135.304 Y83.34 E11.42877
G1 X135.333 Y83.479 E11.45428
G1 X135.479 Y84.353 E11.61343
G1 X135.503 Y84.534 E11.64622
G1 X135.591 Y85.461 E11.81346
G1 X135.698 Y87.275 E12.13983
G1 X135.73 Y87.904 E12.25295
G1 X135.751 Y88.252 E12.31556
G1 X135.756 Y88.376 E12.33785
G1 X135.774 Y89.293 E12.50258
G1 X135.77 Y89.486 E12.53725
G1 X135.724 Y90.331 E12.68924
G1 X135.705 Y90.543 E12.72747
G1 X135.595 Y91.396 E12.88194
G1 X135.567 Y91.562 E12.91218
G1 X135.391 Y92.43 E13.07125
G1 X135.355 Y92.582 E13.0993
G1 X135.345 Y92.582 E13.1011
G1 X135.188 Y93.301 E13.23328
G1 X134.96 Y94.177 E13.39585
G1 X134.921 Y94.31 E13.42075
G1 X134.632 Y95.162 E13.58233
G1 X134.58 Y95.298 E13.60849
G1 X134.227 Y96.134 E13.77147
G1 X134.169 Y96.26 E13.79638
G1 X133.746 Y97.085 E13.9629
G1 X133.676 Y97.209 E13.98847
G1 X133.211 Y97.975 E14.14942
G1 X133.133 Y98.095 E14.17512
G1 X132.613 Y98.822 E14.33566
G1 X132.434 Y99.051 E14.38786
G1 X132.044 Y99.623 E14.5122
G1 X132.021 Y99.613 E14.51671
G1 X131.663 Y100.374 E14.66775
G1 X131.251 Y101.17 E14.82873
G1 X131.183 Y101.29 E14.85351
G1 X130.715 Y102.051 E15.01396
G1 X130.618 Y102.197 E15.04545
G1 X130.119 Y102.891 E15.19897
G1 X129.994 Y103.051 E15.23543
G1 X129.44 Y103.712 E15.39034
G1 X129.318 Y103.848 E15.42315
G1 X128.718 Y104.469 E15.57824
G1 X128.589 Y104.592 E15.61025
G1 X127.93 Y105.179 E15.76876
G1 X127.797 Y105.288 E15.79964
G1 X127.093 Y105.829 E15.95911
G1 X126.962 Y105.923 E15.98807
G1 X126.208 Y106.418 E16.15006
G1 X126.094 Y106.488 E16.17409
G1 X125.323 Y106.918 E16.33265
G1 X125.145 Y107.009 E16.36855
G1 X124.35 Y107.379 E16.52604
G1 X124.218 Y107.435 E16.5518
G1 X123.391 Y107.75 E16.71074
G1 X123.208 Y107.81 E16.74533
G1 X121.998 Y108.154 E16.97126
G1 X121.889 Y108.183 E16.99152
G1 X121.639 Y108.24 E17.03757
G1 X120.71 Y108.42 E17.20753
G1 X120.548 Y108.446 E17.237
G1 X119.671 Y108.551 E17.39564
G1 X119.479 Y108.568 E17.43026
G1 X118.624 Y108.607 E17.58398
G1 X118.451 Y108.608 E17.61505
G1 X117.49 Y108.584 E17.7877
G1 X117.357 Y108.577 E17.81162
G1 X117.129 Y108.572 E17.85258
G1 X114.688 Y108.571 E18.291
G1 X113.684 Y108.535 E18.47144
G1 X113.568 Y108.527 E18.49232
G1 X112.68 Y108.428 E18.6528
G1 X112.503 Y108.403 E18.6849
G1 X111.632 Y108.241 E18.84402
G1 X111.482 Y108.208 E18.87161
G1 X110.625 Y107.984 E19.0307
G1 X110.439 Y107.928 E19.06559
G1 X109.618 Y107.648 E19.22138
G1 X109.446 Y107.582 E19.25447
G1 X108.666 Y107.251 E19.40665
G1 X108.486 Y107.167 E19.44233
G1 X107.119 Y106.463 E19.7185
G1 X107.105 Y106.487 E19.72349
G1 X107.086 Y106.478 E19.72726
G1 X106.412 Y106.262 E19.85438
G1 X105.716 Y106.133 E19.98151
G1 X105.008 Y106.093 E20.10888
G1 X104.302 Y106.142 E20.23598
G1 X103.608 Y106.281 E20.3631
G1 X102.933 Y106.506 E20.49089
G1 X102.92 Y106.479 E20.49628
G1 X102.173 Y106.882 E20.64872
G1 X101.326 Y107.298 E20.8182
G1 X101.216 Y107.348 E20.83991
G1 X100.392 Y107.68 E20.99946
G1 X100.211 Y107.745 E21.034
G1 X99.38 Y108.012 E21.19077
G1 X99.231 Y108.054 E21.21857
G1 X98.368 Y108.263 E21.37805
G1 X98.195 Y108.299 E21.40979
G1 X97.32 Y108.444 E21.56909
G1 X97.147 Y108.466 E21.60041
G1 X96.274 Y108.546 E21.75786
G1 X96.134 Y108.554 E21.78305
G1 X95.31 Y108.575 E21.93109
G1 X91.743 Y108.571 E22.57174
G1 X91.613 Y108.568 E22.59509
G1 X90.687 Y108.534 E22.76152
G1 X90.539 Y108.523 E22.78817
G1 X89.677 Y108.427 E22.94395
G1 X89.476 Y108.397 E22.98045
G1 X88.604 Y108.235 E23.13975
G1 X88.464 Y108.204 E23.1655
G1 X87.611 Y107.98 E23.3239
G1 X87.403 Y107.917 E23.36293
G1 X86.544 Y107.643 E23.52487
G1 X86.41 Y107.593 E23.55056
G1 X85.57 Y107.255 E23.71318
G1 X85.433 Y107.194 E23.74012
G1 X84.626 Y106.798 E23.90157
G1 X84.497 Y106.73 E23.92776
G1 X83.718 Y106.274 E24.08988
G1 X83.577 Y106.185 E24.11983
G1 X82.858 Y105.691 E24.2765
G1 X82.723 Y105.59 E24.30679
G1 X82.026 Y105.033 E24.46703
G1 X81.903 Y104.928 E24.49608
G1 X81.256 Y104.327 E24.65468
G1 X81.133 Y104.205 E24.6858
G1 X80.539 Y103.567 E24.84236
G1 X80.416 Y103.425 E24.8761
G1 X79.868 Y102.743 E25.03324
G1 X79.761 Y102.599 E25.06546
G1 X79.271 Y101.886 E25.22084
G1 X79.172 Y101.733 E25.25357
G1 X78.722 Y100.967 E25.41313
G1 X78.654 Y100.842 E25.43869
G1 X78.307 Y100.149 E25.57789
G1 X77.914 Y99.311 E25.74413
G1 X77.881 Y99.328 E25.75079
G1 X77.658 Y98.982 E25.82472
G1 X77.495 Y98.756 E25.87477
G1 X76.997 Y98.004 E26.03676
G1 X76.939 Y97.907 E26.05706
G1 X76.484 Y97.102 E26.22314
G1 X76.424 Y96.986 E26.2466
G1 X76.024 Y96.135 E26.41548
G1 X75.985 Y96.043 E26.43343
G1 X75.622 Y95.1 E26.61491
G1 X74.983 Y93.257 E26.96526
G1 X74.686 Y92.291 E27.14677
G1 X74.637 Y92.106 E27.18114
G1 X74.444 Y91.256 E27.33769
G1 X74.416 Y91.112 E27.36404
G1 X74.281 Y90.218 E27.52643
G1 X74.263 Y90.071 E27.55303
G1 X74.192 Y89.163 E27.7166
G1 X74.186 Y89.025 E27.74141
G1 X74.182 Y88.161 E27.89659
G1 X74.19 Y87.932 E27.93775
G1 X74.279 Y86.775 E28.14616
G1 X74.388 Y85.867 E28.31042
G1 X74.404 Y85.751 E28.33145
G1 X74.544 Y84.876 E28.4906
G1 X74.578 Y84.706 E28.52174
G1 X74.79 Y83.805 E28.68798
G1 X74.835 Y83.645 E28.71783
G1 X74.956 Y83.165 E28.80674
G1 X75.006 Y82.949 E28.84656
G1 X75.033 Y82.819 E28.87041
G1 X75.075 Y82.647 E28.90221
G1 X75.315 Y81.802 E29.05998
G1 X75.371 Y81.631 E29.09229
G1 X75.668 Y80.82 E29.24741
G1 X75.731 Y80.664 E29.27763
G1 X76.105 Y79.835 E29.44097
G1 X76.163 Y79.719 E29.46427
G1 X76.602 Y78.909 E29.62974
G1 X76.673 Y78.787 E29.65509
G1 X77.173 Y78.005 E29.8218
G1 X77.235 Y77.915 E29.84143
G1 X77.622 Y77.387 E29.959
G1 X78.195 Y76.646 E30.12724
G1 X79.176 Y75.402 E30.41178
G1 X79.241 Y75.323 E30.43015
G1 X79.824 Y74.638 E30.59171
G1 X79.936 Y74.515 E30.62159
G0 F7200 X79.2 Y75.372
G1 F2025 X79.2 Y101.776 E35.36387
G0 F7200 X81.6 Y104.646
G1 F2025 X81.6 Y72.981 E41.05105
G0 F7200 X84 Y71.445
G1 F2025 X84 Y106.439 E47.33614
G0 F7200 X86.4 Y107.588
G1 F2025 X86.4 Y70.481 E54.00074
G0 F7200 X88.8 Y69.706
G1 F2025 X88.8 Y108.271 E60.92719
G0 F7200 X91.2 Y108.552
G1 F2025 X91.2 Y69.163 E68.00164
G0 F7200 X93.6 Y68.918
G1 F2025 X93.6 Y108.573 E75.12387
G0 F7200 X96 Y108.558
G1 F2025 X96 Y68.451 E82.32727
G0 F7200 X98.4 Y68.067
G1 F2025 X98.4 Y108.256 E89.54541
G0 F7200 X100.8 Y107.516
G1 F2025 X100.8 Y68.017 E96.63962
G0 F7200 X103.2 Y68.017
G1 F2025 X103.2 Y106.417 E103.53644
G0 F7200 X105.6 Y106.126
G1 F2025 X105.6 Y68.089 E110.36806
G0 F7200 X108 Y68.527
G1 F2025 X108 Y106.916 E117.26291
G0 F7200 X110.4 Y107.914
G1 F2025 X110.4 Y68.896 E124.27073
G0 F7200 X112.8 Y68.704
G1 F2025 X112.8 Y108.441 E131.40768
G0 F7200 X115.2 Y108.571
G1 F2025 X115.2 Y68.809 E138.54912
G0 F7200 X117.6 Y68.979
G1 F2025 X117.6 Y108.586 E145.66273
G0 F7200 X120 Y108.512
G1 F2025 X120 Y69.415 E152.68473
G0 F7200 X122.4 Y70.143
G1 F2025 X122.4 Y108.04 E159.49121
G0 F7200 X124.8 Y107.17
G1 F2025 X124.8 Y70.946 E165.99722
G0 F7200 X127.2 Y72.136
G1 F2025 X127.2 Y105.747 E172.03391
G0 F7200 X129.6 Y103.522
G1 F2025 X129.6 Y73.988 E177.33836
G0 F7200 X132 Y76.773
G1 F2025 X132 Y99.658 E181.44861
G0 F7200 X134.4 Y95.725
G1 F2025 X134.4 Y80.525 E184.1786
G0 F7200 X76.8 Y78.588
G1 F2025 X76.8 Y97.661 E187.6042
G0 F7200 X74.4 Y91.006
G1 F2025 X74.4 Y85.78 E188.54282
G0 F600 X74.4 Y85.78 Z0.51
G0 F7200 X78.251 Y100.03
;TIME_ELAPSED:34.051822
;LAYER:-8
;TYPE:SUPPORT
G1 F2025 X85.395 Y107.174 E189.29889
G1 X84.626 Y106.797 E189.36298
G1 X84.496 Y106.729 E189.37396
G1 X83.717 Y106.273 E189.44151
G1 X83.576 Y106.184 E189.45399
G1 X82.858 Y105.69 E189.51921
G1 X82.723 Y105.589 E189.53183
G1 X82.025 Y105.032 E189.59865
G1 X81.902 Y104.927 E189.61076
G1 X81.255 Y104.325 E189.67689
G1 X81.132 Y104.204 E189.6898
G1 X80.538 Y103.566 E189.75504
G1 X80.416 Y103.424 E189.76905
G1 X79.867 Y102.742 E189.83457
G1 X79.76 Y102.597 E189.84805
G1 X79.27 Y101.885 E189.91274
G1 X79.171 Y101.732 E189.92637
G1 X78.722 Y100.966 E189.99282
G1 X78.653 Y100.841 E190.0035
G1 X78.307 Y100.148 E190.06147
G0 F7200 X85.395 Y107.174
G1 F2025 X85.432 Y107.193 E190.06458
G1 X85.569 Y107.253 E190.07578
G1 X86.409 Y107.591 E190.14354
G1 X86.543 Y107.642 E190.15426
G1 X87.403 Y107.916 E190.22181
G1 X87.61 Y107.979 E190.238
G1 X88.383 Y108.182 E190.29781
G1 X75.822 Y95.621 E191.62718
G1 X75.621 Y95.099 E191.66904
G1 X74.983 Y93.256 E191.81499
G1 X74.78 Y92.599 E191.86645
G1 X90.714 Y108.533 E193.5528
G1 X91.613 Y108.567 E193.62012
G1 X91.742 Y108.57 E193.62978
G1 X92.732 Y108.571 E193.70387
G1 X74.267 Y90.106 E195.65808
G1 X74.263 Y90.069 E195.66086
G1 X74.191 Y89.162 E195.72895
G1 X74.186 Y89.024 E195.73928
G1 X74.181 Y88.159 E195.80402
G1 X74.185 Y88.044 E195.81263
G1 X94.714 Y108.573 E197.98528
G1 X95.31 Y108.574 E198.02988
G1 X96.133 Y108.553 E198.09149
G1 X96.274 Y108.545 E198.10206
G1 X96.632 Y108.511 E198.12897
G1 X74.344 Y86.223 E200.48778
G1 X74.388 Y85.866 E200.51469
G1 X74.403 Y85.75 E200.52345
G1 X74.543 Y84.874 E200.58984
G1 X74.577 Y84.705 E200.60274
G1 X74.62 Y84.52 E200.61695
G1 X98.363 Y108.262 E203.12969
G1 X98.368 Y108.262 E203.13007
G1 X99.231 Y108.052 E203.19653
G1 X99.38 Y108.011 E203.2081
G1 X99.918 Y107.838 E203.25039
G1 X75.009 Y82.929 E205.88659
G1 X75.033 Y82.818 E205.89509
G1 X75.074 Y82.646 E205.90832
G1 X75.314 Y81.801 E205.97405
G1 X75.371 Y81.63 E205.98754
G1 X75.456 Y81.395 E206.00625
G1 X101.346 Y107.286 E208.74632
G1 X102.173 Y106.881 E208.81523
G1 X102.659 Y106.618 E208.85658
G1 X76.033 Y79.992 E211.67449
G1 X76.105 Y79.834 E211.68749
G1 X76.163 Y79.718 E211.69719
G1 X76.601 Y78.908 E211.76611
G1 X76.673 Y78.785 E211.77677
G1 X76.724 Y78.704 E211.78393
G1 X104.184 Y106.164 E214.69011
G1 X104.301 Y106.141 E214.69903
G1 X105.007 Y106.092 E214.752
G1 X105.715 Y106.131 E214.80506
G1 X106.227 Y106.227 E214.84404
G1 X77.521 Y77.521 E217.88209
G1 X77.621 Y77.386 E217.89466
G1 X78.194 Y76.646 E217.9647
G1 X78.384 Y76.404 E217.98772
G1 X109.632 Y107.652 E221.2948
G1 X110.438 Y107.927 E221.35853
G1 X110.624 Y107.983 E221.37306
G1 X111.481 Y108.207 E221.43935
G1 X111.63 Y108.241 E221.45079
G1 X112.33 Y108.37 E221.50406
G1 X79.259 Y75.299 E225.00406
G1 X79.823 Y74.637 E225.06915
G1 X79.935 Y74.514 E225.0816
G1 X80.192 Y74.253 E225.10901
G1 X114.503 Y108.563 E228.74019
G1 X114.687 Y108.57 E228.75397
G1 X116.49 Y108.571 E228.8889
G1 X81.216 Y73.296 E232.62211
G1 X81.353 Y73.174 E232.63584
G1 X81.477 Y73.073 E232.64781
G1 X82.201 Y72.526 E232.71571
G1 X82.301 Y72.455 E232.72489
G1 X82.334 Y72.435 E232.72778
G1 X118.506 Y108.606 E236.55592
G1 X118.623 Y108.606 E236.56468
G1 X119.478 Y108.567 E236.62873
G1 X119.67 Y108.55 E236.64315
G1 X120.348 Y108.469 E236.69425
G1 X83.563 Y71.683 E240.58737
G1 X83.985 Y71.451 E240.62341
G1 X84.112 Y71.388 E240.63402
G1 X84.892 Y71.033 E240.69816
G1 X122.009 Y108.15 E244.62636
G1 X123.207 Y107.809 E244.71958
G1 X123.39 Y107.75 E244.73397
G1 X123.534 Y107.695 E244.7455
G1 X86.34 Y70.501 E248.68186
G1 X87.836 Y70.017 E248.79952
G1 X124.928 Y107.108 E252.72503
G1 X125.144 Y107.008 E252.74285
G1 X125.322 Y106.918 E252.75777
G1 X126.093 Y106.488 E252.82384
G1 X126.207 Y106.418 E252.83385
G1 X126.212 Y106.413 E252.83438
G1 X89.35 Y69.551 E256.7356
G1 X89.706 Y69.449 E256.76331
G1 X89.857 Y69.411 E256.77496
G1 X90.735 Y69.229 E256.84207
G1 X90.903 Y69.202 E256.8548
G1 X90.972 Y69.193 E256.86001
G1 X127.383 Y105.604 E260.7135
G1 X127.796 Y105.287 E260.75246
G1 X127.929 Y105.178 E260.76533
G1 X128.462 Y104.703 E260.81875
G1 X92.754 Y68.995 E264.59784
G1 X94.209 Y68.863 E264.70717
G1 X94.549 Y68.81 E264.73293
G1 X129.445 Y103.706 E268.42608
G1 X129.993 Y103.05 E268.49005
G1 X130.118 Y102.89 E268.50524
G1 X130.324 Y102.605 E268.53156
G1 X96.138 Y68.42 E272.14951
G1 X96.816 Y68.269 E272.20149
G1 X96.926 Y68.249 E272.20986
G1 X97.816 Y68.117 E272.27719
G1 X131.108 Y101.41 E275.80064
G1 X131.182 Y101.29 E275.81119
G1 X131.25 Y101.17 E275.82151
G1 X131.661 Y100.373 E275.88862
G1 X131.787 Y100.108 E275.91058
G1 X99.694 Y68.016 E279.30703
G1 X101.674 Y68.016 E279.4552
G1 X132.554 Y98.896 E282.72333
G1 X132.612 Y98.822 E282.73037
G1 X133.131 Y98.094 E282.79727
G1 X133.21 Y97.975 E282.80796
G1 X133.363 Y97.724 E282.82996
G1 X103.655 Y68.017 E285.974
G1 X104.231 Y68.017 E286.0171
G1 X105.235 Y68.052 E286.09228
G1 X105.351 Y68.061 E286.10099
G1 X105.72 Y68.102 E286.12877
G1 X134.07 Y96.452 E289.12914
G1 X134.167 Y96.259 E289.14531
G1 X134.225 Y96.133 E289.15569
G1 X134.579 Y95.298 E289.22356
G1 X134.631 Y95.161 E289.23452
G1 X134.664 Y95.066 E289.24205
G1 X108.168 Y68.57 E292.0462
G1 X108.331 Y68.613 E292.05882
G1 X108.54 Y68.677 E292.07518
G1 X109.209 Y68.834 E292.1266
G1 X109.914 Y68.907 E292.17964
G1 X110.473 Y68.895 E292.22149
G1 X135.123 Y93.545 E294.83027
G1 X135.187 Y93.301 E294.84915
G1 X135.344 Y92.581 E294.9043
G1 X135.354 Y92.581 E294.90505
G1 X135.39 Y92.429 E294.91673
G1 X135.491 Y91.933 E294.95461
G1 X112.294 Y68.736 E297.40963
