;FLAVOR:Marlin
;TIME:7940
;Filament used: 4.30853m, 0m, 0m, 0m
;Layer height: 0.2
;MINX:89.698
;MINY:75.217
;MINZ:0.36
;MAXX:120.302
;MAXY:135.696
;MAXZ:49.06
;Generated with Cura_SteamEngine 4.9.1
T0
M140 S60
M105
M190 S60
M104 S215
M105
M109 S215
M82 ;absolute extrusion mode
M82 ;absolute extrusion mode
G28
G29
M501
G92 E0 ;zero the extruded length
G1 F200 E3 ;extrude 3mm of feed stock
G92 E0 ;zero the extruded length again
G1 F100
G92 E0
G92 E0
G1 F1500 E-6.5
;LAYER_COUNT:239
;LAYER:-6
M107
G0 F5400 X97.658 Y91.462 Z0.36
;TYPE:SUPPORT-INTERFACE
G1 F1500 E0
G1 F675 X98.046 Y91.068 E0.06621
G1 X98.419 Y90.707 E0.12836
G1 X98.825 Y90.335 E0.1943
G1 X99.269 Y89.953 E0.26443
G1 X99.737 Y89.573 E0.33661
G1 X100.204 Y89.217 E0.40692
G1 X100.627 Y88.914 E0.46923
G1 X101.09 Y88.599 E0.53628
G1 X101.688 Y88.223 E0.62086
G1 X102.252 Y87.898 E0.6988
G1 X102.811 Y87.646 E0.77222
G1 X103.337 Y87.461 E0.83898
G1 X103.956 Y87.315 E0.91513
G1 X104.491 Y87.244 E0.97975
G1 X105.014 Y87.223 E1.04243
G1 X105.582 Y87.253 E1.11053
G1 X106.209 Y87.348 E1.18646
G1 X106.734 Y87.485 E1.25143
G1 X106.766 Y87.494 E1.25541
G1 X107.339 Y87.705 E1.32852
G1 X107.847 Y87.954 E1.39626
G1 X108.312 Y88.224 E1.46064
G1 X108.804 Y88.532 E1.53015
G1 X109.285 Y88.85 E1.59919
G1 X109.791 Y89.212 E1.67368
G1 X110.206 Y89.528 E1.73614
G1 X110.612 Y89.855 E1.79856
G1 X111.005 Y90.184 E1.85993
G1 X111.392 Y90.531 E1.92217
G1 X111.778 Y90.894 E1.98561
G1 X112.309 Y91.428 E2.07578
G1 X112.696 Y91.844 E2.14381
G1 X113.132 Y92.343 E2.22315
G1 X113.478 Y92.766 E2.28859
G1 X113.82 Y93.212 E2.35588
G1 X114.137 Y93.642 E2.41985
G1 X114.548 Y94.248 E2.50752
G1 X114.847 Y94.72 E2.57443
G1 X115.191 Y95.305 E2.65568
G1 X115.541 Y95.951 E2.74366
G1 X115.659 Y96.18 E2.7745
G1 X115.953 Y96.793 E2.85591
G1 X116.204 Y97.362 E2.93037
G1 X116.402 Y97.851 E2.99354
G1 X116.684 Y98.627 E3.0924
G1 X116.844 Y99.119 E3.15435
G1 X117.065 Y99.872 E3.24831
G1 X117.275 Y100.735 E3.35466
G1 X117.383 Y101.254 E3.41813
G1 X117.528 Y102.107 E3.52173
G1 X117.616 Y102.803 E3.60573
G1 X117.678 Y103.446 E3.68308
G1 X117.715 Y104.056 E3.75626
G1 X117.732 Y104.616 E3.82334
G1 X117.729 Y105.427 E3.92045
G1 X117.701 Y106.096 E4.00062
G1 X117.422 Y110.67 E4.54931
G1 X117.38 Y111.352 E4.63113
G1 X117.357 Y111.7 E4.67289
G1 X117.195 Y114.377 E4.99401
G1 X117.172 Y114.72 E5.03517
G1 X117.102 Y115.888 E5.17527
G1 X117.082 Y116.185 E5.21091
G1 X116.988 Y117.797 E5.40426
G1 X116.414 Y127.186 E6.53056
G1 X116.264 Y129.576 E6.8173
G1 X116.21 Y130.091 E6.8793
G1 X116.114 Y130.601 E6.94144
G1 X115.959 Y131.149 E7.00963
G1 X115.775 Y131.644 E7.07286
G1 X115.537 Y132.144 E7.13916
G1 X115.261 Y132.603 E7.20329
G1 X114.934 Y133.073 E7.27185
G1 X114.58 Y133.488 E7.33716
G1 X114.098 Y133.944 E7.41661
G1 X113.592 Y134.331 E7.49289
G1 X113.147 Y134.616 E7.55616
G1 X112.62 Y134.896 E7.62761
G1 X112.141 Y135.098 E7.68986
G1 X111.657 Y135.253 E7.75071
G1 X110.94 Y135.409 E7.83857
G1 X110.434 Y135.471 E7.89961
G1 X109.867 Y135.495 E7.96756
G1 X100.144 Y135.496 E9.13176
G1 X99.503 Y135.465 E9.2086
G1 X98.793 Y135.361 E9.29452
G1 X98.247 Y135.226 E9.36186
G1 X97.741 Y135.052 E9.42593
G1 X97.248 Y134.836 E9.49038
G1 X97.057 Y134.739 E9.51603
G1 X96.59 Y134.466 E9.5808
G1 X96.155 Y134.158 E9.64462
G1 X95.664 Y133.733 E9.72238
G1 X95.284 Y133.337 E9.78809
G1 X94.957 Y132.931 E9.85051
G1 X94.65 Y132.459 E9.91793
G1 X94.337 Y131.892 E9.99548
G1 X94.123 Y131.382 E10.0617
G1 X93.964 Y130.893 E10.12327
G1 X93.815 Y130.24 E10.20347
G1 X93.743 Y129.687 E10.27024
G1 X93.73 Y129.522 E10.29006
G1 X92.293 Y105.987 E13.1133
G1 X92.267 Y105.213 E13.20603
G1 X92.267 Y104.667 E13.27141
G1 X92.281 Y104.157 E13.3325
G1 X92.325 Y103.419 E13.42102
G1 X92.373 Y102.893 E13.48426
G1 X92.441 Y102.339 E13.5511
G1 X92.559 Y101.572 E13.64401
G1 X92.716 Y100.772 E13.74163
G1 X92.867 Y100.137 E13.81978
G1 X93.011 Y99.597 E13.8867
G1 X93.178 Y99.042 E13.9561
G1 X93.37 Y98.466 E14.0288
G1 X93.592 Y97.863 E14.10573
G1 X93.806 Y97.34 E14.1734
G1 X94.093 Y96.691 E14.25836
G1 X94.366 Y96.13 E14.33307
G1 X94.677 Y95.54 E14.41293
G1 X94.951 Y95.059 E14.47921
G1 X95.358 Y94.394 E14.57256
G1 X95.659 Y93.939 E14.63788
G1 X96.007 Y93.441 E14.71063
G1 X96.412 Y92.904 E14.79116
G1 X96.883 Y92.326 E14.88044
G1 X97.223 Y91.935 E14.94248
G1 X97.658 Y91.462 E15.01943
G0 F5400 X97.6 Y91.525
G1 F675 X97.6 Y134.99 E20.22377
G1 F1500 E13.72377
G0 F5400 X99.2 Y135.42
G1 F1500 E20.22377
G1 F675 X99.2 Y90.012 E25.66077
G1 F1500 E19.16077
G0 F5400 X100.8 Y88.796
G1 F1500 E25.66077
G1 F675 X100.8 Y135.496 E31.25246
G1 F1500 E24.75246
G0 F5400 X102.4 Y135.496
G1 F1500 E31.25246
G1 F675 X102.4 Y87.831 E36.9597
G1 F1500 E30.4597
G0 F5400 X104 Y87.309
G1 F1500 E36.9597
G1 F675 X104 Y135.496 E42.72944
G1 F1500 E36.22944
G0 F5400 X105.6 Y135.496
G1 F1500 E42.72944
G1 F675 X105.6 Y87.256 E48.50553
G1 F1500 E42.00553
G0 F5400 X107.2 Y87.654
G1 F1500 E48.50553
G1 F675 X107.2 Y135.496 E54.23396
G1 F1500 E47.73396
G0 F5400 X108.8 Y135.496
G1 F1500 E54.23396
G1 F675 X108.8 Y88.53 E59.85751
G1 F1500 E53.35751
G0 F5400 X110.4 Y89.685
G1 F1500 E59.85751
G1 F675 X110.4 Y135.473 E65.34
G1 F1500 E58.84
G0 F5400 X112 Y135.144
G1 F1500 E65.34
G1 F675 X112 Y91.118 E70.61152
G1 F1500 E64.11152
G0 F5400 X113.6 Y92.926
G1 F1500 E70.61152
G1 F675 X113.6 Y134.325 E75.56849
G1 F1500 E69.06849
G0 F5400 X115.2 Y132.691
G1 F1500 E75.56849
G1 F675 X115.2 Y95.322 E80.04292
G1 F1500 E73.54292
G0 F5400 X116.8 Y98.984
G1 F1500 E80.04292
G1 F675 X116.8 Y120.873 E82.66384
G1 F1500 E76.16384
G0 F5400 X96 Y134.023
G1 F1500 E82.66384
G1 F675 X96 Y93.451 E87.52178
G1 F1500 E81.02178
G0 F5400 X94.4 Y96.065
G1 F1500 E87.52178
G1 F675 X94.4 Y132.006 E91.82523
G1 F1500 E85.32523
G0 F5400 X92.8 Y114.29
G1 F1500 E91.82523
G1 F675 X92.8 Y100.418 E93.48622
G1 F1500 E86.98622
G0 F600 X92.8 Y100.418 Z0.66
G0 F5400 X115.114 Y95.172
;TIME_ELAPSED:82.675517
;LAYER:-5
;TYPE:SUPPORT
G1 F1500 E93.48622
G1 F675 X114.887 Y94.786 E93.5309
G1 X114.607 Y94.342 E93.58328
G1 X114.377 Y93.992 E93.62507
G1 X114.356 Y93.964 E93.62856
G1 X114.147 Y93.657 E93.66561
G1 X113.94 Y93.373 E93.70068
G1 X113.886 Y93.304 E93.70942
G1 X113.666 Y93.005 E93.74646
G1 X113.477 Y92.766 E93.77687
G1 X113.131 Y92.342 E93.83147
G1 X112.719 Y91.872 E93.89384
G1 X112.628 Y91.773 E93.90725
G1 X112.521 Y91.655 E93.92315
G1 X112.308 Y91.427 E93.95428
G1 X111.876 Y90.991 E94.01552
G1 X111.58 Y90.706 E94.05652
G1 X111.167 Y90.327 E94.11246
G1 X110.964 Y90.149 E94.13939
G1 X110.41 Y89.689 E94.21124
G1 X110.205 Y89.528 E94.23725
G1 X109.79 Y89.212 E94.2893
G1 X109.53 Y89.022 E94.32143
G1 X109.467 Y88.98 E94.32899
G1 X109.284 Y88.85 E94.35139
G1 X108.994 Y88.653 E94.38637
G1 X108.803 Y88.531 E94.40898
G1 X108.726 Y88.48 E94.4182
G1 X108.628 Y88.418 E94.42977
G1 X108.258 Y88.191 E94.47308
G1 X107.991 Y88.034 E94.50399
G1 X107.845 Y87.954 E94.5206
G1 X107.655 Y87.856 E94.54193
G1 X115.298 Y95.499 E95.62044
G1 X115.33 Y95.556 E95.62696
G1 X115.541 Y95.951 E95.67165
G1 X115.56 Y95.983 E95.67536
G1 X115.868 Y96.609 E95.74497
G1 X115.993 Y96.884 E95.77511
G1 X116.203 Y97.361 E95.82712
G1 X116.249 Y97.478 E95.83966
G1 X116.316 Y97.634 E95.8566
G1 X116.401 Y97.85 E95.87976
G1 X116.502 Y98.117 E95.90825
G1 X105.643 Y87.259 E97.4405
G1 X105.58 Y87.252 E97.44682
G1 X105.239 Y87.229 E97.48093
G1 X105.1 Y87.221 E97.49482
G1 X104.69 Y87.232 E97.53574
G1 X104.586 Y87.237 E97.54613
G1 X104.49 Y87.244 E97.55574
G1 X104.244 Y87.273 E97.58045
G1 X117.141 Y100.17 E99.40036
G1 X117.164 Y100.269 E99.4105
G1 X117.295 Y100.825 E99.4675
G1 X117.359 Y101.133 E99.49889
G1 X117.439 Y101.561 E99.54233
G1 X117.501 Y101.944 E99.58105
G1 X103.098 Y87.541 E101.61346
G1 X102.81 Y87.645 E101.64402
G1 X102.665 Y87.703 E101.6596
G1 X102.555 Y87.752 E101.67162
G1 X102.251 Y87.898 E101.70527
G1 X102.116 Y87.973 E101.72068
G1 X117.684 Y103.542 E103.91756
G1 X117.7 Y103.794 E103.94275
G1 X117.724 Y104.321 E103.99539
G1 X117.733 Y104.756 E104.03881
G1 X117.734 Y105.006 E104.06375
G1 X101.233 Y88.505 E106.39222
G1 X101.147 Y88.56 E106.40241
G1 X100.854 Y88.756 E106.43758
G1 X100.626 Y88.913 E106.4652
G1 X100.393 Y89.079 E106.49375
G1 X117.685 Y106.371 E108.93384
G1 X117.603 Y107.703 E109.067
G1 X99.59 Y89.69 E111.60882
G1 X99.392 Y89.849 E111.63416
G1 X98.962 Y90.212 E111.69031
G1 X98.822 Y90.337 E111.70904
G1 X117.521 Y109.036 E114.34767
G1 X117.439 Y110.368 E114.48083
G1 X98.092 Y91.021 E117.2109
G1 X98.045 Y91.067 E117.21746
G1 X97.732 Y91.383 E117.26184
G1 X97.396 Y91.74 E117.31076
G1 X117.357 Y111.7 E120.1274
G1 X117.284 Y112.881 E120.24547
G1 X117.275 Y113.033 E120.26066
G1 X96.739 Y92.497 E123.15851
G1 X96.679 Y92.568 E123.16779
G1 X96.411 Y92.903 E123.21059
G1 X96.305 Y93.042 E123.22804
G1 X96.117 Y93.289 E123.25901
G1 X117.195 Y114.366 E126.23327
G1 X117.194 Y114.377 E126.23437
G1 X117.171 Y114.72 E126.26868
G1 X117.113 Y115.698 E126.36643
G1 X95.535 Y94.12 E129.41132
G1 X95.399 Y94.325 E129.43587
G1 X95.162 Y94.705 E129.48055
G1 X95.025 Y94.929 E129.50675
G1 X94.989 Y94.989 E129.51374
G1 X117.032 Y117.032 E132.62424
G1 X116.987 Y117.796 E132.70061
G1 X116.953 Y118.367 E132.75768
G1 X94.484 Y95.898 E135.9283
G1 X94.366 Y96.129 E135.95418
G1 X94.092 Y96.69 E136.01648
G1 X94.02 Y96.848 E136.0338
G1 X116.872 Y119.7 E139.25847
G1 X116.79 Y121.033 E139.39173
G1 X93.601 Y97.843 E142.66402
G1 X93.536 Y98.009 E142.6818
G1 X93.393 Y98.4 E142.72335
G1 X93.292 Y98.692 E142.75417
G1 X93.229 Y98.886 E142.77453
G1 X116.709 Y122.366 E146.08781
G1 X116.628 Y123.699 E146.22106
G1 X92.907 Y99.978 E149.56835
G1 X92.894 Y100.026 E149.57331
G1 X92.867 Y100.136 E149.58461
G1 X92.737 Y100.677 E149.64013
G1 X92.651 Y101.08 E149.68125
G1 X92.642 Y101.127 E149.68602
G1 X116.546 Y125.032 E153.05921
G1 X116.464 Y126.364 E153.19237
G1 X92.44 Y102.339 E156.58248
G1 X92.42 Y102.488 E156.59748
G1 X92.372 Y102.891 E156.63798
G1 X92.333 Y103.314 E156.68037
G1 X92.31 Y103.624 E156.71138
G1 X116.382 Y127.696 E160.1082
G1 X116.298 Y129.026 E160.24117
G1 X92.264 Y104.992 E163.63263
G1 X92.264 Y105.073 E163.64071
G1 X92.266 Y105.212 E163.65458
G1 X92.28 Y105.715 E163.70479
G1 X92.292 Y105.986 E163.73186
G1 X92.321 Y106.464 E163.77964
G1 X116.169 Y130.312 E167.14485
G1 X116.133 Y130.507 E167.16464
G1 X116.113 Y130.6 E167.17413
G1 X116.094 Y130.678 E167.18214
G1 X116.017 Y130.963 E167.2116
G1 X115.959 Y131.147 E167.23085
G1 X115.862 Y131.418 E167.25957
G1 X92.413 Y107.97 E170.56841
G1 X92.505 Y109.476 E170.71895
G1 X115.404 Y132.375 E173.95025
G1 X115.328 Y132.501 E173.96493
G1 X115.261 Y132.602 E173.97703
G1 X115.196 Y132.709 E173.98952
G1 X114.991 Y133.001 E174.02512
G1 X114.933 Y133.072 E174.03427
G1 X114.822 Y133.206 E174.05163
G1 X92.597 Y110.982 E177.18775
G1 X92.689 Y112.488 E177.33829
G1 X114.122 Y133.921 E180.36272
G1 X114.085 Y133.956 E180.3678
G1 X113.946 Y134.073 E180.38593
G1 X113.832 Y134.16 E180.40024
G1 X113.745 Y134.23 E180.41138
G1 X113.559 Y134.351 E180.43352
G1 X113.462 Y134.425 E180.4457
G1 X113.309 Y134.522 E180.46377
G1 X92.781 Y113.994 E183.3605
G1 X92.873 Y115.5 E183.51105
G1 X112.374 Y135.001 E186.26285
G1 X112.34 Y135.014 E186.26648
G1 X112.277 Y135.043 E186.2734
G1 X112.14 Y135.097 E186.28809
G1 X111.85 Y135.193 E186.31857
G1 X111.657 Y135.251 E186.33868
G1 X111.428 Y135.311 E186.3623
G1 X111.3 Y135.341 E186.37542
G1 X92.966 Y117.007 E188.96255
G1 X93.058 Y118.513 E189.1131
G1 X110.034 Y135.49 E191.50866
G1 X109.781 Y135.495 E191.53391
G1 X108.625 Y135.495 E191.64926
G1 X93.15 Y120.02 E193.83295
G1 X93.241 Y121.526 E193.98349
G1 X107.21 Y135.495 E195.95467
G1 X105.796 Y135.495 E196.09576
G1 X93.333 Y123.032 E197.85442
G1 X93.425 Y124.538 E198.00497
G1 X104.381 Y135.494 E199.55098
G1 X102.967 Y135.494 E199.69207
G1 X93.517 Y126.044 E201.02557
G1 X93.609 Y127.55 E201.17612
G1 X101.553 Y135.494 E202.2971
G1 X100.139 Y135.494 E202.43819
G1 X93.701 Y129.056 E203.34666
G1 X93.73 Y129.521 E203.39315
G1 X93.753 Y129.795 E203.42059
G1 X93.791 Y130.101 E203.45135
G1 X93.814 Y130.239 E203.46531
G1 X93.852 Y130.422 E203.48396
G1 X93.86 Y130.476 E203.48941
G1 X93.893 Y130.623 E203.50444
G1 X93.907 Y130.676 E203.50991
G1 X98.531 Y135.3 E204.16241
G1 X98.342 Y135.252 E204.18187
G1 X98.231 Y135.22 E204.19339
G1 X97.901 Y135.11 E204.2281
G1 X97.741 Y135.051 E204.24512
G1 X97.424 Y134.918 E204.27942
G1 X97.34 Y134.88 E204.28862
G1 X97.056 Y134.738 E204.3203
G1 X96.59 Y134.465 E204.37419
G1 X96.506 Y134.41 E204.38421
G1 X96.283 Y134.252 E204.41148
G1 X96.154 Y134.157 E204.42746
G1 X95.938 Y133.98 E204.45533
G1 X95.822 Y133.879 E204.47068
G1 X95.592 Y133.664 E204.50209
G1 X95.334 Y133.394 E204.53935
G1 X95.283 Y133.337 E204.54699
G1 X95.043 Y133.043 E204.58485
G1 X94.957 Y132.93 E204.59902
G1 X94.768 Y132.658 E204.63207
G1 X94.748 Y132.626 E204.63584
G1 X94.649 Y132.458 E204.65529
G1 X94.551 Y132.298 E204.67402
G1 X94.492 Y132.197 E204.68569
G1 X94.337 Y131.891 E204.71991
G1 X94.225 Y131.631 E204.74816
G1 X94.207 Y131.59 E204.75263
G1 X94.122 Y131.381 E204.77514
G1 X94.002 Y131.029 E204.81225
G1 X93.963 Y130.891 E204.82656
G1 F1500 E198.32656
G0 F600 X93.963 Y130.891 Z0.86
G0 F5400 X98.989 Y135.6
;TIME_ELAPSED:182.555405
;LAYER:-4
;TYPE:SUPPORT-INTERFACE
G1 F1500 E204.82656
G1 F900 X111.005 Y135.6 E205.22621
G1 X110.905 Y135.618 E205.22959
G1 X110.795 Y135.633 E205.23328
G1 X110.512 Y135.665 E205.24276
G1 X110.132 Y135.688 E205.25542
G1 X109.87 Y135.695 E205.26414
G1 X100.14 Y135.696 E205.58776
G1 X99.839 Y135.689 E205.59777
G1 X99.712 Y135.683 E205.602
G1 X99.448 Y135.661 E205.61081
G1 X99.171 Y135.629 E205.62009
G1 X99.023 Y135.606 E205.62507
G1 F1500 E199.12507
G0 F5400 X111.005 Y135.6
G1 F1500 E205.62507
G1 F900 X111.323 Y135.543 E205.63581
G1 X111.356 Y135.534 E205.63695
G1 X111.714 Y135.444 E205.64923
G1 X111.806 Y135.418 E205.65241
G1 X112.109 Y135.321 E205.66299
G1 X112.24 Y135.274 E205.66762
G1 X112.417 Y135.201 E205.67399
G0 F5400 X112.419 Y135.2
G1 F900 X97.574 Y135.2 E206.16773
G1 X97.277 Y135.073 E206.17848
G1 X97.153 Y135.013 E206.18306
G1 X96.928 Y134.898 E206.19146
G1 X96.902 Y134.883 E206.19246
G1 X96.761 Y134.8 E206.1979
G1 X113.228 Y134.8 E206.7456
G1 X113.248 Y134.788 E206.74637
G1 X113.395 Y134.706 E206.75197
G1 X113.585 Y134.583 E206.7595
G1 X113.675 Y134.516 E206.76323
G1 X113.85 Y134.4 E206.77021
G1 X96.143 Y134.4 E207.35915
G1 X96.032 Y134.316 E207.36378
G1 X95.815 Y134.141 E207.37305
G1 X95.688 Y134.028 E207.37871
G1 X95.657 Y134 E207.3801
G1 X114.329 Y134 E208.00113
G1 X114.389 Y133.945 E208.00384
G1 X114.526 Y133.825 E208.0099
G1 X114.717 Y133.633 E208.0189
G1 X114.746 Y133.6 E208.02036
G1 X95.252 Y133.6 E208.66874
G1 X95.163 Y133.505 E208.67307
G1 X95.069 Y133.393 E208.67793
G1 X94.911 Y133.2 E208.68623
G1 X115.087 Y133.2 E209.35728
G1 X115.147 Y133.126 E209.36045
G1 X115.224 Y133.019 E209.36484
G1 X115.366 Y132.817 E209.37305
G1 X115.376 Y132.8 E209.3737
G1 X94.622 Y132.8 E210.06398
G1 X94.578 Y132.734 E210.06662
G1 X94.477 Y132.562 E210.07326
G1 X94.38 Y132.405 E210.0794
G1 X94.377 Y132.4 E210.07959
G1 X115.622 Y132.4 E210.7862
G1 X115.661 Y132.334 E210.78875
G1 X115.784 Y132.102 E210.79748
G1 X115.832 Y132 E210.80123
G1 X94.165 Y132 E211.52188
G1 X94.151 Y131.971 E211.52295
G1 X94.044 Y131.717 E211.53212
G1 X94.023 Y131.674 E211.53371
G1 X93.993 Y131.6 E211.53637
G1 X116.008 Y131.6 E212.26859
G1 X116.032 Y131.538 E212.2708
G1 X116.146 Y131.22 E212.28204
G1 X116.152 Y131.2 E212.28273
G1 X93.847 Y131.2 E213.0246
G1 X93.808 Y131.083 E213.0287
G1 X93.772 Y130.952 E213.03322
G1 X93.734 Y130.806 E213.03824
G1 X93.732 Y130.8 E213.03845
G1 X116.266 Y130.8 E213.78793
G1 X116.307 Y130.65 E213.7931
G1 X116.328 Y130.549 E213.79653
G1 X116.355 Y130.4 E213.80157
G1 X93.642 Y130.4 E214.55701
G1 X93.618 Y130.279 E214.56111
G1 X93.593 Y130.129 E214.56617
G1 X93.576 Y130 E214.5705
G1 X116.421 Y130 E215.33032
G1 X116.446 Y129.796 E215.33716
G1 X116.462 Y129.6 E215.3437
G1 X93.534 Y129.6 E216.10629
G1 X93.529 Y129.541 E216.10826
G1 X93.508 Y129.2 E216.11962
G1 X116.487 Y129.2 E216.88391
G1 X116.512 Y128.8 E216.89724
G1 X93.483 Y128.8 E217.66318
G1 X93.459 Y128.4 E217.67651
G1 X116.537 Y128.4 E218.44409
