;FLAVOR:Marlin
;TIME:1910
;Filament used: 2.01679m, 0m, 0m, 0m
;Layer height: 0.25
;MINX:81.637
;MINY:81.628
;MINZ:0.2
;MAXX:128.372
;MAXY:128.372
;MAXZ:14.95
;Generated with Cura_SteamEngine 4.3.0
T0
M140 S60
M105
M190 S60
M104 S215
M105
M109 S215
M82 ;absolute extrusion mode
G21 ;metric values
G90 ;absolute positioning
M82 ;set extruder to absolute mode
M107 ;start with the fan off
G28 X0 Y0 ;move X/Y to min endstops
G28 Z0 ;move Z to min endstops
G1 Z15.0 F100 ;move the platform down 15mm
G92 E0 ;zero the extruded length
G1 F200 E3 ;extrude 3mm of feed stock
G92 E0 ;zero the extruded length again
G1 F100
M117 Printing...
G5
G92 E0
G92 E0
G1 F2400 E-4
;LAYER_COUNT:60
;LAYER:0
M106 S255
M204 S3000
M205 X10 Y10
G1 F600 Z0.275
G0 F2666.7 X88.169 Y88.841 Z0.275
M204 S1800
M205 X8 Y8
;TYPE:SKIRT
G1 F600 Z0.2
G1 F2400 E0
G1 F1800 X89.19 Y87.837 E0.06668
G1 X89.258 Y87.77 E0.07112
G1 X89.762 Y87.289 E0.10356
G1 X90.467 Y86.707 E0.14613
G1 X91.191 Y86.191 E0.18753
G1 X91.279 Y86.129 E0.19254
G1 X92.399 Y85.359 E0.25583
G1 X92.479 Y85.305 E0.26033
G1 X93.071 Y84.911 E0.29344
G1 X93.864 Y84.461 E0.33589
G1 X94.67 Y84.077 E0.37747
G1 X94.768 Y84.032 E0.38249
G1 X96.027 Y83.458 E0.44692
G1 X96.11 Y83.42 E0.45117
G1 X96.739 Y83.144 E0.48315
G1 X97.61 Y82.835 E0.52619
G1 X98.437 Y82.607 E0.56613
G1 X98.535 Y82.581 E0.57085
G1 X99.896 Y82.229 E0.63631
G1 X99.972 Y82.21 E0.63996
G1 X100.668 Y82.039 E0.67333
G1 X101.542 Y81.887 E0.71464
G1 X102.156 Y81.824 E0.74338
G1 X102.252 Y81.815 E0.74787
G1 X103.762 Y81.683 E0.81845
G1 X103.858 Y81.676 E0.82293
G1 X104.509 Y81.629 E0.85333
G1 X105.425 Y81.628 E0.89598
G1 X106.309 Y81.691 E0.93725
G1 X106.41 Y81.699 E0.94196
G1 X107.797 Y81.82 E1.00679
G1 X107.886 Y81.829 E1.01096
G1 X108.567 Y81.898 E1.04283
G1 X109.476 Y82.057 E1.0858
G1 X110.343 Y82.274 E1.12742
G1 X110.445 Y82.3 E1.13232
G1 X111.8 Y82.663 E1.19764
G1 X111.882 Y82.685 E1.20159
G1 X112.52 Y82.865 E1.23246
G1 X113.399 Y83.185 E1.27602
G1 X114.189 Y83.539 E1.31633
G1 X114.277 Y83.579 E1.32083
G1 X115.568 Y84.181 E1.38716
G1 X115.642 Y84.216 E1.39097
G1 X116.2 Y84.485 E1.41981
G1 X117.03 Y84.965 E1.46446
G1 X117.973 Y85.609 E1.51763
G1 X118.076 Y85.681 E1.52348
G1 X119.184 Y86.47 E1.58682
G1 X119.256 Y86.522 E1.59096
G1 X119.792 Y86.915 E1.6219
G1 X120.502 Y87.52 E1.66534
G1 X121.09 Y88.1 E1.7038
G1 X121.159 Y88.169 E1.70834
G1 X122.163 Y89.19 E1.77502
G1 X122.23 Y89.258 E1.77946
G1 X122.711 Y89.762 E1.8119
G1 X123.293 Y90.467 E1.85447
G1 X123.809 Y91.191 E1.89587
G1 X123.871 Y91.279 E1.90088
G1 X124.641 Y92.399 E1.96417
G1 X124.695 Y92.479 E1.96867
G1 X125.089 Y93.071 E2.00178
G1 X125.539 Y93.864 E2.04424
G1 X125.923 Y94.67 E2.08581
G1 X125.968 Y94.768 E2.09083
G1 X126.542 Y96.027 E2.15526
G1 X126.58 Y96.11 E2.15951
G1 X126.856 Y96.739 E2.19149
G1 X127.165 Y97.61 E2.23453
G1 X127.393 Y98.437 E2.27447
G1 X127.419 Y98.535 E2.2792
G1 X127.771 Y99.896 E2.34465
G1 X127.79 Y99.972 E2.3483
G1 X127.961 Y100.668 E2.38167
G1 X128.113 Y101.542 E2.42298
G1 X128.176 Y102.156 E2.45172
G1 X128.185 Y102.251 E2.45617
G1 X128.317 Y103.76 E2.5267
G1 X128.324 Y103.857 E2.53123
G1 X128.371 Y104.508 E2.56162
G1 X128.372 Y105.423 E2.60423
G1 X128.309 Y106.308 E2.64554
G1 X128.301 Y106.41 E2.6503
G1 X128.18 Y107.797 E2.71513
G1 X128.171 Y107.886 E2.7193
G1 X128.102 Y108.567 E2.75117
G1 X127.943 Y109.476 E2.79414
G1 X127.726 Y110.343 E2.83576
G1 X127.7 Y110.445 E2.84066
G1 X127.337 Y111.8 E2.90598
G1 X127.314 Y111.884 E2.91003
G1 X127.134 Y112.521 E2.94086
G1 X126.817 Y113.395 E2.98415
G1 X126.463 Y114.186 E3.0245
G1 X126.421 Y114.277 E3.02917
G1 X125.819 Y115.568 E3.0955
G1 X125.784 Y115.642 E3.09931
G1 X125.515 Y116.2 E3.12815
G1 X125.035 Y117.03 E3.1728
G1 X124.391 Y117.973 E3.22597
G1 X124.319 Y118.076 E3.23182
G1 X123.53 Y119.184 E3.29516
G1 X123.478 Y119.256 E3.2993
G1 X123.085 Y119.792 E3.33024
G1 X122.48 Y120.502 E3.37368
G1 X121.9 Y121.09 E3.41214
G1 X121.831 Y121.159 E3.41668
G1 X120.81 Y122.163 E3.48336
G1 X120.742 Y122.23 E3.4878
G1 X120.238 Y122.711 E3.52025
G1 X119.533 Y123.293 E3.56281
G1 X118.809 Y123.809 E3.60421
G1 X118.721 Y123.871 E3.60922
G1 X117.601 Y124.641 E3.67251
G1 X117.521 Y124.695 E3.67701
G1 X116.929 Y125.089 E3.71012
G1 X116.136 Y125.539 E3.75258
G1 X115.33 Y125.923 E3.79415
G1 X115.232 Y125.968 E3.79917
G1 X113.973 Y126.542 E3.8636
G1 X113.886 Y126.581 E3.86804
G1 X113.256 Y126.857 E3.90007
G1 X112.391 Y127.164 E3.94281
G1 X111.565 Y127.392 E3.98271
G1 X111.465 Y127.419 E3.98753
G1 X110.104 Y127.771 E4.05299
G1 X110.024 Y127.791 E4.05683
G1 X109.326 Y127.962 E4.09029
G1 X108.458 Y128.112 E4.13131
G1 X107.846 Y128.175 E4.15996
G1 X107.748 Y128.185 E4.16454
G1 X106.238 Y128.317 E4.23512
G1 X106.142 Y128.324 E4.23961
G1 X105.491 Y128.371 E4.27
G1 X104.575 Y128.372 E4.31265
G1 X103.691 Y128.309 E4.35392
G1 X103.59 Y128.301 E4.35864
G1 X102.203 Y128.18 E4.42347
G1 X102.114 Y128.171 E4.42763
G1 X101.433 Y128.102 E4.4595
G1 X100.524 Y127.943 E4.50247
G1 X99.657 Y127.726 E4.54409
G1 X99.555 Y127.7 E4.54899
G1 X98.2 Y127.337 E4.61431
G1 X98.118 Y127.315 E4.61826
G1 X97.48 Y127.135 E4.64913
G1 X96.601 Y126.815 E4.69269
G1 X95.811 Y126.461 E4.733
G1 X95.723 Y126.421 E4.7375
G1 X94.432 Y125.819 E4.80383
G1 X94.358 Y125.784 E4.80764
G1 X93.8 Y125.515 E4.83648
G1 X92.97 Y125.035 E4.88113
G1 X92.027 Y124.391 E4.9343
G1 X91.924 Y124.319 E4.94015
G1 X90.816 Y123.53 E5.00349
G1 X90.744 Y123.478 E5.00763
G1 X90.208 Y123.085 E5.03858
G1 X89.498 Y122.48 E5.08201
G1 X88.91 Y121.9 E5.12047
G1 X88.841 Y121.831 E5.12501
G1 X87.837 Y120.81 E5.19169
G1 X87.77 Y120.742 E5.19614
G1 X87.289 Y120.238 E5.22858
G1 X86.707 Y119.533 E5.27115
G1 X86.191 Y118.809 E5.31254
G1 X86.129 Y118.721 E5.31756
G1 X85.359 Y117.601 E5.38084
G1 X85.305 Y117.521 E5.38534
G1 X84.911 Y116.929 E5.41845
G1 X84.461 Y116.136 E5.46091
G1 X84.077 Y115.33 E5.50248
G1 X84.032 Y115.232 E5.5075
G1 X83.458 Y113.973 E5.57193
G1 X83.42 Y113.89 E5.57618
G1 X83.144 Y113.261 E5.60817
G1 X82.835 Y112.39 E5.6512
G1 X82.607 Y111.563 E5.69115
G1 X82.581 Y111.465 E5.69587
G1 X82.229 Y110.104 E5.76133
G1 X82.209 Y110.023 E5.76521
G1 X82.045 Y109.353 E5.79733
G1 X81.89 Y108.438 E5.84054
G1 X81.808 Y107.577 E5.88082
G1 X81.798 Y107.466 E5.88601
G1 X81.685 Y106.012 E5.95391
G1 X81.679 Y105.929 E5.95779
G1 X81.637 Y105.28 E5.98807
G1 X81.639 Y104.422 E6.02803
G1 X81.685 Y103.762 E6.05883
G1 X81.694 Y103.65 E6.06406
G1 X81.82 Y102.208 E6.13147
G1 X81.828 Y102.124 E6.13539
G1 X81.897 Y101.439 E6.16745
G1 X82.056 Y100.526 E6.21061
G1 X82.278 Y99.639 E6.25318
G1 X82.305 Y99.538 E6.25805
G1 X82.663 Y98.201 E6.3225
G1 X82.686 Y98.116 E6.3266
G1 X82.866 Y97.479 E6.35742
G1 X83.183 Y96.605 E6.40071
G1 X83.537 Y95.814 E6.44107
G1 X83.579 Y95.723 E6.44573
G1 X84.181 Y94.432 E6.51206
G1 X84.216 Y94.358 E6.51587
G1 X84.485 Y93.8 E6.54472
G1 X84.965 Y92.97 E6.58936
G1 X85.609 Y92.027 E6.64254
G1 X85.681 Y91.924 E6.64839
G1 X86.47 Y90.816 E6.71173
G1 X86.522 Y90.744 E6.71586
G1 X86.915 Y90.208 E6.74681
G1 X87.52 Y89.498 E6.79024
G1 X87.767 Y89.247 E6.80664
G0 F1620 X88.1 Y88.91
G0 X88.169 Y88.841
M204 S3000
M205 X10 Y10
G0 F2666.7 X88.561 Y89.24
M204 S1800
M205 X8 Y8
G1 F1800 X89.582 Y88.236 E6.87332
G1 X89.645 Y88.175 E6.8774
G1 X90.149 Y87.694 E6.90984
G1 X90.792 Y87.163 E6.94867
G1 X91.516 Y86.647 E6.99007
G1 X91.596 Y86.591 E6.99462
G1 X92.716 Y85.821 E7.05791
G1 X92.789 Y85.771 E7.06203
G1 X93.381 Y85.377 E7.09514
G1 X94.105 Y84.967 E7.13388
G1 X94.911 Y84.583 E7.17546
G1 X95 Y84.541 E7.18004
G1 X96.259 Y83.967 E7.24447
G1 X96.335 Y83.933 E7.24835
G1 X96.964 Y83.657 E7.28033
G1 X97.759 Y83.375 E7.31961
G1 X98.586 Y83.147 E7.35955
G1 X98.676 Y83.123 E7.36389
G1 X100.037 Y82.771 E7.42935
G1 X100.106 Y82.754 E7.43266
G1 X100.802 Y82.583 E7.46603
G1 X101.599 Y82.445 E7.5037
G1 X102.213 Y82.382 E7.53244
G1 X102.3 Y82.373 E7.53651
G1 X103.81 Y82.241 E7.60709
G1 X103.898 Y82.234 E7.6112
G1 X104.549 Y82.187 E7.64159
G1 X105.385 Y82.187 E7.68052
G1 X106.269 Y82.25 E7.72179
G1 X106.362 Y82.257 E7.72613
G1 X107.749 Y82.378 E7.79096
G1 X107.83 Y82.386 E7.79475
G1 X108.511 Y82.455 E7.82662
G1 X109.34 Y82.6 E7.86581
G1 X110.207 Y82.817 E7.90743
G1 X110.3 Y82.841 E7.9119
G1 X111.655 Y83.204 E7.97722
G1 X111.73 Y83.224 E7.98083
G1 X112.368 Y83.404 E8.0117
G1 X113.17 Y83.696 E8.05144
G1 X113.96 Y84.05 E8.09175
G1 X114.04 Y84.086 E8.09584
G1 X115.331 Y84.688 E8.16217
G1 X115.399 Y84.72 E8.16567
G1 X115.957 Y84.989 E8.19451
G1 X116.715 Y85.427 E8.23527
G1 X117.658 Y86.071 E8.28845
G1 X117.752 Y86.137 E8.29379
G1 X118.86 Y86.926 E8.35713
G1 X118.925 Y86.973 E8.36087
G1 X119.461 Y87.366 E8.39182
G1 X120.109 Y87.918 E8.43145
G1 X120.697 Y88.498 E8.46991
G1 X120.76 Y88.561 E8.47406
G1 X121.764 Y89.582 E8.54074
G1 X121.825 Y89.645 E8.54482
G1 X122.306 Y90.149 E8.57726
G1 X122.837 Y90.792 E8.61609
G1 X123.353 Y91.516 E8.65749
G1 X123.409 Y91.596 E8.66204
G1 X124.179 Y92.716 E8.72533
G1 X124.229 Y92.789 E8.72945
G1 X124.623 Y93.381 E8.76256
G1 X125.033 Y94.105 E8.8013
G1 X125.417 Y94.911 E8.84287
G1 X125.459 Y95 E8.84746
G1 X126.033 Y96.259 E8.91189
G1 X126.067 Y96.335 E8.91576
G1 X126.343 Y96.964 E8.94775
G1 X126.625 Y97.759 E8.98703
G1 X126.853 Y98.586 E9.02697
G1 X126.877 Y98.676 E9.03131
G1 X127.229 Y100.037 E9.09677
G1 X127.246 Y100.106 E9.10008
G1 X127.417 Y100.802 E9.13345
G1 X127.555 Y101.599 E9.17111
G1 X127.618 Y102.213 E9.19985
G1 X127.627 Y102.3 E9.20393
G1 X127.759 Y103.809 E9.27446
G1 X127.766 Y103.897 E9.27857
G1 X127.813 Y104.548 E9.30896
G1 X127.813 Y105.384 E9.34789
G1 X127.75 Y106.269 E9.3892
G1 X127.743 Y106.362 E9.39355
G1 X127.622 Y107.749 E9.45838
G1 X127.614 Y107.83 E9.46217
G1 X127.545 Y108.511 E9.49404
G1 X127.4 Y109.34 E9.53323
G1 X127.183 Y110.207 E9.57484
G1 X127.159 Y110.3 E9.57932
G1 X126.796 Y111.655 E9.64463
G1 X126.775 Y111.732 E9.64835
G1 X126.595 Y112.369 E9.67917
G1 X126.306 Y113.167 E9.71869
G1 X125.952 Y113.958 E9.75905
G1 X125.914 Y114.04 E9.76325
G1 X125.312 Y115.331 E9.82958
G1 X125.28 Y115.399 E9.83308
G1 X125.011 Y115.957 E9.86193
G1 X124.573 Y116.715 E9.90269
G1 X123.929 Y117.658 E9.95586
G1 X123.863 Y117.752 E9.96121
G1 X123.074 Y118.86 E10.02455
G1 X123.027 Y118.925 E10.02829
G1 X122.634 Y119.461 E10.05923
G1 X122.082 Y120.109 E10.09887
G1 X121.502 Y120.697 E10.13733
G1 X121.439 Y120.76 E10.14148
G1 X120.418 Y121.764 E10.20815
G1 X120.355 Y121.825 E10.21224
G1 X119.851 Y122.306 E10.24468
G1 X119.208 Y122.837 E10.28351
G1 X118.484 Y123.353 E10.32491
G1 X118.404 Y123.409 E10.32946
G1 X117.284 Y124.179 E10.39274
G1 X117.211 Y124.229 E10.39686
G1 X116.619 Y124.623 E10.42998
G1 X115.895 Y125.033 E10.46872
G1 X115.089 Y125.417 E10.51029
G1 X115 Y125.459 E10.51487
G1 X113.741 Y126.033 E10.5793
G1 X113.661 Y126.068 E10.58337
G1 X113.031 Y126.344 E10.6154
G1 X112.242 Y126.624 E10.65438
G1 X111.416 Y126.852 E10.69428
G1 X111.324 Y126.877 E10.69872
G1 X109.963 Y127.229 E10.76418
G1 X109.891 Y127.247 E10.76764
G1 X109.193 Y127.418 E10.8011
G1 X108.401 Y127.555 E10.83852
G1 X107.789 Y127.618 E10.86717
G1 X107.7 Y127.627 E10.87134
G1 X106.19 Y127.759 E10.94192
G1 X106.102 Y127.766 E10.94603
G1 X105.451 Y127.813 E10.97642
G1 X104.615 Y127.813 E11.01535
G1 X103.731 Y127.75 E11.05662
G1 X103.638 Y127.743 E11.06096
G1 X102.251 Y127.622 E11.12579
G1 X102.17 Y127.614 E11.12958
G1 X101.489 Y127.545 E11.16145
G1 X100.66 Y127.4 E11.20064
G1 X99.793 Y127.183 E11.24225
G1 X99.7 Y127.159 E11.24673
G1 X98.345 Y126.796 E11.31205
G1 X98.27 Y126.776 E11.31566
G1 X97.632 Y126.596 E11.34653
G1 X96.83 Y126.304 E11.38627
G1 X96.04 Y125.95 E11.42658
G1 X95.96 Y125.914 E11.43067
G1 X94.669 Y125.312 E11.497
G1 X94.601 Y125.28 E11.50049
G1 X94.043 Y125.011 E11.52934
G1 X93.285 Y124.573 E11.5701
G1 X92.342 Y123.929 E11.62328
G1 X92.248 Y123.863 E11.62862
G1 X91.14 Y123.074 E11.69196
G1 X91.075 Y123.027 E11.6957
G1 X90.539 Y122.634 E11.72665
G1 X89.891 Y122.082 E11.76628
G1 X89.303 Y121.502 E11.80474
G1 X89.24 Y121.439 E11.80889
G1 X88.236 Y120.418 E11.87557
G1 X88.175 Y120.355 E11.87965
G1 X87.694 Y119.851 E11.91209
G1 X87.163 Y119.208 E11.95092
G1 X86.647 Y118.484 E11.99232
G1 X86.591 Y118.404 E11.99687
G1 X85.821 Y117.284 E12.06015
G1 X85.771 Y117.211 E12.06427
G1 X85.377 Y116.619 E12.09739
G1 X84.967 Y115.895 E12.13613
G1 X84.583 Y115.089 E12.1777
G1 X84.541 Y115 E12.18229
G1 X83.967 Y113.741 E12.24672
G1 X83.933 Y113.665 E12.25059
G1 X83.657 Y113.036 E12.28258
G1 X83.375 Y112.241 E12.32186
G1 X83.147 Y111.414 E12.3618
G1 X83.123 Y111.324 E12.36614
G1 X82.771 Y109.963 E12.4316
G1 X82.752 Y109.89 E12.43511
G1 X82.588 Y109.22 E12.46723
G1 X82.447 Y108.385 E12.50666
G1 X82.365 Y107.524 E12.54693
G1 X82.357 Y107.423 E12.55165
G1 X82.244 Y105.969 E12.61956
G1 X82.238 Y105.893 E12.62311
G1 X82.196 Y105.244 E12.65339
G1 X82.198 Y104.461 E12.68985
G1 X82.244 Y103.801 E12.72066
G1 X82.252 Y103.699 E12.72542
G1 X82.378 Y102.257 E12.79282
G1 X82.385 Y102.18 E12.79642
G1 X82.454 Y101.495 E12.82848
G1 X82.6 Y100.662 E12.86786
G1 X82.822 Y99.775 E12.91044
G1 X82.846 Y99.682 E12.91491
G1 X83.204 Y98.345 E12.97936
G1 X83.225 Y98.268 E12.98308
G1 X83.405 Y97.631 E13.0139
G1 X83.694 Y96.833 E13.05342
G1 X84.048 Y96.042 E13.09377
G1 X84.086 Y95.96 E13.09798
G1 X84.688 Y94.669 E13.16431
G1 X84.72 Y94.601 E13.16781
G1 X84.989 Y94.043 E13.19665
G1 X85.427 Y93.285 E13.23742
G1 X86.071 Y92.342 E13.29059
G1 X86.137 Y92.248 E13.29594
G1 X86.926 Y91.14 E13.35928
G1 X86.973 Y91.075 E13.36301
G1 X87.366 Y90.539 E13.39396
G1 X87.918 Y89.891 E13.4336
G1 X88.16 Y89.646 E13.44963
G0 F1620 X88.498 Y89.303
G0 X88.561 Y89.24
M204 S3000
M205 X10 Y10
G0 F2666.7 X88.954 Y89.639
M204 S1800
M205 X8 Y8
G1 F1800 X89.975 Y88.635 E13.51631
G1 X90.032 Y88.58 E13.52
G1 X90.536 Y88.099 E13.55244
G1 X91.117 Y87.619 E13.58753
G1 X91.841 Y87.103 E13.62893
G1 X91.914 Y87.052 E13.63308
G1 X93.034 Y86.282 E13.69636
G1 X93.1 Y86.237 E13.70008
G1 X93.692 Y85.843 E13.7332
G1 X94.346 Y85.472 E13.76821
G1 X95.152 Y85.088 E13.80978
G1 X95.233 Y85.051 E13.81393
G1 X96.492 Y84.477 E13.87836
G1 X96.56 Y84.446 E13.88184
G1 X97.189 Y84.17 E13.91382
G1 X97.908 Y83.915 E13.94934
G1 X98.735 Y83.687 E13.98929
G1 X98.816 Y83.665 E13.9932
G1 X100.177 Y83.313 E14.05866
G1 X100.239 Y83.297 E14.06164
G1 X100.935 Y83.126 E14.09501
G1 X101.656 Y83.002 E14.12908
G1 X102.27 Y82.939 E14.15782
G1 X102.349 Y82.931 E14.16151
G1 X103.859 Y82.799 E14.23209
G1 X103.939 Y82.793 E14.23583
G1 X104.59 Y82.746 E14.26622
G1 X105.345 Y82.745 E14.30138
G1 X106.229 Y82.808 E14.34264
G1 X106.313 Y82.815 E14.34657
G1 X107.7 Y82.936 E14.4114
G1 X107.773 Y82.943 E14.41481
G1 X108.454 Y83.012 E14.44669
G1 X109.204 Y83.143 E14.48214
G1 X110.071 Y83.36 E14.52376
G1 X110.155 Y83.382 E14.5278
G1 X111.51 Y83.745 E14.59312
G1 X111.578 Y83.763 E14.59639
G1 X112.216 Y83.943 E14.62726
G1 X112.941 Y84.207 E14.66319
G1 X113.731 Y84.561 E14.7035
G1 X113.803 Y84.594 E14.70719
G1 X115.094 Y85.196 E14.77352
G1 X115.156 Y85.225 E14.7767
G1 X115.714 Y85.494 E14.80555
G1 X116.399 Y85.89 E14.84239
G1 X117.342 Y86.534 E14.89556
G1 X117.427 Y86.593 E14.90038
G1 X118.535 Y87.382 E14.96372
G1 X118.594 Y87.425 E14.96712
G1 X119.13 Y87.818 E14.99807
G1 X119.716 Y88.317 E15.0339
G1 X120.304 Y88.897 E15.07236
G1 X120.361 Y88.954 E15.07612
G1 X121.365 Y89.975 E15.14279
G1 X121.42 Y90.032 E15.14648
G1 X121.901 Y90.536 E15.17892
G1 X122.381 Y91.117 E15.21402
G1 X122.897 Y91.841 E15.25541
G1 X122.948 Y91.914 E15.25956
G1 X123.718 Y93.034 E15.32285
G1 X123.763 Y93.1 E15.32657
G1 X124.157 Y93.692 E15.35968
G1 X124.528 Y94.346 E15.39469
G1 X124.912 Y95.152 E15.43627
G1 X124.949 Y95.233 E15.44041
G1 X125.523 Y96.492 E15.50484
G1 X125.554 Y96.56 E15.50832
G1 X125.83 Y97.189 E15.54031
G1 X126.085 Y97.908 E15.57583
G1 X126.313 Y98.735 E15.61577
G1 X126.335 Y98.816 E15.61968
G1 X126.687 Y100.177 E15.68514
G1 X126.703 Y100.239 E15.68812
G1 X126.874 Y100.935 E15.7215
G1 X126.998 Y101.656 E15.75556
G1 X127.061 Y102.27 E15.7843
G1 X127.069 Y102.349 E15.788
G1 X127.201 Y103.858 E15.85853
G1 X127.207 Y103.938 E15.86227
G1 X127.254 Y104.589 E15.89266
G1 X127.255 Y105.344 E15.92782
G1 X127.192 Y106.229 E15.96913
