;FLAVOR:Marlin
;TIME:22217
;Filament used: 42.3305m, 0m, 0m, 0m
;Layer height: 0.3
;MINX:54.127
;MINY:87.71
;MINZ:0.24
;MAXX:157.051
;MAXY:155.3
;MAXZ:70.04
;Generated with Cura_SteamEngine 4.6.1
T0
M140 S60
M105
M190 S60
M104 S215
M105
M109 S215
M82 ;absolute extrusion mode
G21 ;metric values
G90 ;absolute positioning
M82 ;set extruder to absolute mode
M107 ;start with the fan off
G28 X0 Y0 ;move X/Y to min endstops
G28 Z0 ;move Z to min endstops
G1 Z15.0 F100 ;move the platform down 15mm
G92 E0 ;zero the extruded length
G1 F200 E3 ;extrude 3mm of feed stock
G92 E0 ;zero the extruded length again
G1 F100
M117 Printing...
G5
G92 E0
G92 E0
G1 F2400 E-4
;LAYER_COUNT:229
;LAYER:-5
M107
M204 S3000
M205 X10 Y10
G0 F6000 X56.367 Y88.699 Z0.24
M204 S1800
M205 X8 Y8
;TYPE:SUPPORT-INTERFACE
G1 F2400 E0
G1 F1012.5 X56.626 Y88.537 E0.02439
G1 X56.865 Y88.409 E0.04603
G1 X57.14 Y88.282 E0.07021
G1 X57.401 Y88.18 E0.09258
G1 X57.704 Y88.085 E0.11792
G1 X57.925 Y88.031 E0.13608
G1 X58.281 Y87.971 E0.1649
G1 X58.835 Y87.921 E0.2093
G1 X59.057 Y87.911 E0.22704
G1 X143.852 Y87.911 E6.99575
G1 X143.978 Y87.915 E7.00581
G1 X144.355 Y87.939 E7.03596
G1 X144.653 Y87.976 E7.05993
G1 X144.937 Y88.031 E7.08303
G1 X145.228 Y88.107 E7.10703
G1 X145.486 Y88.191 E7.12869
G1 X145.765 Y88.302 E7.15266
G1 X146.023 Y88.424 E7.17544
G1 X146.281 Y88.567 E7.19899
G1 X146.52 Y88.719 E7.2216
G1 X146.766 Y88.901 E7.24603
G1 X146.978 Y89.077 E7.26802
G1 X147.094 Y89.188 E7.28084
G1 X147.611 Y89.617 E7.33446
G1 X148.187 Y89.983 E7.38894
G1 X148.804 Y90.275 E7.44343
G1 X149.459 Y90.487 E7.49838
G1 X149.847 Y90.549 E7.52975
G1 X149.843 Y90.567 E7.53122
G1 X150.727 Y90.678 E7.60234
G1 X151.009 Y90.733 E7.62527
G1 X151.3 Y90.809 E7.64928
G1 X151.558 Y90.893 E7.67094
G1 X151.837 Y91.004 E7.69491
G1 X152.095 Y91.126 E7.71769
G1 X152.353 Y91.269 E7.74124
G1 X152.592 Y91.421 E7.76385
G1 X152.839 Y91.603 E7.78834
G1 X153.04 Y91.772 E7.8093
G1 X153.273 Y91.992 E7.83488
G1 X153.46 Y92.194 E7.85685
G1 X153.648 Y92.424 E7.88056
G1 X153.812 Y92.652 E7.90298
G1 X153.974 Y92.911 E7.92737
G1 X154.102 Y93.15 E7.94901
G1 X154.229 Y93.425 E7.97319
G1 X154.331 Y93.686 E7.99556
G1 X154.426 Y93.989 E8.02091
G1 X154.48 Y94.21 E8.03907
G1 X154.54 Y94.566 E8.06789
G1 X154.59 Y95.12 E8.11229
G1 X154.6 Y95.342 E8.13003
G1 X154.6 Y117.32 E9.88441
G1 X154.642 Y117.988 E9.93783
G1 X154.771 Y118.659 E9.99238
G1 X154.984 Y119.308 E10.0469
G1 X155.279 Y119.93 E10.10185
G1 X155.808 Y120.712 E10.17722
G1 X155.897 Y120.819 E10.18833
G1 X156.063 Y121.051 E10.2111
G1 X156.225 Y121.31 E10.23548
G1 X156.353 Y121.549 E10.25713
G1 X156.48 Y121.824 E10.28131
G1 X156.582 Y122.085 E10.30367
G1 X156.677 Y122.388 E10.32902
G1 X156.731 Y122.609 E10.34718
G1 X156.791 Y122.965 E10.376
G1 X156.841 Y123.518 E10.42032
G1 X156.851 Y123.741 E10.43814
G1 X156.847 Y147.662 E12.34762
G1 X156.823 Y148.039 E12.37777
G1 X156.786 Y148.337 E12.40174
G1 X156.731 Y148.621 E12.42484
G1 X156.655 Y148.912 E12.44884
G1 X156.571 Y149.17 E12.4705
G1 X156.46 Y149.449 E12.49447
G1 X156.338 Y149.707 E12.51725
G1 X156.195 Y149.965 E12.5408
G1 X156.043 Y150.204 E12.56341
G1 X155.861 Y150.451 E12.5879
G1 X155.692 Y150.652 E12.60886
G1 X155.476 Y150.881 E12.63399
G1 X155.194 Y151.142 E12.66466
G1 X154.732 Y151.629 E12.71825
G1 X154.332 Y152.175 E12.77227
G1 X154.157 Y152.469 E12.79959
G1 X153.944 Y152.853 E12.83464
G1 X153.792 Y153.092 E12.85725
G1 X153.619 Y153.327 E12.88054
G1 X153.438 Y153.544 E12.9031
G1 X153.224 Y153.77 E12.92794
G1 X153.019 Y153.96 E12.95025
G1 X152.789 Y154.148 E12.97397
G1 X152.561 Y154.312 E12.99639
G1 X152.302 Y154.474 E13.02077
G1 X152.063 Y154.602 E13.04241
G1 X151.788 Y154.729 E13.06659
G1 X151.527 Y154.831 E13.08896
G1 X151.224 Y154.926 E13.11431
G1 X151.003 Y154.98 E13.13247
G1 X150.647 Y155.04 E13.16129
G1 X150.093 Y155.09 E13.20569
G1 X149.871 Y155.1 E13.22343
G1 X60.076 Y155.1 E20.39125
G1 X59.573 Y155.072 E20.43147
G1 X59.275 Y155.035 E20.45544
G1 X58.991 Y154.98 E20.47853
G1 X58.7 Y154.904 E20.50254
G1 X58.44 Y154.819 E20.52437
G1 X58.163 Y154.709 E20.54816
G1 X57.904 Y154.586 E20.57105
G1 X57.647 Y154.444 E20.59449
G1 X57.408 Y154.292 E20.6171
G1 X57.161 Y154.11 E20.64159
G1 X56.96 Y153.941 E20.66255
G1 X56.727 Y153.721 E20.68813
G1 X56.539 Y153.518 E20.71022
G1 X56.348 Y153.284 E20.73433
G1 X56.188 Y153.061 E20.75624
G1 X56.026 Y152.802 E20.78062
G1 X55.898 Y152.563 E20.80227
G1 X55.771 Y152.288 E20.82645
G1 X55.669 Y152.027 E20.84881
G1 X55.574 Y151.724 E20.87416
G1 X55.52 Y151.503 E20.89232
G1 X55.459 Y151.142 E20.92155
G1 X55.41 Y150.593 E20.96554
G1 X55.4 Y150.371 E20.98328
G1 X55.404 Y123.465 E23.13104
G1 X55.424 Y123.144 E23.15671
G1 X55.42 Y122.838 E23.18114
G1 X55.429 Y122.838 E23.18186
G1 X55.4 Y122.085 E23.24201
G1 X55.4 Y120.988 E23.32958
G1 X55.358 Y120.32 E23.383
G1 X55.229 Y119.649 E23.43755
G1 X55.047 Y119.094 E23.48417
G1 X55.063 Y119.087 E23.48557
G1 X54.699 Y118.299 E23.55485
G1 X54.597 Y118.038 E23.57722
G1 X54.502 Y117.735 E23.60257
G1 X54.448 Y117.514 E23.62073
G1 X54.388 Y117.158 E23.64955
G1 X54.338 Y116.604 E23.69395
G1 X54.328 Y116.382 E23.71169
G1 X54.332 Y92.462 E25.62109
G1 X54.356 Y92.084 E25.65132
G1 X54.393 Y91.786 E25.67529
G1 X54.448 Y91.502 E25.69838
G1 X54.524 Y91.211 E25.72239
G1 X54.608 Y90.953 E25.74405
G1 X54.719 Y90.674 E25.76802
G1 X54.841 Y90.416 E25.7908
G1 X54.987 Y90.153 E25.81481
G1 X55.136 Y89.919 E25.83696
G1 X55.318 Y89.672 E25.86145
G1 X55.487 Y89.471 E25.88241
G1 X55.707 Y89.238 E25.90799
G1 X55.909 Y89.051 E25.92996
G1 X56.139 Y88.863 E25.95367
G1 X56.367 Y88.699 E25.97609
M204 S3000
M205 X10 Y10
G0 F6000 X68.735 Y102.155
M204 S1800
M205 X8 Y8
G1 F1012.5 X68.211 Y102.593 E26.03061
G1 X67.747 Y103.093 E26.08506
G1 X67.348 Y103.649 E26.13969
G1 X67.024 Y104.249 E26.19412
G1 X66.778 Y104.885 E26.24855
G1 X66.612 Y105.554 E26.30358
G1 X66.528 Y106.493 E26.37883
G1 X66.528 Y109.226 E26.59699
G1 X66.57 Y109.894 E26.65042
G1 X66.699 Y110.565 E26.70496
G1 X66.912 Y111.214 E26.75948
G1 X67.204 Y111.831 E26.81397
G1 X67.572 Y112.406 E26.86847
G1 X68.01 Y112.93 E26.92298
G1 X68.51 Y113.394 E26.97743
G1 X69.066 Y113.793 E27.03206
G1 X69.666 Y114.117 E27.08649
G1 X70.302 Y114.363 E27.14093
G1 X70.971 Y114.529 E27.19595
G1 X71.91 Y114.613 E27.2712
G1 X130.941 Y114.613 E31.98331
G1 X131.609 Y114.571 E32.03674
G1 X132.28 Y114.442 E32.09128
G1 X132.929 Y114.229 E32.14581
G1 X133.546 Y113.937 E32.2003
G1 X134.121 Y113.569 E32.25479
G1 X134.645 Y113.131 E32.30931
G1 X135.109 Y112.631 E32.36376
G1 X135.508 Y112.075 E32.41839
G1 X135.832 Y111.475 E32.47282
G1 X136.078 Y110.839 E32.52725
G1 X136.244 Y110.17 E32.58227
G1 X136.328 Y109.231 E32.65753
G1 X136.328 Y106.498 E32.87569
G1 X136.286 Y105.83 E32.92912
G1 X136.157 Y105.159 E32.98366
G1 X135.944 Y104.51 E33.03818
G1 X135.652 Y103.893 E33.09267
G1 X135.284 Y103.318 E33.14717
G1 X134.846 Y102.794 E33.20168
G1 X134.346 Y102.33 E33.25613
G1 X133.79 Y101.931 E33.31076
G1 X133.19 Y101.607 E33.36519
G1 X132.554 Y101.361 E33.41963
G1 X131.885 Y101.195 E33.47465
G1 X130.946 Y101.111 E33.5499
G1 X71.915 Y101.111 E38.26201
G1 X71.247 Y101.153 E38.31544
G1 X70.576 Y101.282 E38.36998
G1 X69.927 Y101.495 E38.42451
G1 X69.31 Y101.787 E38.479
G1 X68.735 Y102.155 E38.53349
M204 S3000
M205 X10 Y10
G0 F6000 X68.8 Y102.114
M204 S1800
M205 X8 Y8
G1 F1012.5 X68.8 Y87.911 E39.66723
M204 S3000
M205 X10 Y10
G0 F6000 X67.2 Y87.911
M204 S1800
M205 X8 Y8
G1 F1012.5 X67.2 Y103.924 E40.94546
M204 S3000
M205 X10 Y10
G0 F6000 X70.4 Y101.34
M204 S1800
M205 X8 Y8
G1 F1012.5 X70.4 Y87.911 E42.01742
M204 S3000
M205 X10 Y10
G0 F6000 X72 Y87.911
M204 S1800
M205 X8 Y8
G1 F1012.5 X72 Y101.111 E43.0711
M204 S3000
M205 X10 Y10
G0 F6000 X73.6 Y101.111
M204 S1800
M205 X8 Y8
G1 F1012.5 X73.6 Y87.911 E44.12478
M204 S3000
M205 X10 Y10
G0 F6000 X75.2 Y87.911
M204 S1800
M205 X8 Y8
G1 F1012.5 X75.2 Y101.111 E45.17847
M204 S3000
M205 X10 Y10
G0 F6000 X76.8 Y101.111
M204 S1800
M205 X8 Y8
G1 F1012.5 X76.8 Y87.911 E46.23215
M204 S3000
M205 X10 Y10
G0 F6000 X78.4 Y87.911
M204 S1800
M205 X8 Y8
G1 F1012.5 X78.4 Y101.111 E47.28583
M204 S3000
M205 X10 Y10
G0 F6000 X80 Y101.111
M204 S1800
M205 X8 Y8
G1 F1012.5 X80 Y87.911 E48.33951
M204 S3000
M205 X10 Y10
G0 F6000 X81.6 Y87.911
M204 S1800
M205 X8 Y8
G1 F1012.5 X81.6 Y101.111 E49.39319
M204 S3000
M205 X10 Y10
G0 F6000 X83.2 Y101.111
M204 S1800
M205 X8 Y8
G1 F1012.5 X83.2 Y87.911 E50.44687
M204 S3000
M205 X10 Y10
G0 F6000 X84.8 Y87.911
M204 S1800
M205 X8 Y8
G1 F1012.5 X84.8 Y101.111 E51.50055
M204 S3000
M205 X10 Y10
G0 F6000 X86.4 Y101.111
M204 S1800
M205 X8 Y8
G1 F1012.5 X86.4 Y87.911 E52.55423
M204 S3000
M205 X10 Y10
G0 F6000 X88 Y87.911
M204 S1800
M205 X8 Y8
G1 F1012.5 X88 Y101.111 E53.60791
M204 S3000
M205 X10 Y10
G0 F6000 X89.6 Y101.111
M204 S1800
M205 X8 Y8
G1 F1012.5 X89.6 Y87.911 E54.6616
M204 S3000
M205 X10 Y10
G0 F6000 X91.2 Y87.911
M204 S1800
M205 X8 Y8
G1 F1012.5 X91.2 Y101.111 E55.71528
M204 S3000
M205 X10 Y10
G0 F6000 X92.8 Y101.111
M204 S1800
M205 X8 Y8
G1 F1012.5 X92.8 Y87.911 E56.76896
M204 S3000
M205 X10 Y10
G0 F6000 X94.4 Y87.911
M204 S1800
M205 X8 Y8
G1 F1012.5 X94.4 Y101.111 E57.82264
M204 S3000
M205 X10 Y10
G0 F6000 X96 Y101.111
M204 S1800
M205 X8 Y8
G1 F1012.5 X96 Y87.911 E58.87632
M204 S3000
M205 X10 Y10
G0 F6000 X97.6 Y87.911
M204 S1800
M205 X8 Y8
G1 F1012.5 X97.6 Y101.111 E59.93
M204 S3000
M205 X10 Y10
G0 F6000 X99.2 Y101.111
M204 S1800
M205 X8 Y8
G1 F1012.5 X99.2 Y87.911 E60.98368
M204 S3000
M205 X10 Y10
G0 F6000 X100.8 Y87.911
M204 S1800
M205 X8 Y8
G1 F1012.5 X100.8 Y101.111 E62.03736
M204 S3000
M205 X10 Y10
G0 F6000 X102.4 Y101.111
M204 S1800
M205 X8 Y8
G1 F1012.5 X102.4 Y87.911 E63.09104
M204 S3000
M205 X10 Y10
G0 F6000 X104 Y87.911
M204 S1800
M205 X8 Y8
G1 F1012.5 X104 Y101.111 E64.14473
M204 S3000
M205 X10 Y10
G0 F6000 X105.6 Y101.111
M204 S1800
M205 X8 Y8
G1 F1012.5 X105.6 Y87.911 E65.19841
M204 S3000
M205 X10 Y10
G0 F6000 X107.2 Y87.911
M204 S1800
M205 X8 Y8
G1 F1012.5 X107.2 Y101.111 E66.25209
M204 S3000
M205 X10 Y10
G0 F6000 X108.8 Y101.111
M204 S1800
M205 X8 Y8
G1 F1012.5 X108.8 Y87.911 E67.30577
M204 S3000
M205 X10 Y10
G0 F6000 X110.4 Y87.911
M204 S1800
M205 X8 Y8
G1 F1012.5 X110.4 Y101.111 E68.35945
M204 S3000
M205 X10 Y10
G0 F6000 X112 Y101.111
M204 S1800
M205 X8 Y8
G1 F1012.5 X112 Y87.911 E69.41313
M204 S3000
M205 X10 Y10
G0 F6000 X113.6 Y87.911
M204 S1800
M205 X8 Y8
G1 F1012.5 X113.6 Y101.111 E70.46681
M204 S3000
M205 X10 Y10
G0 F6000 X115.2 Y101.111
M204 S1800
M205 X8 Y8
G1 F1012.5 X115.2 Y87.911 E71.52049
M204 S3000
M205 X10 Y10
G0 F6000 X116.8 Y87.911
M204 S1800
M205 X8 Y8
G1 F1012.5 X116.8 Y101.111 E72.57417
M204 S3000
M205 X10 Y10
G0 F6000 X118.4 Y101.111
M204 S1800
M205 X8 Y8
G1 F1012.5 X118.4 Y87.911 E73.62785
M204 S3000
M205 X10 Y10
G0 F6000 X120 Y87.911
M204 S1800
M205 X8 Y8
G1 F1012.5 X120 Y101.111 E74.68154
M204 S3000
M205 X10 Y10
G0 F6000 X121.6 Y101.111
M204 S1800
M205 X8 Y8
G1 F1012.5 X121.6 Y87.911 E75.73522
M204 S3000
M205 X10 Y10
G0 F6000 X123.2 Y87.911
M204 S1800
M205 X8 Y8
G1 F1012.5 X123.2 Y101.111 E76.7889
M204 S3000
M205 X10 Y10
G0 F6000 X124.8 Y101.111
M204 S1800
M205 X8 Y8
G1 F1012.5 X124.8 Y87.911 E77.84258
M204 S3000
M205 X10 Y10
G0 F6000 X126.4 Y87.911
M204 S1800
M205 X8 Y8
G1 F1012.5 X126.4 Y101.111 E78.89626
M204 S3000
M205 X10 Y10
G0 F6000 X128 Y101.111
M204 S1800
M205 X8 Y8
G1 F1012.5 X128 Y87.911 E79.94994
M204 S3000
M205 X10 Y10
G0 F6000 X129.6 Y87.911
M204 S1800
M205 X8 Y8
G1 F1012.5 X129.6 Y101.111 E81.00362
M204 S3000
M205 X10 Y10
G0 F6000 X131.2 Y101.133
M204 S1800
M205 X8 Y8
G1 F1012.5 X131.2 Y87.911 E82.05906
M204 S3000
M205 X10 Y10
G0 F6000 X132.8 Y87.911
M204 S1800
M205 X8 Y8
G1 F1012.5 X132.8 Y101.456 E83.14028
M204 S3000
M205 X10 Y10
G0 F6000 X134.4 Y102.38
M204 S1800
M205 X8 Y8
G1 F1012.5 X134.4 Y87.911 E84.29526
M204 S3000
M205 X10 Y10
G0 F6000 X136 Y87.911
M204 S1800
M205 X8 Y8
G1 F1012.5 X136 Y104.68 E85.63383
M204 S3000
M205 X10 Y10
G0 F6000 X136 Y111.04
M204 S1800
M205 X8 Y8
G1 F1012.5 X136 Y155.1 E89.15089
M204 S3000
M205 X10 Y10
G0 F6000 X134.4 Y155.1
M204 S1800
M205 X8 Y8
G1 F1012.5 X134.4 Y113.335 E92.48475
M204 S3000
M205 X10 Y10
G0 F6000 X132.8 Y114.271
M204 S1800
M205 X8 Y8
G1 F1012.5 X132.8 Y155.1 E95.7439
M204 S3000
M205 X10 Y10
G0 F6000 X131.2 Y155.1
M204 S1800
M205 X8 Y8
G1 F1012.5 X131.2 Y114.596 E98.97711
M204 S3000
M205 X10 Y10
G0 F6000 X129.6 Y114.613
M204 S1800
M205 X8 Y8
G1 F1012.5 X129.6 Y155.1 E102.20895
M204 S3000
M205 X10 Y10
G0 F6000 X128 Y155.1
M204 S1800
M205 X8 Y8
G1 F1012.5 X128 Y114.613 E105.4408
M204 S3000
M205 X10 Y10
G0 F6000 X126.4 Y114.613
M204 S1800
M205 X8 Y8
G1 F1012.5 X126.4 Y155.1 E108.67265
M204 S3000
M205 X10 Y10
G0 F6000 X124.8 Y155.1
M204 S1800
M205 X8 Y8
G1 F1012.5 X124.8 Y114.613 E111.9045
M204 S3000
M205 X10 Y10
G0 F6000 X123.2 Y114.613
M204 S1800
M205 X8 Y8
G1 F1012.5 X123.2 Y155.1 E115.13634
M204 S3000
M205 X10 Y10
G0 F6000 X121.6 Y155.1
M204 S1800
M205 X8 Y8
G1 F1012.5 X121.6 Y114.613 E118.36819
M204 S3000
M205 X10 Y10
G0 F6000 X120 Y114.613
M204 S1800
M205 X8 Y8
G1 F1012.5 X120 Y155.1 E121.60004
M204 S3000
M205 X10 Y10
G0 F6000 X118.4 Y155.1
M204 S1800
M205 X8 Y8
G1 F1012.5 X118.4 Y114.613 E124.83189
M204 S3000
M205 X10 Y10
G0 F6000 X116.8 Y114.613
M204 S1800
M205 X8 Y8
G1 F1012.5 X116.8 Y155.1 E128.06373
M204 S3000
M205 X10 Y10
G0 F6000 X115.2 Y155.1
M204 S1800
M205 X8 Y8
G1 F1012.5 X115.2 Y114.613 E131.29558
M204 S3000
M205 X10 Y10
G0 F6000 X113.6 Y114.613
M204 S1800
M205 X8 Y8
G1 F1012.5 X113.6 Y155.1 E134.52743
M204 S3000
M205 X10 Y10
G0 F6000 X112 Y155.1
M204 S1800
M205 X8 Y8
G1 F1012.5 X112 Y114.613 E137.75928
M204 S3000
M205 X10 Y10
G0 F6000 X110.4 Y114.613
M204 S1800
M205 X8 Y8
G1 F1012.5 X110.4 Y155.1 E140.99112
M204 S3000
M205 X10 Y10
G0 F6000 X108.8 Y155.1
M204 S1800
M205 X8 Y8
G1 F1012.5 X108.8 Y114.613 E144.22297
M204 S3000
M205 X10 Y10
G0 F6000 X107.2 Y114.613
M204 S1800
M205 X8 Y8
G1 F1012.5 X107.2 Y155.1 E147.45482
M204 S3000
M205 X10 Y10
G0 F6000 X105.6 Y155.1
M204 S1800
M205 X8 Y8
G1 F1012.5 X105.6 Y114.613 E150.68667
M204 S3000
M205 X10 Y10
G0 F6000 X104 Y114.613
M204 S1800
M205 X8 Y8
G1 F1012.5 X104 Y155.1 E153.91851
M204 S3000
M205 X10 Y10
G0 F6000 X102.4 Y155.1
M204 S1800
M205 X8 Y8
G1 F1012.5 X102.4 Y114.613 E157.15036
M204 S3000
M205 X10 Y10
G0 F6000 X100.8 Y114.613
M204 S1800
M205 X8 Y8
G1 F1012.5 X100.8 Y155.1 E160.38221
M204 S3000
M205 X10 Y10
G0 F6000 X99.2 Y155.1
M204 S1800
M205 X8 Y8
G1 F1012.5 X99.2 Y114.613 E163.61405
M204 S3000
M205 X10 Y10
G0 F6000 X97.6 Y114.613
M204 S1800
M205 X8 Y8
G1 F1012.5 X97.6 Y155.1 E166.8459
M204 S3000
M205 X10 Y10
G0 F6000 X96 Y155.1
M204 S1800
M205 X8 Y8
G1 F1012.5 X96 Y114.613 E170.07775
M204 S3000
M205 X10 Y10
G0 F6000 X94.4 Y114.613
M204 S1800
M205 X8 Y8
G1 F1012.5 X94.4 Y155.1 E173.3096
M204 S3000
M205 X10 Y10
G0 F6000 X92.8 Y155.1
M204 S1800
M205 X8 Y8
G1 F1012.5 X92.8 Y114.613 E176.54144
M204 S3000
M205 X10 Y10
G0 F6000 X91.2 Y114.613
M204 S1800
M205 X8 Y8
G1 F1012.5 X91.2 Y155.1 E179.77329
M204 S3000
M205 X10 Y10
G0 F6000 X89.6 Y155.1
M204 S1800
M205 X8 Y8
G1 F1012.5 X89.6 Y114.613 E183.00514
M204 S3000
M205 X10 Y10
G0 F6000 X88 Y114.613
M204 S1800
M205 X8 Y8
G1 F1012.5 X88 Y155.1 E186.23699
M204 S3000
M205 X10 Y10
G0 F6000 X86.4 Y155.1
M204 S1800
M205 X8 Y8
G1 F1012.5 X86.4 Y114.613 E189.46883
M204 S3000
M205 X10 Y10
G0 F6000 X84.8 Y114.613
M204 S1800
M205 X8 Y8
G1 F1012.5 X84.8 Y155.1 E192.70068
M204 S3000
M205 X10 Y10
G0 F6000 X83.2 Y155.1
M204 S1800
M205 X8 Y8
G1 F1012.5 X83.2 Y114.613 E195.93253
M204 S3000
M205 X10 Y10
G0 F6000 X81.6 Y114.613
M204 S1800
M205 X8 Y8
G1 F1012.5 X81.6 Y155.1 E199.16438
M204 S3000
M205 X10 Y10
G0 F6000 X80 Y155.1
M204 S1800
M205 X8 Y8
G1 F1012.5 X80 Y114.613 E202.39622
M204 S3000
M205 X10 Y10
G0 F6000 X78.4 Y114.613
M204 S1800
M205 X8 Y8
G1 F1012.5 X78.4 Y155.1 E205.62807
M204 S3000
M205 X10 Y10
G0 F6000 X76.8 Y155.1
M204 S1800
M205 X8 Y8
G1 F1012.5 X76.8 Y114.613 E208.85992
M204 S3000
M205 X10 Y10
G0 F6000 X75.2 Y114.613
M204 S1800
M205 X8 Y8
G1 F1012.5 X75.2 Y155.1 E212.09177
M204 S3000
M205 X10 Y10
G0 F6000 X73.6 Y155.1
M204 S1800
M205 X8 Y8
