;FLAVOR:Marlin
;TIME:1531
;Filament used: 0.73928m
;Layer height: 0.1
;MINX:68.902
;MINY:88.358
;MINZ:0.3
;MAXX:121.646
;MAXY:121.642
;MAXZ:8.4
;Generated with Cura_SteamEngine 4.8.0
M140 S60
M105
M190 S60
M104 S215
M105
M109 S215
M82 ;absolute extrusion mode
140 S60
M105
M190 S60
M104 S200
M105
M109 S200
M82 ;absolute extrusion mode
G28
G29
M501
G92 E0 ;zero the extruded length
G1 F200 E3 ;extrude 3mm of feed stock
G92 E0 ;zero the extruded length again
G1 F100
M117 Printing...
G92 E0
G92 E0
;LAYER_COUNT:84
;LAYER:0
M107
G0 F3600 X73.894 Y94.821 Z0.3
;TYPE:SKIRT
G1 F1350 X74.101 Y94.663 E0.01949
G1 X74.623 Y94.293 E0.06737
G1 X74.855 Y94.141 E0.08813
G1 X75.501 Y93.749 E0.14467
G1 X76.067 Y93.444 E0.19279
G1 X76.284 Y93.344 E0.21067
G1 X77.021 Y93.029 E0.27065
G1 X77.271 Y92.932 E0.29072
G1 X77.845 Y92.732 E0.33621
G1 X78.111 Y92.65 E0.35704
G1 X78.759 Y92.475 E0.40727
G1 X79.012 Y92.416 E0.42671
G1 X79.713 Y92.276 E0.4802
G1 X80.216 Y92.199 E0.51828
G1 X80.484 Y92.171 E0.53845
G1 X83.503 Y91.96 E0.76493
G1 X86.208 Y91.692 E0.96835
G1 X88.925 Y91.347 E1.17331
G1 X91.591 Y90.93 E1.37525
G1 X94.289 Y90.43 E1.58059
G1 X96.907 Y89.869 E1.78096
G1 X99.584 Y89.214 E1.9872
G1 X100.41 Y88.994 E2.05117
G1 X101.58 Y88.713 E2.14122
G1 X101.848 Y88.658 E2.16169
G1 X102.661 Y88.522 E2.22338
G1 X102.921 Y88.488 E2.243
G1 X103.803 Y88.401 E2.30932
G1 X104.07 Y88.384 E2.32935
G1 X104.947 Y88.358 E2.395
G1 X105.22 Y88.359 E2.41543
G1 X106.089 Y88.394 E2.48052
G1 X106.352 Y88.414 E2.50026
G1 X107.23 Y88.509 E2.56635
G1 X107.491 Y88.546 E2.58607
G1 X108.331 Y88.695 E2.64992
G1 X108.597 Y88.752 E2.67028
G1 X109.488 Y88.975 E2.73901
G1 X109.748 Y89.049 E2.75924
G1 X110.55 Y89.31 E2.82236
G1 X110.798 Y89.4 E2.8421
G1 X111.594 Y89.72 E2.9063
G1 X111.839 Y89.829 E2.92637
G1 X112.661 Y90.227 E2.99472
G1 X112.896 Y90.351 E3.0146
G1 X113.629 Y90.77 E3.07778
G1 X113.86 Y90.913 E3.09811
G1 X114.61 Y91.414 E3.16561
G1 X114.829 Y91.571 E3.18578
G1 X115.489 Y92.081 E3.2482
G1 X115.688 Y92.246 E3.26754
G1 X116.382 Y92.86 E3.33689
G1 X116.583 Y93.051 E3.35764
G1 X117.181 Y93.661 E3.42156
G1 X117.36 Y93.856 E3.44137
G1 X117.921 Y94.512 E3.50597
G1 X118.087 Y94.72 E3.52588
G1 X118.6 Y95.41 E3.59023
G1 X118.752 Y95.63 E3.61024
G1 X119.24 Y96.39 E3.67783
G1 X119.376 Y96.619 E3.69776
G1 X119.794 Y97.38 E3.76273
G1 X119.919 Y97.627 E3.78345
G1 X120.29 Y98.433 E3.84985
G1 X120.389 Y98.669 E3.869
G1 X120.697 Y99.473 E3.93343
G1 X120.785 Y99.728 E3.95362
G1 X121.035 Y100.546 E4.01763
G1 X121.105 Y100.806 E4.03778
G1 X121.305 Y101.67 E4.10415
G1 X121.356 Y101.935 E4.12434
G1 X121.502 Y102.849 E4.19361
G1 X121.535 Y103.114 E4.2136
G1 X121.608 Y103.925 E4.27453
G1 X121.644 Y104.697 E4.33237
G1 X121.646 Y105.276 E4.3757
G1 X121.62 Y105.859 E4.41937
G1 X121.542 Y106.805 E4.4904
G1 X121.51 Y107.075 E4.51075
G1 X121.374 Y107.963 E4.57798
G1 X121.324 Y108.228 E4.59816
G1 X121.136 Y109.065 E4.66236
G1 X121.07 Y109.319 E4.682
G1 X120.823 Y110.152 E4.74702
G1 X120.737 Y110.408 E4.76723
G1 X120.434 Y111.219 E4.83202
G1 X120.333 Y111.465 E4.85192
G1 X119.958 Y112.292 E4.91987
G1 X119.839 Y112.532 E4.93992
G1 X119.44 Y113.272 E5.00284
G1 X119.308 Y113.497 E5.02236
G1 X118.847 Y114.23 E5.08716
G1 X118.691 Y114.46 E5.10796
G1 X118.141 Y115.21 E5.17756
G1 X117.976 Y115.42 E5.19754
G1 X117.45 Y116.043 E5.25856
G1 X117.273 Y116.238 E5.27827
G1 X116.653 Y116.879 E5.34501
G1 X116.46 Y117.066 E5.36512
G1 X115.775 Y117.683 E5.43411
G1 X115.566 Y117.858 E5.45451
G1 X114.94 Y118.347 E5.51395
G1 X114.731 Y118.5 E5.53334
G1 X113.973 Y119.015 E5.60192
G1 X113.74 Y119.161 E5.62249
G1 X112.95 Y119.62 E5.69087
G1 X112.714 Y119.747 E5.71092
G1 X111.995 Y120.101 E5.7709
G1 X111.76 Y120.207 E5.79019
G1 X110.907 Y120.559 E5.85925
G1 X110.649 Y120.655 E5.87985
G1 X109.858 Y120.918 E5.94223
G1 X109.601 Y120.994 E5.96228
G1 X108.716 Y121.222 E6.03068
G1 X108.453 Y121.28 E6.05083
G1 X107.583 Y121.441 E6.11704
G1 X107.321 Y121.48 E6.13686
G1 X106.508 Y121.574 E6.19811
G1 X106.243 Y121.596 E6.21801
G1 X105.33 Y121.639 E6.28641
G1 X105.062 Y121.642 E6.30647
G1 X104.195 Y121.623 E6.37137
G1 X103.927 Y121.608 E6.39145
G1 X103.058 Y121.529 E6.45675
G1 X102.795 Y121.496 E6.47659
G1 X101.945 Y121.36 E6.54101
G1 X101.675 Y121.307 E6.5616
G1 X100.643 Y121.066 E6.64091
G1 X97.815 Y120.347 E6.85927
G1 X95.226 Y119.766 E7.05784
G1 X92.499 Y119.234 E7.26577
G1 X89.852 Y118.798 E7.46652
G1 X87.176 Y118.432 E7.66865
G1 X84.443 Y118.138 E7.87435
G1 X81.743 Y117.924 E8.07704
G1 X81.332 Y117.9 E8.10785
G1 X80.666 Y117.849 E8.15784
G1 X80.257 Y117.801 E8.18865
G1 X79.534 Y117.689 E8.24341
G1 X79.265 Y117.638 E8.2639
G1 X78.624 Y117.492 E8.31309
G1 X78.366 Y117.423 E8.33308
G1 X77.685 Y117.218 E8.3863
G1 X77 Y116.972 E8.44077
G1 X76.823 Y116.895 E8.45521
G1 X75.977 Y116.505 E8.52493
G1 X75.41 Y116.203 E8.573
G1 X75.154 Y116.048 E8.5954
G1 X74.601 Y115.693 E8.64458
G1 X74.375 Y115.536 E8.66517
G1 X73.811 Y115.115 E8.71784
G1 X73.597 Y114.944 E8.73834
G1 X73.074 Y114.493 E8.79002
G1 X72.58 Y114.021 E8.84115
G1 X72.404 Y113.831 E8.86053
G1 X71.894 Y113.249 E8.91844
G1 X71.719 Y113.035 E8.93913
G1 X71.28 Y112.456 E8.99351
G1 X70.892 Y111.883 E9.04529
G1 X70.765 Y111.668 E9.06398
G1 X70.403 Y111.021 E9.11946
G1 X70.279 Y110.782 E9.13961
G1 X69.959 Y110.104 E9.19572
G1 X69.698 Y109.466 E9.2473
G1 X69.618 Y109.225 E9.2663
G1 X69.403 Y108.529 E9.32082
G1 X69.334 Y108.276 E9.34044
G1 X69.183 Y107.638 E9.38951
G1 X69.129 Y107.367 E9.41019
G1 X69.031 Y106.765 E9.45583
G1 X68.996 Y106.492 E9.47643
G1 X68.927 Y105.736 E9.53324
G1 X68.902 Y105.058 E9.58401
G1 X68.908 Y104.811 E9.6025
G1 X68.943 Y104.092 E9.65637
G1 X68.965 Y103.826 E9.67635
G1 X69.044 Y103.155 E9.72691
G1 X69.085 Y102.888 E9.74712
G1 X69.195 Y102.305 E9.79152
G1 X69.257 Y102.031 E9.81254
G1 X69.458 Y101.271 E9.87137
G1 X69.719 Y100.489 E9.93307
G1 X70.049 Y99.703 E9.99686
G1 X70.159 Y99.464 E10.01655
G1 X70.421 Y98.942 E10.06026
G1 X70.557 Y98.695 E10.08136
G1 X70.896 Y98.126 E10.13093
G1 X71.049 Y97.888 E10.1521
G1 X71.515 Y97.221 E10.21299
G1 X71.953 Y96.674 E10.26543
G1 X72.078 Y96.532 E10.27959
G1 X72.631 Y95.932 E10.34065
G1 X73.005 Y95.564 E10.37992
G1 X73.329 Y95.281 E10.41211
G1 X73.894 Y94.821 E10.46664
G0 F3600 X74.272 Y95.286
G1 F1350 X74.448 Y95.153 E10.48314
G1 X74.97 Y94.783 E10.53103
G1 X75.166 Y94.654 E10.54859
G1 X75.812 Y94.262 E10.60513
G1 X76.328 Y93.984 E10.649
G1 X76.52 Y93.896 E10.6648
G1 X77.257 Y93.581 E10.72478
G1 X77.468 Y93.499 E10.74172
G1 X78.042 Y93.299 E10.78721
G1 X78.268 Y93.229 E10.80492
G1 X78.916 Y93.054 E10.85515
G1 X79.13 Y93.004 E10.87159
G1 X79.831 Y92.864 E10.92509
G1 X80.526 Y92.769 E10.97758
G1 X83.568 Y92.556 E11.20579
G1 X86.273 Y92.289 E11.4092
G1 X89.024 Y91.939 E11.61673
G1 X91.683 Y91.523 E11.81814
G1 X94.386 Y91.023 E12.02385
G1 X97.038 Y90.454 E12.22683
G1 X99.736 Y89.794 E12.43469
G1 X100.55 Y89.577 E12.49774
G1 X101.72 Y89.296 E12.58778
G1 X101.947 Y89.25 E12.60512
G1 X102.76 Y89.114 E12.6668
G1 X102.98 Y89.085 E12.68341
G1 X103.862 Y88.998 E12.74973
G1 X104.088 Y88.983 E12.76668
G1 X104.965 Y88.957 E12.83234
G1 X105.196 Y88.959 E12.84963
G1 X106.065 Y88.994 E12.91472
G1 X106.287 Y89.01 E12.93137
G1 X107.165 Y89.105 E12.99746
G1 X107.386 Y89.137 E13.01417
G1 X108.226 Y89.286 E13.07801
G1 X108.451 Y89.334 E13.09523
G1 X109.342 Y89.557 E13.16397
G1 X109.562 Y89.62 E13.18109
G1 X110.364 Y89.881 E13.24421
G1 X110.574 Y89.957 E13.26092
G1 X111.37 Y90.277 E13.32512
G1 X111.577 Y90.369 E13.34208
G1 X112.399 Y90.767 E13.41042
G1 X112.599 Y90.872 E13.42733
G1 X113.332 Y91.291 E13.49051
G1 X113.527 Y91.412 E13.50768
G1 X114.277 Y91.913 E13.57518
G1 X114.462 Y92.046 E13.59223
G1 X115.122 Y92.556 E13.65465
G1 X115.291 Y92.695 E13.67103
G1 X115.985 Y93.309 E13.74037
G1 X116.155 Y93.471 E13.75794
G1 X116.753 Y94.081 E13.82187
G1 X116.904 Y94.246 E13.83861
G1 X117.465 Y94.902 E13.9032
G1 X117.605 Y95.078 E13.92003
G1 X118.118 Y95.768 E13.98438
G1 X118.247 Y95.954 E14.00132
G1 X118.735 Y96.714 E14.06891
G1 X118.85 Y96.908 E14.08578
G1 X119.268 Y97.669 E14.15076
G1 X119.374 Y97.878 E14.1683
G1 X119.745 Y98.684 E14.2347
G1 X119.829 Y98.883 E14.25086
G1 X120.137 Y99.687 E14.31529
G1 X120.211 Y99.903 E14.33238
G1 X120.461 Y100.721 E14.39639
G1 X120.52 Y100.942 E14.41351
G1 X120.72 Y101.806 E14.47987
G1 X120.764 Y102.029 E14.49688
G1 X120.91 Y102.943 E14.56615
G1 X120.938 Y103.168 E14.58312
G1 X121.011 Y103.979 E14.64406
G1 X121.045 Y104.713 E14.69904
G1 X121.046 Y105.276 E14.74118
G1 X121.022 Y105.81 E14.78118
G1 X120.944 Y106.756 E14.85221
G1 X120.917 Y106.985 E14.86947
G1 X120.781 Y107.873 E14.9367
G1 X120.739 Y108.096 E14.95368
G1 X120.551 Y108.933 E15.01788
G1 X120.495 Y109.148 E15.0345
G1 X120.248 Y109.981 E15.09952
G1 X120.175 Y110.198 E15.11666
G1 X119.872 Y111.009 E15.18145
G1 X119.786 Y111.217 E15.19829
G1 X119.411 Y112.044 E15.26624
G1 X119.311 Y112.247 E15.28318
G1 X118.912 Y112.987 E15.34609
G1 X118.8 Y113.178 E15.36266
G1 X118.339 Y113.911 E15.42747
G1 X118.207 Y114.106 E15.44509
G1 X117.657 Y114.856 E15.51469
G1 X117.517 Y115.033 E15.53158
G1 X116.991 Y115.656 E15.59259
G1 X116.842 Y115.821 E15.60923
G1 X116.222 Y116.462 E15.67597
G1 X116.059 Y116.62 E15.69296
G1 X115.374 Y117.237 E15.76195
G1 X115.196 Y117.386 E15.77932
G1 X114.57 Y117.875 E15.83877
G1 X114.394 Y118.004 E15.8551
G1 X113.636 Y118.519 E15.92367
G1 X113.439 Y118.642 E15.94105
G1 X112.649 Y119.101 E16.00943
G1 X112.449 Y119.209 E16.02644
G1 X111.73 Y119.563 E16.08641
G1 X111.531 Y119.652 E16.10273
G1 X110.678 Y120.004 E16.17178
G1 X110.46 Y120.085 E16.18919
G1 X109.669 Y120.348 E16.25157
G1 X109.451 Y120.413 E16.26859
G1 X108.566 Y120.641 E16.33698
G1 X108.343 Y120.69 E16.35407
G1 X107.473 Y120.851 E16.42028
G1 X107.252 Y120.884 E16.437
G1 X106.439 Y120.978 E16.49825
G1 X106.215 Y120.996 E16.51507
G1 X105.302 Y121.039 E16.58347
G1 X105.075 Y121.042 E16.60046
G1 X104.208 Y121.023 E16.66535
G1 X103.981 Y121.01 E16.68237
G1 X103.112 Y120.931 E16.74767
G1 X102.89 Y120.904 E16.76441
G1 X102.04 Y120.768 E16.82883
G1 X101.811 Y120.723 E16.84629
G1 X100.791 Y120.484 E16.92469
G1 X97.99 Y119.772 E17.14097
G1 X95.326 Y119.174 E17.34529
G1 X92.607 Y118.644 E17.5526
G1 X89.961 Y118.208 E17.75328
G1 X87.217 Y117.833 E17.96054
G1 X84.519 Y117.542 E18.16362
G1 X81.778 Y117.325 E18.36938
G1 X81.378 Y117.301 E18.39937
G1 X80.712 Y117.25 E18.44936
G1 X80.349 Y117.208 E18.4767
G1 X79.626 Y117.096 E18.53145
G1 X79.398 Y117.053 E18.54882
G1 X78.757 Y116.907 E18.59801
G1 X78.539 Y116.849 E18.6149
G1 X77.858 Y116.644 E18.66812
G1 X77.236 Y116.42 E18.71759
G1 X77.074 Y116.35 E18.7308
G1 X76.228 Y115.96 E18.80051
G1 X75.718 Y115.688 E18.84377
G1 X75.478 Y115.543 E18.86475
G1 X74.925 Y115.188 E18.91393
G1 X74.734 Y115.055 E18.93135
G1 X74.17 Y114.634 E18.98402
G1 X73.989 Y114.489 E19.00137
G1 X73.466 Y114.038 E19.05305
G1 X73.015 Y113.608 E19.09969
G1 X72.855 Y113.436 E19.11727
G1 X72.345 Y112.854 E19.17518
G1 X72.197 Y112.673 E19.19267
G1 X71.758 Y112.094 E19.24705
G1 X71.406 Y111.574 E19.29404
G1 X71.288 Y111.375 E19.31135
G1 X70.926 Y110.728 E19.36684
G1 X70.822 Y110.526 E19.38384
G1 X70.502 Y109.848 E19.43994
G1 X70.266 Y109.27 E19.48667
G1 X70.191 Y109.048 E19.5042
G1 X69.976 Y108.352 E19.55872
G1 X69.918 Y108.138 E19.57531
G1 X69.767 Y107.5 E19.62437
G1 X69.721 Y107.27 E19.64192
G1 X69.623 Y106.668 E19.68757
G1 X69.594 Y106.438 E19.70492
G1 X69.525 Y105.682 E19.76173
G1 X69.501 Y105.067 E19.80779
G1 X69.507 Y104.841 E19.82471
G1 X69.542 Y104.122 E19.87858
G1 X69.561 Y103.896 E19.89555
G1 X69.64 Y103.225 E19.94611
G1 X69.674 Y102.999 E19.96321
G1 X69.784 Y102.416 E20.00761
G1 X69.837 Y102.184 E20.02542
G1 X70.038 Y101.424 E20.08425
G1 X70.272 Y100.722 E20.13963
G1 X70.602 Y99.936 E20.20342
G1 X70.696 Y99.733 E20.22016
G1 X70.958 Y99.211 E20.26387
G1 X71.072 Y99.002 E20.28169
G1 X71.411 Y98.433 E20.33125
G1 X71.541 Y98.232 E20.34917
G1 X72.007 Y97.565 E20.41006
G1 X72.414 Y97.059 E20.45865
G1 X72.519 Y96.939 E20.47059
G1 X73.072 Y96.339 E20.53165
G1 X73.546 Y95.883 E20.58087
G1 X73.707 Y95.746 E20.59669
G1 X74.272 Y95.286 E20.65121
;MESH:wheel_back_stock.stl
G0 F3600 X78.454 Y95.925
G0 X82.404 Y96.412
G0 X82.41 Y96.313
;TYPE:WALL-OUTER
G1 F1350 X83.008 Y96.376 E20.69621
G1 X83.598 Y96.48 E20.74105
G1 X84.204 Y96.631 E20.78778
G1 X84.77 Y96.814 E20.8323
G1 X85.331 Y97.04 E20.87756
G1 X85.88 Y97.307 E20.92325
G1 X86.412 Y97.615 E20.96925
G1 X86.906 Y97.947 E21.01379
G1 X87.4 Y98.332 E21.06066
G1 X87.837 Y98.724 E21.10459
G1 X88.27 Y99.172 E21.15122
G1 X88.664 Y99.641 E21.19706
G1 X89.014 Y100.122 E21.24158
G1 X89.332 Y100.63 E21.28643
G1 X89.622 Y101.174 E21.33256
G1 X89.871 Y101.729 E21.37808
G1 X90.083 Y102.311 E21.42444
G1 X90.248 Y102.883 E21.46899
G1 X90.373 Y103.469 E21.51383
G1 X90.461 Y104.091 E21.56084
G1 X90.503 Y104.683 E21.60525
G1 X90.503 Y105.304 E21.65172
G1 X90.463 Y105.89 E21.69568
G1 X90.379 Y106.492 E21.74117
G1 X90.247 Y107.117 E21.78897
G1 X90.086 Y107.681 E21.83286
G1 X89.873 Y108.265 E21.87938
G1 X89.629 Y108.813 E21.92428
G1 X89.338 Y109.36 E21.97064
G1 X89.026 Y109.861 E22.01481
G1 X88.659 Y110.366 E22.06153
G1 X88.279 Y110.818 E22.10572
G1 X87.854 Y111.26 E22.15161
G1 X87.395 Y111.672 E22.19776
G1 X86.929 Y112.037 E22.24206
G1 X86.414 Y112.385 E22.28858
G1 X85.89 Y112.688 E22.33387
G1 X85.341 Y112.956 E22.37959
G1 X84.782 Y113.182 E22.42471
G1 X84.207 Y113.369 E22.46996
G1 X83.61 Y113.517 E22.51599
G1 X83.015 Y113.623 E22.56122
G1 X82.42 Y113.686 E22.606
G1 X81.804 Y113.708 E22.65212
G1 X81.19 Y113.687 E22.6981
G1 X80.592 Y113.624 E22.7431
G1 X80.002 Y113.52 E22.78793
G1 X79.396 Y113.369 E22.83467
G1 X78.83 Y113.186 E22.87919
G1 X78.269 Y112.96 E22.92445
G1 X77.719 Y112.692 E22.97023
G1 X77.188 Y112.385 E23.01613
G1 X76.69 Y112.05 E23.06105
G1 X76.2 Y111.668 E23.10754
G1 X75.763 Y111.276 E23.15148
G1 X75.33 Y110.828 E23.1981
G1 X74.936 Y110.359 E23.24394
G1 X74.583 Y109.874 E23.28883
G1 X74.264 Y109.363 E23.33391
G1 X73.978 Y108.826 E23.37944
G1 X73.728 Y108.268 E23.4252
G1 X73.517 Y107.689 E23.47132
G1 X73.352 Y107.115 E23.51601
G1 X73.226 Y106.524 E23.56124
G1 X73.14 Y105.916 E23.60719
G1 X73.097 Y105.317 E23.65213
G1 X73.097 Y104.696 E23.6986
G1 X73.137 Y104.11 E23.74256
G1 X73.221 Y103.508 E23.78805
G1 X73.353 Y102.883 E23.83585
G1 X73.514 Y102.319 E23.87974
G1 X73.729 Y101.729 E23.92674
G1 X73.972 Y101.185 E23.97132
G1 X74.263 Y100.637 E24.01776
G1 X74.574 Y100.139 E24.06169
G1 X74.943 Y99.631 E24.10868
G1 X75.321 Y99.182 E24.1526
G1 X75.746 Y98.74 E24.19849
G1 X76.205 Y98.328 E24.24465
G1 X76.671 Y97.963 E24.28895
G1 X77.186 Y97.615 E24.33546
G1 X77.713 Y97.31 E24.38103
G1 X78.261 Y97.043 E24.42665
G1 X78.818 Y96.818 E24.4716
G1 X79.393 Y96.631 E24.51685
G1 X79.99 Y96.483 E24.56288
G1 X80.585 Y96.377 E24.60811
G1 X81.18 Y96.314 E24.65288
G1 X81.796 Y96.292 E24.69901
G1 X82.41 Y96.313 E24.74499
G0 F3600 X82.708 Y96.344
G0 X82.697 Y96.443
G0 X86.069 Y98.228
G0 X87.871 Y99.778
G0 X89.289 Y102.002
G0 X89.19 Y102.011
G1 F1350 X88.892 Y101.366 E24.79816
G1 X88.579 Y100.814 E24.84565
G1 X88.227 Y100.291 E24.89282
G1 X87.841 Y99.804 E24.93933
G1 X87.425 Y99.356 E24.98508
G1 X86.973 Y98.94 E25.03105
G1 X86.483 Y98.557 E25.07759
G1 X86.048 Y98.261 E25.11697
G1 X85.529 Y97.959 E25.1619
G1 X84.955 Y97.683 E25.20957
G1 X84.46 Y97.49 E25.24933
G1 X83.884 Y97.31 E25.29449
G1 X83.267 Y97.17 E25.34184
G1 X82.648 Y97.079 E25.38866
G1 X82.001 Y97.034 E25.43719
G1 X81.391 Y97.042 E25.48284
G1 X80.775 Y97.098 E25.52913
G1 X80.125 Y97.205 E25.57843
G1 X79.82 Y97.545 E25.61261
G1 X79.685 Y97.947 E25.64435
G1 X79.717 Y98.39 E25.67759
G1 X79.923 Y98.775 E25.71026
G1 X80.126 Y98.963 E25.73097
G1 X84.592 Y102.099 E26.13935
G1 X86.13 Y103.175 E26.27982
G1 X86.533 Y103.364 E26.31313
G1 X86.991 Y103.429 E26.34775
G1 X87.574 Y103.312 E26.39224
G1 X88.535 Y102.923 E26.46983
G1 X88.857 Y102.714 E26.49856
G1 X89.101 Y102.356 E26.53098
G1 X89.19 Y102.011 E26.55764
G0 F3600 X89.065 Y101.739
G0 X89.155 Y101.699
G0 X89.578 Y107.118
G0 X89.479 Y107.127
G1 F1350 X89.229 Y106.676 E26.59623
G1 X88.887 Y106.415 E26.62843
G1 X88.469 Y106.304 E26.66079
