;FLAVOR:Marlin
;TIME:1940
;Filament used: 2.23057m, 0m, 0m, 0m
;Layer height: 0.2
;MINX:89.299
;MINY:82.871
;MINZ:0.24
;MAXX:120.7
;MAXY:117.553
;MAXZ:33.315
;Generated with Cura_SteamEngine 4.6.1
T0
M140 S60
M105
M190 S60
M104 S185
M105
M109 S185
M82 ;absolute extrusion mode
G28
G29
M501
M420 S1
G92 E0 ;zero the extruded length
G1 F200 E3 ;extrude 3mm of feed stock
G92 E0 ;zero the extruded length again
G1 F200
M117 Printing...
G5
G92 E0
G92 E0
G1 F2400 E-4
;LAYER_COUNT:247
;LAYER:-6
M107
M204 S4000
M205 X30 Y30
G0 F12000 X91.075 Y90.621 Z0.24
M204 S3000
M205 X8 Y8
;TYPE:SUPPORT-INTERFACE
G1 F2400 E0
G1 F1125 X91.277 Y90.44 E0.03248
G1 X91.504 Y90.263 E0.06694
G1 X91.866 Y90.019 E0.11921
G1 X91.985 Y89.945 E0.13599
G1 X102.741 Y83.741 E1.62276
G1 X103.065 Y83.579 E1.66613
G1 X103.329 Y83.469 E1.70038
G1 X103.601 Y83.375 E1.73483
G1 X103.841 Y83.309 E1.76464
G1 X104.12 Y83.249 E1.79881
G1 X104.415 Y83.208 E1.83447
G1 X104.824 Y83.179 E1.88356
G1 X105.013 Y83.172 E1.90621
G1 X105.139 Y83.176 E1.9213
G1 X105.526 Y83.201 E1.96774
G1 X105.797 Y83.234 E2.00043
G1 X106.07 Y83.287 E2.03373
G1 X106.334 Y83.356 E2.0664
G1 X106.589 Y83.439 E2.09851
G1 X106.868 Y83.551 E2.13451
G1 X107.233 Y83.729 E2.18313
G1 X107.395 Y83.815 E2.20509
G1 X118.114 Y90.005 E3.68718
G1 X118.448 Y90.226 E3.73513
G1 X118.664 Y90.392 E3.76775
G1 X118.862 Y90.563 E3.79908
G1 X119.078 Y90.775 E3.83532
G1 X119.246 Y90.963 E3.86551
G1 X119.429 Y91.197 E3.90107
G1 X119.672 Y91.553 E3.95268
G1 X119.753 Y91.682 E3.97092
G1 X119.828 Y91.822 E3.98994
G1 X119.992 Y92.151 E4.03396
G1 X120.099 Y92.406 E4.06707
G1 X120.195 Y92.68 E4.10183
G1 X120.261 Y92.914 E4.13094
G1 X120.321 Y93.193 E4.16511
G1 X120.363 Y93.491 E4.20115
G1 X120.393 Y93.912 E4.25168
G1 X120.4 Y94.099 E4.27409
G1 X120.397 Y106.467 E5.75499
G1 X120.371 Y106.865 E5.80275
G1 X120.338 Y107.136 E5.83544
G1 X120.289 Y107.389 E5.86629
G1 X120.21 Y107.693 E5.9039
G1 X120.134 Y107.924 E5.93302
G1 X120.023 Y108.201 E5.96875
G1 X119.826 Y108.606 E6.02268
G1 X119.752 Y108.745 E6.04153
G1 X119.673 Y108.872 E6.05944
G1 X119.475 Y109.169 E6.10218
G1 X119.297 Y109.401 E6.13719
G1 X119.109 Y109.618 E6.17157
G1 X118.925 Y109.804 E6.2029
G1 X118.723 Y109.985 E6.23537
G1 X118.496 Y110.162 E6.26984
G1 X118.134 Y110.406 E6.32211
G1 X118.015 Y110.48 E6.33889
G1 X107.259 Y116.684 E7.82565
G1 X106.935 Y116.846 E7.86903
G1 X106.671 Y116.956 E7.90327
G1 X106.399 Y117.05 E7.93773
G1 X106.159 Y117.116 E7.96753
G1 X105.88 Y117.176 E8.0017
G1 X105.585 Y117.217 E8.03737
G1 X105.176 Y117.246 E8.08646
G1 X104.987 Y117.253 E8.10911
G1 X104.861 Y117.249 E8.1242
G1 X104.474 Y117.224 E8.17064
G1 X104.203 Y117.191 E8.20332
G1 X103.93 Y117.138 E8.23662
G1 X103.666 Y117.069 E8.26929
G1 X103.411 Y116.986 E8.3014
G1 X103.132 Y116.874 E8.3374
G1 X102.762 Y116.693 E8.38672
G1 X102.605 Y116.61 E8.40798
G1 X91.872 Y110.411 E9.89206
G1 X91.552 Y110.199 E9.93803
G1 X91.336 Y110.033 E9.97064
G1 X91.138 Y109.862 E10.00197
G1 X90.922 Y109.65 E10.03821
G1 X90.754 Y109.462 E10.0684
G1 X90.571 Y109.228 E10.10397
G1 X90.328 Y108.872 E10.15558
G1 X90.243 Y108.736 E10.17478
G1 X90.172 Y108.603 E10.19283
G1 X90.008 Y108.274 E10.23685
G1 X89.901 Y108.019 E10.26996
G1 X89.805 Y107.745 E10.30472
G1 X89.739 Y107.511 E10.33383
G1 X89.679 Y107.228 E10.36847
G1 X89.637 Y106.934 E10.40403
G1 X89.607 Y106.513 E10.45457
G1 X89.6 Y106.326 E10.47698
G1 X89.603 Y93.958 E11.95788
G1 X89.629 Y93.554 E12.00635
G1 X89.662 Y93.289 E12.03833
G1 X89.715 Y93.016 E12.07162
G1 X89.785 Y92.747 E12.10491
G1 X89.866 Y92.501 E12.13592
G1 X89.977 Y92.224 E12.17165
G1 X90.175 Y91.817 E12.22584
G1 X90.248 Y91.68 E12.24443
G1 X90.327 Y91.553 E12.26234
G1 X90.525 Y91.256 E12.30508
G1 X90.703 Y91.024 E12.34009
G1 X90.891 Y90.807 E12.37447
G1 X90.92 Y90.778 E12.37938
G0 F1012.5 X91.075 Y90.621
M204 S4000
M205 X30 Y30
G0 F12000 X91.2 Y90.508
M204 S3000
M205 X8 Y8
G1 F1125 X91.2 Y109.915 E14.7031
M204 S4000
M205 X30 Y30
G0 F12000 X93.6 Y111.409
M204 S3000
M205 X8 Y8
G1 F1125 X93.6 Y89.013 E17.38472
M204 S4000
M205 X30 Y30
G0 F12000 X96 Y87.629
M204 S3000
M205 X8 Y8
G1 F1125 X96 Y112.795 E20.39801
M204 S4000
M205 X30 Y30
G0 F12000 X98.4 Y114.181
M204 S3000
M205 X8 Y8
G1 F1125 X98.4 Y86.244 E23.74309
M204 S4000
M205 X30 Y30
G0 F12000 X100.8 Y84.86
M204 S3000
M205 X8 Y8
G1 F1125 X100.8 Y115.567 E27.41984
M204 S4000
M205 X30 Y30
G0 F12000 X103.2 Y116.901
M204 S3000
M205 X8 Y8
G1 F1125 X103.2 Y83.522 E31.41652
M204 S4000
M205 X30 Y30
G0 F12000 X105.6 Y83.211
M204 S3000
M205 X8 Y8
G1 F1125 X105.6 Y117.215 E35.48804
M204 S4000
M205 X30 Y30
G0 F12000 X108 Y116.257
M204 S3000
M205 X8 Y8
G1 F1125 X108 Y84.165 E39.33062
M204 S4000
M205 X30 Y30
G0 F12000 X110.4 Y85.551
M204 S3000
M205 X8 Y8
G1 F1125 X110.4 Y114.873 E42.84154
M204 S4000
M205 X30 Y30
G0 F12000 X112.8 Y113.488
M204 S3000
M205 X8 Y8
G1 F1125 X112.8 Y86.937 E46.02066
M204 S4000
M205 X30 Y30
G0 F12000 X115.2 Y88.323
M204 S3000
M205 X8 Y8
G1 F1125 X115.2 Y112.104 E48.86811
M204 S4000
M205 X30 Y30
G0 F12000 X117.6 Y110.72
M204 S3000
M205 X8 Y8
G1 F1125 X117.6 Y89.709 E51.3839
M204 S4000
M205 X30 Y30
G0 F12000 X120 Y92.171
M204 S3000
M205 X8 Y8
G1 F1125 X120 Y108.249 E53.30902
M204 S4000
M205 X30 Y30
G1 F2400 E49.30902
G0 F600 X120 Y108.249 Z0.54
G0 F12000 X107.258 Y116.683
;TIME_ELAPSED:27.931649
;LAYER:-5
M140 S60
M204 S3000
M205 X8 Y8
;TYPE:SUPPORT
G1 F2400 E53.30902
G1 F1125 X108.212 Y116.132 E53.47391
G1 X89.601 Y97.521 E57.41323
G1 X89.602 Y95.542 E57.70943
G1 X109.468 Y115.408 E61.91439
G1 X110.724 Y114.684 E62.13137
G1 X89.626 Y93.586 E66.59711
G1 X89.628 Y93.553 E66.60205
G1 X89.661 Y93.287 E66.64217
G1 X89.714 Y93.015 E66.68365
G1 X89.784 Y92.746 E66.72525
G1 X89.865 Y92.5 E66.76401
G1 X89.977 Y92.222 E66.80887
G1 X90.063 Y92.043 E66.83859
G1 X111.98 Y113.96 E71.47768
G1 X113.235 Y113.235 E71.69461
G1 X90.851 Y90.851 E76.43255
G1 X90.89 Y90.806 E76.44146
G1 X91.074 Y90.62 E76.48062
G1 X91.276 Y90.44 E76.52111
G1 X91.503 Y90.262 E76.56429
G1 X91.865 Y90.018 E76.62963
G1 X91.947 Y89.968 E76.644
G1 X114.491 Y112.511 E81.4157
G1 X115.747 Y111.787 E81.63268
G1 X93.202 Y89.242 E86.40469
G1 X94.458 Y88.518 E86.62168
G1 X117.002 Y111.063 E91.39359
G1 X118.014 Y110.479 E91.56846
G1 X118.133 Y110.406 E91.58936
G1 X118.248 Y110.328 E91.61016
G1 X95.713 Y87.794 E96.37995
G1 X96.969 Y87.069 E96.597
G1 X119.298 Y109.398 E101.3233
G1 X119.474 Y109.168 E101.36665
G1 X119.672 Y108.871 E101.42007
G1 X119.751 Y108.744 E101.44246
G1 X119.824 Y108.605 E101.46595
G1 X120.022 Y108.2 E101.53343
G1 X120.039 Y108.159 E101.54007
G1 X98.224 Y86.345 E106.15746
G1 X99.48 Y85.621 E106.37444
G1 X120.392 Y106.533 E110.80081
G1 X120.396 Y106.467 E110.8107
G1 X120.396 Y104.557 E111.09658
G1 X100.736 Y84.897 E115.25793
G1 X101.991 Y84.172 E115.47486
G1 X120.397 Y102.578 E119.37079
G1 X120.397 Y100.598 E119.66714
G1 X103.286 Y83.487 E123.28896
G1 X103.328 Y83.469 E123.2958
G1 X103.599 Y83.374 E123.33878
G1 X103.84 Y83.309 E123.37614
G1 X104.119 Y83.248 E123.41888
G1 X104.414 Y83.208 E123.46344
G1 X104.823 Y83.179 E123.52481
G1 X104.953 Y83.174 E123.54428
G1 X120.398 Y98.619 E126.81346
G1 X120.399 Y96.64 E127.10966
G1 X107.819 Y84.06 E129.77242
G1 X112.504 Y86.766 E130.58219
G1 X120.399 Y94.66 E132.25319
G1 X120.399 Y94.098 E132.3373
G1 X120.392 Y93.912 E132.36516
G1 X120.362 Y93.49 E132.42848
G1 X120.32 Y93.193 E132.47338
G1 X120.26 Y92.913 E132.51623
G1 X120.194 Y92.679 E132.55262
G1 X120.097 Y92.406 E132.59599
G1 X120.078 Y92.36 E132.60344
G1 X117.19 Y89.471 E133.21483
G1 X118.113 Y90.004 E133.37436
G1 X118.446 Y90.226 E133.43426
G1 X118.663 Y90.391 E133.47506
G1 X118.861 Y90.562 E133.51422
G1 X119.077 Y90.774 E133.55952
G1 X119.245 Y90.962 E133.59725
G1 X119.428 Y91.196 E133.64171
G1 X119.671 Y91.552 E133.70623
G1 X119.752 Y91.682 E133.72915
G1 X119.827 Y91.822 E133.75292
G1 X119.991 Y92.15 E133.80781
M204 S4000
M205 X30 Y30
G0 F12000 X107.258 Y116.683
M204 S3000
M205 X8 Y8
G1 F1125 X106.942 Y116.841 E133.86069
G1 X89.601 Y99.5 E137.53119
G1 X89.6 Y101.479 E137.82739
G1 X105.353 Y117.232 E141.16177
G1 X105.176 Y117.245 E141.18833
G1 X104.986 Y117.252 E141.21679
G1 X104.861 Y117.248 E141.2355
G1 X104.474 Y117.223 E141.29355
G1 X104.203 Y117.19 E141.33441
G1 X103.929 Y117.137 E141.37618
G1 X103.666 Y117.068 E141.41687
G1 X103.411 Y116.985 E141.45701
G1 X103.131 Y116.873 E141.50215
G1 X102.901 Y116.76 E141.5405
G1 X89.6 Y103.459 E144.35587
G1 X89.599 Y105.438 E144.65207
G1 X98.262 Y114.101 E146.48574
G1 X93.574 Y111.394 E147.29597
G1 X89.757 Y107.576 E148.104
M204 S4000
M205 X30 Y30
G0 F12000 X89.804 Y107.743
M204 S3000
M205 X8 Y8
G1 F1125 X89.9 Y108.018 E148.1476
G1 X90.007 Y108.273 E148.18899
G1 X90.172 Y108.602 E148.24407
G1 X90.243 Y108.735 E148.26664
G1 X90.327 Y108.871 E148.29056
G1 X90.571 Y109.227 E148.35516
G1 X90.754 Y109.461 E148.39962
G1 X90.921 Y109.648 E148.43715
G1 X91.138 Y109.861 E148.48266
G1 X91.336 Y110.032 E148.52181
G1 X91.551 Y110.198 E148.56247
G1 X91.871 Y110.41 E148.61992
G1 X93.574 Y111.394 E148.9143
M204 S4000
M205 X30 Y30
G1 F2400 E144.9143
G0 F600 X93.574 Y111.394 Z0.74
G0 F12000 X102.714 Y117
;TIME_ELAPSED:62.664271
;LAYER:-4
M204 S3000
M205 X8 Y8
;TYPE:SUPPORT-INTERFACE
G1 F2400 E148.9143
G1 F1500 X107.292 Y117 E149.1427
G1 X107.049 Y117.123 E149.15628
G1 X106.213 Y117.412 E149.20041
G1 X105.62 Y117.515 E149.23044
G1 X104.998 Y117.553 E149.26153
G1 X104.466 Y117.525 E149.28811
G1 X103.857 Y117.429 E149.31887
G1 X103.305 Y117.268 E149.34755
M204 S4000
M205 X30 Y30
G0 F12000 X107.292 Y117
M204 S3000
M205 X8 Y8
G1 F1500 X107.524 Y116.883 E149.36052
G1 X108.36 Y116.4 E149.40869
G1 X101.653 Y116.4 E149.7433
G1 X100.612 Y115.8 E149.80324
G1 X109.399 Y115.8 E150.24163
G1 X110.439 Y115.2 E150.30153
G1 X99.571 Y115.2 E150.84374
G1 X98.53 Y114.6 E150.90368
G1 X111.478 Y114.6 E151.54966
G1 X112.517 Y114 E151.60952
G1 X97.489 Y114 E152.35927
G1 X96.448 Y113.4 E152.41921
G1 X113.557 Y113.4 E153.27279
G1 X114.596 Y112.8 E153.33264
G1 X95.407 Y112.8 E154.28999
G1 X94.367 Y112.2 E154.34989
G1 X115.635 Y112.2 E155.41095
G1 X116.675 Y111.6 E155.47086
G1 X93.326 Y111.6 E156.63574
G1 X92.285 Y111 E156.69569
G1 X117.714 Y111 E157.96434
G1 X118.156 Y110.745 E157.9898
G1 X118.678 Y110.401 E158.02099
M204 S4000
M205 X30 Y30
G0 F12000 X118.679 Y110.4
M204 S3000
M205 X8 Y8
G1 F1500 X91.324 Y110.4 E159.38574
G1 X90.927 Y110.077 E159.41127
G1 X90.661 Y109.8 E159.43043
G1 X119.347 Y109.8 E160.86158
G1 X119.711 Y109.354 E160.8903
G1 X119.811 Y109.2 E160.89946
G1 X90.195 Y109.2 E162.37701
G1 X90.08 Y109.041 E162.3868
G1 X89.899 Y108.729 E162.4048
G1 X89.839 Y108.6 E162.41189
G1 X120.158 Y108.6 E163.92452
G1 X120.303 Y108.31 E163.94069
G1 X120.414 Y108.033 E163.95558
G1 X120.423 Y108 E163.95729
G1 X89.58 Y108 E165.49605
G1 X89.443 Y107.565 E165.5188
G1 X89.414 Y107.4 E165.52716
G1 X120.588 Y107.4 E167.08244
G1 X120.672 Y106.872 E167.10911
G1 X120.676 Y106.8 E167.11271
G1 X89.328 Y106.8 E168.67667
G1 X89.3 Y106.348 E168.69926
G1 X89.3 Y106.2 E168.70664
G1 X120.7 Y106.2 E170.2732
G1 X120.7 Y105.6 E170.30313
G1 X89.3 Y105.6 E171.86968
G1 X89.3 Y105 E171.89962
G1 X120.7 Y105 E173.46617
G1 X120.7 Y104.4 E173.4961
G1 X89.3 Y104.4 E175.06266
G1 X89.3 Y103.8 E175.09259
G1 X120.7 Y103.8 E176.65914
G1 X120.7 Y103.2 E176.68908
G1 X89.3 Y103.2 E178.25563
G1 X89.3 Y102.6 E178.28556
G1 X120.7 Y102.6 E179.85212
G1 X120.7 Y102 E179.88205
G1 X89.3 Y102 E181.4486
G1 X89.3 Y101.4 E181.47854
G1 X120.7 Y101.4 E183.04509
G1 X120.7 Y100.8 E183.07502
G1 X89.3 Y100.8 E184.64158
G1 X89.3 Y100.2 E184.67151
G1 X120.7 Y100.2 E186.23806
G1 X120.7 Y99.6 E186.268
G1 X89.3 Y99.6 E187.83455
G1 X89.3 Y99 E187.86448
G1 X120.7 Y99 E189.43103
G1 X120.7 Y98.4 E189.46097
G1 X89.3 Y98.4 E191.02752
G1 X89.3 Y97.8 E191.05746
G1 X120.7 Y97.8 E192.62401
G1 X120.7 Y97.2 E192.65394
G1 X89.3 Y97.2 E194.22049
G1 X89.3 Y96.6 E194.25043
G1 X120.7 Y96.6 E195.81698
G1 X120.7 Y96 E195.84691
G1 X89.3 Y96 E197.41347
G1 X89.3 Y95.4 E197.4434
G1 X120.7 Y95.4 E199.00995
G1 X120.7 Y94.8 E199.03989
G1 X89.3 Y94.8 E200.60644
G1 X89.3 Y94.2 E200.63637
G1 X120.7 Y94.2 E202.20293
G1 X120.7 Y94.076 E202.20911
G1 X120.671 Y93.6 E202.2329
G1 X89.326 Y93.6 E203.79671
G1 X89.328 Y93.552 E203.79911
G1 X89.416 Y93 E203.827
G1 X120.582 Y93 E205.38188
G1 X120.557 Y92.859 E205.38902
G1 X120.412 Y92.4 E205.41303
G1 X89.584 Y92.4 E206.95105
G1 X89.586 Y92.391 E206.95151
G1 X89.697 Y92.114 E206.9664
G1 X89.854 Y91.8 E206.98391
G1 X120.15 Y91.8 E208.49539
G1 X120.097 Y91.687 E208.50161
G1 X119.914 Y91.374 E208.5197
G1 X119.789 Y91.2 E208.53039
G1 X90.204 Y91.2 E210.00639
G1 X90.292 Y91.065 E210.01443
G1 X90.663 Y90.611 E210.04368
G1 X90.675 Y90.6 E210.04449
G1 X119.316 Y90.6 E211.4734
G1 X119.073 Y90.347 E211.4909
G1 X118.646 Y90 E211.51835
G1 X91.377 Y90 E212.87881
G1 X91.69 Y89.776 E212.89801
G1 X92.341 Y89.4 E212.93552
G1 X117.673 Y89.4 E214.19934
G1 X116.633 Y88.8 E214.25924
G1 X93.379 Y88.8 E215.41938
G1 X94.417 Y88.2 E215.4792
G1 X115.593 Y88.2 E216.53567
G1 X114.554 Y87.6 E216.59553
G1 X95.455 Y87.6 E217.54838
G1 X96.494 Y87 E217.60824
G1 X113.514 Y87 E218.45737
G1 X112.475 Y86.4 E218.51723
G1 X97.532 Y86.4 E219.26274
G1 X98.57 Y85.8 E219.32256
G1 X111.435 Y85.8 E219.96439
G1 X110.396 Y85.2 E220.02425
G1 X99.608 Y85.2 E220.56247
G1 X100.646 Y84.6 E220.62228
G1 X109.356 Y84.6 E221.05683
G1 X108.317 Y84 E221.11669
G1 X101.684 Y84 E221.44761
G1 X102.476 Y83.542 E221.49325
G1 X102.758 Y83.4 E221.509
G1 X107.235 Y83.4 E221.73236
M204 S4000
M205 X30 Y30
G0 F12000 X106.972 Y83.269
M204 S3000
M205 X8 Y8
G1 F1500 X106.695 Y83.157 E221.74727
G1 X106.143 Y82.996 E221.77595
G1 X105.534 Y82.9 E221.80671
G1 X105.002 Y82.872 E221.83329
G1 X104.38 Y82.91 E221.86438
G1 X104.058 Y82.955 E221.8806
G1 X103.499 Y83.092 E221.90932
G1 X102.951 Y83.302 E221.93859
G1 X102.758 Y83.4 E221.94939
M204 S4000
M205 X30 Y30
G1 F2400 E217.94939
G0 F600 X102.758 Y83.4 Z0.94
G0 F12000 X89.399 Y107.317
;TIME_ELAPSED:122.214383
;LAYER:-3
M204 S3000
M205 X8 Y8
;TYPE:SUPPORT-INTERFACE
G1 F2400 E221.94939
G1 F1500 X89.442 Y107.564 E221.9619
G1 X89.623 Y108.135 E221.99179
G1 X89.898 Y108.728 E222.0244
G1 X89.999 Y108.902 E222.03443
G1 X89.999 Y91.511 E222.90208
G1 X90.291 Y91.064 E222.92871
G1 X90.599 Y90.687 E222.953
G1 X90.599 Y109.734 E223.90326
G1 X90.926 Y110.076 E223.92687
G1 X91.199 Y110.298 E223.94442
G1 X91.199 Y90.125 E224.95086
G1 X91.689 Y89.775 E224.9809
G1 X91.799 Y89.711 E224.98725
G1 X91.799 Y110.717 E226.03524
G1 X91.821 Y110.732 E226.03657
G1 X92.399 Y111.065 E226.06985
G1 X92.399 Y89.364 E227.15252
G1 X92.999 Y89.017 E227.1871
G1 X92.999 Y111.411 E228.30434
G1 X93.599 Y111.756 E228.33887
G1 X93.599 Y88.671 E229.49058
G1 X94.199 Y88.324 E229.52516
G1 X94.199 Y112.102 E230.71145
G1 X94.799 Y112.448 E230.74601
G1 X94.799 Y87.977 E231.96687
G1 X95.399 Y87.63 E232.00145
G1 X95.399 Y112.794 E233.25689
G1 X95.999 Y113.14 E233.29144
G1 X95.999 Y87.283 E234.58145
G1 X96.599 Y86.937 E234.61601
G1 X96.599 Y113.486 E235.94054
G1 X97.199 Y113.831 E235.97507
G1 X97.199 Y86.59 E237.33413
G1 X97.799 Y86.243 E237.36871
G1 X97.799 Y114.177 E238.76234
G1 X98.399 Y114.523 E238.7969
G1 X98.399 Y85.896 E240.2251
G1 X98.999 Y85.55 E240.25966
G1 X98.999 Y114.869 E241.72239
G1 X99.599 Y115.215 E241.75694
G1 X99.599 Y85.203 E243.25425
G1 X100.199 Y84.856 E243.28883
G1 X100.199 Y115.561 E244.82071
G1 X100.799 Y115.907 E244.85526
G1 X100.799 Y84.509 E246.42171
G1 X101.399 Y84.162 E246.45629
G1 X101.399 Y116.252 E248.05727
G1 X101.999 Y116.598 E248.09183
G1 X101.999 Y83.816 E249.72733
G1 X102.475 Y83.541 E249.75475
G1 X102.599 Y83.478 E249.76169
G1 X102.599 Y116.944 E251.43132
G1 X102.617 Y116.955 E251.43237
G1 X103.199 Y117.219 E251.46425
G1 X103.199 Y83.205 E253.16122
G1 X103.498 Y83.091 E253.17718
G1 X103.799 Y83.017 E253.19265
G1 X103.799 Y117.411 E254.90857
G1 X103.856 Y117.428 E254.91154
G1 X104.399 Y117.513 E254.93896
G1 X104.399 Y82.907 E256.66546
G1 X104.999 Y82.871 E256.69545
G1 X104.999 Y117.552 E258.42569
G1 X105.599 Y117.516 E258.45568
G1 X105.599 Y82.91 E260.18218
G1 X106.142 Y82.995 E260.2096
G1 X106.199 Y83.012 E260.21256
