;FLAVOR:Marlin
;TIME:6029
;Filament used: 9.55197m, 0m, 0m, 0m
;Layer height: 0.25
;MINX:61.55
;MINY:59.55
;MINZ:0.2
;MAXX:148.45
;MAXY:124.45
;MAXZ:9.915
;Generated with Cura_SteamEngine 4.6.1
T0
M140 S60
M105
M190 S60
M104 S200
M105
M109 S200
M82 ;absolute extrusion mode
G28
G29
M501
M420 S1
G92 E0 ;zero the extruded length
G1 F200 E3 ;extrude 3mm of feed stock
G92 E0 ;zero the extruded length again
G1 F200
M117 Printing...
G5
G92 E0
G92 E0
G1 F2400 E-4
;LAYER_COUNT:66
;LAYER:0
M107
M204 S4000
M205 X30 Y30
G1 F600 Z0.275
G0 F3600 X141.568 Y61.121 Z0.275
M204 S3000
M205 X8 Y8
;TYPE:SKIRT
G1 F600 Z0.2
G1 F2400 E0
G1 F1800 X142.223 Y61.17 E0.0426
G1 X142.866 Y61.298 E0.08512
G1 X143.49 Y61.504 E0.12774
G1 X144.083 Y61.784 E0.17027
G1 X144.638 Y62.134 E0.21283
G1 X145.147 Y62.549 E0.25542
G1 X145.601 Y63.023 E0.29799
G1 X145.995 Y63.549 E0.34062
G1 X146.321 Y64.118 E0.38315
G1 X146.576 Y64.723 E0.42573
G1 X146.756 Y65.354 E0.46829
G1 X146.857 Y66.002 E0.51082
G1 X146.888 Y66.678 E0.55471
G1 X146.89 Y116.764 E3.80315
G1 X146.879 Y117.565 E3.85511
G1 X146.831 Y118.22 E3.8977
G1 X146.702 Y118.863 E3.94024
G1 X146.497 Y119.487 E3.98284
G1 X146.217 Y120.081 E4.02543
G1 X145.867 Y120.636 E4.06798
G1 X145.453 Y121.145 E4.11054
G1 X144.979 Y121.599 E4.15311
G1 X144.454 Y121.993 E4.19568
G1 X143.885 Y122.32 E4.23824
G1 X143.28 Y122.575 E4.28082
G1 X142.649 Y122.755 E4.32338
G1 X142.001 Y122.857 E4.36593
G1 X141.322 Y122.888 E4.41001
G1 X69.138 Y122.89 E9.09167
G1 X68.44 Y122.881 E9.13694
G1 X67.785 Y122.832 E9.17954
G1 X67.141 Y122.705 E9.22211
G1 X66.518 Y122.5 E9.26465
G1 X65.924 Y122.22 E9.30724
G1 X65.368 Y121.871 E9.34982
G1 X64.859 Y121.457 E9.39237
G1 X64.404 Y120.984 E9.43494
G1 X64.01 Y120.459 E9.47751
G1 X63.682 Y119.89 E9.52011
G1 X63.427 Y119.286 E9.56263
G1 X63.246 Y118.655 E9.6052
G1 X63.144 Y118.006 E9.64781
G1 X63.112 Y117.304 E9.69339
G1 X63.11 Y67.174 E12.94468
G1 X63.121 Y66.428 E12.99307
G1 X63.17 Y65.773 E13.03567
G1 X63.299 Y65.13 E13.07821
G1 X63.506 Y64.507 E13.12079
G1 X63.786 Y63.913 E13.16338
G1 X64.137 Y63.358 E13.20597
G1 X64.552 Y62.85 E13.24851
G1 X65.026 Y62.396 E13.29108
G1 X65.552 Y62.003 E13.33366
G1 X66.121 Y61.677 E13.3762
G1 X66.726 Y61.423 E13.41875
G1 X67.358 Y61.244 E13.46136
G1 X68.006 Y61.143 E13.50389
G1 X68.678 Y61.112 E13.54752
G1 X140.793 Y61.11 E18.2247
G1 X141.158 Y61.116 E18.24838
G0 F1620 X141.568 Y61.121
M204 S4000
M205 X30 Y30
G0 F3600 X141.579 Y60.341
M204 S3000
M205 X8 Y8
G1 F1800 X142.28 Y60.391 E18.29396
G1 X142.97 Y60.52 E18.33949
G1 X143.641 Y60.727 E18.38503
G1 X144.285 Y61.009 E18.43063
G1 X144.892 Y61.362 E18.47617
G1 X145.455 Y61.782 E18.52172
G1 X145.966 Y62.263 E18.56724
G1 X146.42 Y62.799 E18.6128
G1 X146.81 Y63.383 E18.65834
G1 X147.131 Y64.007 E18.70385
G1 X147.379 Y64.665 E18.74946
G1 X147.55 Y65.346 E18.795
G1 X147.659 Y66.337 E18.85966
G1 X147.67 Y92.864 E20.58013
G1 X147.67 Y116.764 E22.13022
G1 X147.659 Y117.576 E22.18289
G1 X147.61 Y118.276 E22.2284
G1 X147.481 Y118.967 E22.27399
G1 X147.274 Y119.638 E22.31953
G1 X146.993 Y120.281 E22.36504
G1 X146.64 Y120.889 E22.41064
G1 X146.221 Y121.452 E22.45616
G1 X145.74 Y121.964 E22.50172
G1 X145.204 Y122.418 E22.54728
G1 X144.62 Y122.808 E22.59282
G1 X143.996 Y123.129 E22.63834
G1 X143.339 Y123.377 E22.68388
G1 X142.658 Y123.549 E22.72944
G1 X141.663 Y123.659 E22.79436
G1 X69.207 Y123.67 E27.49366
G1 X68.429 Y123.66 E27.54412
G1 X67.729 Y123.611 E27.58964
G1 X67.038 Y123.483 E27.63521
G1 X66.367 Y123.277 E27.68074
G1 X65.723 Y122.996 E27.72631
G1 X65.116 Y122.644 E27.77182
G1 X64.552 Y122.225 E27.81739
G1 X64.04 Y121.745 E27.8629
G1 X63.585 Y121.209 E27.9085
G1 X63.195 Y120.626 E27.954
G1 X62.873 Y120.002 E27.99954
G1 X62.624 Y119.345 E28.04511
G1 X62.452 Y118.664 E28.09066
G1 X62.341 Y117.658 E28.1563
G1 X62.33 Y117.158 E28.18874
G1 X62.33 Y67.174 E31.43057
G1 X62.341 Y66.416 E31.47973
G1 X62.391 Y65.716 E31.52525
G1 X62.521 Y65.026 E31.57079
G1 X62.728 Y64.355 E31.61633
G1 X63.011 Y63.712 E31.66189
G1 X63.364 Y63.105 E31.70744
G1 X63.784 Y62.542 E31.75299
G1 X64.266 Y62.031 E31.79855
G1 X64.802 Y61.577 E31.84411
G1 X65.387 Y61.188 E31.88967
G1 X66.011 Y60.868 E31.93516
G1 X66.669 Y60.62 E31.98076
G1 X67.35 Y60.449 E32.0263
G1 X68.337 Y60.341 E32.0907
G1 X140.793 Y60.33 E36.79
G1 X141.169 Y60.336 E36.81438
G0 F1620 X141.579 Y60.341
M204 S4000
M205 X30 Y30
G0 F3600 X141.591 Y59.561
M204 S3000
M205 X8 Y8
G1 F1800 X142.334 Y59.611 E36.86268
G1 X143.068 Y59.741 E36.91103
G1 X143.784 Y59.949 E36.95939
G1 X144.473 Y60.232 E37.0077
G1 X145.129 Y60.588 E37.0561
G1 X145.742 Y61.012 E37.10444
G1 X146.306 Y61.498 E37.15273
G1 X146.815 Y62.043 E37.2011
G1 X147.263 Y62.639 E37.24945
G1 X147.644 Y63.279 E37.29776
G1 X147.955 Y63.957 E37.34614
G1 X148.191 Y64.664 E37.39448
G1 X148.35 Y65.392 E37.44281
G1 X148.438 Y66.315 E37.50295
G1 X148.45 Y66.83 E37.53636
G1 X148.45 Y116.764 E40.77494
G1 X148.439 Y117.587 E40.82832
G1 X148.389 Y118.33 E40.87662
G1 X148.26 Y119.064 E40.92495
G1 X148.052 Y119.78 E40.97331
G1 X147.769 Y120.47 E41.02168
G1 X147.414 Y121.125 E41.07
G1 X146.991 Y121.739 E41.11836
G1 X146.504 Y122.303 E41.16669
G1 X145.96 Y122.813 E41.21505
G1 X145.364 Y123.261 E41.26341
G1 X144.724 Y123.643 E41.31175
G1 X144.047 Y123.954 E41.36007
G1 X143.34 Y124.19 E41.40841
G1 X142.612 Y124.35 E41.45675
G1 X141.685 Y124.438 E41.51715
G1 X141.17 Y124.45 E41.55056
G1 X69.207 Y124.45 E46.21788
G1 X68.419 Y124.44 E46.26899
G1 X67.676 Y124.391 E46.31728
G1 X66.942 Y124.262 E46.36562
G1 X66.225 Y124.055 E46.41402
G1 X65.536 Y123.773 E46.46231
G1 X64.88 Y123.418 E46.51068
G1 X64.266 Y122.995 E46.55904
G1 X63.701 Y122.509 E46.60738
G1 X63.191 Y121.966 E46.65569
G1 X62.742 Y121.37 E46.70409
G1 X62.36 Y120.73 E46.75243
G1 X62.049 Y120.053 E46.80075
G1 X61.811 Y119.347 E46.84907
G1 X61.651 Y118.619 E46.89741
G1 X61.562 Y117.679 E46.95865
G1 X61.55 Y117.158 E46.99245
G1 X61.55 Y67.174 E50.23428
G1 X61.561 Y66.405 E50.28416
G1 X61.612 Y65.661 E50.33252
G1 X61.742 Y64.927 E50.38087
G1 X61.951 Y64.211 E50.42924
G1 X62.235 Y63.522 E50.47758
G1 X62.591 Y62.867 E50.52593
G1 X63.015 Y62.254 E50.57427
G1 X63.502 Y61.69 E50.6226
G1 X64.047 Y61.182 E50.67092
G1 X64.643 Y60.734 E50.71928
G1 X65.284 Y60.353 E50.76764
G1 X65.962 Y60.043 E50.81599
G1 X66.669 Y59.807 E50.86433
G1 X67.397 Y59.649 E50.91265
G1 X68.315 Y59.562 E50.97246
G1 X68.83 Y59.55 E51.00587
G1 X140.793 Y59.55 E55.67319
G1 X141.181 Y59.556 E55.69836
G0 F1620 X141.591 Y59.561
M204 S4000
M205 X30 Y30
G1 F2400 E51.69836
;MESH:Stab2.stl(1)
G0 F3600 X141.886 Y65.218
G0 X142.013 Y75.005
G0 X138.632 Y75.036
M204 S3000
M205 X8 Y8
;TYPE:WALL-INNER
G1 F2400 E55.69836
G1 F1800 X138.19 Y74.855 E55.72933
G1 X137.849 Y74.715 E55.75324
G1 X137.077 Y74.542 E55.80455
G1 X136.146 Y74.518 E55.86496
G1 X135.454 Y74.636 E55.91049
G1 X134.761 Y74.852 E55.95756
G1 X134.013 Y75.273 E56.01323
G1 X133.423 Y75.809 E56.06493
G1 X132.937 Y76.43 E56.11608
G1 X132.579 Y77.105 E56.16563
G1 X132.321 Y77.922 E56.2212
G1 X132.234 Y78.787 E56.27758
G1 X132.295 Y79.508 E56.32451
G1 X132.47 Y80.179 E56.36949
G1 X132.781 Y80.868 E56.41852
G1 X133.247 Y81.523 E56.47065
G1 X133.63 Y81.961 E56.50839
G1 X134.142 Y82.383 E56.55142
G1 X134.705 Y82.709 E56.59362
G1 X135.369 Y82.971 E56.63991
G1 X136.282 Y83.124 E56.69995
G1 X137.232 Y83.066 E56.76168
G1 X138.006 Y82.836 E56.81405
G1 X138.031 Y82.829 E56.81573
G1 X138.599 Y82.545 E56.85692
G1 X138.77 Y82.427 E56.8704
G1 X138.77 Y82.545
G1 X138.77 Y82.829 E56.87797
G1 X138.77 Y82.856 E56.87968
G1 X138.77 Y88.77 E57.26325
G1 X109.023 Y88.77 E59.19256
G1 X108.858 Y88.77 E59.20326
G1 X107.86 Y88.77 E59.26798
G1 X106.878 Y88.77 E59.33167
G1 X106.472 Y88.77 E59.35801
G1 X105.5 Y88.77 E59.42105
G1 X104.295 Y88.77 E59.4992
G1 X103.119 Y88.77 E59.57547
G1 X102.069 Y88.77 E59.64357
G1 X102.067 Y88.77 E59.6437
G1 X71.23 Y88.77 E61.64371
G1 X71.23 Y82.933 E62.02228
G1 X71.23 Y82.709 E62.03681
G1 X71.23 Y82.434 E62.05464
G1 X71.705 Y82.709 E62.07384
G1 X71.913 Y82.791 E62.08599
G1 X72.369 Y82.971 E62.11778
G1 X73.282 Y83.124 E62.17782
G1 X74.232 Y83.066 E62.23955
G1 X75.031 Y82.829 E62.29361
G1 X75.599 Y82.545 E62.33479
G1 X76.147 Y82.167 E62.37797
G1 X76.722 Y81.573 E62.43159
G1 X77.103 Y81.092 E62.47139
G1 X77.465 Y80.387 E62.52279
G1 X77.676 Y79.708 E62.5689
G1 X77.779 Y78.961 E62.61781
G1 X77.721 Y78.023 E62.67876
G1 X77.52 Y77.32 E62.72618
G1 X77.242 Y76.688 E62.77096
G1 X76.829 Y76.078 E62.81874
G1 X76.347 Y75.552 E62.86501
G1 X75.632 Y75.036 E62.9222
G1 X74.849 Y74.715 E62.97708
G1 X74.077 Y74.542 E63.0284
G1 X73.146 Y74.518 E63.0888
G1 X72.454 Y74.636 E63.13433
G1 X71.922 Y74.802 E63.17047
G1 X71.761 Y74.852 E63.18141
G1 X71.23 Y75.151 E63.22093
G1 X71.23 Y74.852 E63.22323
G1 X71.23 Y74.683 E63.23279
G1 X71.23 Y69.23 E63.58646
G1 X138.77 Y69.23 E67.96692
G1 X138.77 Y74.558 E68.31248
G1 X138.77 Y75.036 E68.33289
G1 X138.77 Y75.136 E68.33938
G1 X138.632 Y75.036 E68.34326
M204 S4000
M205 X30 Y30
G1 F2400 E64.34326
G1 F600 Z0.275
G0 F3600 X102.068 Y87.991 Z0.275
M204 S3000
M205 X8 Y8
G1 F600 Z0.2
G1 F2400 E68.34326
G1 F1800 X102.069 Y87.991 E68.34333
G1 X103.119 Y88.329 E68.39983
G1 X104.295 Y88.562 E68.43281
G1 X105.5 Y88.642 E68.44975
G1 X106.472 Y88.589 E68.46231
G1 X106.878 Y88.551 E68.46914
G1 X107.86 Y88.362 E68.49573
G1 X108.858 Y88.055 E68.54511
G1 X109.01 Y87.993 E68.55532
G1 X109.298 Y87.875 E68.57551
G1 X110.174 Y87.385 E68.64061
G1 X110.966 Y86.836 E68.70311
G1 X111.472 Y86.438 E68.74486
G1 X112.369 Y85.554 E68.82654
G1 X113.005 Y84.737 E68.89369
G1 X113.257 Y84.353 E68.92348
G1 X113.773 Y83.307 E68.99913
G1 X114.161 Y82.21 E69.07459
G1 X114.414 Y81.081 E69.14963
G1 X114.53 Y79.934 E69.22441
G1 X114.508 Y78.846 E69.29498
G1 X114.353 Y77.678 E69.3714
G1 X114.061 Y76.585 E69.44478
G1 X113.654 Y75.557 E69.51649
G1 X113.126 Y74.587 E69.58811
G1 X112.489 Y73.689 E69.65952
G1 X111.751 Y72.873 E69.73088
G1 X110.924 Y72.158 E69.80178
G1 X110.042 Y71.563 E69.87079
G1 X109.387 Y71.215 E69.91889
G1 X108.965 Y71.025 E69.94891
G1 X108.273 Y70.763 E69.9969
G1 X107.177 Y70.476 E70.07038
G1 X106.506 Y70.395 E70.11421
G1 X106.294 Y70.349 E70.12828
G1 X105.293 Y70.264 E70.19344
G1 X104.295 Y70.287 E70.25818
G1 X103.102 Y70.461 E70.33638
G1 X102.052 Y70.764 E70.40725
G1 X101.071 Y71.187 E70.47654
G1 X100.176 Y71.706 E70.54364
G1 X99.342 Y72.334 E70.61135
G1 X98.473 Y73.176 E70.68983
G1 X97.766 Y74.087 E70.76462
G1 X97.221 Y75.017 E70.83453
G1 X96.89 Y75.735 E70.88581
G1 X96.548 Y76.753 E70.95546
G1 X96.328 Y77.874 E71.02956
G1 X96.283 Y78.551 E71.07356
G1 X96.252 Y78.747 E71.08643
G1 X96.218 Y79.791 E71.15418
G1 X96.31 Y80.839 E71.22241
G1 X96.527 Y81.874 E71.291
G1 X96.87 Y82.889 E71.36048
G1 X97.315 Y83.826 E71.42776
G1 X97.913 Y84.777 E71.50062
G1 X98.615 Y85.636 E71.57257
G1 X99.438 Y86.42 E71.64629
G1 X99.957 Y86.83 E71.68919
G1 X100.842 Y87.4 E71.75746
G1 X101.445 Y87.712 E71.8015
G1 X101.694 Y87.824 E71.8192
G0 F1620 X102.068 Y87.991
M204 S4000
M205 X30 Y30
G1 F2400 E67.8192
G0 F3600 X103.298 Y84.822
G0 X101.005 Y75.448
G0 X99.055 Y73.698
M204 S3000
M205 X8 Y8
G1 F2400 E71.8192
G1 F1800 X98.413 Y74.525 E71.8871
G1 X97.913 Y75.378 E71.95123
G1 X97.616 Y76.023 E71.99729
G1 X97.304 Y76.953 E72.06091
G1 X97.103 Y77.975 E72.12846
G1 X97.059 Y78.639 E72.17162
G1 X97.03 Y78.821 E72.18357
G1 X96.999 Y79.769 E72.24509
G1 X97.083 Y80.724 E72.30727
G1 X97.281 Y81.669 E72.36989
G1 X97.594 Y82.596 E72.43335
G1 X98 Y83.45 E72.49468
G1 X98.548 Y84.321 E72.56142
G1 X99.188 Y85.105 E72.62706
G1 X99.949 Y85.83 E72.69523
G1 X100.411 Y86.194 E72.73337
G1 X101.233 Y86.724 E72.79681
G1 X101.784 Y87.009 E72.83704
G1 X102.349 Y87.262 E72.87719
G1 X103.315 Y87.573 E72.94301
G1 X104.397 Y87.787 E73.01455
G1 X105.505 Y87.861 E73.08657
G1 X106.414 Y87.811 E73.14561
G1 X106.768 Y87.778 E73.16867
G1 X107.671 Y87.604 E73.22831
G1 X108.595 Y87.32 E73.29101
G1 X108.959 Y87.171 E73.31652
G1 X109.761 Y86.723 E73.3761
G1 X110.502 Y86.209 E73.43459
G1 X110.955 Y85.852 E73.472
G1 X111.785 Y85.034 E73.54758
G1 X112.37 Y84.283 E73.60932
G1 X112.578 Y83.965 E73.63396
G1 X113.053 Y83.003 E73.70355
G1 X113.41 Y81.994 E73.77296
G1 X113.643 Y80.956 E73.84196
G1 X113.749 Y79.903 E73.9106
G1 X113.729 Y78.905 E73.97534
G1 X113.586 Y77.831 E74.04561
G1 X113.319 Y76.83 E74.1128
G1 X112.946 Y75.888 E74.17852
G1 X112.463 Y75 E74.24408
G1 X111.88 Y74.178 E74.30944
G1 X111.205 Y73.432 E74.37469
G1 X110.449 Y72.779 E74.43948
G1 X109.64 Y72.233 E74.50278
G1 X109.043 Y71.916 E74.54662
G1 X108.666 Y71.746 E74.57344
G1 X108.035 Y71.507 E74.6172
G1 X107.031 Y71.244 E74.68452
G1 X106.368 Y71.164 E74.72783
G1 X106.177 Y71.122 E74.74051
G1 X105.269 Y71.045 E74.79961
G1 X104.36 Y71.066 E74.85859
G1 X103.267 Y71.225 E74.93022
G1 X102.316 Y71.5 E74.99443
G1 X101.422 Y71.885 E75.05756
G1 X100.608 Y72.357 E75.11858
G1 X99.85 Y72.928 E75.18013
G1 X99.349 Y73.413 E75.22536
G0 F1620 X99.055 Y73.698
M204 S4000
M205 X30 Y30
G1 F2400 E71.22536
G1 F600 Z0.275
G0 F3600 X138.251 Y75.723 Z0.275
M204 S3000
M205 X8 Y8
G1 F600 Z0.2
G1 F2400 E75.22536
G1 F1800 X137.614 Y75.462 E75.27001
G1 X136.981 Y75.32 E75.31208
G1 X136.202 Y75.3 E75.36262
G1 X135.636 Y75.396 E75.39986
G1 X135.072 Y75.572 E75.43818
G1 X134.472 Y75.91 E75.48284
G1 X133.996 Y76.342 E75.52453
G1 X133.594 Y76.856 E75.56685
G1 X133.301 Y77.408 E75.60738
G1 X133.089 Y78.08 E75.65308
G1 X133.017 Y78.793 E75.69956
G1 X133.067 Y79.376 E75.73751
G1 X133.208 Y79.918 E75.77384
G1 X133.461 Y80.478 E75.81369
G1 X133.86 Y81.039 E75.85834
G1 X134.175 Y81.399 E75.88937
G1 X134.589 Y81.74 E75.92415
G1 X135.046 Y82.005 E75.95841
G1 X135.579 Y82.215 E75.99557
G1 X136.323 Y82.34 E76.0445
G1 X137.096 Y82.293 E76.09473
G1 X137.743 Y82.101 E76.1385
G1 X138.201 Y81.872 E76.17171
G1 X138.64 Y81.569 E76.2063
G1 X138.822 Y81.381 E76.22328
G1 X139.135 Y81.058 E76.25245
G1 X139.444 Y80.668 E76.28472
G1 X139.55 Y80.461 E76.2998
G1 X139.55 Y80.668 E76.30032
G1 X139.55 Y81.058 E76.30752
G1 X139.55 Y81.508 E76.33038
G1 X139.55 Y89.55 E76.85196
G1 X70.45 Y89.55 E81.3336
G1 X70.45 Y81.457 E81.85849
G1 X70.45 Y81.399 E81.86225
G1 X70.45 Y81.039 E81.8856
G1 X70.45 Y80.478 E81.92199
G1 X70.45 Y80.454 E81.92354
G1 X70.461 Y80.478
G1 X70.86 Y81.039 E81.94
G1 X71.175 Y81.399 E81.96408
G1 X71.219 Y81.435 E81.96765
G1 X71.589 Y81.74 E81.99875
G1 X72.046 Y82.005 E82.03301
G1 X72.579 Y82.215 E82.07017
G1 X73.323 Y82.34 E82.1191
G1 X74.096 Y82.293 E82.16932
G1 X74.743 Y82.101 E82.2131
G1 X75.201 Y81.872 E82.24631
G1 X75.64 Y81.569 E82.2809
G1 X76.135 Y81.058 E82.32704
G1 X76.444 Y80.668 E82.35932
G1 X76.74 Y80.091 E82.40138
G1 X76.912 Y79.538 E82.43894
G1 X76.996 Y78.931 E82.47868
G1 X76.948 Y78.156 E82.52904
G1 X76.785 Y77.585 E82.56755
G1 X76.557 Y77.067 E82.60426
G1 X76.215 Y76.563 E82.64376
G1 X75.826 Y76.138 E82.68113
G1 X75.251 Y75.723 E82.72712
G1 X74.614 Y75.462 E82.77177
G1 X73.981 Y75.32 E82.81384
G1 X73.202 Y75.3 E82.86439
G1 X72.636 Y75.396 E82.90162
G1 X72.072 Y75.572 E82.93994
G1 X71.472 Y75.91 E82.9846
G1 X71.191 Y76.165 E83.00921
G1 X70.996 Y76.342 E83.02629
G1 X70.594 Y76.856 E83.06861
G1 X70.45 Y77.127 E83.08852
G1 X70.45 Y76.856 E83.08961
G1 X70.45 Y76.342 E83.103
G1 X70.45 Y76.078 E83.11778
G1 X70.45 Y68.45 E83.61251
G1 X139.55 Y68.45 E88.09414
G1 X139.55 Y76.084 E88.58927
G1 X139.55 Y76.138 E88.59277
G1 X139.55 Y76.563 E88.62033
G1 X139.55 Y77.057 E88.65237
G1 X139.215 Y76.563 E88.66448
G1 X138.826 Y76.138 E88.69212
G1 X138.783 Y76.107 E88.69545
G1 X138.251 Y75.723 E88.738
M204 S4000
M205 X30 Y30
G0 F3600 X137.87 Y76.41
M204 S3000
M205 X8 Y8
G1 F1800 X137.379 Y76.209 E88.77241
G1 X136.885 Y76.098 E88.80525
G1 X136.257 Y76.082 E88.84599
G1 X135.818 Y76.156 E88.87487
G1 X135.383 Y76.292 E88.90443
G1 X134.931 Y76.547 E88.93809
G1 X134.569 Y76.875 E88.96977
G1 X134.251 Y77.282 E89.00327
G1 X134.023 Y77.711 E89.03478
G1 X133.857 Y78.238 E89.07061
G1 X133.8 Y78.799 E89.10719
G1 X133.838 Y79.243 E89.13609
G1 X133.946 Y79.657 E89.16384
G1 X134.141 Y80.088 E89.19452
G1 X134.473 Y80.555 E89.23168
G1 X134.72 Y80.837 E89.25599
G1 X135.036 Y81.097 E89.28253
G1 X135.387 Y81.301 E89.30887
