;FLAVOR:Marlin
;TIME:3838
;Filament used: 3.97758m
;Layer height: 0.2
;MINX:75.104
;MINY:89.698
;MINZ:0.3
;MAXX:134.778
;MAXY:120.302
;MAXZ:47.9
;Generated with Cura_SteamEngine 4.8.0
M140 S60
M105
M190 S60
M104 S215
M105
M109 S215
M82 ;absolute extrusion mode
M140 S60
M105
M190 S60
M104 S200
M105
M109 S200
M82 ;absolute extrusion mode
G28
G29
M501
G92 E0 ;zero the extruded length
G1 F200 E3 ;extrude 3mm of feed stock
G92 E0 ;zero the extruded length again
G1 F100
M117 Printing...
G92 E0
G92 E0
;LAYER_COUNT:239
;LAYER:0
M107
G0 F2700 X76.968 Y95.827 Z0.3
;TYPE:SKIRT
G1 F1800 X77.374 Y95.502 E0.02595
G1 X77.793 Y95.212 E0.05137
G1 X78.282 Y94.928 E0.07958
G1 X78.894 Y94.683 E0.11247
G1 X79.201 Y94.58 E0.12862
G1 X79.882 Y94.419 E0.16354
G1 X80.435 Y94.348 E0.19135
G1 X81.337 Y94.278 E0.23649
G1 X103.372 Y92.933 E1.33787
G1 X104.181 Y92.896 E1.37827
G1 X104.322 Y92.892 E1.38531
G1 X105.181 Y92.883 E1.42816
G1 X105.341 Y92.885 E1.43615
G1 X105.918 Y92.902 E1.46495
G1 X106.081 Y92.91 E1.47309
G1 X106.777 Y92.959 E1.5079
G1 X107.37 Y93.021 E1.53764
G1 X108.02 Y93.115 E1.57041
G1 X108.174 Y93.141 E1.5782
G1 X108.899 Y93.277 E1.615
G1 X109.468 Y93.401 E1.64406
G1 X109.634 Y93.442 E1.65259
G1 X110.23 Y93.602 E1.68337
G1 X110.365 Y93.641 E1.69039
G1 X110.887 Y93.801 E1.71762
G1 X111.423 Y93.983 E1.74586
G1 X111.565 Y94.034 E1.75339
G1 X112.24 Y94.295 E1.7895
G1 X112.814 Y94.541 E1.82065
G1 X113.312 Y94.774 E1.84808
G1 X113.432 Y94.833 E1.85476
G1 X113.921 Y95.082 E1.88213
G1 X114.489 Y95.395 E1.91449
G1 X114.93 Y95.657 E1.94008
G1 X115.047 Y95.73 E1.94696
G1 X115.697 Y96.151 E1.9856
G1 X116.199 Y96.499 E2.01607
G1 X116.61 Y96.805 E2.04163
G1 X116.743 Y96.909 E2.05006
G1 X117.152 Y97.243 E2.0764
G1 X117.629 Y97.657 E2.10791
G1 X117.733 Y97.752 E2.11494
G1 X118.368 Y98.349 E2.15842
G1 X118.684 Y98.669 E2.18086
G1 X119.144 Y99.168 E2.21472
G1 X119.25 Y99.288 E2.22271
G1 X119.71 Y99.829 E2.25814
G1 X119.805 Y99.945 E2.26562
G1 X120.172 Y100.411 E2.29521
G1 X120.516 Y100.878 E2.32415
G1 X120.801 Y101.295 E2.34935
G1 X120.878 Y101.413 E2.35637
G1 X121.316 Y102.11 E2.39744
G1 X121.598 Y102.645 E2.42762
G1 X121.803 Y103.117 E2.45329
G1 X121.991 Y103.65 E2.48149
G1 X122.118 Y104.357 E2.51732
G1 X122.142 Y104.628 E2.5309
G1 X122.145 Y105.3 E2.56442
G1 X122.125 Y105.55 E2.57694
G1 X121.992 Y106.304 E2.61513
G1 X121.911 Y106.595 E2.6302
G1 X121.721 Y107.127 E2.65839
G1 X121.398 Y107.752 E2.69349
G1 X121.081 Y108.282 E2.7243
G1 X120.76 Y108.765 E2.75323
G1 X120.681 Y108.88 E2.76019
G1 X120.265 Y109.461 E2.79584
G1 X120.169 Y109.589 E2.80382
G1 X119.754 Y110.122 E2.83753
G1 X119.414 Y110.532 E2.8641
G1 X119.322 Y110.638 E2.8711
G1 X118.98 Y111.018 E2.89661
G1 X118.888 Y111.117 E2.90335
G1 X118.497 Y111.523 E2.93147
G1 X118.079 Y111.931 E2.96061
G1 X117.967 Y112.036 E2.96827
G1 X117.385 Y112.558 E3.00728
G1 X116.987 Y112.895 E3.03329
G1 X116.536 Y113.253 E3.06202
G1 X116.047 Y113.607 E3.09214
G1 X115.273 Y114.125 E3.1386
G1 X115.134 Y114.214 E3.14684
G1 X114.658 Y114.505 E3.17467
G1 X114.19 Y114.773 E3.20158
G1 X114.073 Y114.837 E3.20823
G1 X113.615 Y115.077 E3.23403
G1 X113.126 Y115.316 E3.26118
G1 X112.991 Y115.378 E3.26859
G1 X112.289 Y115.686 E3.30684
G1 X111.774 Y115.891 E3.33449
G1 X111.223 Y116.088 E3.36369
G1 X111.082 Y116.135 E3.3711
G1 X110.348 Y116.367 E3.40951
G1 X109.879 Y116.497 E3.43379
G1 X109.041 Y116.697 E3.47677
G1 X108.576 Y116.791 E3.50044
G1 X107.925 Y116.903 E3.53339
G1 X107.361 Y116.98 E3.56179
G1 X106.617 Y117.055 E3.5991
G1 X106.468 Y117.067 E3.60656
G1 X105.962 Y117.099 E3.63185
G1 X105.34 Y117.119 E3.6629
G1 X105.198 Y117.12 E3.66999
G1 X104.466 Y117.114 E3.70651
G1 X104.339 Y117.111 E3.71284
G1 X103.556 Y117.079 E3.75194
G1 X81.128 Y115.707 E4.87297
G1 X80.59 Y115.666 E4.89989
G1 X80.228 Y115.622 E4.91808
G1 X79.6 Y115.516 E4.94986
G1 X79.051 Y115.383 E4.97804
G1 X78.492 Y115.157 E5.00812
G1 X77.971 Y114.893 E5.03726
G1 X77.492 Y114.593 E5.06546
G1 X76.814 Y114.003 E5.1103
G1 X76.532 Y113.716 E5.13037
G1 X76.058 Y113.082 E5.16986
G1 X75.766 Y112.581 E5.19879
G1 X75.524 Y112.07 E5.227
G1 X75.365 Y111.575 E5.25294
G1 X75.237 Y111.053 E5.27975
G1 X75.14 Y110.431 E5.31116
G1 X75.121 Y110.083 E5.32855
G1 X75.104 Y108.922 E5.38648
G1 X75.104 Y100.743 E5.79453
G1 X75.114 Y100.058 E5.82871
G1 X75.194 Y99.239 E5.86976
G1 X75.292 Y98.718 E5.89621
G1 X75.485 Y98.079 E5.92951
G1 X75.725 Y97.504 E5.9606
G1 X75.991 Y97.005 E5.98881
G1 X76.282 Y96.597 E6.01381
G1 X76.578 Y96.236 E6.0371
G1 X76.968 Y95.827 E6.0653
G0 F2700 X77.258 Y96.105
G1 F1800 X77.747 Y95.727 E6.09613
G1 X78.018 Y95.543 E6.11248
G1 X78.483 Y95.275 E6.13925
G1 X79.029 Y95.059 E6.16855
G1 X79.326 Y94.959 E6.18418
G1 X79.939 Y94.815 E6.2156
G1 X80.466 Y94.747 E6.24211
G1 X81.362 Y94.678 E6.28694
G1 X103.391 Y93.333 E7.38802
G1 X104.2 Y93.296 E7.42842
G1 X104.326 Y93.292 E7.43471
G1 X105.185 Y93.283 E7.47757
G1 X105.329 Y93.285 E7.48475
G1 X105.906 Y93.302 E7.51355
G1 X106.053 Y93.309 E7.52089
G1 X106.749 Y93.358 E7.5557
G1 X107.326 Y93.419 E7.58465
G1 X107.453 Y93.435 E7.59104
G1 X107.962 Y93.51 E7.61671
G1 X108.101 Y93.534 E7.62374
G1 X108.946 Y93.694 E7.66665
G1 X109.53 Y93.828 E7.69654
G1 X110.126 Y93.988 E7.72733
G1 X110.248 Y94.023 E7.73366
G1 X110.77 Y94.183 E7.7609
G1 X111.293 Y94.361 E7.78846
G1 X111.42 Y94.407 E7.7952
G1 X112.095 Y94.668 E7.83131
G1 X112.645 Y94.903 E7.86115
G1 X113.143 Y95.136 E7.88858
G1 X113.251 Y95.189 E7.89458
G1 X113.74 Y95.438 E7.92196
G1 X114.295 Y95.744 E7.95357
G1 X114.829 Y96.065 E7.98466
G1 X115.479 Y96.486 E8.0233
G1 X115.969 Y96.827 E8.05308
G1 X116.49 Y97.219 E8.08561
G1 X116.899 Y97.553 E8.11195
G1 X117.365 Y97.958 E8.14275
G1 X117.459 Y98.043 E8.14908
G1 X118.094 Y98.64 E8.19256
G1 X118.39 Y98.94 E8.21359
G1 X118.85 Y99.439 E8.24744
G1 X118.946 Y99.547 E8.25465
G1 X119.406 Y100.088 E8.29008
G1 X119.491 Y100.193 E8.29682
G1 X119.858 Y100.659 E8.32642
G1 X120.192 Y101.114 E8.35457
G1 X120.539 Y101.626 E8.38543
G1 X120.977 Y102.323 E8.4265
G1 X121.231 Y102.804 E8.45364
G1 X121.436 Y103.276 E8.47931
G1 X121.612 Y103.782 E8.50604
G1 X121.72 Y104.392 E8.53695
G1 X121.744 Y104.663 E8.55052
G1 X121.747 Y105.268 E8.5807
G1 X121.727 Y105.518 E8.59322
G1 X121.606 Y106.196 E8.62758
G1 X121.525 Y106.487 E8.64265
G1 X121.343 Y106.992 E8.66943
G1 X121.046 Y107.56 E8.7014
G1 X120.748 Y108.061 E8.73049
G1 X120.427 Y108.544 E8.75942
G1 X120.356 Y108.647 E8.76566
G1 X119.94 Y109.228 E8.80131
G1 X119.854 Y109.344 E8.80852
G1 X119.439 Y109.877 E8.84222
G1 X119.108 Y110.275 E8.86804
G1 X119.025 Y110.37 E8.87434
G1 X118.683 Y110.75 E8.89984
G1 X118.6 Y110.839 E8.90591
G1 X118.121 Y111.334 E8.94028
G1 X117.7 Y111.738 E8.96939
G1 X117.118 Y112.26 E9.00839
G1 X116.729 Y112.589 E9.03381
G1 X116.288 Y112.939 E9.0619
G1 X115.824 Y113.275 E9.09048
G1 X115.05 Y113.793 E9.13695
G1 X114.926 Y113.872 E9.14428
G1 X114.349 Y114.223 E9.17798
G1 X113.887 Y114.483 E9.20442
G1 X113.429 Y114.723 E9.23022
G1 X112.952 Y114.955 E9.25668
G1 X112.83 Y115.012 E9.2634
G1 X112.128 Y115.32 E9.30165
G1 X111.639 Y115.514 E9.32789
G1 X111.088 Y115.711 E9.35709
G1 X110.961 Y115.754 E9.36378
G1 X110.227 Y115.986 E9.40218
G1 X109.785 Y116.108 E9.42506
G1 X108.959 Y116.305 E9.46742
G1 X108.508 Y116.397 E9.49039
G1 X107.857 Y116.509 E9.52334
G1 X107.321 Y116.582 E9.55033
G1 X106.577 Y116.657 E9.58764
G1 X106.443 Y116.668 E9.59435
G1 X105.937 Y116.7 E9.61964
G1 X105.329 Y116.719 E9.64999
G1 X105.201 Y116.72 E9.65637
G1 X104.469 Y116.714 E9.6929
G1 X103.656 Y116.683 E9.73349
G1 X81.158 Y115.309 E10.85801
G1 X80.62 Y115.268 E10.88493
G1 X80.295 Y115.228 E10.90126
G1 X79.667 Y115.122 E10.93304
G1 X79.146 Y114.993 E10.95981
G1 X78.669 Y114.799 E10.9855
G1 X78.159 Y114.54 E11.01404
G1 X77.705 Y114.253 E11.04084
G1 X77.085 Y113.709 E11.08199
G1 X76.827 Y113.446 E11.10037
G1 X76.401 Y112.876 E11.13587
G1 X76.115 Y112.385 E11.16422
G1 X75.887 Y111.899 E11.191
G1 X75.709 Y111.311 E11.22165
G1 X75.626 Y110.961 E11.2396
G1 X75.539 Y110.401 E11.26787
G1 X75.521 Y110.077 E11.28406
G1 X75.504 Y108.916 E11.34199
G1 X75.504 Y100.748 E11.74949
G1 X75.514 Y100.063 E11.78367
G1 X75.591 Y99.291 E11.82238
G1 X75.683 Y98.801 E11.84725
G1 X75.857 Y98.226 E11.87722
G1 X76.091 Y97.667 E11.90746
G1 X76.345 Y97.194 E11.93424
G1 X76.683 Y96.736 E11.96264
G1 X76.886 Y96.491 E11.97851
G1 X77.258 Y96.105 E12.00526
G0 F2700 X77.742 Y96.225
G1 F1800 X78.242 Y95.874 E12.03574
G1 X78.682 Y95.624 E12.06098
G1 X79.164 Y95.435 E12.08681
G1 X79.452 Y95.339 E12.10196
G1 X79.996 Y95.211 E12.12984
G1 X80.497 Y95.146 E12.15505
G1 X81.386 Y95.077 E12.19953
G1 X103.409 Y93.732 E13.30031
G1 X104.218 Y93.695 E13.34071
G1 X104.33 Y93.692 E13.3463
G1 X105.189 Y93.683 E13.38916
G1 X105.317 Y93.684 E13.39555
G1 X105.894 Y93.701 E13.42435
G1 X106.025 Y93.708 E13.43089
G1 X106.721 Y93.757 E13.4657
G1 X107.281 Y93.817 E13.4938
G1 X107.394 Y93.831 E13.49948
G1 X107.903 Y93.906 E13.52515
G1 X108.027 Y93.927 E13.53142
G1 X108.752 Y94.063 E13.56822
G1 X109.293 Y94.182 E13.59586
G1 X109.427 Y94.214 E13.60273
G1 X110.023 Y94.374 E13.63352
G1 X110.131 Y94.405 E13.63913
G1 X110.653 Y94.565 E13.66637
G1 X111.163 Y94.739 E13.69325
G1 X111.276 Y94.78 E13.69925
G1 X111.951 Y95.041 E13.73535
G1 X112.475 Y95.266 E13.7638
G1 X113.069 Y95.545 E13.79654
G1 X113.558 Y95.794 E13.82392
G1 X114.1 Y96.094 E13.85483
G1 X114.612 Y96.401 E13.88461
G1 X115.262 Y96.822 E13.92325
G1 X115.739 Y97.154 E13.95224
G1 X116.237 Y97.528 E13.98331
G1 X116.646 Y97.862 E14.00966
G1 X117.102 Y98.259 E14.03982
G1 X117.82 Y98.932 E14.08892
G1 X118.096 Y99.211 E14.1085
G1 X118.556 Y99.71 E14.14236
G1 X118.641 Y99.806 E14.14875
G1 X119.101 Y100.347 E14.18418
G1 X119.177 Y100.44 E14.19017
G1 X119.544 Y100.906 E14.21977
G1 X119.869 Y101.349 E14.24718
G1 X120.2 Y101.838 E14.27664
G1 X120.638 Y102.535 E14.31771
G1 X120.864 Y102.963 E14.34186
G1 X121.069 Y103.435 E14.36753
G1 X121.233 Y103.913 E14.39274
G1 X121.322 Y104.428 E14.41882
G1 X121.346 Y104.699 E14.43239
G1 X121.348 Y105.236 E14.45918
G1 X121.328 Y105.486 E14.47169
G1 X121.221 Y106.089 E14.50225
G1 X121.14 Y106.38 E14.51732
G1 X120.868 Y107.051 E14.55344
G1 X120.509 Y107.689 E14.58996
G1 X120.415 Y107.839 E14.59879
G1 X120.031 Y108.414 E14.63329
G1 X119.615 Y108.995 E14.66894
G1 X119.538 Y109.098 E14.67535
G1 X119.123 Y109.631 E14.70906
G1 X118.801 Y110.018 E14.73417
G1 X118.728 Y110.103 E14.73976
G1 X118.386 Y110.483 E14.76527
G1 X117.921 Y110.968 E14.79879
G1 X117.523 Y111.356 E14.82652
G1 X117.433 Y111.44 E14.83266
G1 X116.851 Y111.962 E14.87167
G1 X116.397 Y112.344 E14.90127
G1 X115.928 Y112.709 E14.93092
G1 X115.602 Y112.942 E14.95091
G1 X114.828 Y113.46 E14.99737
G1 X114.717 Y113.531 E15.00395
G1 X114.241 Y113.822 E15.03178
G1 X113.795 Y114.077 E15.05741
G1 X113.243 Y114.368 E15.08854
G1 X112.778 Y114.595 E15.11436
G1 X112.67 Y114.645 E15.1203
G1 X111.968 Y114.953 E15.15854
G1 X111.504 Y115.137 E15.18345
G1 X110.953 Y115.334 E15.21264
G1 X110.84 Y115.372 E15.21859
G1 X110.106 Y115.604 E15.25699
G1 X109.692 Y115.719 E15.27843
G1 X108.877 Y115.914 E15.32024
G1 X108.441 Y116.003 E15.34244
G1 X107.79 Y116.115 E15.37539
G1 X107.281 Y116.184 E15.40102
G1 X106.537 Y116.259 E15.43833
G1 X106.418 Y116.269 E15.44428
G1 X105.912 Y116.301 E15.46958
G1 X105.318 Y116.319 E15.49923
G1 X105.205 Y116.32 E15.50486
G1 X104.473 Y116.314 E15.54139
G1 X103.605 Y116.28 E15.58472
G1 X81.189 Y114.91 E16.70515
G1 X80.651 Y114.869 E16.73207
G1 X80.361 Y114.833 E16.74665
G1 X79.733 Y114.727 E16.77842
G1 X79.243 Y114.604 E16.80363
G1 X78.556 Y114.296 E16.84119
G1 X78.347 Y114.186 E16.85297
G1 X77.92 Y113.915 E16.8782
G1 X77.356 Y113.415 E16.91581
G1 X77.122 Y113.176 E16.93249
G1 X76.743 Y112.669 E16.96407
G1 X76.463 Y112.188 E16.99184
G1 X76.173 Y111.493 E17.02941
G1 X76.015 Y110.868 E17.06157
G1 X75.938 Y110.371 E17.08666
G1 X75.921 Y110.071 E17.10166
G1 X75.904 Y108.91 E17.15958
G1 X75.904 Y100.754 E17.56649
G1 X75.914 Y100.069 E17.60067
G1 X75.987 Y99.342 E17.63712
G1 X76.074 Y98.885 E17.66033
G1 X76.229 Y98.373 E17.68702
G1 X76.456 Y97.829 E17.71643
G1 X76.841 Y97.183 E17.75394
G1 X77.194 Y96.746 E17.78197
G1 X77.742 Y96.225 E17.8197
;MESH:3DBenchy.stl
G0 F2700 X97.933 Y103.665
;TYPE:WALL-INNER
G1 F1800 X98.344 Y103.683 E17.84022
G1 X98.649 Y103.761 E17.85593
G1 X98.837 Y103.979 E17.87029
G1 X98.957 Y104.325 E17.88856
G1 X99.014 Y104.769 E17.91089
G1 X99.009 Y105.19 E17.9319
G1 X98.947 Y105.606 E17.95288
G1 X98.826 Y105.928 E17.97004
G1 X98.689 Y106.105 E17.98121
G1 X98.553 Y106.189 E17.98918
G1 X98.193 Y106.264 E18.00753
G1 X97.789 Y106.272 E18.02769
G1 X97.734 Y106.272 E18.03043
G1 X97.721 Y106.273 E18.03108
G1 X97.728 Y105.981 E18.041
G1 X97.728 Y105.926 E18.04375
G1 X97.725 Y103.865 E18.14657
G1 X97.725 Y103.864 E18.14662
G1 X97.725 Y103.657 E18.15695
G1 X97.932 Y103.664 E18.16358
G1 X97.933 Y103.665 E18.16365
G0 F2700 X97.328 Y105.976
;TYPE:WALL-OUTER
G1 F1800 X97.325 Y103.455 E18.28942
G1 X97.367 Y103.273 E18.29874
G1 X97.893 Y103.249 E18.32501
G1 X98.405 Y103.286 E18.35062
G1 X98.822 Y103.393 E18.3721
G1 X99.013 Y103.531 E18.38385
G1 X99.197 Y103.796 E18.39995
G1 X99.349 Y104.232 E18.42298
G1 X99.414 Y104.745 E18.44878
G1 X99.409 Y105.225 E18.47273
G1 X99.337 Y105.704 E18.4969
G1 X99.179 Y106.125 E18.51933
G1 X98.961 Y106.407 E18.53711
G1 X98.704 Y106.567 E18.55222
G1 X98.239 Y106.663 E18.57591
G1 X97.516 Y106.677 E18.61198
G1 X97.408 Y106.679 E18.61737
G1 X97.355 Y106.637 E18.62075
G1 X97.315 Y106.509 E18.62744
G1 X97.317 Y106.401 E18.63283
G1 X97.328 Y105.976 E18.65404
G0 F2700 X97.328 Y105.776
G0 X98.118 Y105.875
;TYPE:SKIN
G1 F1800 X98.115 Y104.064 E18.74439
G1 X98.434 Y104.109 E18.76046
G1 X98.577 Y104.422 E18.77763
G1 X98.624 Y104.785 E18.79589
G1 X98.567 Y105.51 E18.83217
G1 X98.426 Y105.81 E18.84871
G1 X98.118 Y105.875 E18.86441
G0 F2700 X98.411 Y105.199
G1 F1800 X98.295 Y105.083 E18.8726
G0 F2700 X98.425 Y104.647
G1 F1800 X98.294 Y104.517 E18.88181
G0 F2700 X92.592 Y103.425
;TYPE:WALL-INNER
G1 F1800 X92.61 Y103.413 E18.88288
G1 X92.717 Y103.39 E18.88834
G1 X92.657 Y103.455 E18.88842
G1 X92.63 Y103.485
G1 X92.386 Y103.552 E18.89691
G1 X92.592 Y103.425 E18.89784
G0 F2700 X115.947 Y106.909
G1 F1800 X115.485 Y106.594 E18.92574
G1 X114.945 Y106.504 E18.95305
G1 X114.833 Y106.486 E18.95871
G1 X114.662 Y106.492 E18.96725
G1 X114.723 Y106.407 E18.96728
G1 X114.852 Y106.23 E18.97541
G1 X114.917 Y106.137 E18.9802
G1 X115.247 Y105.667 E19.00886
G1 X115.6 Y105.171 E19.03923
G1 X115.933 Y104.627 E19.07105
G1 X116.069 Y104.1 E19.0982
G1 X115.977 Y103.492 E19.12888
G1 X115.614 Y103.026 E19.15835
G1 X115.062 Y102.884 E19.18679
G1 X114.476 Y102.886 E19.21602
G1 X113.413 Y102.883 E19.26906
G1 X112.798 Y102.884 E19.29974
G1 X112.22 Y102.991 E19.32907
G1 X111.791 Y103.342 E19.35672
G1 X111.759 Y103.449 E19.36229
G1 X111.725 Y103.373
G1 X111.696 Y103.31 E19.36482
G1 X111.228 Y102.926 E19.39503
G1 X110.647 Y102.875 E19.42412
G1 X110.153 Y103.215 E19.45404
G1 X109.818 Y103.761 E19.486
G1 X109.713 Y104.061 E19.50186
G1 X109.643 Y104.261 E19.51243
G1 X109.537 Y104.563 E19.5284
G1 X109.391 Y104.173 E19.53762
G1 X109.334 Y103.969 E19.5465
G1 X109.234 Y103.614 E19.5649
G1 X108.947 Y103.179 E19.5909
G1 X108.432 Y102.914 E19.61979
G1 X107.854 Y102.885 E19.64866
G1 X107.347 Y103.159 E19.67742
G1 X107.215 Y103.462 E19.69391
G1 X107.164 Y103.578 E19.70023
G1 X107.128 Y103.425 E19.70214
G1 X107.102 Y103.399
G1 X106.696 Y102.982 E19.73118
G1 X106.126 Y102.853 E19.76033
G1 X105.582 Y103.104 E19.79022
G1 X105.326 Y103.393 E19.80948
G1 X105.164 Y103.575 E19.82164
G1 X105.017 Y103.381 E19.82909
G1 X104.841 Y103.147 E19.84369
G1 X104.328 Y102.873 E19.87271
G1 X103.751 Y102.93 E19.90164
G1 X103.27 Y103.253 E19.93054
G1 X103.05 Y103.766 E19.95839
G1 X103.147 Y104.344 E19.98763
G1 X103.43 Y104.892 E20.0184
G1 X103.684 Y105.345 E20.04431
G1 X103.932 Y105.773 E20.06899
G1 X103.747 Y106.031 E20.08483
G1 X103.421 Y106.595 E20.11733
G1 X103.392 Y106.645 E20.12021
G1 X103.271 Y106.854 E20.13226
G1 X103.12 Y106.489 E20.14325
G1 X103.081 Y106.447 E20.14586
G1 X102.729 Y106.074 E20.17145
G1 X102.223 Y105.821 E20.19967
