;FLAVOR:Marlin
;TIME:1602
;Filament used: 1.39791m, 0m, 0m, 0m
;Layer height: 0.2
;MINX:80.721
;MINY:88.225
;MINZ:0.2
;MAXX:129.279
;MAXY:122.867
;MAXZ:22.375
;Generated with Cura_SteamEngine 4.6.1
T0
M140 S80
M105
M190 S80
M104 S225
M105
M109 S225
M82 ;absolute extrusion mode
G28
G29
M501
M420 S1
G92 E0 ;zero the extruded length
G1 F200 E3 ;extrude 3mm of feed stock
G92 E0 ;zero the extruded length again
G1 F200
M117 Printing...
G5
G92 E0
G92 E0
G1 F2400 E-4
;LAYER_COUNT:89
;LAYER:0
M107
M204 S4000
M205 X30 Y30
G1 F600 Z0.275
G0 F9000 X92.866 Y89.314 Z0.275
M204 S3000
M205 X8 Y8
;TYPE:SKIRT
G1 F600 Z0.2
G1 F2400 E0
G1 F1800 X93.833 Y89.436 E0.04214
G1 X94.614 Y89.548 E0.07626
G1 X97.282 Y89.853 E0.19237
G1 X99.975 Y90.083 E0.30923
G1 X102.612 Y90.235 E0.42344
G1 X105.318 Y90.313 E0.54049
G1 X107.99 Y90.315 E0.65602
G1 X110.661 Y90.241 E0.77156
G1 X113.327 Y90.092 E0.88701
G1 X116.848 Y89.781 E1.03984
G1 X117.491 Y89.712 E1.06781
G1 X117.96 Y89.683 E1.08812
G1 X118.77 Y89.669 E1.12315
G1 X119.492 Y89.677 E1.15437
G1 X120.138 Y89.726 E1.18238
G1 X120.774 Y89.854 E1.21044
G1 X121.389 Y90.06 E1.23848
G1 X121.974 Y90.34 E1.26652
G1 X122.438 Y90.631 E1.2902
G1 X123.079 Y91.081 E1.32407
G1 X123.624 Y91.485 E1.3534
G1 X124.118 Y91.904 E1.38141
G1 X124.558 Y92.381 E1.40947
G1 X124.935 Y92.909 E1.43752
G1 X125.244 Y93.478 E1.46551
G1 X125.425 Y93.918 E1.48609
G1 X125.67 Y94.599 E1.51738
G1 X125.917 Y95.376 E1.55263
G1 X126.792 Y98.682 E1.7005
G1 X127.559 Y101.28 E1.81763
G1 X127.816 Y102.118 E1.85552
G1 X128.024 Y102.946 E1.89244
G1 X128.127 Y103.516 E1.91748
G1 X128.195 Y104.064 E1.94136
G1 X128.235 Y104.671 E1.96766
G1 X128.239 Y105.178 E1.98958
G1 X128.202 Y105.845 E2.01847
G1 X128.118 Y106.546 E2.049
G1 X127.987 Y107.237 E2.07941
G1 X127.806 Y107.908 E2.10945
G1 X127.507 Y108.856 E2.15244
G1 X127.129 Y109.985 E2.20391
G1 X126.343 Y112.561 E2.32037
G1 X125.893 Y114.161 E2.39223
G1 X125.546 Y115.314 E2.44429
G1 X125.326 Y115.973 E2.47433
G1 X125.08 Y116.573 E2.50237
G1 X124.762 Y117.138 E2.5304
G1 X124.377 Y117.66 E2.55845
G1 X123.931 Y118.13 E2.58647
G1 X123.563 Y118.443 E2.60735
G1 X122.972 Y118.9 E2.63966
G1 X122.315 Y119.371 E2.67461
G1 X121.764 Y119.713 E2.70265
G1 X121.175 Y119.984 E2.73068
G1 X120.557 Y120.181 E2.75873
G1 X119.369 Y120.393 E2.81091
G1 X116.744 Y120.856 E2.92616
G1 X113.886 Y121.447 E3.05235
G1 X112.802 Y121.688 E3.10036
G1 X112.161 Y121.789 E3.12842
G1 X110.912 Y121.827 E3.18245
G1 X110.121 Y121.818 E3.21665
G1 X107.337 Y121.669 E3.3372
G1 X104.677 Y121.595 E3.45226
G1 X101.641 Y121.6 E3.58353
G1 X100.457 Y121.621 E3.63473
G1 X99.751 Y121.613 E3.66526
G1 X99.164 Y121.572 E3.6907
G1 X96.295 Y121.206 E3.81576
G1 X90.309 Y120.341 E4.07727
G1 X89.674 Y120.209 E4.10532
G1 X89.061 Y119.999 E4.13333
G1 X88.477 Y119.716 E4.16139
G1 X88.046 Y119.445 E4.18341
G1 X87.512 Y119.068 E4.21167
G1 X86.861 Y118.582 E4.2468
G1 X86.367 Y118.163 E4.2748
G1 X85.927 Y117.686 E4.30286
G1 X85.55 Y117.159 E4.33088
G1 X85.24 Y116.589 E4.35893
G1 X85.052 Y116.129 E4.38042
G1 X84.802 Y115.426 E4.41268
G1 X83.834 Y112.448 E4.54808
G1 X83.012 Y110.138 E4.65409
G1 X82.288 Y108.184 E4.74419
G1 X82.112 Y107.611 E4.77011
G1 X81.984 Y107.09 E4.79331
G1 X81.871 Y106.474 E4.82039
G1 X81.804 Y105.927 E4.84422
G1 X81.765 Y105.329 E4.87013
G1 X81.761 Y104.822 E4.89205
G1 X81.798 Y104.155 E4.92093
G1 X81.882 Y103.454 E4.95146
G1 X82.013 Y102.763 E4.98187
G1 X82.183 Y102.127 E5.01033
G1 X83.084 Y99.175 E5.14379
G1 X83.804 Y96.549 E5.26152
G1 X84.024 Y95.673 E5.30057
G1 X84.401 Y94.412 E5.35748
G1 X84.648 Y93.68 E5.39088
G1 X84.895 Y93.08 E5.41894
G1 X85.214 Y92.516 E5.44696
G1 X85.6 Y91.995 E5.47499
G1 X86.047 Y91.525 E5.50304
G1 X86.459 Y91.18 E5.52627
G1 X87.077 Y90.714 E5.55974
G1 X87.741 Y90.242 E5.59496
G1 X88.292 Y89.902 E5.62296
G1 X88.882 Y89.632 E5.65101
G1 X89.5 Y89.436 E5.67905
G1 X90.137 Y89.318 E5.70706
G1 X90.68 Y89.28 E5.73059
G1 X91.51 Y89.265 E5.76649
G1 X92.252 Y89.274 E5.79857
G0 F1620 X92.286 Y89.274
G0 X92.866 Y89.314
M204 S4000
M205 X30 Y30
G0 F9000 X92.931 Y88.798
M204 S3000
M205 X8 Y8
G1 F1800 X93.898 Y88.92 E5.84072
G1 X94.678 Y89.032 E5.87479
G1 X97.351 Y89.337 E5.99111
G1 X100.012 Y89.565 E6.10659
G1 X102.621 Y89.714 E6.21958
G1 X105.334 Y89.793 E6.33694
G1 X107.977 Y89.795 E6.45122
G1 X110.652 Y89.721 E6.56692
G1 X113.283 Y89.574 E6.68086
G1 X116.804 Y89.263 E6.83369
G1 X117.436 Y89.195 E6.86118
G1 X117.951 Y89.163 E6.88349
G1 X118.761 Y89.149 E6.91852
G1 X119.499 Y89.157 E6.95043
G1 X120.177 Y89.206 E6.97982
G1 X120.845 Y89.335 E7.00924
G1 X121.492 Y89.542 E7.03861
G1 X122.111 Y89.823 E7.068
G1 X122.737 Y90.205 E7.09971
G1 X123.378 Y90.655 E7.13358
G1 X123.935 Y91.068 E7.16356
G1 X124.455 Y91.506 E7.19295
G1 X124.919 Y92.003 E7.22235
G1 X125.323 Y92.55 E7.25176
G1 X125.659 Y93.14 E7.28111
G1 X125.915 Y93.742 E7.3094
G1 X126.16 Y94.423 E7.34069
G1 X126.414 Y95.221 E7.3769
G1 X126.594 Y95.897 E7.40715
G1 X127.3 Y98.568 E7.5266
G1 X128.056 Y101.127 E7.64198
G1 X128.313 Y101.965 E7.67988
G1 X128.53 Y102.825 E7.71823
G1 X128.643 Y103.452 E7.74577
G1 X128.711 Y104 E7.76965
G1 X128.755 Y104.666 E7.79851
G1 X128.759 Y105.173 E7.82043
G1 X128.718 Y105.907 E7.85222
G1 X128.634 Y106.608 E7.88275
G1 X128.491 Y107.367 E7.91614
G1 X128.302 Y108.065 E7.94741
G1 X128.003 Y109.013 E7.99039
G1 X127.629 Y110.128 E8.04124
G1 X126.851 Y112.675 E8.15639
G1 X126.394 Y114.302 E8.22946
G1 X126.044 Y115.465 E8.28197
G1 X125.818 Y116.14 E8.31275
G1 X125.562 Y116.77 E8.34215
G1 X125.234 Y117.365 E8.37153
G1 X124.838 Y117.918 E8.40094
G1 X124.38 Y118.42 E8.43032
G1 X123.881 Y118.854 E8.45892
G1 X123.29 Y119.311 E8.49122
G1 X122.616 Y119.795 E8.5271
G1 X122.039 Y120.155 E8.5565
G1 X121.424 Y120.445 E8.5859
G1 X120.78 Y120.66 E8.61526
G1 X120.195 Y120.786 E8.64113
G1 X119.471 Y120.903 E8.67284
G1 X116.837 Y121.367 E8.78849
G1 X113.962 Y121.962 E8.91543
G1 X112.914 Y122.195 E8.96185
G1 X112.243 Y122.303 E8.99124
G1 X111.763 Y122.332 E9.01203
G1 X110.921 Y122.347 E9.04844
G1 X110.113 Y122.338 E9.08338
G1 X107.328 Y122.19 E9.20397
G1 X104.664 Y122.115 E9.3192
G1 X101.65 Y122.12 E9.44952
G1 X100.466 Y122.141 E9.50072
G1 X99.743 Y122.133 E9.53199
G1 X99.099 Y122.088 E9.5599
G1 X96.23 Y121.722 E9.68496
G1 X90.235 Y120.856 E9.94686
G1 X89.569 Y120.719 E9.97626
G1 X88.924 Y120.505 E10.00564
G1 X88.308 Y120.217 E10.03504
G1 X87.748 Y119.871 E10.06351
G1 X87.201 Y119.485 E10.09245
G1 X86.55 Y118.999 E10.12758
G1 X86.03 Y118.561 E10.15698
G1 X85.566 Y118.065 E10.18634
G1 X85.162 Y117.518 E10.21575
G1 X84.826 Y116.927 E10.24514
G1 X84.562 Y116.304 E10.2744
G1 X84.312 Y115.601 E10.30666
G1 X83.339 Y112.609 E10.4427
G1 X82.524 Y110.318 E10.54784
G1 X81.8 Y108.364 E10.63794
G1 X81.607 Y107.735 E10.66639
G1 X81.479 Y107.214 E10.68958
G1 X81.355 Y106.538 E10.7193
G1 X81.288 Y105.991 E10.74313
G1 X81.245 Y105.334 E10.7716
G1 X81.241 Y104.827 E10.79352
G1 X81.282 Y104.093 E10.8253
G1 X81.366 Y103.392 E10.85583
G1 X81.509 Y102.633 E10.88923
G1 X81.686 Y101.974 E10.91873
G1 X82.597 Y98.986 E11.0538
G1 X83.301 Y96.422 E11.16876
G1 X83.52 Y95.547 E11.20776
G1 X83.904 Y94.261 E11.26579
G1 X84.156 Y93.512 E11.29996
G1 X84.413 Y92.882 E11.32938
G1 X84.743 Y92.288 E11.35876
G1 X85.139 Y91.736 E11.38814
G1 X85.598 Y91.234 E11.41755
G1 X86.146 Y90.765 E11.44874
G1 X86.764 Y90.299 E11.4822
G1 X87.441 Y89.818 E11.51811
G1 X88.018 Y89.459 E11.54749
G1 X88.633 Y89.17 E11.57687
G1 X89.279 Y88.956 E11.6063
G1 X89.944 Y88.819 E11.63566
G1 X90.671 Y88.76 E11.66719
G1 X91.501 Y88.745 E11.70309
G1 X92.294 Y88.754 E11.73738
G1 X92.317 Y88.756 E11.73838
G0 F1620 X92.931 Y88.798
M204 S4000
M205 X30 Y30
G0 F9000 X92.997 Y88.283
M204 S3000
M205 X8 Y8
G1 F1800 X93.964 Y88.405 E11.78052
G1 X94.776 Y88.52 E11.81598
G1 X97.382 Y88.818 E11.92939
G1 X100.017 Y89.043 E12.04374
G1 X102.701 Y89.197 E12.15998
G1 X105.314 Y89.273 E12.27301
G1 X107.962 Y89.275 E12.3875
G1 X110.645 Y89.201 E12.50356
G1 X113.238 Y89.056 E12.61585
G1 X116.754 Y88.745 E12.76847
G1 X117.38 Y88.678 E12.79569
G1 X117.942 Y88.643 E12.82004
G1 X118.752 Y88.629 E12.85506
G1 X119.507 Y88.637 E12.88771
G1 X120.215 Y88.687 E12.9184
G1 X120.912 Y88.816 E12.94905
G1 X121.591 Y89.023 E12.97974
G1 X122.242 Y89.306 E13.01043
G1 X123.036 Y89.78 E13.05042
G1 X123.677 Y90.23 E13.08428
G1 X124.246 Y90.652 E13.11491
G1 X124.79 Y91.108 E13.1456
G1 X125.279 Y91.622 E13.17628
G1 X125.707 Y92.188 E13.20696
G1 X126.069 Y92.799 E13.23767
G1 X126.404 Y93.566 E13.27386
G1 X126.649 Y94.247 E13.30515
G1 X126.91 Y95.067 E13.34236
G1 X127.097 Y95.764 E13.37356
G1 X127.802 Y98.431 E13.49284
G1 X128.553 Y100.975 E13.60753
G1 X128.81 Y101.813 E13.64543
G1 X129.036 Y102.705 E13.68521
G1 X129.159 Y103.388 E13.71522
G1 X129.227 Y103.936 E13.7391
G1 X129.275 Y104.662 E13.77056
G1 X129.279 Y105.169 E13.79248
G1 X129.234 Y105.969 E13.82712
G1 X129.15 Y106.67 E13.85765
G1 X128.994 Y107.497 E13.89404
G1 X128.798 Y108.221 E13.92647
G1 X128.499 Y109.169 E13.96945
G1 X128.119 Y110.303 E14.02116
G1 X127.343 Y112.843 E14.136
G1 X126.894 Y114.442 E14.20781
G1 X126.542 Y115.615 E14.26076
G1 X126.311 Y116.307 E14.29231
G1 X126.045 Y116.965 E14.323
G1 X125.707 Y117.589 E14.35368
G1 X125.301 Y118.171 E14.38436
G1 X124.832 Y118.704 E14.41506
G1 X124.199 Y119.266 E14.45166
G1 X123.608 Y119.723 E14.48396
G1 X122.917 Y120.219 E14.52074
G1 X122.315 Y120.597 E14.55148
G1 X121.676 Y120.904 E14.58213
G1 X121.006 Y121.137 E14.6128
G1 X120.277 Y121.299 E14.64509
G1 X119.581 Y121.411 E14.67557
G1 X116.93 Y121.879 E14.79197
G1 X114.118 Y122.46 E14.91612
G1 X113.027 Y122.703 E14.96445
G1 X112.327 Y122.818 E14.99512
G1 X111.772 Y122.852 E15.01916
G1 X110.93 Y122.867 E15.05558
G1 X110.106 Y122.858 E15.09121
G1 X109.592 Y122.839 E15.11345
G1 X107.318 Y122.71 E15.21193
G1 X104.65 Y122.635 E15.32733
G1 X101.66 Y122.64 E15.45662
G1 X100.475 Y122.661 E15.50786
G1 X99.735 Y122.653 E15.53986
G1 X99.033 Y122.603 E15.57029
G1 X96.164 Y122.237 E15.69534
G1 X90.16 Y121.37 E15.95764
G1 X89.465 Y121.229 E15.9883
G1 X88.79 Y121.011 E16.01897
G1 X88.143 Y120.718 E16.04968
G1 X87.45 Y120.297 E16.08474
G1 X86.89 Y119.901 E16.1144
G1 X86.239 Y119.415 E16.14952
G1 X85.695 Y118.959 E16.18022
G1 X85.206 Y118.445 E16.21089
G1 X84.778 Y117.879 E16.24157
G1 X84.416 Y117.269 E16.27224
G1 X84.072 Y116.478 E16.30954
G1 X83.822 Y115.775 E16.3418
G1 X83.668 Y115.295 E16.3636
G1 X82.848 Y112.78 E16.47798
G1 X82.036 Y110.499 E16.58266
G1 X81.312 Y108.545 E16.67277
G1 X81.102 Y107.859 E16.70379
G1 X80.974 Y107.338 E16.72698
G1 X80.839 Y106.601 E16.75938
G1 X80.772 Y106.054 E16.78321
G1 X80.725 Y105.338 E16.81423
G1 X80.721 Y104.831 E16.83615
G1 X80.766 Y104.031 E16.8708
G1 X80.85 Y103.33 E16.90133
G1 X81.006 Y102.503 E16.93772
G1 X81.189 Y101.821 E16.96825
G1 X82.089 Y98.872 E17.10156
G1 X82.796 Y96.294 E17.21715
G1 X83.015 Y95.42 E17.2561
G1 X83.406 Y94.109 E17.31526
G1 X83.664 Y93.344 E17.35016
G1 X83.931 Y92.686 E17.38087
G1 X84.27 Y92.063 E17.41154
G1 X84.677 Y91.481 E17.44224
G1 X85.147 Y90.949 E17.47294
G1 X85.833 Y90.35 E17.51231
G1 X86.451 Y89.884 E17.54578
G1 X87.141 Y89.393 E17.5824
G1 X87.743 Y89.017 E17.61309
G1 X88.383 Y88.711 E17.64376
G1 X89.053 Y88.479 E17.67442
G1 X89.746 Y88.324 E17.70512
G1 X90.661 Y88.24 E17.74485
G1 X91.491 Y88.225 E17.78074
G1 X92.302 Y88.234 E17.81581
G1 X92.383 Y88.24 E17.81932
G0 F1620 X92.997 Y88.283
M204 S4000
M205 X30 Y30
G0 F9000 X92.151 Y94.723
M204 S3000
M205 X8 Y8
;TYPE:SUPPORT
G1 F1800 X93.209 Y95.493 E17.8759
G1 X93.613 Y96.733 E17.93229
G1 X93.209 Y97.973 E17.98868
G1 X92.151 Y98.743 E18.04526
G1 X90.847 Y98.743 E18.10164
G1 X89.789 Y97.973 E18.15822
G1 X89.385 Y96.733 E18.21461
G1 X89.789 Y95.493 E18.271
G1 X90.847 Y94.723 E18.32758
G1 X91.536 Y94.723 E18.35737
G0 F1620 X92.151 Y94.723
M204 S4000
M205 X30 Y30
G1 F2400 E14.35737
G0 F9000 X87.174 Y102.15
G0 X86.617 Y103.295
G0 X86.354 Y104.549
G0 X86.54 Y106.45
G0 X87.036 Y107.624
G0 X88.274 Y109.08
G0 X92.372 Y111.255
M204 S3000
M205 X8 Y8
G1 F2400 E18.35737
G1 F1800 X94.038 Y111.54 E18.43045
G1 X95.578 Y111.789 E18.4979
G1 X96.545 Y111.86 E18.53983
G1 X96.726 Y111.991 E18.54949
G1 X97.438 Y111.991 E18.58027
G1 X97.638 Y112.136 E18.59095
G1 X98.443 Y112.136 E18.62576
G1 X98.695 Y112.319 E18.63923
G1 X99.597 Y112.319 E18.67823
G1 X99.904 Y112.542 E18.69463
G1 X101.06 Y112.542 E18.74462
G1 X102.014 Y113.236 E18.79563
G1 X102.378 Y114.353 E18.84642
G1 X102.014 Y115.47 E18.89722
G1 X101.06 Y116.164 E18.94823
G1 X99.886 Y116.164 E18.99899
G1 X99.625 Y115.975 E19.01292
G1 X98.411 Y115.975 E19.06542
G1 X98.205 Y115.826 E19.07641
G1 X97.247 Y115.826 E19.11783
G1 X97.047 Y115.681 E19.12851
G1 X96.242 Y115.681 E19.16332
G1 X96.076 Y115.561 E19.17217
G1 X94.18 Y115.392 E19.25448
G1 X92.521 Y115.052 E19.3277
G1 X91.133 Y114.95 E19.38788
G1 X90.155 Y114.238 E19.44018
G1 X89.784 Y113.1 E19.49194
G1 X90.155 Y111.962 E19.54369
G1 X91.126 Y111.255 E19.59563
G1 X91.757 Y111.255 E19.62291
G0 F1620 X92.372 Y111.255
M204 S4000
M205 X30 Y30
G0 F9000 X107.63 Y114.343
M204 S3000
M205 X8 Y8
G1 F1800 X107.994 Y113.226 E19.67371
G1 X108.948 Y112.532 E19.72472
G1 X110.009 Y112.532 E19.77059
G1 X110.265 Y112.346 E19.78427
G1 X111.926 Y112.268 E19.85617
G1 X112.248 Y112.034 E19.87338
G1 X113.319 Y112.034 E19.91969
G1 X113.564 Y111.856 E19.93278
G1 X115.229 Y111.633 E20.00542
G1 X117.062 Y111.435 E20.08514
G1 X117.966 Y111.205 E20.12547
G1 X119.203 Y111.205 E20.17895
G1 X120.174 Y111.912 E20.23089
G1 X120.545 Y113.05 E20.28264
G1 X120.174 Y114.188 E20.3344
G1 X119.191 Y114.904 E20.38698
G1 X117.627 Y115.129 E20.4553
G1 X115.746 Y115.327 E20.53708
G1 X114.281 Y115.779 E20.60337
G1 X112.825 Y115.721 E20.66637
G1 X112.542 Y115.927 E20.68151
G1 X112.173 Y115.927 E20.69746
G1 X111.565 Y116.369 E20.72997
G1 X110.261 Y116.369 E20.78635
G1 X109.965 Y116.154 E20.80217
G1 X108.948 Y116.154 E20.84614
G1 X107.994 Y115.46 E20.89715
G1 X107.82 Y114.928 E20.92135
G0 F1620 X107.63 Y114.343
M204 S4000
M205 X30 Y30
G1 F2400 E16.92135
G0 F9000 X120.404 Y109.868
G0 X121.523 Y109.238
G0 X122.45 Y108.364
G0 X123.141 Y107.291
G0 X123.646 Y105.451
G0 X123.46 Y103.55
G0 X122.964 Y102.376
G0 X121.726 Y100.92
G0 X118.167 Y98.816
M204 S3000
M205 X8 Y8
G1 F2400 E20.92135
G1 F1800 X117.196 Y98.109 E20.97329
G1 X116.825 Y96.971 E21.02504
G1 X117.196 Y95.833 E21.07679
G1 X118.167 Y95.126 E21.12873
G1 X119.363 Y95.126 E21.18044
G1 X120.334 Y95.833 E21.23237
G1 X120.705 Y96.971 E21.28413
G1 X120.334 Y98.109 E21.33588
G1 X119.363 Y98.816 E21.38782
G1 X118.782 Y98.816 E21.41294
G0 F1620 X118.167 Y98.816
M204 S4000
M205 X30 Y30
G1 F2400 E17.41294
G1 F600 Z0.275
;MESH:Bl_touch_mount.stl
G0 F9000 X114.969 Y105.015 Z0.275
M204 S3000
M205 X8 Y8
;TYPE:WALL-INNER
G1 F600 Z0.2
G1 F2400 E21.41294
G1 F1800 X115.064 Y105.793 E21.44683
G1 X115.305 Y106.475 E21.4781
G1 X115.669 Y107.072 E21.50834
G1 X116.111 Y107.554 E21.53661
G1 X116.248 Y107.654 E21.54395
G1 X116.685 Y107.971 E21.56729
G1 X116.827 Y108.034 E21.57401
G1 X116.697 Y108.052 E21.57419
G1 X116.163 Y108.128 E21.58838
G1 X109.164 Y109.135 E21.89412
G1 X108.689 Y109.18 E21.91475
G1 X107.317 Y109.18 E21.97407
G1 X106.849 Y109.18 E21.99431
G1 X106.169 Y109.18 E22.02371
G1 X106.1 Y109.18 E22.02669
G1 X106.169 Y109.167 E22.02677
G1 X106.849 Y108.912 E22.03635
G1 X107.254 Y108.678 E22.05183
G1 X107.477 Y108.548 E22.06299
G1 X108.033 Y108.085 E22.09428
G1 X108.506 Y107.536 E22.12561
G1 X108.879 Y106.916 E22.1569
G1 X109.144 Y106.244 E22.18813
G1 X109.293 Y105.534 E22.2195
G1 X109.322 Y104.81 E22.25083
G1 X109.229 Y104.089 E22.28226
G1 X109.019 Y103.401 E22.31336
G1 X108.697 Y102.753 E22.34465
G1 X108.268 Y102.166 E22.37609
G1 X107.752 Y101.661 E22.4073
G1 X107.275 Y101.332 E22.43236
G1 X107.157 Y101.251 E22.43855
G1 X106.501 Y100.943 E22.46988
G1 X106.063 Y100.821 E22.48954
G1 X106.501 Y100.821 E22.49161
G1 X107.156 Y100.821 E22.5078
G1 X107.3 Y100.821 E22.51351
G1 X108.671 Y100.82 E22.57279
G1 X109.013 Y100.84 E22.5876
G1 X116.166 Y101.869 E22.90007
G1 X116.694 Y101.945 E22.92314
G1 X116.827 Y101.965 E22.92895
G1 X116.683 Y102.029 E22.93018
G1 X116.252 Y102.344 E22.94429
G1 X116.104 Y102.453 E22.95224
