;FLAVOR:Marlin
;TIME:4071
;Filament used: 1.5953m, 0m, 0m, 0m
;Layer height: 0.1
;MINX:85.326
;MINY:78.665
;MINZ:0.24
;MAXX:123.551
;MAXY:117.895
;MAXZ:12.715
;Generated with Cura_SteamEngine 4.6.1
T0
M140 S80
M105
M190 S80
M104 S255
M105
M109 S255
M82 ;absolute extrusion mode
G28
G29
M501
M420 S1
G92 E0 ;zero the extruded length
G1 F200 E3 ;extrude 3mm of feed stock
G92 E0 ;zero the extruded length again
G1 F200
M117 Printing...
G5
G92 E0
G92 E0
G1 F2400 E-4
;LAYER_COUNT:194
;LAYER:-7
M107
M204 S4000
M205 X30 Y30
G0 F12000 X95.509 Y81.034 Z0.24
M204 S3000
M205 X8 Y8
;TYPE:SUPPORT-INTERFACE
G1 F2400 E0
G1 F900 X95.709 Y80.825 E0.03464
G1 X95.908 Y80.639 E0.06725
G1 X96.15 Y80.439 E0.10484
G1 X96.297 Y80.325 E0.12712
G1 X97.043 Y79.787 E0.23725
G1 X97.348 Y79.593 E0.28053
G1 X97.595 Y79.456 E0.31435
G1 X97.849 Y79.338 E0.34788
G1 X98.111 Y79.234 E0.38163
G1 X98.368 Y79.15 E0.41401
G1 X98.631 Y79.083 E0.4465
G1 X98.915 Y79.03 E0.4811
G1 X99.185 Y78.995 E0.5137
G1 X99.686 Y78.969 E0.57376
G1 X100.61 Y78.973 E0.6844
G1 X100.997 Y78.998 E0.73084
G1 X101.268 Y79.031 E0.76353
G1 X101.541 Y79.084 E0.79682
G1 X101.815 Y79.156 E0.83075
G1 X102.076 Y79.241 E0.86361
G1 X102.317 Y79.337 E0.89467
G1 X102.627 Y79.483 E0.9357
G1 X103.268 Y79.737 E1.01826
G1 X103.954 Y79.914 E1.10309
G1 X104.656 Y80.001 E1.18779
G1 X105.365 Y80.001 E1.27268
G1 X106.067 Y79.91 E1.35744
G1 X106.751 Y79.732 E1.44207
G1 X107.368 Y79.487 E1.52155
G1 X107.684 Y79.338 E1.56339
G1 X107.964 Y79.228 E1.59941
G1 X108.212 Y79.147 E1.63065
G1 X108.475 Y79.08 E1.66314
G1 X108.759 Y79.027 E1.69773
G1 X109.029 Y78.992 E1.73033
G1 X109.53 Y78.966 E1.7904
G1 X110.454 Y78.97 E1.90104
G1 X110.841 Y78.995 E1.94747
G1 X111.112 Y79.028 E1.98016
G1 X111.385 Y79.081 E2.01346
G1 X111.659 Y79.153 E2.04738
G1 X111.92 Y79.238 E2.08025
G1 X112.161 Y79.334 E2.11131
G1 X112.428 Y79.461 E2.14671
G1 X112.67 Y79.594 E2.17978
G1 X113.081 Y79.862 E2.23853
G1 X113.714 Y80.323 E2.33229
G1 X113.866 Y80.441 E2.35533
G1 X114.122 Y80.654 E2.39521
G1 X114.33 Y80.849 E2.42934
G1 X114.528 Y81.062 E2.46416
G1 X114.683 Y81.25 E2.49334
G1 X114.859 Y81.493 E2.52927
G1 X114.993 Y81.704 E2.55919
G1 X115.146 Y81.987 E2.59771
G1 X115.25 Y82.211 E2.62729
G1 X115.424 Y82.662 E2.68517
G1 X115.716 Y83.576 E2.80005
G1 X115.807 Y83.928 E2.84359
G1 X115.857 Y84.19 E2.87552
G1 X115.981 Y85.172 E2.99404
G1 X115.989 Y85.172 E2.995
G1 X116.157 Y85.818 E3.07492
G1 X116.42 Y86.475 E3.15966
G1 X116.764 Y87.096 E3.24466
G1 X117.421 Y87.969 E3.37548
G1 X117.596 Y88.234 E3.41351
G1 X118.009 Y88.783 E3.49577
G1 X118.413 Y89.204 E3.56563
G1 X118.643 Y89.421 E3.60349
G1 X118.829 Y89.62 E3.63611
G1 X119.004 Y89.831 E3.66893
G1 X119.169 Y90.059 E3.70263
G1 X119.316 Y90.294 E3.73582
G1 X119.46 Y90.558 E3.77183
G1 X119.556 Y90.762 E3.79882
G1 X119.74 Y91.238 E3.85993
G1 X120.03 Y92.144 E3.97383
G1 X120.107 Y92.438 E4.01022
G1 X120.306 Y93.053 E4.08762
G1 X120.433 Y93.385 E4.13018
G1 X120.694 Y94.186 E4.23105
G1 X120.922 Y94.976 E4.3295
G1 X120.951 Y94.968 E4.3331
G1 X120.975 Y95.025 E4.34051
G1 X121.202 Y95.612 E4.41587
G1 X121.458 Y96.395 E4.51451
G1 X121.496 Y96.531 E4.53141
G1 X121.782 Y97.64 E4.66855
G1 X121.807 Y97.634 E4.67162
G1 X121.85 Y97.783 E4.69019
G1 X121.915 Y97.958 E4.71255
G1 X122.177 Y98.761 E4.81368
G1 X122.216 Y98.898 E4.83074
G1 X122.311 Y99.267 E4.87636
G1 X122.358 Y99.516 E4.9067
G1 X122.502 Y100.652 E5.04381
G1 X122.53 Y100.645 E5.04727
G1 X122.691 Y101.285 E5.12629
G1 X122.744 Y101.569 E5.16088
G1 X122.778 Y101.832 E5.19263
G1 X122.795 Y102.122 E5.22741
G1 X122.795 Y102.388 E5.25926
G1 X122.776 Y102.677 E5.29394
G1 X122.741 Y102.948 E5.32666
G1 X122.688 Y103.225 E5.36043
G1 X122.572 Y103.662 E5.41457
G1 X122.259 Y104.613 E5.53444
G1 X122.115 Y104.975 E5.58109
G1 X122.038 Y105.137 E5.60257
G1 X121.783 Y105.775 E5.68484
G1 X121.622 Y106.382 E5.76003
G1 X121.579 Y106.599 E5.78652
G1 X121.243 Y108.032 E5.96275
G1 X121.169 Y108.477 E6.01677
G1 X121.139 Y108.477 E6.02036
G1 X121.098 Y109.228 E6.11042
G1 X121.062 Y109.625 E6.15815
G1 X121.005 Y110.006 E6.20427
G1 X120.949 Y110.272 E6.23682
G1 X120.871 Y110.548 E6.27116
G1 X120.784 Y110.799 E6.30297
G1 X120.671 Y111.066 E6.33769
G1 X120.548 Y111.313 E6.37073
G1 X120.41 Y111.551 E6.40367
G1 X120.257 Y111.78 E6.43664
G1 X120.095 Y111.991 E6.4685
G1 X119.899 Y112.216 E6.50422
G1 X119.123 Y112.993 E6.63571
G1 X119.149 Y113.019 E6.64011
G1 X118.983 Y113.206 E6.67005
G1 X118.838 Y113.399 E6.69896
G1 X118.64 Y113.633 E6.73566
G1 X118.452 Y113.827 E6.76801
G1 X118.267 Y113.997 E6.79809
G1 X118.019 Y114.196 E6.83616
G1 X117.817 Y114.339 E6.8658
G1 X117.554 Y114.5 E6.90272
G1 X117.325 Y114.621 E6.93373
G1 X117.07 Y114.736 E6.96723
G1 X116.822 Y114.83 E6.99898
G1 X116.529 Y114.919 E7.03565
G1 X116.284 Y114.978 E7.06582
G1 X116.002 Y115.027 E7.10009
G1 X115.754 Y115.054 E7.12996
G1 X115.428 Y115.065 E7.16902
G1 X114.939 Y115.047 E7.22761
G1 X114.747 Y115.031 E7.25068
G1 X114.197 Y114.968 E7.31697
G1 X113.817 Y114.933 E7.36266
G1 X113.539 Y114.888 E7.39638
G1 X113.277 Y114.829 E7.42854
G1 X113.05 Y114.763 E7.45684
G1 X112.378 Y114.614 E7.53926
G1 X111.667 Y114.547 E7.62477
G1 X110.725 Y114.602 E7.73775
G1 X110.674 Y114.61 E7.74393
G1 X110.236 Y114.643 E7.79653
G1 X110.034 Y114.65 E7.82073
G1 X99.922 Y114.65 E9.0315
G1 X99.701 Y114.64 E9.05799
G1 X99.012 Y114.64 E9.14049
G1 X98.31 Y114.73 E9.22523
G1 X97.624 Y114.907 E9.31006
G1 X96.965 Y115.169 E9.39498
G1 X96.348 Y115.512 E9.4795
G1 X95.817 Y115.897 E9.55804
G1 X95.41 Y116.228 E9.62085
G1 X94.649 Y116.777 E9.73321
G1 X94.344 Y116.971 E9.77649
G1 X94.097 Y117.108 E9.81031
G1 X93.843 Y117.226 E9.84384
G1 X93.581 Y117.33 E9.87759
G1 X93.324 Y117.414 E9.90997
G1 X93.061 Y117.481 E9.94246
G1 X92.777 Y117.534 E9.97706
G1 X92.507 Y117.569 E10.00966
G1 X92.006 Y117.595 E10.06972
G1 X91.082 Y117.591 E10.18036
G1 X90.695 Y117.566 E10.2268
G1 X90.424 Y117.533 E10.25949
G1 X90.151 Y117.48 E10.29278
G1 X89.877 Y117.408 E10.32671
G1 X89.616 Y117.323 E10.35957
G1 X89.375 Y117.227 E10.39063
G1 X89.108 Y117.1 E10.42604
G1 X88.866 Y116.967 E10.4591
G1 X88.455 Y116.699 E10.51785
G1 X87.82 Y116.237 E10.61188
G1 X87.67 Y116.12 E10.63465
G1 X87.414 Y115.907 E10.67453
G1 X87.206 Y115.712 E10.70867
G1 X87.005 Y115.495 E10.74408
G1 X86.853 Y115.311 E10.77266
G1 X86.669 Y115.056 E10.81031
G1 X86.54 Y114.852 E10.83921
G1 X86.39 Y114.574 E10.87704
G1 X86.286 Y114.35 E10.90661
G1 X86.112 Y113.899 E10.96449
G1 X85.82 Y112.985 E11.07938
G1 X85.727 Y112.626 E11.12378
G1 X85.679 Y112.372 E11.15473
G1 X85.644 Y112.097 E11.18792
G1 X85.627 Y111.8 E11.22354
G1 X85.627 Y111.542 E11.25444
G1 X85.646 Y111.252 E11.28923
G1 X85.681 Y110.979 E11.32219
G1 X85.732 Y110.713 E11.35462
G1 X85.859 Y110.242 E11.41303
G1 X86.111 Y109.466 E11.51072
G1 X86.282 Y108.799 E11.59317
G1 X86.37 Y108.096 E11.678
G1 X86.368 Y107.387 E11.76289
G1 X86.278 Y106.691 E11.84692
G1 X86.046 Y105.771 E11.96053
G1 X85.993 Y105.487 E11.99512
G1 X85.959 Y105.224 E12.02688
G1 X85.942 Y104.934 E12.06166
G1 X85.942 Y104.668 E12.09351
G1 X85.961 Y104.379 E12.12819
G1 X85.996 Y104.108 E12.16091
G1 X86.049 Y103.831 E12.19467
G1 X86.168 Y103.384 E12.25006
G1 X86.481 Y102.432 E12.37005
G1 X86.558 Y102.239 E12.39493
G1 X86.764 Y101.611 E12.47407
G1 X86.905 Y101.083 E12.53951
G1 X87.209 Y100.161 E12.65575
G1 X87.361 Y99.781 E12.70475
G1 X87.57 Y99.142 E12.78525
G1 X87.67 Y98.769 E12.83149
G1 X87.978 Y97.832 E12.94959
G1 X88.117 Y97.483 E12.99457
G1 X88.56 Y96.548 E13.11846
G1 X88.544 Y96.54 E13.1206
G1 X88.721 Y95.996 E13.1891
G1 X88.796 Y95.718 E13.22357
G1 X89.104 Y94.785 E13.34122
G1 X89.243 Y94.436 E13.3862
G1 X89.686 Y93.501 E13.51008
G1 X89.671 Y93.494 E13.51206
G1 X89.856 Y92.929 E13.58325
G1 X89.939 Y92.624 E13.6211
G1 X90.245 Y91.697 E13.73798
G1 X90.386 Y91.345 E13.78339
G1 X90.501 Y91.103 E13.81547
G1 X90.645 Y90.842 E13.85116
G1 X90.774 Y90.64 E13.87986
G1 X90.883 Y90.491 E13.90196
G1 X91.252 Y89.909 E13.98447
G1 X91.526 Y89.337 E14.06042
G1 X91.657 Y89.015 E14.10204
G1 X91.769 Y88.783 E14.13289
G1 X91.908 Y88.536 E14.16682
G1 X92.054 Y88.313 E14.19874
G1 X92.23 Y88.077 E14.23399
G1 X92.411 Y87.862 E14.26764
G1 X92.606 Y87.661 E14.30117
G1 X93.051 Y87.135 E14.38367
G1 X93.438 Y86.541 E14.46856
G1 X93.746 Y85.904 E14.55328
G1 X93.971 Y85.232 E14.63813
G1 X94.111 Y84.522 E14.72478
G1 X94.153 Y84.193 E14.76449
G1 X94.207 Y83.911 E14.79887
G1 X94.331 Y83.448 E14.85626
G1 X94.63 Y82.542 E14.9705
G1 X94.757 Y82.222 E15.01172
G1 X94.892 Y81.936 E15.04959
G1 X95.02 Y81.703 E15.08142
G1 X95.165 Y81.476 E15.11367
G1 X95.328 Y81.252 E15.14684
G1 X95.368 Y81.204 E15.15432
G0 F810 X95.509 Y81.034
M204 S4000
M205 X30 Y30
G0 F12000 X96 Y80.562
M204 S3000
M205 X8 Y8
G1 F900 X96 Y115.765 E19.36941
M204 S4000
M205 X30 Y30
G0 F12000 X98.4 Y114.719
M204 S3000
M205 X8 Y8
G1 F900 X98.4 Y79.141 E23.62939
M204 S4000
M205 X30 Y30
G0 F12000 X100.8 Y78.986
M204 S3000
M205 X8 Y8
G1 F900 X100.8 Y114.65 E27.89967
M204 S4000
M205 X30 Y30
G0 F12000 X103.2 Y114.65
M204 S3000
M205 X8 Y8
G1 F900 X103.2 Y79.711 E32.08315
M204 S4000
M205 X30 Y30
G0 F12000 X105.6 Y79.97
M204 S3000
M205 X8 Y8
G1 F900 X105.6 Y114.65 E36.23561
M204 S4000
M205 X30 Y30
G0 F12000 X108 Y114.65
M204 S3000
M205 X8 Y8
G1 F900 X108 Y79.216 E40.47835
M204 S4000
M205 X30 Y30
G0 F12000 X110.4 Y78.97
M204 S3000
M205 X8 Y8
G1 F900 X110.4 Y114.631 E44.74827
M204 S4000
M205 X30 Y30
G0 F12000 X112.8 Y114.707
M204 S3000
M205 X8 Y8
G1 F900 X112.8 Y79.679 E48.9424
M204 S4000
M205 X30 Y30
G0 F12000 X115.2 Y82.104
M204 S3000
M205 X8 Y8
G1 F900 X115.2 Y115.056 E52.88796
M204 S4000
M205 X30 Y30
G0 F12000 X117.6 Y114.472
M204 S3000
M205 X8 Y8
G1 F900 X117.6 Y88.24 E56.02889
M204 S4000
M205 X30 Y30
G0 F12000 X120 Y92.051
M204 S3000
M205 X8 Y8
G1 F900 X120 Y112.101 E58.4296
M204 S4000
M205 X30 Y30
G0 F12000 X122.4 Y104.185
M204 S3000
M205 X8 Y8
G1 F900 X122.4 Y99.848 E58.9489
M204 S4000
M205 X30 Y30
G0 F12000 X93.6 Y86.205
M204 S3000
M205 X8 Y8
G1 F900 X93.6 Y117.323 E62.67486
M204 S4000
M205 X30 Y30
G0 F12000 X91.2 Y117.591
M204 S3000
M205 X8 Y8
G1 F900 X91.2 Y89.991 E65.97959
M204 S4000
M205 X30 Y30
G0 F12000 X88.8 Y95.705
M204 S3000
M205 X8 Y8
G1 F900 X88.8 Y116.923 E68.52016
M204 S4000
M205 X30 Y30
G0 F12000 X86.4 Y114.592
M204 S3000
M205 X8 Y8
G1 F900 X86.4 Y102.678 E69.9467
M204 S4000
M205 X30 Y30
G1 F2400 E65.9467
G0 F600 X86.4 Y102.678 Z0.39
G0 F12000 X86.112 Y113.898
;TIME_ELAPSED:43.473982
;LAYER:-6
M140 S60
M204 S3000
M205 X8 Y8
;TYPE:SUPPORT
G1 F2400 E69.9467
G1 F900 X86.286 Y114.349 E69.98287
G1 X86.39 Y114.573 E70.00136
G1 X86.539 Y114.851 E70.02496
G1 X86.669 Y115.055 E70.04306
G1 X86.853 Y115.31 E70.06659
G1 X87.005 Y115.494 E70.08445
G1 X87.206 Y115.71 E70.10654
G1 X87.413 Y115.906 E70.12787
G1 X87.669 Y116.119 E70.15279
G1 X87.82 Y116.236 E70.16709
G1 X88.454 Y116.698 E70.22579
G1 X88.865 Y116.966 E70.26251
G1 X89.108 Y117.099 E70.28324
G1 X89.374 Y117.226 E70.3053
G1 X89.594 Y117.313 E70.323
G1 X86.079 Y113.798 E70.69501
G1 X85.82 Y112.984 E70.75893
G1 X85.726 Y112.625 E70.7867
G1 X85.679 Y112.371 E70.80604
G1 X85.644 Y112.096 E70.82678
G1 X85.626 Y111.799 E70.84905
G1 X85.627 Y111.541 E70.86836
G1 X85.636 Y111.375 E70.8808
G1 X91.855 Y117.593 E71.53892
G1 X92.005 Y117.594 E71.55015
G1 X92.507 Y117.568 E71.58776
G1 X92.777 Y117.533 E71.60814
G1 X93.06 Y117.48 E71.62968
G1 X93.323 Y117.413 E71.64999
G1 X93.572 Y117.331 E71.66961
G1 X86.011 Y109.769 E72.46987
G1 X86.11 Y109.465 E72.4938
G1 X86.282 Y108.798 E72.54534
G1 X86.363 Y108.142 E72.59481
G1 X94.85 Y116.629 E73.49301
G1 X95.409 Y116.227 E73.54454
G1 X95.817 Y115.896 E73.58386
G1 X95.979 Y115.778 E73.59886
G1 X86.071 Y105.87 E74.64745
G1 X86.046 Y105.77 E74.65516
G1 X85.992 Y105.486 E74.6768
G1 X85.958 Y105.223 E74.69664
G1 X85.941 Y104.933 E74.71838
G1 X85.941 Y104.667 E74.73829
G1 X85.96 Y104.378 E74.75996
G1 X85.995 Y104.107 E74.78041
G1 X86.042 Y103.861 E74.79916
G1 X97.239 Y115.059 E75.98422
G1 X97.624 Y114.906 E76.01522
G1 X98.31 Y114.729 E76.06824
G1 X98.823 Y114.663 E76.10695
G1 X86.512 Y102.351 E77.40991
G1 X86.557 Y102.238 E77.41902
G1 X86.764 Y101.61 E77.4685
G1 X86.904 Y101.082 E77.50938
G1 X86.983 Y100.842 E77.52829
G1 X100.79 Y114.649 E78.98952
G1 X102.77 Y114.649 E79.1377
G1 X87.493 Y99.373 E80.75446
G1 X87.57 Y99.141 E80.77275
G1 X87.669 Y98.768 E80.80163
G1 X87.966 Y97.865 E80.87277
G1 X104.75 Y114.649 E82.64907
G1 X106.729 Y114.649 E82.79717
G1 X88.562 Y96.481 E84.71989
G1 X88.72 Y95.995 E84.75814
G1 X88.796 Y95.717 E84.7797
G1 X89.039 Y94.979 E84.83785
G1 X108.709 Y114.649 E86.91959
G1 X110.033 Y114.649 E87.01867
G1 X110.235 Y114.642 E87.03379
G1 X110.65 Y114.61 E87.06494
G1 X89.638 Y93.598 E89.28871
G1 X89.685 Y93.5 E89.29684
G1 X89.671 Y93.493 E89.29801
G1 X89.856 Y92.927 E89.34258
G1 X89.939 Y92.623 E89.36616
G1 X90.113 Y92.093 E89.4079
G1 X112.706 Y114.686 E91.79899
G1 X113.05 Y114.762 E91.82536
G1 X113.277 Y114.828 E91.84305
G1 X113.539 Y114.887 E91.86314
G1 X113.816 Y114.932 E91.88415
G1 X114.197 Y114.967 E91.91278
G1 X114.747 Y115.03 E91.95421
G1 X114.938 Y115.046 E91.96855
G1 X115.05 Y115.05 E91.97694
G1 X90.721 Y90.721 E94.55175
G1 X90.773 Y90.64 E94.55895
G1 X90.882 Y90.49 E94.57283
G1 X91.251 Y89.909 E94.62434
G1 X91.457 Y89.477 E94.66015
G1 X116.811 Y114.832 E97.3435
G1 X116.821 Y114.829 E97.34428
G1 X117.069 Y114.735 E97.36413
G1 X117.324 Y114.62 E97.38506
G1 X117.552 Y114.499 E97.40438
G1 X117.816 Y114.339 E97.42748
G1 X118.018 Y114.195 E97.44604
G1 X118.093 Y114.134 E97.45328
G1 X92.146 Y88.186 E100.19938
G1 X92.229 Y88.077 E100.20964
G1 X92.41 Y87.862 E100.23067
G1 X92.605 Y87.661 E100.25163
G1 X93.05 Y87.134 E100.30324
G1 X93.059 Y87.119 E100.30455
G1 X119.059 Y113.12 E103.05627
G1 X119.148 Y113.018 E103.0664
G1 X119.122 Y112.992 E103.06915
G1 X119.898 Y112.216 E103.15127
G1 X120.009 Y112.089 E103.1639
G1 X93.764 Y85.844 E105.94149
G1 X93.97 Y85.231 E105.98988
G1 X94.11 Y84.521 E106.04404
G1 X94.144 Y84.245 E106.06485
G1 X120.758 Y110.858 E108.88144
G1 X120.783 Y110.798 E108.8863
G1 X120.87 Y110.547 E108.90618
G1 X120.947 Y110.271 E108.92763
G1 X121.004 Y110.006 E108.94791
G1 X121.061 Y109.624 E108.97681
G1 X121.097 Y109.228 E109.00657
G1 X121.098 Y109.219 E109.00725
G1 X94.577 Y82.698 E111.81405
G1 X94.629 Y82.541 E111.82642
G1 X94.756 Y82.222 E111.85212
G1 X94.891 Y81.935 E111.87585
G1 X95.019 Y81.703 E111.89568
G1 X95.164 Y81.476 E111.91584
G1 X95.235 Y81.376 E111.92502
G1 X121.365 Y107.506 E114.69044
G1 X121.578 Y106.599 E114.76016
G1 X121.621 Y106.382 E114.77672
G1 X121.747 Y105.908 E114.81342
G1 X96.222 Y80.383 E117.51481
G1 X96.295 Y80.325 E117.52179
G1 X97.041 Y79.787 E117.59062
G1 X97.347 Y79.593 E117.61773
G1 X97.389 Y79.57 E117.62131
G1 X122.301 Y104.482 E120.25783
G1 X122.571 Y103.661 E120.32251
G1 X122.687 Y103.224 E120.35634
G1 X122.74 Y102.948 E120.37737
G1 X122.741 Y102.942 E120.37783
G1 X98.842 Y79.043 E122.90713
G1 X98.914 Y79.03 E122.91261
G1 X99.184 Y78.995 E122.93298
G1 X99.685 Y78.968 E122.97053
G1 X100.609 Y78.973 E123.03968
G1 X100.762 Y78.983 E123.05115
G1 X122.565 Y100.786 E125.35863
G1 X122.529 Y100.644 E125.3696
G1 X122.501 Y100.651 E125.37176
G1 X122.357 Y99.516 E125.45737
G1 X122.31 Y99.267 E125.47634
G1 X122.215 Y98.898 E125.50485
G1 X122.176 Y98.76 E125.51558
G1 X122.01 Y98.251 E125.55565
G1 X103.576 Y79.817 E127.50658
G1 X103.953 Y79.914 E127.53571
G1 X104.655 Y80.001 E127.58864
G1 X105.364 Y80 E127.6417
G1 X105.696 Y79.958 E127.66675
G1 X121.106 Y95.368 E129.29763
G1 X120.974 Y95.025 E129.32514
G1 X120.949 Y94.967 E129.32986
G1 X120.92 Y94.975 E129.33212
G1 X120.693 Y94.186 E129.39356
G1 X120.432 Y93.385 E129.4566
G1 X120.305 Y93.053 E129.4832
G1 X120.106 Y92.438 E129.53158
G1 X120.088 Y92.37 E129.53684
G1 X107.251 Y79.533 E130.89542
G1 X107.367 Y79.487 E130.90476
G1 X107.683 Y79.338 E130.9309
G1 X107.963 Y79.227 E130.95344
G1 X108.211 Y79.146 E130.97297
G1 X108.474 Y79.079 E130.99328
G1 X108.731 Y79.032 E131.01283
G1 X116.724 Y87.026 E131.85881
G1 X116.419 Y86.474 E131.906
G1 X116.155 Y85.818 E131.95892
G1 X115.988 Y85.172 E132.00885
G1 X115.98 Y85.171 E132.00946
G1 X115.855 Y84.19 E132.08346
