;FLAVOR:Marlin
;TIME:4359
;Filament used: 1.57927m, 0m, 0m, 0m
;Layer height: 0.1
;MINX:54.123
;MINY:80.073
;MINZ:0.2
;MAXX:155.877
;MAXY:142.827
;MAXZ:5.8
;Generated with Cura_SteamEngine 4.3.0
T0
M140 S60
M105
M190 S60
M104 S215
M105
M109 S215
M82 ;absolute extrusion mode
G21 ;metric values
G90 ;absolute positioning
M82 ;set extruder to absolute mode
M107 ;start with the fan off
G28 X0 Y0 ;move X/Y to min endstops
G28 Z0 ;move Z to min endstops
G1 Z15.0 F100 ;move the platform down 15mm
G92 E0 ;zero the extruded length
G1 F200 E3 ;extrude 3mm of feed stock
G92 E0 ;zero the extruded length again
G1 F100
M117 Printing...
G5
G92 E0
G92 E0
G1 F2400 E-4
;LAYER_COUNT:57
;LAYER:0
M106 S255
M204 S3000
M205 X10 Y10
G1 F600 Z0.275
G0 F2666.7 X59.976 Y82.78 Z0.275
M204 S1800
M205 X8 Y8
;TYPE:SKIRT
G1 F600 Z0.2
G1 F2400 E0
G1 F1800 X60.628 Y82.336 E0.03673
G1 X61.483 Y81.828 E0.08304
G1 X62.211 Y81.456 E0.12111
G1 X63.094 Y81.074 E0.16591
G1 X63.837 Y80.806 E0.20269
G1 X64.725 Y80.546 E0.24577
G1 X65.486 Y80.373 E0.28211
G1 X66.454 Y80.214 E0.32779
G1 X67.258 Y80.133 E0.36542
G1 X68.491 Y80.088 E0.42287
G1 X68.703 Y80.084 E0.43274
G1 X71.797 Y80.074 E0.57681
G1 X71.818 Y80.074 E0.57779
G1 X126.919 Y80.073 E3.14352
G1 X136.799 Y80.074 E3.60358
G1 X136.888 Y80.075 E3.60772
G1 X137.527 Y80.084 E3.63748
G1 X137.717 Y80.089 E3.64633
G1 X138.173 Y80.109 E3.66758
G1 X138.549 Y80.137 E3.68514
G1 X139.393 Y80.224 E3.72465
G1 X140.157 Y80.349 E3.7607
G1 X141.08 Y80.559 E3.80477
G1 X141.821 Y80.776 E3.84073
G1 X142.713 Y81.096 E3.88485
G1 X143.453 Y81.415 E3.92238
G1 X144.328 Y81.86 E3.96809
G1 X145.027 Y82.273 E4.00589
G1 X145.809 Y82.805 E4.04993
G1 X146.419 Y83.276 E4.08582
G1 X147.121 Y83.889 E4.12921
G1 X147.691 Y84.454 E4.16659
G1 X148.358 Y85.203 E4.21329
G1 X148.854 Y85.837 E4.25077
G1 X149.386 Y86.612 E4.29454
G1 X149.562 Y86.882 E4.30955
G1 X150.381 Y88.214 E4.38236
G1 X150.421 Y88.28 E4.38595
G1 X150.653 Y88.668 E4.407
G1 X152.081 Y90.909 E4.53074
G1 X153.595 Y93.144 E4.65644
G1 X154.325 Y94.167 E4.71496
G1 X154.561 Y94.522 E4.73481
G1 X154.884 Y95.045 E4.76343
G1 X155.225 Y95.674 E4.79675
G1 X155.494 Y96.336 E4.83002
G1 X155.688 Y97.025 E4.86335
G1 X155.803 Y97.731 E4.89666
G1 X155.837 Y98.247 E4.92074
G1 X155.858 Y99.083 E4.95968
G1 X155.86 Y99.194 E4.96485
G1 X155.877 Y101.374 E5.06636
G1 X155.877 Y101.424 E5.06869
G1 X155.876 Y123.994 E6.11964
G1 X155.875 Y124.083 E6.12379
G1 X155.863 Y124.948 E6.16407
G1 X155.859 Y125.115 E6.17185
G1 X155.845 Y125.465 E6.18816
G1 X155.836 Y125.627 E6.19571
G1 X155.791 Y126.315 E6.22782
G1 X155.762 Y126.636 E6.24282
G1 X155.737 Y126.851 E6.2529
G1 X155.714 Y127.025 E6.26108
G1 X155.683 Y127.24 E6.27119
G1 X155.661 Y127.383 E6.27793
G1 X155.533 Y128.148 E6.31404
G1 X155.455 Y128.54 E6.33266
G1 X155.396 Y128.794 E6.3448
G1 X155.363 Y128.928 E6.35122
G1 X155.3 Y129.175 E6.36309
G1 X155.265 Y129.308 E6.3695
G1 X155.082 Y129.966 E6.4013
G1 X154.988 Y130.275 E6.41634
G1 X154.919 Y130.482 E6.4265
G1 X154.857 Y130.657 E6.43514
G1 X154.767 Y130.903 E6.44734
G1 X154.714 Y131.043 E6.45431
G1 X154.449 Y131.718 E6.48808
G1 X154.318 Y132.027 E6.50371
G1 X154.223 Y132.236 E6.5144
G1 X154.147 Y132.398 E6.52273
G1 X154.04 Y132.617 E6.53408
G1 X153.979 Y132.739 E6.54043
G1 X153.644 Y133.389 E6.57448
G1 X153.461 Y133.72 E6.59209
G1 X153.314 Y133.968 E6.60551
G1 X153.24 Y134.09 E6.61216
G1 X153.116 Y134.289 E6.62308
G1 X153.035 Y134.416 E6.63009
G1 X152.655 Y134.995 E6.66234
G1 X152.451 Y135.286 E6.67889
G1 X152.318 Y135.466 E6.68931
G1 X152.233 Y135.579 E6.69589
G1 X152.052 Y135.813 E6.70967
G1 X151.955 Y135.936 E6.71696
G1 X151.523 Y136.467 E6.74884
G1 X151.243 Y136.788 E6.76867
G1 X150.921 Y137.134 E6.79068
G1 X150.749 Y137.312 E6.80221
G1 X150.216 Y137.842 E6.83721
G1 X149.955 Y138.087 E6.85388
G1 X149.748 Y138.271 E6.86677
G1 X149.627 Y138.377 E6.87426
G1 X149.44 Y138.535 E6.88566
G1 X149.337 Y138.619 E6.89185
G1 X148.832 Y139.028 E6.92211
G1 X148.513 Y139.271 E6.94078
G1 X148.115 Y139.554 E6.96352
G1 X147.91 Y139.693 E6.97506
G1 X147.288 Y140.1 E7.00967
G1 X146.965 Y140.299 E7.02733
G1 X146.738 Y140.429 E7.03951
G1 X146.585 Y140.514 E7.04766
G1 X146.382 Y140.623 E7.05839
G1 X146.292 Y140.67 E7.06312
G1 X145.663 Y140.995 E7.09609
G1 X145.309 Y141.164 E7.11435
G1 X145.028 Y141.288 E7.12866
G1 X144.794 Y141.386 E7.14047
G1 X143.938 Y141.724 E7.18332
G1 X143.57 Y141.856 E7.20153
G1 X143.352 Y141.927 E7.2122
G1 X143.101 Y142.003 E7.22442
G1 X142.197 Y142.257 E7.26814
G1 X141.879 Y142.338 E7.28342
G1 X141.583 Y142.405 E7.29755
G1 X141.308 Y142.461 E7.31062
G1 X141.081 Y142.502 E7.32136
G1 X141.012 Y142.514 E7.32462
G1 X140.351 Y142.626 E7.35584
G1 X140.011 Y142.674 E7.37183
G1 X139.723 Y142.707 E7.38533
G1 X139.519 Y142.727 E7.39487
G1 X139.264 Y142.748 E7.40678
G1 X139.138 Y142.758 E7.41267
G1 X138.45 Y142.801 E7.44477
G1 X138.172 Y142.812 E7.45772
G1 X137.642 Y142.822 E7.48241
G1 X137.521 Y142.823 E7.48804
G1 X82.758 Y142.827 E10.03804
G1 X82.757 Y142.827 E10.03808
G1 X73.153 Y142.826 E10.48529
G1 X73.035 Y142.825 E10.49078
G1 X71.532 Y142.797 E10.56078
G1 X71.313 Y142.789 E10.57098
G1 X71.086 Y142.777 E10.58157
G1 X70.715 Y142.747 E10.5989
G1 X69.952 Y142.662 E10.63465
G1 X69.747 Y142.635 E10.64428
G1 X69.241 Y142.562 E10.66808
G1 X68.883 Y142.5 E10.685
G1 X68.597 Y142.442 E10.69859
G1 X68.438 Y142.408 E10.70616
G1 X68.207 Y142.355 E10.71719
G1 X68.072 Y142.323 E10.72366
G1 X67.414 Y142.157 E10.75525
G1 X67.089 Y142.065 E10.77098
G1 X66.853 Y141.992 E10.78249
G1 X66.691 Y141.94 E10.79041
G1 X66.443 Y141.856 E10.8026
G1 X66.315 Y141.811 E10.80892
G1 X65.661 Y141.574 E10.84131
G1 X65.307 Y141.434 E10.85903
G1 X65.052 Y141.324 E10.87197
G1 X64.913 Y141.262 E10.87905
G1 X64.689 Y141.159 E10.89053
G1 X64.561 Y141.098 E10.89714
G1 X63.951 Y140.801 E10.92873
G1 X63.668 Y140.654 E10.94358
G1 X63.439 Y140.528 E10.95575
G1 X63.256 Y140.424 E10.96555
G1 X63.027 Y140.288 E10.97795
G1 X62.918 Y140.222 E10.98388
G1 X62.34 Y139.863 E11.01557
G1 X62.045 Y139.668 E11.03203
G1 X61.808 Y139.502 E11.04551
G1 X61.675 Y139.406 E11.05314
G1 X61.51 Y139.284 E11.0627
G1 X61.409 Y139.208 E11.06859
G1 X60.847 Y138.775 E11.10162
G1 X60.579 Y138.556 E11.11774
G1 X60.407 Y138.408 E11.1283
G1 X60.278 Y138.295 E11.13629
G1 X60.071 Y138.107 E11.14931
G1 X59.961 Y138.005 E11.15629
G1 X59.441 Y137.51 E11.18972
G1 X59.182 Y137.248 E11.20688
G1 X59.006 Y137.06 E11.21887
G1 X58.883 Y136.924 E11.22741
G1 X58.746 Y136.769 E11.23704
G1 X58.673 Y136.685 E11.24222
G1 X58.19 Y136.119 E11.27687
G1 X57.969 Y135.846 E11.29323
G1 X57.802 Y135.627 E11.30605
G1 X57.64 Y135.405 E11.31885
G1 X57.111 Y134.646 E11.36193
G1 X56.885 Y134.298 E11.38125
G1 X56.755 Y134.083 E11.39295
G1 X56.688 Y133.969 E11.3991
G1 X56.564 Y133.754 E11.41066
G1 X56.495 Y133.633 E11.41715
G1 X56.158 Y133.018 E11.4498
G1 X55.988 Y132.685 E11.46721
G1 X55.868 Y132.432 E11.48025
G1 X55.801 Y132.286 E11.48773
G1 X55.706 Y132.072 E11.49863
G1 X55.657 Y131.957 E11.50445
G1 X55.389 Y131.32 E11.53663
G1 X55.234 Y130.915 E11.55683
G1 X55.082 Y130.472 E11.57863
G1 X55.012 Y130.254 E11.5893
G1 X54.791 Y129.526 E11.62472
G1 X54.698 Y129.185 E11.64118
G1 X54.646 Y128.972 E11.65139
G1 X54.606 Y128.799 E11.65966
G1 X54.557 Y128.571 E11.67052
G1 X54.535 Y128.466 E11.67551
G1 X54.393 Y127.747 E11.70964
G1 X54.32 Y127.289 E11.73123
G1 X54.265 Y126.842 E11.75221
G1 X54.242 Y126.628 E11.76223
G1 X54.173 Y125.854 E11.79841
G1 X54.149 Y125.417 E11.81879
G1 X54.124 Y124.192 E11.87584
G1 X54.123 Y124.061 E11.88194
G1 X54.124 Y94.906 E13.23952
G1 X54.125 Y94.815 E13.24376
G1 X54.133 Y94.254 E13.26989
G1 X54.138 Y94.06 E13.27892
G1 X54.17 Y93.342 E13.31239
G1 X54.184 Y93.125 E13.32251
G1 X54.205 Y92.858 E13.33498
G1 X54.275 Y92.292 E13.36154
G1 X54.418 Y91.447 E13.40145
G1 X54.577 Y90.747 E13.43487
G1 X54.83 Y89.867 E13.47751
G1 X55.094 Y89.124 E13.51422
G1 X55.483 Y88.212 E13.56039
G1 X55.855 Y87.475 E13.59883
G1 X56.358 Y86.621 E13.64499
G1 X56.806 Y85.959 E13.68221
G1 X57.377 Y85.219 E13.72573
G1 X57.906 Y84.616 E13.76308
G1 X58.621 Y83.897 E13.8103
G1 X59.238 Y83.352 E13.84863
G1 X59.976 Y82.78 E13.89211
M204 S3000
M205 X10 Y10
G0 F2666.7 X60.319 Y83.222
M204 S1800
M205 X8 Y8
G1 F1800 X60.914 Y82.817 E13.92562
G1 X61.769 Y82.309 E13.97193
G1 X62.433 Y81.97 E14.00665
G1 X63.316 Y81.588 E14.05145
G1 X63.994 Y81.343 E14.08501
G1 X64.882 Y81.083 E14.1281
G1 X65.576 Y80.925 E14.16124
G1 X66.544 Y80.766 E14.20692
G1 X67.278 Y80.693 E14.24127
G1 X68.511 Y80.648 E14.29872
G1 X68.705 Y80.644 E14.30775
G1 X71.799 Y80.634 E14.45182
G1 X71.818 Y80.634 E14.45271
G1 X126.919 Y80.633 E17.01844
G1 X136.799 Y80.634 E17.4785
G1 X136.88 Y80.635 E17.48227
G1 X137.519 Y80.644 E17.51203
G1 X137.693 Y80.649 E17.52013
G1 X138.149 Y80.669 E17.54138
G1 X138.492 Y80.694 E17.5574
G1 X139.336 Y80.781 E17.59691
G1 X140.033 Y80.896 E17.6298
G1 X140.956 Y81.106 E17.67388
G1 X141.632 Y81.303 E17.70667
G1 X142.524 Y81.623 E17.75079
G1 X143.199 Y81.915 E17.78504
G1 X144.074 Y82.36 E17.83075
G1 X144.712 Y82.736 E17.86523
G1 X145.494 Y83.268 E17.90927
G1 X146.05 Y83.698 E17.942
G1 X146.752 Y84.311 E17.9854
G1 X147.272 Y84.826 E18.01948
G1 X147.939 Y85.575 E18.06618
G1 X148.393 Y86.154 E18.10044
G1 X148.925 Y86.929 E18.14421
G1 X149.085 Y87.175 E18.15787
G1 X149.904 Y88.507 E18.23068
G1 X149.94 Y88.568 E18.23398
G1 X150.177 Y88.964 E18.25547
G1 X151.605 Y91.206 E18.37925
G1 X153.123 Y93.446 E18.50524
G1 X153.87 Y94.493 E18.56513
G1 X154.085 Y94.816 E18.5832
G1 X154.408 Y95.339 E18.61182
G1 X154.732 Y95.941 E18.64366
G1 X154.984 Y96.576 E18.67547
G1 X155.16 Y97.236 E18.70728
G1 X155.258 Y97.912 E18.73908
G1 X155.277 Y98.261 E18.75536
G1 X155.298 Y99.097 E18.7943
G1 X155.3 Y99.198 E18.799
G1 X155.317 Y101.378 E18.90051
G1 X155.317 Y101.424 E18.90266
G1 X155.316 Y123.994 E19.95361
G1 X155.315 Y124.075 E19.95738
G1 X155.303 Y124.94 E19.99766
G1 X155.299 Y125.092 E20.00474
G1 X155.285 Y125.442 E20.02105
G1 X155.278 Y125.59 E20.02795
G1 X155.233 Y126.278 E20.06006
G1 X155.206 Y126.572 E20.07381
G1 X155.181 Y126.787 E20.08388
G1 X155.16 Y126.945 E20.09131
G1 X155.129 Y127.16 E20.10142
G1 X155.109 Y127.291 E20.10759
G1 X154.981 Y128.056 E20.14371
G1 X154.91 Y128.413 E20.16066
G1 X154.851 Y128.667 E20.1728
G1 X154.821 Y128.789 E20.17865
G1 X154.758 Y129.036 E20.19052
G1 X154.725 Y129.158 E20.1964
G1 X154.542 Y129.816 E20.22821
G1 X154.456 Y130.098 E20.24193
G1 X154.387 Y130.305 E20.25209
G1 X154.331 Y130.465 E20.25999
G1 X154.241 Y130.711 E20.27218
G1 X154.193 Y130.838 E20.27851
G1 X153.928 Y131.513 E20.31227
G1 X153.809 Y131.796 E20.32657
G1 X153.714 Y132.005 E20.33726
G1 X153.644 Y132.152 E20.34484
G1 X153.537 Y132.371 E20.35619
G1 X153.481 Y132.482 E20.36198
G1 X153.146 Y133.132 E20.39603
G1 X152.979 Y133.435 E20.41214
G1 X152.832 Y133.683 E20.42556
G1 X152.765 Y133.793 E20.43156
G1 X152.641 Y133.992 E20.44248
G1 X152.566 Y134.108 E20.44891
G1 X152.186 Y134.687 E20.48116
G1 X152.001 Y134.954 E20.49628
G1 X151.868 Y135.134 E20.50671
G1 X151.79 Y135.236 E20.51268
G1 X151.609 Y135.47 E20.52646
G1 X151.52 Y135.583 E20.53316
G1 X151.088 Y136.114 E20.56503
G1 X150.833 Y136.407 E20.58312
G1 X150.511 Y136.753 E20.60513
G1 X150.354 Y136.915 E20.61563
G1 X149.821 Y137.445 E20.65063
G1 X149.583 Y137.669 E20.66585
G1 X149.376 Y137.853 E20.67875
G1 X149.265 Y137.949 E20.68558
G1 X149.078 Y138.107 E20.69698
G1 X148.985 Y138.184 E20.7026
G1 X148.48 Y138.593 E20.73286
G1 X148.188 Y138.814 E20.74991
G1 X147.79 Y139.097 E20.77265
G1 X147.604 Y139.225 E20.78317
G1 X146.982 Y139.632 E20.81778
G1 X146.686 Y139.813 E20.83394
G1 X146.459 Y139.943 E20.84612
G1 X146.32 Y140.02 E20.85352
G1 X146.117 Y140.129 E20.86425
G1 X146.035 Y140.172 E20.86856
G1 X145.406 Y140.497 E20.90152
G1 X145.083 Y140.652 E20.91821
G1 X144.802 Y140.776 E20.93251
G1 X144.589 Y140.865 E20.94326
G1 X143.733 Y141.203 E20.98611
G1 X143.397 Y141.324 E21.00274
G1 X143.179 Y141.395 E21.01342
G1 X142.95 Y141.464 E21.02455
G1 X142.046 Y141.718 E21.06828
G1 X141.755 Y141.792 E21.08226
G1 X141.459 Y141.859 E21.09639
G1 X141.208 Y141.91 E21.10832
G1 X140.981 Y141.951 E21.11906
G1 X140.919 Y141.962 E21.12199
G1 X140.258 Y142.074 E21.15321
G1 X139.947 Y142.118 E21.16783
G1 X139.659 Y142.151 E21.18133
G1 X139.473 Y142.169 E21.19003
G1 X139.218 Y142.19 E21.20195
G1 X139.103 Y142.199 E21.20732
G1 X138.415 Y142.242 E21.23942
G1 X138.161 Y142.252 E21.25125
G1 X137.631 Y142.262 E21.27594
G1 X137.521 Y142.263 E21.28106
G1 X82.758 Y142.267 E23.83105
G1 X82.757 Y142.267 E23.8311
G1 X73.153 Y142.266 E24.2783
G1 X73.045 Y142.265 E24.28333
G1 X71.542 Y142.237 E24.35333
G1 X71.343 Y142.23 E24.3626
G1 X71.116 Y142.218 E24.37319
G1 X70.777 Y142.19 E24.38903
G1 X70.014 Y142.105 E24.42477
G1 X69.827 Y142.081 E24.43355
G1 X69.321 Y142.008 E24.45736
G1 X68.994 Y141.951 E24.47281
G1 X68.708 Y141.893 E24.4864
G1 X68.563 Y141.862 E24.49331
G1 X68.332 Y141.809 E24.50434
G1 X68.209 Y141.78 E24.51023
G1 X67.551 Y141.614 E24.54183
G1 X67.254 Y141.53 E24.5562
G1 X67.018 Y141.457 E24.5677
G1 X66.87 Y141.409 E24.57495
G1 X66.622 Y141.325 E24.58714
G1 X66.506 Y141.285 E24.59285
G1 X65.852 Y141.048 E24.62524
G1 X65.529 Y140.919 E24.64144
G1 X65.274 Y140.809 E24.65437
G1 X65.147 Y140.753 E24.66083
G1 X64.923 Y140.65 E24.67231
G1 X64.807 Y140.595 E24.67829
G1 X64.197 Y140.298 E24.70988
G1 X63.938 Y140.164 E24.72346
G1 X63.709 Y140.038 E24.73563
G1 X63.542 Y139.942 E24.7446
G1 X63.313 Y139.806 E24.757
G1 X63.214 Y139.746 E24.76239
G1 X62.636 Y139.387 E24.79408
G1 X62.367 Y139.209 E24.8091
G1 X62.13 Y139.043 E24.82257
G1 X62.008 Y138.956 E24.82955
G1 X61.843 Y138.834 E24.8391
G1 X61.751 Y138.764 E24.84449
G1 X61.189 Y138.331 E24.87752
G1 X60.944 Y138.132 E24.89222
G1 X60.772 Y137.984 E24.90278
G1 X60.655 Y137.88 E24.91007
G1 X60.448 Y137.692 E24.92309
G1 X60.347 Y137.599 E24.92949
G1 X59.827 Y137.104 E24.96292
G1 X59.591 Y136.865 E24.97856
G1 X59.415 Y136.677 E24.99055
G1 X59.302 Y136.554 E24.99833
G1 X59.165 Y136.399 E25.00796
G1 X59.099 Y136.322 E25.01268
G1 X58.616 Y135.756 E25.04733
G1 X58.414 Y135.506 E25.06229
G1 X58.247 Y135.287 E25.07512
G1 X58.1 Y135.085 E25.08675
G1 X57.571 Y134.326 E25.12983
G1 X57.365 Y134.009 E25.14743
G1 X57.235 Y133.794 E25.15913
G1 X57.173 Y133.69 E25.16477
G1 X57.049 Y133.475 E25.17633
G1 X56.987 Y133.363 E25.18229
G1 X56.65 Y132.748 E25.21494
G1 X56.494 Y132.445 E25.23081
G1 X56.374 Y132.192 E25.24385
G1 X56.313 Y132.059 E25.25067
G1 X56.218 Y131.845 E25.26157
G1 X56.173 Y131.74 E25.26689
G1 X55.905 Y131.103 E25.29907
G1 X55.764 Y130.733 E25.3175
G1 X55.612 Y130.29 E25.33931
G1 X55.548 Y130.091 E25.34905
G1 X55.327 Y129.363 E25.38447
G1 X55.242 Y129.052 E25.39949
G1 X55.19 Y128.839 E25.40969
G1 X55.153 Y128.681 E25.41725
G1 X55.104 Y128.453 E25.42811
G1 X55.085 Y128.358 E25.43262
G1 X54.943 Y127.639 E25.46675
G1 X54.876 Y127.22 E25.48651
G1 X54.821 Y126.773 E25.50748
G1 X54.8 Y126.579 E25.51656
G1 X54.731 Y125.805 E25.55275
G1 X54.709 Y125.405 E25.5714
G1 X54.684 Y124.18 E25.62845
G1 X54.683 Y124.061 E25.634
G1 X54.684 Y94.906 E26.99157
G1 X54.685 Y94.823 E26.99544
G1 X54.693 Y94.262 E27.02156
G1 X54.698 Y94.085 E27.02981
G1 X54.73 Y93.367 E27.06328
G1 X54.742 Y93.169 E27.07251
G1 X54.763 Y92.902 E27.08498
G1 X54.827 Y92.386 E27.10919
G1 X54.97 Y91.541 E27.1491
G1 X55.115 Y90.901 E27.17966
G1 X55.368 Y90.021 E27.22229
G1 X55.609 Y89.344 E27.25576
G1 X55.998 Y88.432 E27.30192
G1 X56.338 Y87.759 E27.33703
G1 X56.841 Y86.905 E27.38318
G1 X57.249 Y86.301 E27.41712
G1 X57.82 Y85.561 E27.46065
G1 X58.303 Y85.011 E27.49473
G1 X59.018 Y84.292 E27.54195
G1 X59.581 Y83.794 E27.57695
G1 X60.319 Y83.222 E27.62042
M204 S3000
M205 X10 Y10
G0 F2666.7 X60.662 Y83.665
M204 S1800
M205 X8 Y8
G1 F1800 X61.2 Y83.299 E27.65072
G1 X62.055 Y82.791 E27.69703
G1 X62.656 Y82.484 E27.72846
G1 X63.539 Y82.102 E27.77326
G1 X64.151 Y81.881 E27.80356
G1 X65.039 Y81.621 E27.84664
G1 X65.667 Y81.478 E27.87663
G1 X66.635 Y81.319 E27.92231
G1 X67.298 Y81.253 E27.95333
G1 X68.531 Y81.208 E28.01079
G1 X68.707 Y81.204 E28.01898
G1 X71.801 Y81.194 E28.16305
G1 X71.818 Y81.194 E28.16384
G1 X126.919 Y81.193 E30.72958
