;FLAVOR:Marlin
;TIME:1067
;Filament used: 0.64099m
;Layer height: 0.1
;MINX:85.55
;MINY:81.199
;MINZ:0.36
;MAXX:133.156
;MAXY:128.799
;MAXZ:9.46
;Generated with Cura_SteamEngine 4.8.0
M140 S60
M105
M190 S60
M104 S215
M105
M109 S215
M82 ;absolute extrusion mode
M140 S60
M105
M190 S60
M104 S200
M105
M109 S200
M82 ;absolute extrusion mode
G28
G29
M501
G92 E0 ;zero the extruded length
G1 F200 E3 ;extrude 3mm of feed stock
G92 E0 ;zero the extruded length again
G1 F100
M117 Printing...
G92 E0
G92 E0
;LAYER_COUNT:84
;LAYER:-9
M107
G0 F5400 X92.519 Y88.454 Z0.36
;TYPE:SUPPORT-INTERFACE
G1 F1350 X92.608 Y88.365 E0.01507
G1 X93.341 Y87.656 E0.13718
G1 X93.787 Y87.254 E0.20907
G1 X94.538 Y86.624 E0.32644
G1 X95.063 Y86.212 E0.40635
G1 X95.848 Y85.642 E0.52251
G1 X96.359 Y85.295 E0.59647
G1 X96.434 Y85.246 E0.60719
G1 X97.273 Y84.72 E0.72576
G1 X97.754 Y84.442 E0.79228
G1 X97.837 Y84.396 E0.80365
G1 X98.749 Y83.911 E0.92733
G1 X99.337 Y83.626 E1.00557
G1 X100.132 Y83.272 E1.10977
G1 X100.159 Y83.264 E1.11314
G1 X100.181 Y83.251 E1.1162
G1 X100.784 Y83.006 E1.19413
G1 X101.795 Y82.637 E1.323
G1 X102.298 Y82.475 E1.38627
G1 X103.28 Y82.192 E1.50864
G1 X103.407 Y82.157 E1.52441
G1 X103.956 Y82.021 E1.59213
G1 X104.948 Y81.81 E1.71357
G1 X105.562 Y81.702 E1.78822
G1 X106.489 Y81.572 E1.9003
G1 X106.643 Y81.553 E1.91888
G1 X107.201 Y81.494 E1.98606
G1 X108.171 Y81.426 E2.10249
G1 X108.809 Y81.402 E2.17894
G1 X109.81 Y81.4 E2.29879
G1 X110.398 Y81.419 E2.36924
G1 X110.505 Y81.424 E2.38206
G1 X111.564 Y81.5 E2.50919
G1 X112.166 Y81.565 E2.58169
G1 X113.101 Y81.696 E2.69474
G1 X113.201 Y81.712 E2.70686
G1 X113.769 Y81.812 E2.77592
G1 X114.727 Y82.016 E2.8932
G1 X115.325 Y82.164 E2.96696
G1 X116.254 Y82.428 E3.0826
G1 X116.856 Y82.62 E3.15826
G1 X117.838 Y82.974 E3.28325
G1 X117.972 Y83.026 E3.30046
G1 X118.485 Y83.234 E3.36674
G1 X119.35 Y83.617 E3.48001
G1 X119.91 Y83.888 E3.5545
G1 X119.981 Y83.924 E3.56403
G1 X120.934 Y84.432 E3.69334
G1 X121.467 Y84.742 E3.76717
G1 X122.301 Y85.265 E3.88504
G1 X122.761 Y85.575 E3.95146
G1 X123.576 Y86.164 E4.07186
G1 X123.649 Y86.218 E4.08273
G1 X124.088 Y86.56 E4.14937
G1 X124.831 Y87.181 E4.26531
G1 X125.317 Y87.613 E4.34317
G1 X125.364 Y87.656 E4.3508
G1 X126.042 Y88.309 E4.46351
G1 X126.146 Y88.413 E4.48112
G1 X126.469 Y88.746 E4.53667
G1 X126.561 Y88.844 E4.55276
G1 X127.216 Y89.569 E4.66975
G1 X127.603 Y90.03 E4.74182
G1 X127.678 Y90.122 E4.75603
G1 X128.237 Y90.837 E4.8647
G1 X128.612 Y91.352 E4.94098
G1 X129.208 Y92.234 E5.06844
G1 X129.546 Y92.776 E5.14493
G1 X130.043 Y93.637 E5.26396
G1 X130.332 Y94.18 E5.33761
G1 X130.753 Y95.04 E5.45226
G1 X130.821 Y95.187 E5.47166
G1 X131.022 Y95.638 E5.53078
G1 X131.423 Y96.627 E5.65856
G1 X131.606 Y97.129 E5.72254
G1 X131.652 Y97.261 E5.73928
G1 X131.929 Y98.108 E5.84598
G1 X132.108 Y98.722 E5.92256
G1 X132.127 Y98.791 E5.93113
G1 X132.367 Y99.748 E6.04926
G1 X132.496 Y100.349 E6.12286
G1 X132.689 Y101.447 E6.25635
G1 X132.773 Y102.056 E6.32996
G1 X132.877 Y103.045 E6.44903
G1 X132.918 Y103.616 E6.51758
G1 X132.956 Y104.676 E6.64458
G1 X132.955 Y105.311 E6.72061
G1 X132.923 Y106.27 E6.8355
G1 X132.884 Y106.856 E6.90582
G1 X132.877 Y106.945 E6.91651
G1 X132.77 Y107.974 E7.04039
G1 X132.699 Y108.487 E7.1024
G1 X132.684 Y108.582 E7.11391
G1 X132.515 Y109.548 E7.23133
G1 X132.385 Y110.164 E7.30672
G1 X132.15 Y111.119 E7.42448
G1 X132.108 Y111.273 E7.44359
G1 X131.983 Y111.712 E7.49824
G1 X131.949 Y111.828 E7.51272
G1 X131.656 Y112.731 E7.62639
G1 X131.445 Y113.312 E7.7004
G1 X131.402 Y113.425 E7.71488
G1 X131.036 Y114.329 E7.83165
G1 X130.785 Y114.891 E7.90535
G1 X130.368 Y115.749 E8.01958
G1 X130.106 Y116.247 E8.08695
G1 X130.039 Y116.368 E8.10352
G1 X129.563 Y117.197 E8.21798
G1 X129.254 Y117.695 E8.28815
G1 X129.168 Y117.826 E8.30691
G1 X128.608 Y118.655 E8.4267
G1 X128.284 Y119.101 E8.49271
G1 X127.638 Y119.928 E8.61836
G1 X127.267 Y120.37 E8.68745
G1 X127.192 Y120.456 E8.70112
G1 X126.531 Y121.189 E8.8193
G1 X126.188 Y121.545 E8.87849
G1 X126.071 Y121.662 E8.8983
G1 X125.421 Y122.29 E9.00652
G1 X125.34 Y122.368 E9.01999
G1 X124.919 Y122.746 E9.08773
G1 X124.115 Y123.419 E9.21328
G1 X123.622 Y123.803 E9.2881
G1 X122.812 Y124.392 E9.40802
G1 X122.352 Y124.704 E9.47457
G1 X121.425 Y125.285 E9.60557
G1 X120.953 Y125.558 E9.67085
G1 X120.87 Y125.604 E9.68222
G1 X119.976 Y126.08 E9.80349
G1 X119.37 Y126.374 E9.88414
G1 X118.555 Y126.737 E9.99096
G1 X117.935 Y126.99 E10.07114
G1 X116.912 Y127.363 E10.20152
G1 X116.409 Y127.525 E10.2648
G1 X115.427 Y127.808 E10.38716
G1 X115.3 Y127.843 E10.40294
G1 X114.751 Y127.979 E10.47066
G1 X113.759 Y128.19 E10.59209
G1 X113.145 Y128.298 E10.66674
G1 X112.218 Y128.428 E10.77882
G1 X112.063 Y128.447 E10.79752
G1 X111.605 Y128.496 E10.85267
G1 X111.472 Y128.508 E10.86866
G1 X110.433 Y128.58 E10.99337
G1 X109.848 Y128.599 E11.06345
G1 X108.832 Y128.599 E11.1851
G1 X108.202 Y128.576 E11.26059
G1 X107.143 Y128.5 E11.38771
G1 X106.539 Y128.435 E11.46045
G1 X105.606 Y128.304 E11.57326
G1 X105.506 Y128.288 E11.58539
G1 X104.938 Y128.188 E11.65445
G1 X103.98 Y127.984 E11.77172
G1 X103.382 Y127.836 E11.84549
G1 X102.453 Y127.572 E11.96113
G1 X101.848 Y127.379 E12.03716
G1 X100.867 Y127.024 E12.16208
G1 X100.728 Y126.971 E12.17989
G1 X100.204 Y126.758 E12.24762
G1 X99.35 Y126.379 E12.35949
G1 X98.797 Y126.112 E12.43302
G1 X98.72 Y126.073 E12.44335
G1 X97.838 Y125.604 E12.56296
G1 X97.31 Y125.3 E12.63592
G1 X97.246 Y125.262 E12.64483
G1 X96.481 Y124.784 E12.75284
G1 X96.375 Y124.715 E12.76798
G1 X95.945 Y124.426 E12.83002
G1 X95.064 Y123.787 E12.96033
G1 X94.581 Y123.409 E13.03377
G1 X93.799 Y122.754 E13.15591
G1 X93.333 Y122.335 E13.23094
G1 X92.643 Y121.67 E13.34569
G1 X92.54 Y121.567 E13.36313
G1 X92.142 Y121.153 E13.43189
G1 X91.518 Y120.46 E13.54355
G1 X91.436 Y120.367 E13.55839
G1 X91.083 Y119.946 E13.62418
G1 X90.428 Y119.108 E13.75153
G1 X90.104 Y118.662 E13.81754
G1 X89.543 Y117.833 E13.93739
G1 X89.458 Y117.702 E13.95609
G1 X89.158 Y117.22 E14.02407
G1 X88.641 Y116.321 E14.14824
G1 X88.394 Y115.857 E14.21118
G1 X87.944 Y114.938 E14.3337
G1 X87.89 Y114.824 E14.34881
G1 X87.658 Y114.299 E14.41753
G1 X87.308 Y113.432 E14.52948
G1 X87.265 Y113.321 E14.54374
G1 X87.091 Y112.844 E14.60453
G1 X86.772 Y111.871 E14.72714
G1 X86.586 Y111.231 E14.80694
G1 X86.331 Y110.212 E14.93271
G1 X86.211 Y109.651 E15.00141
G1 X86.016 Y108.539 E15.13658
G1 X85.933 Y107.938 E15.20923
G1 X85.835 Y107.015 E15.32037
G1 X85.788 Y106.357 E15.39935
G1 X85.751 Y105.324 E15.52312
G1 X85.752 Y104.677 E15.60059
G1 X85.785 Y103.715 E15.71585
G1 X85.823 Y103.144 E15.78437
G1 X85.831 Y103.047 E15.79602
G1 X85.926 Y102.12 E15.9076
G1 X85.943 Y101.981 E15.92436
G1 X86.01 Y101.5 E15.98251
G1 X86.029 Y101.381 E15.99694
G1 X86.193 Y100.446 E16.11061
G1 X86.323 Y99.827 E16.18634
G1 X86.341 Y99.754 E16.19534
G1 X86.557 Y98.881 E16.30302
G1 X86.726 Y98.282 E16.37755
G1 X86.765 Y98.152 E16.3938
G1 X87.057 Y97.255 E16.50675
G1 X87.279 Y96.64 E16.58504
G1 X87.649 Y95.721 E16.70366
G1 X87.883 Y95.193 E16.77281
G1 X87.931 Y95.089 E16.78652
G1 X88.338 Y94.254 E16.89775
G1 X88.397 Y94.138 E16.91333
G1 X88.63 Y93.7 E16.97273
G1 X89.13 Y92.829 E17.09299
G1 X89.214 Y92.688 E17.11264
G1 X89.522 Y92.197 E17.18204
G1 X90.08 Y91.372 E17.3013
G1 X90.463 Y90.846 E17.3792
G1 X91.125 Y90.004 E17.50745
G1 X91.523 Y89.534 E17.58119
G1 X92.121 Y88.87 E17.68819
G1 X92.519 Y88.454 E17.75712
G0 F5400 X92.8 Y88.179
G1 F1350 X92.8 Y121.821 E21.7853
G0 F5400 X94.4 Y123.257
G1 F1350 X94.4 Y86.739 E26.15784
G0 F5400 X96 Y85.538
G1 F1350 X96 Y124.462 E30.81846
G0 F5400 X97.6 Y125.466
G1 F1350 X97.6 Y84.531 E35.71987
G0 F5400 X99.2 Y83.692
G1 F1350 X99.2 Y126.306 E40.82232
G0 F5400 X100.8 Y126.998
G1 F1350 X100.8 Y83 E46.09049
G0 F5400 X102.4 Y82.445
G1 F1350 X102.4 Y127.555 E51.4918
G0 F5400 X104 Y127.988
G1 F1350 X104 Y82.011 E56.99693
G0 F5400 X105.6 Y81.696
G1 F1350 X105.6 Y128.303 E62.57748
G0 F5400 X107.2 Y128.504
G1 F1350 X107.2 Y81.494 E68.2063
G0 F5400 X108.8 Y81.402
G1 F1350 X108.8 Y128.597 E73.85726
G0 F5400 X110.4 Y128.582
G1 F1350 X110.4 Y81.42 E79.50427
G0 F5400 X112 Y81.548
G1 F1350 X112 Y128.454 E85.12063
G0 F5400 X113.6 Y128.218
G1 F1350 X113.6 Y81.783 E90.6806
G0 F5400 X115.2 Y82.134
G1 F1350 X115.2 Y127.868 E96.15662
G0 F5400 X116.8 Y127.4
G1 F1350 X116.8 Y82.603 E101.52046
G0 F5400 X118.4 Y83.2
G1 F1350 X118.4 Y126.801 E106.74109
G0 F5400 X120 Y126.068
G1 F1350 X120 Y83.935 E111.78595
G0 F5400 X121.6 Y84.826
G1 F1350 X121.6 Y125.176 E116.61731
G0 F5400 X123.2 Y124.11
G1 F1350 X123.2 Y85.893 E121.19328
G0 F5400 X124.8 Y87.156
G1 F1350 X124.8 Y122.846 E125.46668
G0 F5400 X126.4 Y121.325
G1 F1350 X126.4 Y88.675 E129.37608
G0 F5400 X128 Y90.534
G1 F1350 X128 Y119.465 E132.84017
G0 F5400 X129.6 Y117.133
G1 F1350 X129.6 Y92.87 E135.74534
G0 F5400 X131.2 Y96.078
G1 F1350 X131.2 Y113.924 E137.88216
G0 F5400 X132.8 Y107.686
G1 F1350 X132.8 Y102.313 E138.5255
G0 F5400 X91.2 Y89.915
G1 F1350 X91.2 Y120.085 E142.13795
G0 F5400 X89.6 Y117.917
G1 F1350 X89.6 Y92.081 E145.23146
G0 F5400 X88 Y94.947
G1 F1350 X88 Y115.052 E147.63876
G0 F5400 X86.4 Y110.487
G1 F1350 X86.4 Y99.515 E148.95251
G0 F600 X86.4 Y99.515 Z0.51
G0 F5400 X89.542 Y117.832
;TIME_ELAPSED:58.764590
;LAYER:-8
;TYPE:SUPPORT
G1 F1350 X90.103 Y118.661 E149.00245
G1 X90.428 Y119.107 E149.02998
G1 X91.083 Y119.945 E149.08305
G1 X91.435 Y120.366 E149.11042
G1 X91.518 Y120.459 E149.11664
G1 X92.142 Y121.152 E149.16317
G1 X92.539 Y121.566 E149.19178
G1 X92.643 Y121.669 E149.19909
G1 X93.333 Y122.334 E149.2469
G1 X93.799 Y122.753 E149.27816
G1 X94.581 Y123.408 E149.32905
G1 X95.064 Y123.786 E149.35965
G1 X95.944 Y124.425 E149.41391
G1 X96.375 Y124.714 E149.4398
G1 X96.48 Y124.783 E149.44607
G1 X96.529 Y124.813 E149.44893
G1 X89.531 Y117.816 E149.94264
G1 X89.458 Y117.701 E149.94944
G1 X89.158 Y117.219 E149.97776
G1 X88.641 Y116.32 E150.0295
G1 X88.394 Y115.856 E150.05573
G1 X87.944 Y114.937 E150.10678
G1 X87.889 Y114.823 E150.11309
G1 X87.838 Y114.708 E150.11937
G1 X99.634 Y126.504 E150.95164
G1 X100.204 Y126.757 E150.98275
G1 X100.728 Y126.97 E151.01097
G1 X100.867 Y127.023 E151.0184
G1 X101.847 Y127.378 E151.0704
G1 X101.957 Y127.412 E151.07614
G1 X86.945 Y112.401 E152.13528
G1 X86.771 Y111.869 E152.16321
G1 X86.585 Y111.23 E152.19641
G1 X86.384 Y110.426 E152.23776
G1 X103.929 Y127.97 E153.47562
G1 X103.98 Y127.983 E153.47824
G1 X104.937 Y128.187 E153.52706
G1 X105.505 Y128.287 E153.55583
G1 X105.606 Y128.303 E153.56094
G1 X105.686 Y128.313 E153.56496
G1 X86.037 Y108.665 E154.95127
G1 X86.016 Y108.538 E154.95769
G1 X85.933 Y107.937 E154.98796
G1 X85.838 Y107.051 E155.03241
G1 X107.296 Y128.509 E156.54639
G1 X108.202 Y128.575 E156.59171
G1 X108.798 Y128.597 E156.62147
G1 X85.759 Y105.558 E158.24699
G1 X85.75 Y105.323 E158.25872
G1 X85.752 Y104.675 E158.29105
G1 X85.769 Y104.154 E158.31706
G1 X110.201 Y128.585 E160.04083
G1 X110.433 Y128.578 E160.05241
G1 X111.471 Y128.507 E160.10432
G1 X111.531 Y128.501 E160.10733
G1 X85.853 Y102.823 E161.91905
G1 X85.926 Y102.118 E161.95441
G1 X85.943 Y101.98 E161.96135
G1 X86.001 Y101.557 E161.98265
G1 X112.789 Y128.346 E163.87272
G1 X113.144 Y128.296 E163.89061
G1 X113.758 Y128.189 E163.9217
G1 X113.996 Y128.138 E163.93385
G1 X86.211 Y100.354 E165.89419
G1 X86.322 Y99.825 E165.92116
G1 X86.341 Y99.753 E165.92487
G1 X86.476 Y99.204 E165.95308
G1 X115.15 Y127.878 E167.97619
G1 X115.3 Y127.842 E167.98388
G1 X115.427 Y127.807 E167.99045
G1 X116.254 Y127.568 E168.0334
G1 X86.783 Y98.096 E170.11278
G1 X87.056 Y97.254 E170.15694
G1 X87.135 Y97.034 E170.1686
G1 X117.315 Y127.214 E172.29796
G1 X117.935 Y126.989 E172.33087
G1 X118.338 Y126.823 E172.35261
G1 X87.529 Y96.015 E174.52632
G1 X87.649 Y95.72 E174.54221
G1 X87.883 Y95.192 E174.57102
G1 X87.93 Y95.088 E174.57671
G1 X87.959 Y95.03 E174.57995
G1 X119.322 Y126.393 E176.79278
G1 X119.37 Y126.373 E176.79537
G1 X119.975 Y126.079 E176.82893
G1 X120.266 Y125.923 E176.8454
G1 X88.425 Y94.081 E179.09199
G1 X88.629 Y93.699 E179.1136
G1 X88.93 Y93.173 E179.14383
G1 X121.181 Y125.424 E181.41931
G1 X121.425 Y125.284 E181.43335
G1 X122.057 Y124.886 E181.47061
G1 X89.462 Y92.29 E183.7704
G1 X89.521 Y92.196 E183.77594
G1 X90.029 Y91.443 E183.82125
G1 X122.907 Y124.321 E186.14097
G1 X123.622 Y123.801 E186.18508
G1 X123.722 Y123.722 E186.19144
G1 X90.63 Y90.63 E188.52626
G1 X91.124 Y90.004 E188.56604
G1 X91.258 Y89.844 E188.57646
G1 X124.505 Y123.091 E190.92221
G1 X124.918 Y122.745 E190.94909
G1 X125.263 Y122.435 E190.97223
G1 X91.919 Y89.091 E193.32483
G1 X92.119 Y88.869 E193.33974
G1 X92.518 Y88.454 E193.36846
G1 X92.607 Y88.365 E193.37474
G1 X125.985 Y121.743 E195.72974
G1 X126.07 Y121.661 E195.73563
G1 X126.187 Y121.544 E195.74388
G1 X126.53 Y121.188 E195.76855
G1 X126.68 Y121.023 E195.77967
G1 X93.326 Y87.669 E198.13298
G1 X93.34 Y87.656 E198.13393
G1 X93.786 Y87.254 E198.16389
G1 X94.079 Y87.008 E198.18297
G1 X127.346 Y120.275 E200.53014
G1 X127.637 Y119.928 E200.55273
G1 X127.977 Y119.492 E200.58032
G1 X94.857 Y86.372 E202.91711
G1 X95.062 Y86.211 E202.93012
G1 X95.67 Y85.77 E202.96759
G1 X128.585 Y118.685 E205.28992
G1 X128.607 Y118.655 E205.29178
G1 X129.156 Y117.842 E205.34072
G1 X96.511 Y85.197 E207.644
G1 X97.272 Y84.719 E207.68883
G1 X97.384 Y84.656 E207.69525
G1 X129.694 Y116.966 E209.97489
G1 X130.038 Y116.368 E210.00931
G1 X130.104 Y116.246 E210.01623
G1 X130.203 Y116.06 E210.02674
G1 X98.294 Y84.152 E212.27806
G1 X98.748 Y83.91 E212.30373
G1 X99.233 Y83.676 E212.33059
G1 X130.674 Y115.118 E214.54896
G1 X130.784 Y114.891 E214.56154
G1 X131.035 Y114.329 E214.59225
G1 X131.111 Y114.141 E214.60237
G1 X100.21 Y83.239 E216.78264
G1 X100.783 Y83.006 E216.8135
G1 X101.229 Y82.844 E216.83717
G1 X131.511 Y113.127 E218.97376
G1 X131.654 Y112.731 E218.99477
G1 X131.869 Y112.07 E219.02945
G1 X102.28 Y82.481 E221.11711
G1 X102.297 Y82.475 E221.11801
G1 X103.279 Y82.191 E221.16901
G1 X103.378 Y82.165 E221.17412
G1 X132.185 Y110.972 E223.20661
G1 X132.384 Y110.164 E223.24812
G1 X132.455 Y109.828 E223.26526
G1 X104.526 Y81.899 E225.2358
G1 X104.947 Y81.809 E225.25728
G1 X105.561 Y81.701 E225.28838
G1 X105.721 Y81.68 E225.29643
G1 X132.674 Y108.632 E227.19807
G1 X132.682 Y108.581 E227.20065
G1 X132.698 Y108.487 E227.20541
G1 X132.769 Y107.973 E227.23129
G1 X132.831 Y107.375 E227.26129
G1 X106.973 Y81.518 E229.08567
G1 X107.2 Y81.494 E229.09706
G1 X108.17 Y81.426 E229.14557
G1 X108.291 Y81.421 E229.15162
G1 X132.929 Y106.059 E230.88996
G1 X132.954 Y105.31 E230.92735
G1 X132.955 Y104.676 E230.95898
G1 X132.955 Y104.67 E230.95928
G1 X109.684 Y81.4 E232.60114
G1 X109.808 Y81.4 E232.60732
G1 X110.397 Y81.419 E232.63672
G1 X110.504 Y81.424 E232.64207
G1 X111.17 Y81.472 E232.67538
G1 X132.887 Y103.188 E234.2076
G1 X132.876 Y103.045 E234.21475
G1 X132.772 Y102.056 E234.26437
G1 X132.709 Y101.597 E234.28748
G1 X112.761 Y81.648 E235.69496
G1 X113.1 Y81.696 E235.71204
G1 X113.2 Y81.711 E235.71708
G1 X113.768 Y81.811 E235.74586
G1 X114.493 Y81.966 E235.78284
G1 X132.392 Y99.865 E237.04571
G1 X132.366 Y99.748 E237.05169
G1 X132.126 Y98.79 E237.10097
G1 X132.107 Y98.722 E237.10449
G1 X131.928 Y98.107 E237.13644
G1 X131.87 Y97.929 E237.14578
G1 X116.423 Y82.482 E238.23565
G1 X116.855 Y82.619 E238.25826
G1 X117.837 Y82.974 E238.31036
G1 X117.971 Y83.026 E238.31753
G1 X118.484 Y83.233 E238.34513
G1 X118.672 Y83.316 E238.35538
G1 X131.041 Y95.685 E239.22808
G1 X131.021 Y95.637 E239.23068
G1 X130.82 Y95.186 E239.25531
G1 X130.751 Y95.04 E239.26337
G1 X130.331 Y94.179 E239.31116
G1 X130.041 Y93.637 E239.34183
G1 X129.545 Y92.775 E239.39144
G1 X121.587 Y84.818 E239.95289
G1 X122.3 Y85.265 E239.99487
G1 X122.76 Y85.574 E240.02252
G1 X123.575 Y86.163 E240.07269
G1 X123.648 Y86.218 E240.07725
G1 X124.087 Y86.559 E240.10498
G1 X124.83 Y87.181 E240.15332
G1 X125.316 Y87.613 E240.18576
G1 X125.362 Y87.655 E240.18887
G1 X126.041 Y88.309 E240.2359
G1 X126.145 Y88.413 E240.24324
G1 X126.468 Y88.745 E240.26635
G1 X126.56 Y88.844 E240.27309
G1 X127.215 Y89.569 E240.32184
G1 X127.602 Y90.029 E240.35183
G1 X127.677 Y90.121 E240.35775
G1 X128.235 Y90.837 E240.40304
