;FLAVOR:Marlin
;TIME:7404
;Filament used: 1.48238m, 0m, 0m, 0m
;Layer height: 0.2
;MINX:75.103
;MINY:89.698
;MINZ:0.3
;MAXX:134.785
;MAXY:120.302
;MAXZ:47.9
;Generated with Cura_SteamEngine 4.9.1
T0
M140 S60
M105
M190 S60
M104 S215
M105
M109 S215
M82 ;absolute extrusion mode
M82 ;absolute extrusion mode
G28
G29
M501
G92 E0 ;zero the extruded length
G1 F200 E3 ;extrude 3mm of feed stock
G92 E0 ;zero the extruded length again
G1 F100
G92 E0
G92 E0
G1 F1500 E-6.5
;LAYER_COUNT:239
;LAYER:0
M107
G0 F5400 X77.137 Y95.691 Z0.3
;TYPE:SKIRT
G1 F1500 E0
G1 F1800 X77.747 Y95.233 E0.01435
G1 X77.947 Y95.111 E0.01876
G1 X78.493 Y94.833 E0.03028
G1 X78.762 Y94.721 E0.03576
G1 X79.31 Y94.538 E0.04663
G1 X79.858 Y94.415 E0.05719
G1 X80.281 Y94.361 E0.06522
G1 X81.343 Y94.279 E0.08525
G1 X103.717 Y92.911 E0.50691
G1 X104.259 Y92.886 E0.51711
G1 X104.849 Y92.876 E0.52821
G1 X104.991 Y92.876 E0.53088
G1 X105.912 Y92.893 E0.54821
G1 X106.349 Y92.917 E0.55644
G1 X107.167 Y92.991 E0.57189
G1 X107.5 Y93.032 E0.5782
G1 X108.124 Y93.125 E0.59007
G1 X108.661 Y93.219 E0.60033
G1 X108.846 Y93.256 E0.60387
G1 X109.711 Y93.453 E0.62056
G1 X110.273 Y93.604 E0.63151
G1 X111.019 Y93.836 E0.6462
G1 X111.165 Y93.884 E0.6491
G1 X111.689 Y94.07 E0.65955
G1 X112.229 Y94.281 E0.67046
G1 X112.517 Y94.403 E0.67634
G1 X113.165 Y94.695 E0.68971
G1 X113.429 Y94.824 E0.69524
G1 X114.153 Y95.2 E0.71059
G1 X114.604 Y95.455 E0.72033
G1 X115.139 Y95.78 E0.73211
G1 X115.581 Y96.066 E0.74201
G1 X116.14 Y96.452 E0.75479
G1 X116.301 Y96.569 E0.75853
G1 X116.796 Y96.946 E0.77024
G1 X117.276 Y97.34 E0.78192
G1 X117.916 Y97.903 E0.79795
G1 X118.499 Y98.468 E0.81322
G1 X118.579 Y98.55 E0.81538
G1 X119.047 Y99.044 E0.82818
G1 X119.385 Y99.428 E0.8378
G1 X119.8 Y99.92 E0.84991
G1 X120.19 Y100.42 E0.86184
G1 X120.499 Y100.842 E0.87168
G1 X120.609 Y101.001 E0.87531
G1 X121.129 Y101.79 E0.89309
G1 X121.453 Y102.329 E0.90492
G1 X121.69 Y102.806 E0.91494
G1 X121.866 Y103.255 E0.92401
G1 X122.07 Y103.997 E0.93848
G1 X122.107 Y104.21 E0.94255
G1 X122.166 Y104.895 E0.95548
G1 X122.166 Y105.108 E0.95949
G1 X122.131 Y105.637 E0.96946
G1 X122.113 Y105.772 E0.97202
G1 X121.981 Y106.386 E0.98384
G1 X121.902 Y106.651 E0.98904
G1 X121.662 Y107.267 E1.00147
G1 X121.333 Y107.88 E1.01456
G1 X121.022 Y108.386 E1.02573
G1 X120.705 Y108.862 E1.03649
G1 X120.397 Y109.3 E1.04656
G1 X120.095 Y109.706 E1.05608
G1 X119.718 Y110.18 E1.06747
G1 X119.639 Y110.276 E1.06981
G1 X119.232 Y110.754 E1.08162
G1 X119.013 Y110.996 E1.08776
G1 X118.454 Y111.58 E1.10297
G1 X118.322 Y111.711 E1.10647
G1 X117.886 Y112.126 E1.11779
G1 X117.407 Y112.548 E1.1298
G1 X116.922 Y112.954 E1.14169
G1 X116.773 Y113.072 E1.14527
G1 X116.201 Y113.503 E1.15874
G1 X115.61 Y113.918 E1.17233
G1 X115.068 Y114.269 E1.18447
G1 X114.619 Y114.542 E1.19436
G1 X114.31 Y114.718 E1.20105
G1 X113.674 Y115.058 E1.21461
G1 X113.478 Y115.155 E1.21873
G1 X112.77 Y115.486 E1.23343
G1 X112.181 Y115.737 E1.24547
G1 X111.477 Y116.007 E1.25965
G1 X110.695 Y116.271 E1.27518
G1 X110.554 Y116.313 E1.27795
G1 X110.009 Y116.468 E1.28861
G1 X109.879 Y116.503 E1.29114
G1 X109.22 Y116.666 E1.30391
G1 X108.552 Y116.802 E1.31673
G1 X108.033 Y116.892 E1.32664
G1 X107.918 Y116.91 E1.32883
G1 X107.286 Y116.999 E1.34083
G1 X106.682 Y117.059 E1.35225
G1 X106.138 Y117.099 E1.36251
G1 X105.601 Y117.122 E1.37262
G1 X105.145 Y117.128 E1.3812
G1 X104.578 Y117.125 E1.39187
G1 X104.021 Y117.105 E1.40235
G1 X103.6 Y117.082 E1.41028
G1 X82.851 Y115.815 E1.80131
G1 X81.088 Y115.704 E1.83454
G1 X80.477 Y115.657 E1.84607
G1 X80.083 Y115.616 E1.85352
G1 X79.363 Y115.469 E1.86734
G1 X78.973 Y115.351 E1.875
G1 X78.278 Y115.067 E1.88913
G1 X78.058 Y114.952 E1.8938
G1 X77.563 Y114.646 E1.90474
G1 X77.374 Y114.509 E1.90913
G1 X76.873 Y114.077 E1.92158
G1 X76.672 Y113.873 E1.92697
G1 X76.245 Y113.361 E1.93951
G1 X76.086 Y113.134 E1.94472
G1 X75.815 Y112.688 E1.95454
G1 X75.729 Y112.523 E1.95804
G1 X75.457 Y111.862 E1.97148
G1 X75.26 Y111.164 E1.98512
G1 X75.208 Y110.911 E1.98998
G1 X75.127 Y110.181 E2.0038
G1 X75.103 Y108.874 E2.02839
G1 X75.104 Y100.704 E2.18207
G1 X75.114 Y100.017 E2.19499
G1 X75.207 Y99.093 E2.21246
G1 X75.274 Y98.759 E2.21887
G1 X75.427 Y98.206 E2.22966
G1 X75.486 Y98.04 E2.23298
G1 X75.714 Y97.52 E2.24366
G1 X75.871 Y97.221 E2.25001
G1 X76.221 Y96.669 E2.26231
G1 X76.348 Y96.501 E2.26627
G1 X76.846 Y95.956 E2.28015
G1 X77.137 Y95.691 E2.28756
G0 F5400 X77.406 Y95.986
G1 F1800 X77.955 Y95.575 E2.30046
G1 X78.155 Y95.453 E2.30487
G1 X78.646 Y95.203 E2.31523
G1 X78.915 Y95.091 E2.32071
G1 X79.409 Y94.926 E2.33051
G1 X79.922 Y94.81 E2.3404
G1 X80.311 Y94.76 E2.34778
G1 X81.367 Y94.679 E2.3677
G1 X103.738 Y93.311 E2.7893
G1 X104.266 Y93.286 E2.79924
G1 X104.856 Y93.276 E2.81034
G1 X104.983 Y93.276 E2.81273
G1 X105.904 Y93.293 E2.83006
G1 X106.313 Y93.316 E2.83776
G1 X107.258 Y93.403 E2.85561
G1 X107.441 Y93.427 E2.85909
G1 X108.163 Y93.536 E2.87282
G1 X108.758 Y93.646 E2.8842
G1 X109.612 Y93.841 E2.90068
G1 X110.164 Y93.989 E2.91143
G1 X110.256 Y94.016 E2.91323
G1 X110.9 Y94.217 E2.92592
G1 X111.031 Y94.261 E2.92852
G1 X111.555 Y94.447 E2.93898
G1 X112.074 Y94.65 E2.94947
G1 X112.353 Y94.768 E2.95516
G1 X112.992 Y95.056 E2.96835
G1 X113.244 Y95.179 E2.97362
G1 X113.968 Y95.555 E2.98897
G1 X114.405 Y95.802 E2.99841
G1 X114.931 Y96.122 E3.00999
G1 X115.363 Y96.401 E3.01967
G1 X115.913 Y96.782 E3.03225
G1 X116.058 Y96.887 E3.03562
G1 X116.553 Y97.264 E3.04732
G1 X117.02 Y97.648 E3.0587
G1 X117.582 Y98.141 E3.07276
G1 X118.216 Y98.751 E3.08931
G1 X118.756 Y99.319 E3.10405
G1 X119.08 Y99.687 E3.11327
G1 X119.42 Y100.088 E3.12316
G1 X119.768 Y100.524 E3.13366
G1 X120.176 Y101.078 E3.1466
G1 X120.276 Y101.221 E3.14988
G1 X120.74 Y101.924 E3.16573
G1 X121.107 Y102.53 E3.17905
G1 X121.387 Y103.123 E3.19139
G1 X121.492 Y103.398 E3.19693
G1 X121.676 Y104.066 E3.20996
G1 X121.713 Y104.279 E3.21403
G1 X121.766 Y104.895 E3.22566
G1 X121.734 Y105.584 E3.23863
G1 X121.716 Y105.719 E3.24119
G1 X121.598 Y106.271 E3.25181
G1 X121.519 Y106.536 E3.25701
G1 X121.302 Y107.091 E3.26822
G1 X120.992 Y107.67 E3.28058
G1 X120.681 Y108.176 E3.29175
G1 X120.373 Y108.639 E3.30221
G1 X120.075 Y109.063 E3.31196
G1 X119.781 Y109.457 E3.3212
G1 X119.333 Y110.018 E3.33471
G1 X118.933 Y110.488 E3.34632
G1 X118.724 Y110.719 E3.35218
G1 X118.165 Y111.303 E3.36739
G1 X118.046 Y111.422 E3.37055
G1 X117.61 Y111.837 E3.38187
G1 X117.144 Y112.247 E3.39355
G1 X116.666 Y112.647 E3.40527
G1 X116.532 Y112.753 E3.40849
G1 X115.968 Y113.178 E3.42177
G1 X115.385 Y113.587 E3.43517
G1 X115.309 Y113.638 E3.43689
G1 X114.851 Y113.933 E3.44714
G1 X114.412 Y114.2 E3.4568
G1 X114.121 Y114.365 E3.46309
G1 X113.493 Y114.701 E3.47649
G1 X113.308 Y114.793 E3.48038
G1 X112.699 Y115.079 E3.49303
G1 X112.207 Y115.295 E3.50314
G1 X111.435 Y115.596 E3.51873
G1 X110.571 Y115.89 E3.5359
G1 X110.445 Y115.929 E3.53838
G1 X109.9 Y116.084 E3.54904
G1 X109.206 Y116.258 E3.56249
G1 X108.475 Y116.41 E3.57654
G1 X107.966 Y116.498 E3.58626
G1 X107.23 Y116.603 E3.60024
G1 X106.655 Y116.66 E3.61111
G1 X106.106 Y116.701 E3.62146
G1 X105.588 Y116.722 E3.63122
G1 X105.147 Y116.728 E3.63951
G1 X104.58 Y116.725 E3.65018
G1 X104.038 Y116.705 E3.66038
G1 X103.624 Y116.682 E3.66818
G1 X82.881 Y115.416 E4.05909
G1 X81.119 Y115.305 E4.0923
G1 X80.508 Y115.258 E4.10383
G1 X80.126 Y115.218 E4.11106
G1 X79.478 Y115.086 E4.1235
G1 X79.088 Y114.968 E4.13116
G1 X78.463 Y114.712 E4.14386
G1 X78.243 Y114.597 E4.14853
G1 X77.798 Y114.322 E4.15837
G1 X77.609 Y114.185 E4.16277
G1 X77.158 Y113.797 E4.17396
G1 X76.957 Y113.593 E4.17934
G1 X76.572 Y113.131 E4.19066
G1 X76.17 Y112.503 E4.20468
G1 X76.084 Y112.338 E4.20818
G1 X75.839 Y111.743 E4.22029
G1 X75.652 Y111.084 E4.23317
G1 X75.6 Y110.831 E4.23803
G1 X75.527 Y110.173 E4.25048
G1 X75.503 Y108.874 E4.27492
G1 X75.504 Y100.71 E4.42849
G1 X75.514 Y100.023 E4.44142
G1 X75.599 Y99.172 E4.4575
G1 X75.666 Y98.838 E4.46391
G1 X75.804 Y98.34 E4.47363
G1 X75.863 Y98.174 E4.47695
G1 X76.068 Y97.706 E4.48656
G1 X76.225 Y97.407 E4.49291
G1 X76.54 Y96.91 E4.50398
G1 X76.667 Y96.742 E4.50794
G1 X77.115 Y96.251 E4.52044
G1 X77.406 Y95.986 E4.52785
G0 F5400 X77.675 Y96.282
G1 F1800 X78.164 Y95.916 E4.53933
G1 X78.8 Y95.572 E4.55294
G1 X79.508 Y95.313 E4.56712
G1 X80.078 Y95.19 E4.57809
G1 X80.342 Y95.158 E4.58309
G1 X81.392 Y95.078 E4.6029
G1 X103.759 Y93.71 E5.02442
G1 X104.273 Y93.685 E5.0341
G1 X104.863 Y93.675 E5.0452
G1 X105.897 Y93.693 E5.06465
G1 X106.277 Y93.714 E5.07181
G1 X107.095 Y93.788 E5.08726
G1 X107.382 Y93.823 E5.0927
G1 X108.093 Y93.93 E5.10622
G1 X108.67 Y94.036 E5.11726
G1 X109.433 Y94.209 E5.13198
G1 X110.055 Y94.374 E5.14408
G1 X110.78 Y94.599 E5.15836
G1 X110.897 Y94.638 E5.16068
G1 X111.421 Y94.824 E5.17114
G1 X111.919 Y95.019 E5.1812
G1 X112.189 Y95.133 E5.18671
G1 X112.818 Y95.416 E5.19969
G1 X113.06 Y95.534 E5.20475
G1 X113.784 Y95.91 E5.2201
G1 X114.28 Y96.193 E5.23084
G1 X114.799 Y96.511 E5.24229
G1 X115.246 Y96.805 E5.25235
G1 X115.687 Y97.112 E5.26246
G1 X115.816 Y97.205 E5.26545
G1 X116.311 Y97.582 E5.27716
G1 X116.765 Y97.956 E5.28822
G1 X117.373 Y98.491 E5.30345
G1 X117.934 Y99.035 E5.31815
G1 X117.998 Y99.1 E5.31987
G1 X118.466 Y99.594 E5.33267
G1 X118.775 Y99.946 E5.34148
G1 X119.175 Y100.419 E5.35313
G1 X119.55 Y100.9 E5.36461
G1 X119.853 Y101.314 E5.37426
G1 X119.942 Y101.441 E5.37717
G1 X120.45 Y102.213 E5.39456
G1 X120.761 Y102.731 E5.40592
G1 X121.013 Y103.266 E5.41705
G1 X121.118 Y103.541 E5.42258
G1 X121.282 Y104.134 E5.43416
G1 X121.319 Y104.347 E5.43822
G1 X121.366 Y104.895 E5.44857
G1 X121.338 Y105.531 E5.46054
G1 X121.32 Y105.666 E5.46311
G1 X121.215 Y106.157 E5.47255
G1 X121.136 Y106.422 E5.47775
G1 X120.943 Y106.915 E5.48771
G1 X120.651 Y107.461 E5.49936
G1 X120.34 Y107.967 E5.51053
G1 X120.041 Y108.416 E5.52068
G1 X119.753 Y108.826 E5.5301
G1 X119.468 Y109.208 E5.53907
G1 X119.028 Y109.759 E5.55233
G1 X118.635 Y110.221 E5.56374
G1 X118.435 Y110.443 E5.56936
G1 X117.876 Y111.027 E5.58457
G1 X117.77 Y111.132 E5.58738
G1 X117.334 Y111.547 E5.5987
G1 X116.882 Y111.945 E5.61003
G1 X116.41 Y112.339 E5.62159
G1 X116.291 Y112.434 E5.62446
G1 X115.799 Y112.806 E5.63606
G1 X115.354 Y113.125 E5.64636
G1 X115.093 Y113.301 E5.65228
G1 X114.56 Y113.643 E5.66419
G1 X114.116 Y113.91 E5.67394
G1 X113.932 Y114.013 E5.6779
G1 X113.313 Y114.344 E5.69111
G1 X113.138 Y114.43 E5.69478
G1 X112.45 Y114.753 E5.70907
G1 X111.898 Y114.989 E5.72037
G1 X111.209 Y115.253 E5.73425
G1 X110.448 Y115.51 E5.74935
G1 X110.335 Y115.544 E5.75157
G1 X109.686 Y115.727 E5.76426
G1 X109.044 Y115.885 E5.77669
G1 X108.397 Y116.017 E5.78912
G1 X107.806 Y116.118 E5.80039
G1 X107.174 Y116.207 E5.8124
G1 X106.628 Y116.261 E5.82272
G1 X106.074 Y116.302 E5.83317
G1 X105.574 Y116.322 E5.84258
G1 X105.149 Y116.328 E5.85058
G1 X104.582 Y116.325 E5.86124
G1 X104.054 Y116.305 E5.87118
G1 X103.649 Y116.283 E5.87881
G1 X82.906 Y115.017 E6.26973
G1 X81.15 Y114.907 E6.30282
G1 X80.539 Y114.86 E6.31435
G1 X80.17 Y114.821 E6.32133
G1 X79.594 Y114.703 E6.33239
G1 X79.204 Y114.585 E6.34005
G1 X78.649 Y114.358 E6.35133
G1 X78.033 Y113.998 E6.36475
G1 X77.844 Y113.861 E6.36914
G1 X77.443 Y113.516 E6.3791
G1 X77.242 Y113.312 E6.38448
G1 X76.9 Y112.902 E6.39453
G1 X76.524 Y112.318 E6.40759
G1 X76.438 Y112.153 E6.41109
G1 X76.22 Y111.625 E6.42184
G1 X76.044 Y111.003 E6.434
G1 X75.992 Y110.75 E6.43885
G1 X75.927 Y110.166 E6.44991
G1 X75.903 Y108.874 E6.47421
G1 X75.904 Y100.715 E6.62769
G1 X75.914 Y100.028 E6.64061
G1 X75.992 Y99.251 E6.6553
G1 X76.181 Y98.474 E6.67035
G1 X76.422 Y97.892 E6.68219
G1 X76.579 Y97.593 E6.68855
G1 X76.859 Y97.151 E6.69839
G1 X76.986 Y96.983 E6.70235
G1 X77.384 Y96.547 E6.71346
G1 X77.675 Y96.282 E6.72086
G1 F1500 E0.22086
;MESH:3DBenchy.stl
G0 F5400 X97.723 Y106.067
;TYPE:WALL-INNER
G1 F1500 E6.72086
G1 F1800 X97.725 Y105.869 E6.72458
G1 X97.727 Y104.111 E6.75765
G1 X97.725 Y103.874 E6.76211
G1 X97.725 Y103.873 E6.76213
G1 X97.725 Y103.661 E6.76612
G1 X97.937 Y103.674 E6.76866
G1 X98.501 Y103.709 E6.77929
G1 X98.653 Y103.762 E6.78231
G1 X98.766 Y103.862 E6.78515
G1 X98.917 Y104.17 E6.79161
G1 X99.005 Y104.608 E6.80001
G1 X99.016 Y105.076 E6.80882
G1 X98.96 Y105.552 E6.81783
G1 X98.829 Y105.924 E6.82525
G1 X98.676 Y106.118 E6.8299
G1 X98.501 Y106.216 E6.83367
G1 X97.941 Y106.268 E6.84425
G1 X97.722 Y106.287 E6.84838
G1 X97.722 Y106.068 E6.85098
G1 X97.723 Y106.067 E6.85101
G0 F5400 X97.616 Y106.691
;TYPE:WALL-OUTER
G1 F1800 X97.544 Y106.693 E6.85237
G1 X97.369 Y106.667 E6.85569
G1 X97.316 Y106.561 E6.85792
G1 X97.317 Y106.489 E6.85928
G1 X97.328 Y105.97 E6.86904
G1 X97.325 Y105.869 E6.87094
G1 X97.327 Y104.112 E6.90399
G1 X97.323 Y103.339 E6.91853
G1 X97.358 Y103.267 E6.92004
G1 X98.064 Y103.256 E6.93332
G1 X98.592 Y103.317 E6.94332
G1 X98.86 Y103.41 E6.94866
G1 X99.09 Y103.615 E6.95445
G1 X99.299 Y104.041 E6.96338
G1 X99.404 Y104.565 E6.97343
G1 X99.417 Y105.092 E6.98335
G1 X99.352 Y105.643 E6.99378
G1 X99.184 Y106.119 E7.00328
G1 X98.94 Y106.429 E7.0107
G1 X98.653 Y106.589 E7.01688
G1 X98.58 Y106.609 E7.0183
G1 X98.072 Y106.676 E7.02794
G1 X97.616 Y106.691 E7.03652
G0 F5400 X97.544 Y106.693
G0 X97.417 Y106.675
G1 F1500 E0.53652
G0 F5400 X98.115 Y105.86
;TYPE:SKIN
G1 F1500 E7.03652
G1 F1800 X98.117 Y104.076 E7.07008
G1 X98.45 Y104.104 E7.07637
G1 X98.546 Y104.302 E7.08051
G1 X98.615 Y104.648 E7.08714
G1 X98.626 Y105.055 E7.0948
G1 X98.577 Y105.466 E7.10259
G1 X98.419 Y105.814 E7.10978
G1 X98.115 Y105.86 E7.11556
G0 F5400 X98.425 Y105.213
G1 F1800 X98.295 Y105.083 E7.11902
G0 F5400 X98.433 Y104.656
G1 F1800 X98.296 Y104.518 E7.12268
G1 F1500 E0.62268
G0 F5400 X92.362 Y103.554
;TYPE:WALL-INNER
G1 F1500 E7.12268
G1 F1800 X92.66 Y103.412 E7.12889
G1 X92.708 Y103.389 E7.12989
G1 X92.682 Y103.456
G1 X92.362 Y103.554 E7.13033
G1 F1500 E0.63033
G0 F5400 X111.835 Y104.645
G1 F1500 E7.13033
G1 F1800 X112.008 Y104.783 E7.13449
G1 X112.182 Y104.922 E7.13868
G1 X112.571 Y105.035 E7.1463
G1 X112.595 Y105.041 E7.14676
G1 X112.842 Y105.057 E7.15142
G1 X113.004 Y105.069 E7.15448
G1 X112.882 Y105.243 E7.15613
G1 X112.824 Y105.324 E7.1571
G1 X112.81 Y105.344 E7.15756
G1 X112.222 Y106.162 E7.17651
G1 X111.831 Y106.72 E7.18932
G1 X111.623 Y107.226 E7.19961
G1 X111.599 Y107.696 E7.20847
G1 X111.768 Y108.206 E7.21857
G1 X112.021 Y108.497 E7.22583
G1 X112.328 Y108.66 E7.23237
G1 X112.818 Y108.701 E7.24161
G1 X113.295 Y108.674 E7.2506
G1 X114.061 Y108.683 E7.26501
G1 X114.327 Y108.683 E7.27002
G1 X114.743 Y108.683 E7.27784
G1 X114.837 Y108.682 E7.27961
G1 X114.744 Y108.768 E7.28025
G1 X114.432 Y109.043 E7.28519
G1 X114.303 Y109.157 E7.28843
G1 X113.76 Y109.594 E7.30154
G1 X113.308 Y109.924 E7.31206
G1 X112.771 Y110.283 E7.32421
G1 X112.37 Y110.531 E7.33308
G1 X111.835 Y110.833 E7.34464
G1 X111.101 Y111.2 E7.36008
G1 X110.662 Y111.392 E7.36909
G1 X110.085 Y111.626 E7.3808
G1 X109.611 Y111.791 E7.39024
G1 X109.052 Y111.969 E7.40128
G1 X108.525 Y112.109 E7.41153
G1 X107.794 Y112.272 E7.42562
G1 X107.508 Y112.324 E7.43109
G1 X107.006 Y112.402 E7.44065
G1 X106.411 Y112.472 E7.45192
G1 X105.89 Y112.51 E7.46174
G1 X105.287 Y112.534 E7.47309
G1 X104.68 Y112.53 E7.48451
G1 X104.164 Y112.508 E7.49423
G1 X96.439 Y112.033 E7.63981
G1 X94.459 Y111.914 E7.67713
G1 X83.138 Y111.224 E7.89048
G1 X80.779 Y111.076 E7.93494
G1 X80.427 Y111 E7.94171
G1 X80.172 Y110.866 E7.94713
G1 X79.952 Y110.655 E7.95286
G1 X79.807 Y110.403 E7.95833
G1 X79.703 Y109.864 E7.96866
G1 X79.703 Y107.447 E8.01412
G1 X79.703 Y106.922 E8.024
G1 X79.703 Y106.583 E8.03038
G1 X79.824 Y106.922 E8.03164
G1 X80.084 Y107.378 E8.03818
G1 X80.11 Y107.423 E8.03916
G1 X80.578 Y107.939 E8.05226
G1 X81.151 Y108.328 E8.06529
G1 X81.685 Y108.538 E8.07608
G1 X82.312 Y108.648 E8.08806
G1 X83.005 Y108.637 E8.1011
G1 X83.652 Y108.494 E8.11356
G1 X84.167 Y108.238 E8.12438
G1 X84.618 Y107.824 E8.13589
G1 X84.914 Y107.299 E8.14723
G1 X84.978 Y106.896 E8.15491
G1 X84.806 Y106.439 E8.16409
G1 X84.429 Y106.099 E8.17364
G1 X83.985 Y105.946 E8.18248
G1 X83.535 Y105.959 E8.19094
G1 X83.126 Y106.156 E8.19948
G1 X82.866 Y106.407 E8.20628
G1 X82.694 Y106.452 E8.20963
