;FLAVOR:Marlin
;TIME:6002
;Filament used: 6.02661m, 0m, 0m, 0m
;Layer height: 0.25
;MINX:59.1
;MINY:51.1
;MINZ:0.2
;MAXX:131.395
;MAXY:158.9
;MAXZ:34.95
;Generated with Cura_SteamEngine 4.3.0
T0
M140 S60
M105
M190 S60
M104 S215
M105
M109 S215
M82 ;absolute extrusion mode
G21 ;metric values
G90 ;absolute positioning
M82 ;set extruder to absolute mode
M107 ;start with the fan off
G28 X0 Y0 ;move X/Y to min endstops
G28 Z0 ;move Z to min endstops
G1 Z15.0 F100 ;move the platform down 15mm
G92 E0 ;zero the extruded length
G1 F200 E3 ;extrude 3mm of feed stock
G92 E0 ;zero the extruded length again
G1 F100
M117 Printing...
G5
G92 E0
G92 E0
G1 F2400 E-4
;LAYER_COUNT:140
;LAYER:0
M106 S255
M204 S3000
M205 X10 Y10
G1 F600 Z0.275
G0 F2666.7 X61.569 Y82.482 Z0.275
M204 S1800
M205 X8 Y8
;TYPE:SKIRT
G1 F600 Z0.2
G1 F2400 E0
G1 F1800 X62.187 Y82.051 E0.03508
G1 X62.964 Y81.574 E0.07754
G1 X63.051 Y81.521 E0.08228
G1 X63.692 Y81.142 E0.11696
G1 X65.936 Y79.724 E0.24056
G1 X68.123 Y78.253 E0.36329
G1 X70.279 Y76.713 E0.48666
G1 X72.376 Y75.123 E0.6092
G1 X74.455 Y73.453 E0.73337
G1 X76.461 Y71.747 E0.85599
G1 X78.43 Y69.973 E0.9794
G1 X80.362 Y68.131 E1.1037
G1 X82.222 Y66.255 E1.22671
G1 X84.024 Y64.332 E1.34942
G1 X85.793 Y62.331 E1.47379
G1 X87.457 Y60.339 E1.59465
G1 X89.118 Y58.234 E1.71951
G1 X90.704 Y56.101 E1.84327
G1 X92.251 Y53.891 E1.96889
G1 X92.693 Y53.329 E2.00218
G1 X92.969 Y53.036 E2.02092
G1 X93.021 Y52.984 E2.02435
G1 X93.554 Y52.507 E2.05766
G1 X94.137 Y52.093 E2.09095
G1 X94.763 Y51.746 E2.12428
G1 X95.423 Y51.471 E2.15757
G1 X96.11 Y51.272 E2.19088
G1 X96.815 Y51.151 E2.22418
G1 X97.462 Y51.11 E2.25437
G1 X98.15 Y51.101 E2.28641
G1 X98.234 Y51.1 E2.29032
G1 X111.782 Y51.1 E2.92117
G1 X111.874 Y51.101 E2.92546
G1 X112.572 Y51.111 E2.95796
G1 X113.285 Y51.161 E2.99125
G1 X113.989 Y51.29 E3.02457
G1 X114.673 Y51.498 E3.05786
G1 X115.33 Y51.78 E3.09115
G1 X115.952 Y52.134 E3.12448
G1 X116.53 Y52.555 E3.15778
G1 X117.058 Y53.038 E3.1911
G1 X117.528 Y53.576 E3.22436
G1 X117.936 Y54.164 E3.25769
G1 X118.275 Y54.794 E3.291
G1 X118.542 Y55.457 E3.32428
G1 X118.733 Y56.147 E3.35762
G1 X118.837 Y56.772 E3.38712
G1 X118.876 Y57.108 E3.40287
G1 X118.887 Y57.207 E3.40751
G1 X119.083 Y59.159 E3.49886
G1 X119.424 Y61.812 E3.62341
G1 X119.831 Y64.397 E3.74526
G1 X120.322 Y67.025 E3.86975
G1 X120.876 Y69.582 E3.99158
G1 X121.509 Y72.161 E4.11523
G1 X122.219 Y74.734 E4.23952
G1 X122.989 Y77.241 E4.36164
G1 X123.843 Y79.766 E4.48575
G1 X124.767 Y82.262 E4.60969
G1 X125.744 Y84.691 E4.7316
G1 X126.81 Y87.137 E4.85584
G1 X127.927 Y89.515 E4.97818
G1 X129.129 Y91.895 E5.10233
G1 X130.402 Y94.248 E5.2269
G1 X130.468 Y94.366 E5.2332
G1 X130.781 Y95.009 E5.2665
G1 X131.021 Y95.682 E5.29977
G1 X131.185 Y96.379 E5.33311
G1 X131.28 Y97.333 E5.37775
G1 X131.303 Y98.269 E5.42135
G1 X131.305 Y98.383 E5.42666
G1 X131.395 Y111.784 E6.05068
G1 X131.395 Y111.866 E6.0545
G1 X131.391 Y112.528 E6.08532
G1 X131.347 Y113.242 E6.11863
G1 X131.223 Y113.946 E6.15192
G1 X131.021 Y114.632 E6.18522
G1 X130.692 Y115.397 E6.224
G1 X130.59 Y115.597 E6.23445
G1 X130.498 Y115.771 E6.24361
G1 X129.418 Y117.736 E6.34802
G1 X128.199 Y120.113 E6.47241
G1 X127.056 Y122.503 E6.59577
G1 X125.986 Y124.918 E6.71877
G1 X124.985 Y127.355 E6.84144
G1 X124.055 Y129.821 E6.96417
G1 X123.171 Y132.378 E7.09015
G1 X122.392 Y134.854 E7.21101
G1 X121.672 Y137.396 E7.33403
G1 X121.009 Y140.013 E7.45974
G1 X120.443 Y142.556 E7.58105
G1 X119.937 Y145.166 E7.70485
G1 X119.509 Y147.77 E7.82773
G1 X119.148 Y150.431 E7.95277
G1 X118.92 Y152.499 E8.04965
G1 X118.858 Y153.125 E8.07894
G1 X118.748 Y153.832 E8.11226
G1 X118.559 Y154.522 E8.14557
G1 X118.294 Y155.186 E8.17886
G1 X117.957 Y155.817 E8.21217
G1 X117.552 Y156.406 E8.24545
G1 X117.083 Y156.947 E8.27879
G1 X116.557 Y157.431 E8.31208
G1 X115.981 Y157.854 E8.34535
G1 X115.36 Y158.21 E8.37868
G1 X114.704 Y158.495 E8.41199
G1 X114.02 Y158.704 E8.44529
G1 X113.317 Y158.836 E8.4786
G1 X112.689 Y158.887 E8.50794
G1 X112.367 Y158.897 E8.52294
G1 X112.168 Y158.9 E8.53221
G1 X98.207 Y158.9 E9.18229
G1 X98.115 Y158.899 E9.18657
G1 X97.417 Y158.889 E9.21908
G1 X96.704 Y158.839 E9.25236
G1 X96 Y158.71 E9.28569
G1 X95.316 Y158.502 E9.31898
G1 X94.659 Y158.22 E9.35227
G1 X94.037 Y157.866 E9.38559
G1 X93.459 Y157.445 E9.41889
G1 X92.931 Y156.962 E9.45221
G1 X92.362 Y156.293 E9.49311
G1 X92.229 Y156.113 E9.50353
G1 X92.126 Y155.97 E9.51173
G1 X90.798 Y154.065 E9.61986
G1 X89.234 Y151.951 E9.74231
G1 X87.596 Y149.864 E9.86585
G1 X85.896 Y147.817 E9.98975
G1 X84.143 Y145.827 E10.11324
G1 X82.356 Y143.91 E10.23527
G1 X80.485 Y142.014 E10.3593
G1 X78.578 Y140.186 E10.48231
G1 X76.607 Y138.402 E10.6061
G1 X74.606 Y136.688 E10.72878
G1 X72.528 Y135.013 E10.85307
G1 X70.43 Y133.416 E10.97584
G1 X68.281 Y131.874 E11.099
G1 X66.1 Y130.399 E11.2216
G1 X63.857 Y128.974 E11.34534
G1 X62.981 Y128.452 E11.39282
G1 X62.906 Y128.407 E11.3969
G1 X62.159 Y127.948 E11.43772
G1 X61.572 Y127.54 E11.47101
G1 X61.034 Y127.069 E11.5043
G1 X60.551 Y126.541 E11.53763
G1 X60.131 Y125.962 E11.57093
G1 X59.777 Y125.34 E11.60426
G1 X59.496 Y124.683 E11.63753
G1 X59.289 Y123.998 E11.67085
G1 X59.16 Y123.295 E11.70413
G1 X59.113 Y122.692 E11.7323
G1 X59.103 Y122.367 E11.74744
G1 X59.1 Y122.17 E11.75661
G1 X59.1 Y88.293 E13.33407
G1 X59.101 Y88.199 E13.33844
G1 X59.111 Y87.517 E13.3702
G1 X59.161 Y86.804 E13.40349
G1 X59.281 Y86.142 E13.43481
G1 X59.306 Y86.036 E13.43988
G1 X59.509 Y85.35 E13.4732
G1 X59.787 Y84.691 E13.5065
G1 X60.137 Y84.067 E13.53982
G1 X60.554 Y83.486 E13.57312
G1 X61.034 Y82.956 E13.60641
G1 X61.142 Y82.861 E13.61311
G0 F1620 X61.569 Y82.482
M204 S3000
M205 X10 Y10
G0 F2666.7 X62.062 Y82.81
M204 S1800
M205 X8 Y8
G1 F1800 X62.48 Y82.528 E13.63659
G1 X63.257 Y82.051 E13.67904
G1 X63.336 Y82.003 E13.68335
G1 X63.998 Y81.611 E13.71917
G1 X66.229 Y80.202 E13.84204
G1 X68.435 Y78.718 E13.96584
G1 X70.607 Y77.166 E14.09014
G1 X72.746 Y75.545 E14.21511
G1 X74.811 Y73.887 E14.33843
G1 X76.82 Y72.177 E14.46127
G1 X78.832 Y70.364 E14.58739
G1 X80.733 Y68.552 E14.70967
G1 X82.632 Y66.636 E14.83529
G1 X84.422 Y64.726 E14.95718
G1 X86.212 Y62.703 E15.08296
G1 X87.914 Y60.665 E15.2066
G1 X89.563 Y58.574 E15.3306
G1 X91.152 Y56.437 E15.4546
G1 X92.71 Y54.212 E15.58108
G1 X93.364 Y53.431 E15.62851
G1 X93.416 Y53.379 E15.63194
G1 X93.927 Y52.925 E15.66376
G1 X94.487 Y52.534 E15.69557
G1 X95.089 Y52.211 E15.72738
G1 X95.725 Y51.96 E15.75922
G1 X96.385 Y51.786 E15.791
G1 X97.062 Y51.689 E15.82284
G1 X97.47 Y51.669 E15.84187
G1 X98.158 Y51.66 E15.8739
G1 X111.782 Y51.66 E16.5083
G1 X111.866 Y51.661 E16.51221
G1 X112.564 Y51.671 E16.54471
G1 X113.245 Y51.72 E16.5765
G1 X113.916 Y51.849 E16.60832
G1 X114.567 Y52.056 E16.64013
G1 X115.19 Y52.337 E16.67195
G1 X115.776 Y52.689 E16.70378
G1 X116.316 Y53.107 E16.73558
G1 X116.804 Y53.585 E16.76739
G1 X117.233 Y54.117 E16.79921
G1 X117.597 Y54.695 E16.83102
G1 X117.891 Y55.312 E16.86284
G1 X118.11 Y55.959 E16.89465
G1 X118.281 Y56.837 E16.9363
G1 X118.32 Y57.173 E16.95205
G1 X118.33 Y57.263 E16.95627
G1 X118.529 Y59.252 E17.04935
G1 X118.865 Y61.862 E17.17188
G1 X119.281 Y64.498 E17.29615
G1 X119.774 Y67.136 E17.42111
G1 X120.328 Y69.698 E17.54316
G1 X120.975 Y72.332 E17.66946
G1 X121.676 Y74.87 E17.79206
G1 X122.464 Y77.439 E17.91719
G1 X123.311 Y79.942 E18.04023
G1 X124.238 Y82.445 E18.16452
G1 X125.232 Y84.916 E18.28854
G1 X126.305 Y87.378 E18.41359
G1 X127.427 Y89.769 E18.53658
G1 X128.623 Y92.136 E18.66007
G1 X129.931 Y94.552 E18.78799
G1 X129.979 Y94.639 E18.79262
G1 X130.277 Y95.254 E18.82444
G1 X130.501 Y95.899 E18.85624
G1 X130.649 Y96.567 E18.8881
G1 X130.72 Y97.347 E18.92457
G1 X130.743 Y98.283 E18.96816
G1 X130.745 Y98.387 E18.97301
G1 X130.835 Y111.788 E19.59703
G1 X130.835 Y111.862 E19.60047
G1 X130.831 Y112.524 E19.6313
G1 X130.787 Y113.206 E19.66312
G1 X130.663 Y113.878 E19.69494
G1 X130.462 Y114.531 E19.72676
G1 X130.193 Y115.142 E19.75784
G1 X130.091 Y115.342 E19.7683
G1 X130.007 Y115.502 E19.77671
G1 X128.907 Y117.503 E19.88304
G1 X127.702 Y119.852 E20.00597
G1 X126.553 Y122.257 E20.13008
G1 X125.47 Y124.698 E20.25443
G1 X124.463 Y127.152 E20.37794
G1 X123.521 Y129.649 E20.50221
G1 X122.649 Y132.172 E20.62651
G1 X121.864 Y134.669 E20.74839
G1 X121.122 Y137.284 E20.87496
G1 X120.468 Y139.865 E20.99894
G1 X119.888 Y142.472 E21.12331
G1 X119.391 Y145.037 E21.24496
G1 X118.952 Y147.708 E21.37101
G1 X118.596 Y150.334 E21.4944
G1 X118.364 Y152.438 E21.59297
G1 X118.301 Y153.069 E21.62249
G1 X118.194 Y153.744 E21.65432
G1 X118.008 Y154.402 E21.68616
G1 X117.747 Y155.033 E21.71795
G1 X117.414 Y155.63 E21.74979
G1 X117.014 Y156.183 E21.78157
G1 X116.552 Y156.686 E21.81337
G1 X116.034 Y157.132 E21.8452
G1 X115.467 Y157.514 E21.87703
G1 X114.86 Y157.827 E21.90883
G1 X114.22 Y158.068 E21.94068
G1 X113.557 Y158.232 E21.97248
G1 X112.671 Y158.327 E22.01397
G1 X112.349 Y158.337 E22.02897
G1 X112.168 Y158.34 E22.0374
G1 X98.207 Y158.34 E22.68748
G1 X98.123 Y158.339 E22.6914
G1 X97.425 Y158.329 E22.7239
G1 X96.744 Y158.28 E22.75569
G1 X96.073 Y158.151 E22.78751
G1 X95.422 Y157.944 E22.81932
G1 X94.799 Y157.663 E22.85114
G1 X94.213 Y157.311 E22.88297
G1 X93.673 Y156.893 E22.91477
G1 X93.185 Y156.415 E22.94658
G1 X92.812 Y155.961 E22.97394
G1 X92.679 Y155.781 E22.98436
G1 X92.585 Y155.65 E22.99187
G1 X91.247 Y153.731 E23.1008
G1 X89.681 Y151.613 E23.22345
G1 X88.02 Y149.497 E23.34871
G1 X86.318 Y147.448 E23.47275
G1 X84.561 Y145.453 E23.59653
G1 X82.769 Y143.53 E23.71893
G1 X80.875 Y141.612 E23.84444
G1 X78.964 Y139.78 E23.96771
G1 X76.988 Y137.992 E24.0918
G1 X74.943 Y136.241 E24.21716
G1 X72.877 Y134.575 E24.34074
G1 X70.776 Y132.976 E24.46369
G1 X68.602 Y131.415 E24.58831
G1 X66.38 Y129.912 E24.71322
G1 X64.167 Y128.507 E24.83528
G1 X63.268 Y127.971 E24.88402
G1 X63.2 Y127.93 E24.88772
G1 X62.453 Y127.471 E24.92854
G1 X61.892 Y127.08 E24.96038
G1 X61.382 Y126.626 E24.99218
G1 X60.928 Y126.115 E25.024
G1 X60.536 Y125.555 E25.05583
G1 X60.213 Y124.954 E25.08761
G1 X59.962 Y124.318 E25.11944
G1 X59.787 Y123.658 E25.15124
G1 X59.673 Y122.675 E25.19732
G1 X59.663 Y122.35 E25.21246
G1 X59.66 Y122.17 E25.22084
G1 X59.66 Y88.293 E26.79829
G1 X59.661 Y88.207 E26.8023
G1 X59.671 Y87.525 E26.83406
G1 X59.721 Y86.844 E26.86586
G1 X59.826 Y86.27 E26.89303
G1 X59.851 Y86.164 E26.8981
G1 X60.046 Y85.51 E26.92988
G1 X60.317 Y84.882 E26.96172
G1 X60.659 Y84.291 E26.99352
G1 X61.068 Y83.743 E27.02536
G1 X61.538 Y83.247 E27.05718
G1 X61.624 Y83.175 E27.0624
G0 F1620 X62.062 Y82.81
M204 S3000
M205 X10 Y10
G0 F2666.7 X62.039 Y83.548
M204 S1800
M205 X8 Y8
G1 F1800 X62.773 Y83.005 E27.10492
G1 X63.55 Y82.528 E27.14737
G1 X63.621 Y82.485 E27.15123
G1 X64.279 Y82.095 E27.18685
G1 X66.562 Y80.653 E27.31259
G1 X68.738 Y79.19 E27.43468
G1 X70.952 Y77.608 E27.56139
G1 X73.076 Y75.998 E27.68549
G1 X75.162 Y74.322 E27.81009
G1 X77.199 Y72.59 E27.9346
G1 X79.198 Y70.789 E28.05989
G1 X81.139 Y68.939 E28.18474
G1 X83.025 Y67.036 E28.3095
G1 X84.854 Y65.083 E28.43409
G1 X86.631 Y63.074 E28.55898
G1 X88.353 Y61.013 E28.68404
G1 X89.992 Y58.936 E28.80724
G1 X91.617 Y56.75 E28.93407
G1 X93.169 Y54.533 E29.06009
G1 X93.76 Y53.827 E29.10296
G1 X93.812 Y53.775 E29.10639
G1 X94.299 Y53.345 E29.13664
G1 X94.835 Y52.978 E29.16688
G1 X95.412 Y52.679 E29.19715
G1 X96.021 Y52.454 E29.22738
G1 X96.654 Y52.305 E29.25766
G1 X97.477 Y52.229 E29.29614
G1 X98.165 Y52.22 E29.32818
G1 X111.782 Y52.22 E29.96225
G1 X111.858 Y52.221 E29.96579
G1 X112.556 Y52.231 E29.99829
G1 X113.203 Y52.28 E30.0285
G1 X113.84 Y52.408 E30.05876
G1 X114.456 Y52.614 E30.089
G1 X115.043 Y52.894 E30.11929
G1 X115.59 Y53.243 E30.1495
G1 X116.091 Y53.657 E30.17976
G1 X116.536 Y54.13 E30.21
G1 X116.921 Y54.654 E30.24028
G1 X117.238 Y55.221 E30.27053
G1 X117.483 Y55.822 E30.30075
G1 X117.652 Y56.449 E30.33099
G1 X117.725 Y56.901 E30.35231
G1 X117.764 Y57.237 E30.36806
G1 X117.773 Y57.319 E30.3719
G1 X117.972 Y59.305 E30.46484
G1 X118.313 Y61.951 E30.58907
G1 X118.733 Y64.619 E30.71483
G1 X119.22 Y67.221 E30.83809
G1 X119.784 Y69.832 E30.96248
G1 X120.434 Y72.479 E31.08939
G1 X121.135 Y75.016 E31.21195
G1 X121.927 Y77.595 E31.33758
G1 X122.787 Y80.138 E31.46258
G1 X123.724 Y82.671 E31.58834
G1 X124.718 Y85.141 E31.71231
G1 X125.785 Y87.589 E31.83666
G1 X126.922 Y90.01 E31.96121
G1 X128.138 Y92.419 E32.08686
G1 X129.424 Y94.795 E32.21266
G1 X129.49 Y94.913 E32.21896
G1 X129.772 Y95.498 E32.2492
G1 X129.979 Y96.113 E32.27941
G1 X130.11 Y96.75 E32.30969
G1 X130.16 Y97.36 E32.33819
G1 X130.183 Y98.296 E32.38179
G1 X130.185 Y98.391 E32.38622
G1 X130.275 Y111.792 E33.01024
G1 X130.275 Y111.859 E33.01336
G1 X130.271 Y112.521 E33.04418
G1 X130.227 Y113.169 E33.07443
G1 X130.104 Y113.807 E33.10468
G1 X129.903 Y114.425 E33.13494
G1 X129.695 Y114.888 E33.15858
G1 X129.593 Y115.088 E33.16903
G1 X129.516 Y115.232 E33.17663
G1 X128.427 Y117.214 E33.28194
G1 X127.193 Y119.62 E33.40785
G1 X126.043 Y122.025 E33.53198
G1 X124.955 Y124.479 E33.65697
G1 X123.946 Y126.938 E33.78074
G1 X122.995 Y129.457 E33.90611
G1 X122.117 Y131.998 E34.0313
G1 X121.322 Y134.525 E34.15465
G1 X120.582 Y137.137 E34.28106
G1 X119.924 Y139.734 E34.40581
G1 X119.348 Y142.32 E34.52918
G1 X118.832 Y144.983 E34.65549
G1 X118.399 Y147.616 E34.77974
G1 X118.038 Y150.276 E34.90473
G1 X117.813 Y152.322 E35.00058
G1 X117.744 Y153.014 E35.03296
G1 X117.64 Y153.655 E35.0632
G1 X117.458 Y154.279 E35.09346
G1 X117.201 Y154.875 E35.12369
G1 X116.872 Y155.436 E35.15397
G1 X116.477 Y155.951 E35.18419
G1 X116.022 Y156.415 E35.21445
G1 X115.513 Y156.819 E35.24471
G1 X114.959 Y157.157 E35.27493
G1 X114.367 Y157.425 E35.30519
G1 X113.747 Y157.618 E35.33543
G1 X113.107 Y157.734 E35.36571
G1 X112.654 Y157.767 E35.38686
G1 X112.332 Y157.777 E35.40186
G1 X112.168 Y157.78 E35.4095
G1 X98.207 Y157.78 E36.05958
G1 X98.131 Y157.779 E36.06312
G1 X97.433 Y157.769 E36.09563
G1 X96.786 Y157.72 E36.12584
G1 X96.149 Y157.592 E36.15609
G1 X95.533 Y157.386 E36.18634
G1 X94.946 Y157.106 E36.21662
G1 X94.399 Y156.757 E36.24684
G1 X93.898 Y156.343 E36.2771
G1 X93.262 Y155.628 E36.32166
G1 X93.129 Y155.448 E36.33208
G1 X93.045 Y155.33 E36.33882
G1 X91.713 Y153.42 E36.44725
G1 X90.111 Y151.254 E36.5727
G1 X88.461 Y149.151 E36.69717
G1 X86.756 Y147.099 E36.8214
G1 X84.993 Y145.098 E36.94558
G1 X83.147 Y143.116 E37.0717
G1 X81.265 Y141.21 E37.19642
G1 X79.35 Y139.374 E37.31995
G1 X77.332 Y137.548 E37.44668
G1 X75.334 Y135.837 E37.56917
G1 X73.231 Y134.142 E37.69494
G1 X71.084 Y132.506 E37.82063
G1 X68.924 Y130.956 E37.94442
G1 X66.715 Y129.463 E38.06857
G1 X64.45 Y128.024 E38.19353
G1 X63.554 Y127.49 E38.2421
G1 X63.493 Y127.453 E38.24542
G1 X62.746 Y126.994 E38.28624
G1 X62.214 Y126.62 E38.31652
G1 X61.733 Y126.184 E38.34675
G1 X61.308 Y125.692 E38.37703
G1 X60.947 Y125.152 E38.40727
G1 X60.656 Y124.572 E38.43749
G1 X60.437 Y123.96 E38.46776
G1 X60.296 Y123.326 E38.498
G1 X60.232 Y122.657 E38.52929
G1 X60.222 Y122.332 E38.54443
G1 X60.22 Y122.17 E38.55198
G1 X60.22 Y88.293 E40.12943
G1 X60.221 Y88.216 E40.13302
G1 X60.231 Y87.534 E40.16478
G1 X60.28 Y86.886 E40.19504
G1 X60.371 Y86.399 E40.21811
G1 X60.396 Y86.293 E40.22318
G1 X60.584 Y85.671 E40.25343
G1 X60.846 Y85.077 E40.28366
G1 X61.18 Y84.52 E40.31391
G1 X61.58 Y84.007 E40.3442
G1 X61.636 Y83.951 E40.34788
G0 F1620 X62.039 Y83.548
M204 S3000
M205 X10 Y10
G1 F2400 E36.34788
;MESH:L Bracket.stl
G0 F2666.7 X66.354 Y88.354
G0 X67.984 Y118.319
G0 X68.651 Y121.047
M204 S1800
M205 X8 Y8
;TYPE:WALL-INNER
G1 F2400 E40.34788
G1 F1200 X68.703 Y121.1 E40.35134
G1 X68.651 Y121.1
G1 X68.178 Y121.1 E40.37337
G1 X66.9 Y121.1 E40.43288
G1 X66.9 Y118.306 E40.56298
G1 X66.9 Y117.493 E40.60083
G1 X66.9 Y116.769 E40.63455
G1 X66.9 Y88.9 E41.93224
G1 X79.065 Y88.9 E42.4987
G1 X79.093 Y116.7 E43.79318
G1 X79.093 Y116.907 E43.80282
G1 X79.094 Y117.826 E43.84561
G1 X79.094 Y118.256 E43.86564
G1 X79.098 Y120.82 E43.98503
G1 X79.098 Y121.1 E43.99806
G1 X78.818 Y121.1 E44.0065
G1 X77.714 Y121.1 E44.05791
G1 X77.688 Y121.1 E44.05912
G1 X77.281 Y121.1 E44.07807
G1 X77.688 Y120.571 E44.09723
G1 X77.7 Y120.549 E44.09837
