;FLAVOR:Marlin
;TIME:7425
;Filament used: 3.93154m, 0m, 0m, 0m
;Layer height: 0.2
;MINX:89.698
;MINY:75.217
;MINZ:0.3
;MAXX:120.302
;MAXY:134.896
;MAXZ:47.9
;Generated with Cura_SteamEngine 4.9.1
T0
M140 S60
M105
M190 S60
M104 S215
M105
M109 S215
M82 ;absolute extrusion mode
M82 ;absolute extrusion mode
G28
G29
M501
G92 E0 ;zero the extruded length
G1 F200 E3 ;extrude 3mm of feed stock
G92 E0 ;zero the extruded length again
G1 F100
G92 E0
G92 E0
G1 F1500 E-6.5
;LAYER_COUNT:239
;LAYER:0
M107
G0 F5400 X97.836 Y92.157 Z0.3
;TYPE:SKIRT
G1 F1500 E0
G1 F1800 X98.406 Y91.564 E0.04104
G1 X98.507 Y91.463 E0.04816
G1 X98.887 Y91.095 E0.07455
G1 X99.248 Y90.768 E0.09885
G1 X99.7 Y90.384 E0.12844
G1 X100.119 Y90.041 E0.15546
G1 X100.47 Y89.773 E0.17749
G1 X100.88 Y89.473 E0.20284
G1 X101.406 Y89.115 E0.23458
G1 X102.03 Y88.723 E0.27135
G1 X102.594 Y88.415 E0.30341
G1 X102.94 Y88.258 E0.32236
G1 X103.461 Y88.065 E0.35008
G1 X104.12 Y87.913 E0.38382
G1 X104.706 Y87.847 E0.41324
G1 X104.938 Y87.838 E0.42483
G1 X105.503 Y87.856 E0.45303
G1 X106.161 Y87.971 E0.48635
G1 X106.715 Y88.127 E0.51507
G1 X106.967 Y88.218 E0.52843
G1 X107.493 Y88.452 E0.55716
G1 X108.135 Y88.822 E0.59412
G1 X108.754 Y89.224 E0.63095
G1 X108.862 Y89.297 E0.63745
G1 X109.405 Y89.679 E0.67057
G1 X109.953 Y90.093 E0.70484
G1 X110.417 Y90.481 E0.73501
G1 X110.71 Y90.734 E0.75433
G1 X111.118 Y91.103 E0.78177
G1 X111.553 Y91.52 E0.81184
G1 X111.956 Y91.933 E0.84062
G1 X112.325 Y92.335 E0.86785
G1 X112.686 Y92.755 E0.89548
G1 X113.185 Y93.375 E0.93518
G1 X113.494 Y93.783 E0.96072
G1 X113.796 Y94.212 E0.98689
G1 X114.208 Y94.838 E1.02428
G1 X114.28 Y94.95 E1.03092
G1 X114.55 Y95.393 E1.05681
G1 X114.871 Y95.969 E1.0897
G1 X114.941 Y96.1 E1.09711
G1 X115.177 Y96.568 E1.12326
G1 X115.496 Y97.247 E1.16069
G1 X115.715 Y97.759 E1.18847
G1 X116.001 Y98.505 E1.22833
G1 X116.261 Y99.274 E1.26883
G1 X116.297 Y99.393 E1.27504
G1 X116.463 Y99.972 E1.30509
G1 X116.497 Y100.099 E1.31164
G1 X116.658 Y100.741 E1.34467
G1 X116.794 Y101.401 E1.37829
G1 X116.895 Y101.989 E1.40805
G1 X116.998 Y102.71 E1.44439
G1 X117.058 Y103.303 E1.47412
G1 X117.099 Y103.864 E1.50219
G1 X117.121 Y104.378 E1.52785
G1 X117.128 Y104.823 E1.55006
G1 X117.125 Y105.42 E1.57984
G1 X117.105 Y105.971 E1.60735
G1 X117.078 Y106.462 E1.63188
G1 X116.469 Y116.39 E2.12812
G1 X116.39 Y117.724 E2.19479
G1 X116.12 Y122.131 E2.41507
G1 X115.802 Y127.348 E2.67583
G1 X115.722 Y128.619 E2.73937
G1 X115.636 Y129.659 E2.79143
G1 X115.591 Y130.056 E2.81136
G1 X115.454 Y130.718 E2.84509
G1 X115.41 Y130.866 E2.85279
G1 X115.202 Y131.414 E2.88204
G1 X115.033 Y131.777 E2.90201
G1 X114.662 Y132.414 E2.93879
G1 X114.232 Y132.964 E2.97362
G1 X114.095 Y133.113 E2.98372
G1 X113.667 Y133.515 E3.01301
G1 X113.462 Y133.681 E3.02617
G1 X113.006 Y134 E3.05394
G1 X112.456 Y134.304 E3.08529
G1 X112.303 Y134.375 E3.09371
G1 X111.813 Y134.565 E3.11993
G1 X111.538 Y134.651 E3.1343
G1 X110.985 Y134.781 E3.16264
G1 X110.339 Y134.868 E3.19516
G1 X109.911 Y134.89 E3.21654
G1 X109.401 Y134.896 E3.24199
G1 X100.745 Y134.896 E3.67384
G1 X100.025 Y134.886 E3.70976
G1 X99.499 Y134.847 E3.73608
G1 X99.197 Y134.81 E3.75126
G1 X98.559 Y134.679 E3.78375
G1 X97.894 Y134.458 E3.81871
G1 X97.729 Y134.389 E3.82763
G1 X97.173 Y134.104 E3.85881
G1 X96.907 Y133.94 E3.8744
G1 X96.255 Y133.438 E3.91545
G1 X95.867 Y133.058 E3.94254
G1 X95.701 Y132.877 E3.9548
G1 X95.207 Y132.211 E3.99617
G1 X94.896 Y131.649 E4.02821
G1 X94.835 Y131.519 E4.03537
G1 X94.645 Y131.036 E4.06127
G1 X94.465 Y130.384 E4.09501
G1 X94.359 Y129.706 E4.12925
G1 X94.28 Y128.685 E4.18034
G1 X92.917 Y106.333 E5.29756
G1 X92.881 Y105.468 E5.34075
G1 X92.874 Y104.937 E5.36724
G1 X92.89 Y104.091 E5.40946
G1 X92.921 Y103.547 E5.43664
G1 X92.973 Y102.975 E5.4653
G1 X93.06 Y102.294 E5.49955
G1 X93.219 Y101.332 E5.5482
G1 X93.257 Y101.149 E5.55752
G1 X93.456 Y100.278 E5.60209
G1 X93.599 Y99.745 E5.62963
G1 X93.845 Y98.955 E5.67091
G1 X93.892 Y98.815 E5.67827
G1 X94.073 Y98.303 E5.70537
G1 X94.281 Y97.771 E5.73386
G1 X94.534 Y97.182 E5.76585
G1 X94.744 Y96.735 E5.79049
G1 X95.04 Y96.144 E5.82346
G1 X95.236 Y95.782 E5.844
G1 X95.497 Y95.322 E5.87039
G1 X95.762 Y94.892 E5.89559
G1 X96.034 Y94.47 E5.92063
G1 X96.106 Y94.362 E5.92711
G1 X96.463 Y93.847 E5.95837
G1 X96.605 Y93.653 E5.97037
G1 X97.025 Y93.106 E6.00477
G1 X97.344 Y92.716 E6.02991
G1 X97.7 Y92.306 E6.057
G1 X97.836 Y92.157 E6.06706
G0 F5400 X98.125 Y92.434
G1 F1800 X98.695 Y91.841 E6.1081
G1 X98.786 Y91.75 E6.11452
G1 X99.166 Y91.382 E6.14091
G1 X99.507 Y91.073 E6.16387
G1 X99.954 Y90.693 E6.19314
G1 X100.373 Y90.35 E6.22016
G1 X100.706 Y90.096 E6.24105
G1 X101.116 Y89.796 E6.2664
G1 X101.619 Y89.454 E6.29674
G1 X102.243 Y89.062 E6.33351
G1 X102.759 Y88.78 E6.36284
G1 X103.105 Y88.623 E6.3818
G1 X103.574 Y88.448 E6.40677
G1 X104.194 Y88.306 E6.43851
G1 X104.721 Y88.247 E6.46496
G1 X104.953 Y88.238 E6.47655
G1 X105.489 Y88.257 E6.5033
G1 X106.08 Y88.363 E6.53326
G1 X106.579 Y88.503 E6.55912
G1 X106.831 Y88.594 E6.57248
G1 X107.305 Y88.805 E6.59837
G1 X107.926 Y89.163 E6.63413
G1 X108.535 Y89.559 E6.67037
G1 X108.633 Y89.625 E6.67627
G1 X109.09 Y89.945 E6.7041
G1 X109.558 Y90.292 E6.73317
G1 X110.159 Y90.787 E6.77201
G1 X110.442 Y91.031 E6.79065
G1 X110.926 Y91.471 E6.82329
G1 X111.582 Y92.12 E6.86933
G1 X111.972 Y92.54 E6.89792
G1 X112.381 Y93.014 E6.92915
G1 X112.441 Y93.086 E6.93383
G1 X112.874 Y93.625 E6.96832
G1 X113.253 Y94.132 E6.9999
G1 X113.521 Y94.519 E7.02339
G1 X113.874 Y95.057 E7.05549
G1 X113.938 Y95.158 E7.06146
G1 X114.208 Y95.601 E7.08734
G1 X114.521 Y96.162 E7.11939
G1 X114.583 Y96.28 E7.12604
G1 X114.866 Y96.844 E7.15752
G1 X115.134 Y97.417 E7.18908
G1 X115.342 Y97.903 E7.21546
G1 X115.625 Y98.641 E7.25489
G1 X115.88 Y99.396 E7.29465
G1 X115.913 Y99.503 E7.30023
G1 X116.079 Y100.082 E7.33028
G1 X116.246 Y100.741 E7.3642
G1 X116.402 Y101.478 E7.40178
G1 X116.5 Y102.055 E7.43098
G1 X116.602 Y102.766 E7.46682
G1 X116.659 Y103.33 E7.4951
G1 X116.709 Y104.041 E7.53066
G1 X116.728 Y104.751 E7.56609
G1 X116.725 Y105.418 E7.59937
G1 X116.705 Y105.949 E7.62588
G1 X116.678 Y106.437 E7.65026
G1 X116.071 Y116.358 E8.14615
G1 X115.991 Y117.7 E8.21322
G1 X115.72 Y122.109 E8.4336
G1 X115.329 Y128.513 E8.75369
G1 X115.238 Y129.626 E8.80941
G1 X115.194 Y130.009 E8.82864
G1 X115.071 Y130.604 E8.85895
G1 X115.027 Y130.752 E8.86666
G1 X114.84 Y131.245 E8.89296
G1 X114.671 Y131.608 E8.91294
G1 X114.336 Y132.181 E8.94605
G1 X113.937 Y132.694 E8.97848
G1 X113.8 Y132.843 E8.98858
G1 X113.416 Y133.204 E9.01487
G1 X113.211 Y133.37 E9.02803
G1 X112.8 Y133.657 E9.05304
G1 X112.287 Y133.942 E9.08232
G1 X111.694 Y134.183 E9.11425
G1 X111.419 Y134.269 E9.12863
G1 X110.921 Y134.387 E9.15416
G1 X110.313 Y134.468 E9.18476
G1 X109.906 Y134.49 E9.2051
G1 X109.396 Y134.496 E9.23054
G1 X100.751 Y134.496 E9.66184
G1 X100.031 Y134.486 E9.69777
G1 X99.245 Y134.413 E9.73715
G1 X98.672 Y134.295 E9.76634
G1 X98.048 Y134.089 E9.79912
G1 X97.883 Y134.02 E9.80804
G1 X97.383 Y133.763 E9.83609
G1 X97.117 Y133.599 E9.85168
G1 X96.53 Y133.148 E9.88861
G1 X96.162 Y132.787 E9.91433
G1 X95.996 Y132.606 E9.92658
G1 X95.551 Y132.007 E9.96381
G1 X95.258 Y131.479 E9.99394
G1 X95.026 Y130.914 E10.02441
G1 X94.857 Y130.306 E10.05589
G1 X94.758 Y129.675 E10.08776
G1 X94.68 Y128.66 E10.13855
G1 X93.317 Y106.317 E11.25532
G1 X93.281 Y105.452 E11.29851
G1 X93.274 Y104.933 E11.3244
G1 X93.29 Y104.099 E11.36602
G1 X93.319 Y103.58 E11.39195
G1 X93.371 Y103.017 E11.42016
G1 X93.456 Y102.345 E11.45395
G1 X93.613 Y101.402 E11.50165
G1 X93.647 Y101.238 E11.51
G1 X93.844 Y100.378 E11.55402
G1 X93.984 Y99.855 E11.58103
G1 X94.227 Y99.074 E11.62184
G1 X94.269 Y98.948 E11.62847
G1 X94.45 Y98.436 E11.65556
G1 X94.65 Y97.927 E11.68284
G1 X94.896 Y97.351 E11.71409
G1 X95.102 Y96.914 E11.73819
G1 X95.393 Y96.333 E11.77061
G1 X95.584 Y95.979 E11.79068
G1 X95.845 Y95.519 E11.81707
G1 X96.125 Y95.066 E11.84364
G1 X96.435 Y94.59 E11.87198
G1 X96.787 Y94.081 E11.90285
G1 X96.923 Y93.897 E11.91427
G1 X97.411 Y93.263 E11.95418
G1 X97.646 Y92.979 E11.97257
G1 X98.002 Y92.569 E11.99966
G1 X98.125 Y92.434 E12.00877
G0 F5400 X98.413 Y92.711
G1 F1800 X98.983 Y92.118 E12.04981
G1 X99.064 Y92.037 E12.05552
G1 X99.444 Y91.669 E12.08191
G1 X99.767 Y91.377 E12.10364
G1 X100.207 Y91.003 E12.13245
G1 X100.626 Y90.66 E12.15946
G1 X100.942 Y90.419 E12.17929
G1 X101.352 Y90.119 E12.20464
G1 X101.832 Y89.792 E12.23361
G1 X102.456 Y89.4 E12.27038
G1 X102.925 Y89.144 E12.29703
G1 X103.687 Y88.832 E12.33811
G1 X104.269 Y88.699 E12.3679
G1 X104.969 Y88.637 E12.40296
G1 X105.474 Y88.658 E12.42818
G1 X106 Y88.754 E12.45485
G1 X106.695 Y88.97 E12.49116
G1 X107.305 Y89.259 E12.52484
G1 X107.796 Y89.554 E12.55341
G1 X108.317 Y89.894 E12.58445
G1 X108.929 Y90.322 E12.62171
G1 X109.459 Y90.722 E12.65484
G1 X109.901 Y91.092 E12.6836
G1 X110.173 Y91.328 E12.70156
G1 X110.65 Y91.76 E12.73367
G1 X111.297 Y92.4 E12.77907
G1 X111.678 Y92.811 E12.80703
G1 X112.075 Y93.272 E12.83738
G1 X112.562 Y93.876 E12.87609
G1 X112.925 Y94.36 E12.90628
G1 X113.186 Y94.739 E12.92923
G1 X113.539 Y95.277 E12.96134
G1 X113.596 Y95.367 E12.96665
G1 X113.866 Y95.81 E12.99253
G1 X114.171 Y96.355 E13.02369
G1 X114.226 Y96.46 E13.02961
G1 X114.504 Y97.013 E13.06049
G1 X114.772 Y97.586 E13.09205
G1 X114.968 Y98.046 E13.11699
G1 X115.249 Y98.776 E13.15602
G1 X115.499 Y99.518 E13.19508
G1 X115.528 Y99.613 E13.20003
G1 X115.694 Y100.192 E13.23008
G1 X115.858 Y100.839 E13.26338
G1 X116.009 Y101.555 E13.29989
G1 X116.106 Y102.122 E13.32859
G1 X116.206 Y102.822 E13.36387
G1 X116.26 Y103.357 E13.3907
G1 X116.309 Y104.056 E13.42565
G1 X116.328 Y104.757 E13.46064
G1 X116.325 Y105.416 E13.49352
G1 X116.306 Y105.927 E13.51903
G1 X116.279 Y106.413 E13.54331
G1 X115.671 Y116.341 E14.03955
G1 X115.592 Y117.675 E14.10622
G1 X115.321 Y122.084 E14.3266
G1 X114.93 Y128.488 E14.64669
G1 X114.839 Y129.593 E14.70201
G1 X114.797 Y129.961 E14.72049
G1 X114.687 Y130.49 E14.74744
G1 X114.477 Y131.077 E14.77855
G1 X114.308 Y131.44 E14.79852
G1 X114.011 Y131.949 E14.82793
G1 X113.643 Y132.423 E14.85786
G1 X113.164 Y132.893 E14.89134
G1 X112.594 Y133.315 E14.92673
G1 X112.119 Y133.579 E14.95384
G1 X111.574 Y133.801 E14.9832
G1 X110.857 Y133.992 E15.02022
G1 X110.287 Y134.069 E15.04891
G1 X109.902 Y134.09 E15.06815
G1 X109.392 Y134.096 E15.09359
G1 X100.757 Y134.096 E15.5244
G1 X100.037 Y134.086 E15.56032
G1 X99.294 Y134.016 E15.59755
G1 X98.784 Y133.911 E15.62353
G1 X98.202 Y133.72 E15.65409
G1 X97.593 Y133.423 E15.68789
G1 X97.327 Y133.259 E15.70348
G1 X96.805 Y132.858 E15.73632
G1 X96.291 Y132.336 E15.77287
G1 X95.895 Y131.803 E15.806
G1 X95.62 Y131.309 E15.83421
G1 X95.407 Y130.793 E15.86206
G1 X95.249 Y130.229 E15.89128
G1 X95.157 Y129.644 E15.92082
G1 X95.079 Y128.636 E15.97126
G1 X93.717 Y106.3 E17.08768
G1 X93.678 Y105.334 E17.13591
G1 X93.675 Y104.831 E17.16101
G1 X93.69 Y104.108 E17.19709
G1 X93.743 Y103.311 E17.23694
G1 X93.777 Y102.988 E17.25314
G1 X93.864 Y102.316 E17.28695
G1 X94.007 Y101.473 E17.32961
G1 X94.037 Y101.326 E17.33709
G1 X94.231 Y100.477 E17.38054
G1 X94.369 Y99.964 E17.40704
G1 X94.609 Y99.193 E17.44733
G1 X94.646 Y99.081 E17.45321
G1 X94.827 Y98.569 E17.48031
G1 X95.018 Y98.082 E17.50641
G1 X95.258 Y97.521 E17.53685
G1 X95.46 Y97.092 E17.5605
G1 X95.746 Y96.522 E17.59232
G1 X95.932 Y96.177 E17.61187
G1 X96.193 Y95.717 E17.63826
G1 X96.462 Y95.283 E17.66374
G1 X96.764 Y94.817 E17.69144
G1 X97.112 Y94.315 E17.72191
G1 X97.24 Y94.14 E17.73273
G1 X97.721 Y93.516 E17.77204
G1 X97.948 Y93.241 E17.78983
G1 X98.304 Y92.831 E17.81692
G1 X98.413 Y92.711 E17.82501
G1 F1500 E11.32501
;MESH:3DBenchy.stl
G0 F5400 X103.654 Y112.064
;TYPE:WALL-INNER
G1 F1500 E17.82501
G1 F1800 X103.665 Y111.828 E17.83679
G1 X103.747 Y111.378 E17.85961
G1 X103.814 Y111.275 E17.86574
G1 X104.164 Y111.084 E17.88564
G1 X104.602 Y110.996 E17.90792
G1 X105.139 Y110.986 E17.93472
G1 X105.641 Y111.061 E17.96004
G1 X105.922 Y111.169 E17.97506
G1 X106.106 Y111.308 E17.98657
G1 X106.204 Y111.479 E17.9964
G1 X106.264 Y112.056 E18.02534
G1 X106.287 Y112.277 E18.03643
G1 X106.065 Y112.277 E18.0434
G1 X106.064 Y112.276 E18.04347
G1 X105.852 Y112.274 E18.05405
G1 X103.854 Y112.272 E18.15373
G1 X103.853 Y112.272 E18.15378
G1 X103.646 Y112.272 E18.1641
G1 X103.653 Y112.065 E18.17073
G1 X103.654 Y112.064 E18.1708
G1 F1500 E11.6708
G0 F5400 X106.667 Y112.63
;TYPE:WALL-OUTER
G1 F1500 E18.1708
G1 F1800 X106.564 Y112.683 E18.17658
G1 X106.489 Y112.682 E18.18032
G1 X105.97 Y112.671 E18.20622
G1 X105.863 Y112.674 E18.21156
G1 X103.559 Y112.672 E18.32651
G1 X103.287 Y112.667 E18.34008
G1 X103.276 Y112.667 E18.34063
G1 X103.245 Y112.29 E18.3595
G1 X103.245 Y112.279 E18.36005
G1 X103.266 Y111.782 E18.38487
G1 X103.367 Y111.227 E18.41301
G1 X103.521 Y110.992 E18.42703
G1 X103.793 Y110.802 E18.44358
G1 X104.044 Y110.7 E18.4571
G1 X104.561 Y110.597 E18.4834
G1 X105.166 Y110.585 E18.51359
G1 X105.743 Y110.671 E18.54269
G1 X106.119 Y110.815 E18.56278
G1 X106.411 Y111.038 E18.58111
G1 X106.589 Y111.346 E18.59886
G1 X106.676 Y111.927 E18.62817
G1 X106.692 Y112.386 E18.65108
G1 X106.694 Y112.461 E18.65483
G1 X106.667 Y112.63 E18.66336
G0 F5400 X106.564 Y112.683
G0 X106.489 Y112.682
G0 X106.479 Y112.682
G1 F1500 E12.16336
G0 F5400 X105.854 Y111.884
;TYPE:SKIN
G1 F1500 E18.66336
G1 F1800 X104.053 Y111.882 E18.75322
G1 X104.111 Y111.558 E18.76964
G1 X104.302 Y111.454 E18.78049
G1 X104.642 Y111.386 E18.79779
G1 X105.112 Y111.376 E18.82124
G1 X105.542 Y111.441 E18.84294
G1 X105.808 Y111.572 E18.85773
G1 X105.854 Y111.884 E18.87346
G0 F5400 X105.479 Y111.702
G1 F1800 X105.375 Y111.597 E18.88084
G0 F5400 X104.913 Y111.701
G1 F1800 X104.774 Y111.563 E18.89061
G1 F1500 E12.39061
G0 F5400 X103.532 Y117.576
;TYPE:WALL-INNER
G1 F1500 E18.89061
G1 F1800 X103.453 Y117.414 E18.8996
G1 X103.39 Y117.285 E18.90676
G1 X103.498 Y117.392 E18.90754
G1 X103.532 Y117.576 E18.90838
G1 F1500 E12.40838
G0 F5400 X102.297 Y125.19
G1 F1500 E18.90838
G1 F1800 X102.404 Y125.188 E18.91372
G1 X102.315 Y125.228 E18.91383
G1 X102.228 Y125.268 E18.91829
G1 X102.056 Y125.428 E18.93001
G1 X101.876 Y125.596 E18.94229
G1 X101.547 Y126.09 E18.97191
G1 X101.336 Y126.702 E19.0042
G1 X101.271 Y127.353 E19.03684
G1 X101.325 Y128.031 E19.07078
G1 X101.512 Y128.657 E19.10337
G1 X101.856 Y129.256 E19.13783
G1 X102.244 Y129.679 E19.16647
G1 X102.58 Y129.913 E19.1869
G1 X102.823 Y130.082 E19.20166
G1 X103.333 Y130.296 E19.22926
G1 X102.823 Y130.296 E19.23566
G1 X102.527 Y130.296 E19.24716
G1 X100.129 Y130.296 E19.36679
G1 X99.774 Y130.251 E19.38465
G1 X99.45 Y130.119 E19.4021
G1 X99.219 Y129.933 E19.4169
G1 X99.05 Y129.688 E19.43175
G1 X98.92 Y129.193 E19.45728
G1 X97.477 Y105.538 E20.63963
G1 X97.467 Y104.659 E20.68348
G1 X97.49 Y104.081 E20.71234
G1 X97.541 Y103.477 E20.74258
G1 X97.619 Y102.844 E20.7744
G1 X97.737 Y102.164 E20.80883
G1 X97.915 Y101.381 E20.84889
G1 X98.094 Y100.746 E20.88181
G1 X98.3 Y100.122 E20.91459
G1 X98.471 Y99.666 E20.93889
G1 X98.733 Y99.048 E20.97238
G1 X98.98 Y98.529 E21.00106
G1 X99.277 Y97.966 E21.03281
G1 X99.544 Y97.507 E21.0593
G1 X99.998 Y96.803 E21.1011
G1 X100.384 Y96.268 E21.13401
G1 X100.903 Y95.625 E21.17524
G1 X101.465 Y95.005 E21.21698
G1 X101.709 Y94.758 E21.23431
G1 X102.259 Y94.239 E21.27203
G1 X102.758 Y93.813 E21.30477
G1 X103.153 Y93.503 E21.32982
G1 X103.54 Y93.222 E21.35368
G1 X103.968 Y92.931 E21.3795
G1 X104.393 Y92.664 E21.40454
G1 X104.755 Y92.47 E21.42503
G1 X104.992 Y92.425 E21.43706
G1 X105.17 Y92.446 E21.44601
G1 X105.45 Y92.571 E21.4613
G1 X106.013 Y92.916 E21.49425
G1 X106.807 Y93.473 E21.54264
G1 X107.047 Y93.66 E21.55781
G1 X107.203 Y93.781 E21.56766
G1 X107.285 Y93.85 E21.57301
G1 X107.335 Y93.893 E21.5763
G1 X107.239 Y93.905 E21.57759
G1 X107.069 Y94.006 E21.58469
G1 X106.817 Y94.155 E21.59929
G1 X106.565 Y94.618 E21.62559
G1 X106.518 Y94.973 E21.64346
G1 X106.482 Y95.248 E21.65729
G1 X106.471 Y95.318 E21.66083
G1 X106.446 Y95.3
G1 X106.219 Y95.14 E21.66968
G1 X105.083 Y94.341 E21.73897
G1 X104.59 Y94.053 E21.76745
G1 X104.21 Y93.95 E21.7871
G1 X103.762 Y93.959 E21.80945
