;FLAVOR:Marlin
;TIME:1754
;Filament used: 1.84583m, 0m, 0m, 0m
;Layer height: 0.25
;MINX:82.232
;MINY:82.223
;MINZ:0.2
;MAXX:127.778
;MAXY:127.777
;MAXZ:14.45
;Generated with Cura_SteamEngine 4.3.0
T0
M140 S60
M105
M190 S60
M104 S215
M105
M109 S215
M82 ;absolute extrusion mode
G21 ;metric values
G90 ;absolute positioning
M82 ;set extruder to absolute mode
M107 ;start with the fan off
G28 X0 Y0 ;move X/Y to min endstops
G28 Z0 ;move Z to min endstops
G1 Z15.0 F100 ;move the platform down 15mm
G92 E0 ;zero the extruded length
G1 F200 E3 ;extrude 3mm of feed stock
G92 E0 ;zero the extruded length again
G1 F100
M117 Printing...
G5
G92 E0
G92 E0
G1 F2400 E-4
;LAYER_COUNT:58
;LAYER:0
M106 S255
M204 S3000
M205 X10 Y10
G1 F600 Z0.275
G0 F2666.7 X88.64 Y89.208 Z0.275
M204 S1800
M205 X8 Y8
;TYPE:SKIRT
G1 F600 Z0.2
G1 F2400 E0
G1 F1800 X89.558 Y88.306 E0.05993
G1 X89.622 Y88.244 E0.06408
G1 X90.142 Y87.747 E0.09757
G1 X90.851 Y87.161 E0.1404
G1 X91.574 Y86.646 E0.18174
G1 X91.665 Y86.582 E0.18692
G1 X92.73 Y85.851 E0.24706
G1 X92.811 Y85.797 E0.2516
G1 X93.377 Y85.421 E0.28324
G1 X94.162 Y84.976 E0.32526
G1 X94.902 Y84.623 E0.36343
G1 X95.007 Y84.574 E0.36883
G1 X96.268 Y84 E0.43334
G1 X96.34 Y83.968 E0.43701
G1 X96.935 Y83.706 E0.46728
G1 X97.815 Y83.393 E0.51078
G1 X98.614 Y83.173 E0.54936
G1 X98.716 Y83.146 E0.55428
G1 X100.039 Y82.805 E0.6179
G1 X100.118 Y82.785 E0.62169
G1 X100.765 Y82.627 E0.6527
G1 X101.602 Y82.48 E0.69227
G1 X102.237 Y82.412 E0.72201
G1 X102.365 Y82.4 E0.728
G1 X103.759 Y82.279 E0.79315
G1 X103.841 Y82.272 E0.79698
G1 X104.505 Y82.223 E0.82799
G1 X105.436 Y82.223 E0.87134
G1 X106.268 Y82.283 E0.91018
G1 X106.361 Y82.29 E0.91452
G1 X107.721 Y82.408 E0.97809
G1 X107.817 Y82.417 E0.98258
G1 X108.464 Y82.483 E1.01286
G1 X109.371 Y82.642 E1.05574
G1 X110.249 Y82.862 E1.09789
G1 X110.351 Y82.888 E1.10279
G1 X111.578 Y83.217 E1.16194
G1 X111.652 Y83.238 E1.16552
G1 X112.31 Y83.423 E1.19735
G1 X113.189 Y83.741 E1.24087
G1 X113.999 Y84.103 E1.28219
G1 X114.097 Y84.148 E1.28721
G1 X115.274 Y84.698 E1.3477
G1 X115.349 Y84.733 E1.35156
G1 X115.908 Y85.003 E1.38046
G1 X116.731 Y85.48 E1.42476
G1 X117.663 Y86.116 E1.4773
G1 X117.773 Y86.192 E1.48352
G1 X118.785 Y86.914 E1.54141
G1 X118.85 Y86.961 E1.54514
G1 X119.407 Y87.369 E1.57729
G1 X120.12 Y87.976 E1.6209
G1 X120.722 Y88.57 E1.66028
G1 X120.792 Y88.64 E1.66489
G1 X121.694 Y89.558 E1.72481
G1 X121.756 Y89.622 E1.72896
G1 X122.253 Y90.142 E1.76246
G1 X122.839 Y90.851 E1.80529
G1 X123.354 Y91.574 E1.84662
G1 X123.418 Y91.665 E1.8518
G1 X124.149 Y92.73 E1.91195
G1 X124.203 Y92.811 E1.91648
G1 X124.579 Y93.377 E1.94812
G1 X125.024 Y94.162 E1.99014
G1 X125.377 Y94.902 E2.02832
G1 X125.426 Y95.007 E2.03371
G1 X126 Y96.268 E2.09823
G1 X126.032 Y96.34 E2.1019
G1 X126.294 Y96.935 E2.13217
G1 X126.607 Y97.815 E2.17566
G1 X126.827 Y98.614 E2.21425
G1 X126.854 Y98.716 E2.21916
G1 X127.195 Y100.039 E2.28278
G1 X127.215 Y100.118 E2.28658
G1 X127.373 Y100.765 E2.31759
G1 X127.52 Y101.602 E2.35716
G1 X127.588 Y102.237 E2.3869
G1 X127.6 Y102.365 E2.39288
G1 X127.721 Y103.759 E2.45804
G1 X127.728 Y103.84 E2.46182
G1 X127.777 Y104.502 E2.49273
G1 X127.778 Y105.433 E2.53608
G1 X127.718 Y106.267 E2.57502
G1 X127.71 Y106.361 E2.57941
G1 X127.592 Y107.721 E2.64298
G1 X127.583 Y107.817 E2.64747
G1 X127.517 Y108.464 E2.67775
G1 X127.358 Y109.371 E2.72063
G1 X127.138 Y110.249 E2.76278
G1 X127.112 Y110.351 E2.76768
G1 X126.783 Y111.578 E2.82683
G1 X126.762 Y111.652 E2.83041
G1 X126.577 Y112.31 E2.86224
G1 X126.256 Y113.195 E2.90607
G1 X125.893 Y114.005 E2.94741
G1 X125.853 Y114.093 E2.95191
G1 X125.314 Y115.249 E3.0113
G1 X125.28 Y115.322 E3.01505
G1 X125.001 Y115.901 E3.04498
G1 X124.521 Y116.731 E3.08962
G1 X123.887 Y117.66 E3.14199
G1 X123.813 Y117.767 E3.14805
G1 X123.096 Y118.773 E3.20558
G1 X123.042 Y118.847 E3.20984
G1 X122.624 Y119.416 E3.24272
G1 X122.025 Y120.118 E3.28569
G1 X121.43 Y120.722 E3.32517
G1 X121.354 Y120.799 E3.3302
G1 X120.439 Y121.697 E3.3899
G1 X120.378 Y121.756 E3.39385
G1 X119.858 Y122.253 E3.42735
G1 X119.149 Y122.839 E3.47018
G1 X118.426 Y123.354 E3.51151
G1 X118.335 Y123.418 E3.51669
G1 X117.27 Y124.149 E3.57684
G1 X117.189 Y124.203 E3.58137
G1 X116.623 Y124.579 E3.61301
G1 X115.838 Y125.024 E3.65503
G1 X115.098 Y125.377 E3.69321
G1 X114.993 Y125.426 E3.6986
G1 X113.732 Y126 E3.76312
G1 X113.657 Y126.034 E3.76695
G1 X113.061 Y126.296 E3.79727
G1 X112.186 Y126.607 E3.84051
G1 X111.388 Y126.827 E3.87905
G1 X111.284 Y126.854 E3.88406
G1 X109.961 Y127.195 E3.94768
G1 X109.882 Y127.215 E3.95147
G1 X109.235 Y127.373 E3.98248
G1 X108.398 Y127.52 E4.02205
G1 X107.763 Y127.588 E4.05179
G1 X107.635 Y127.6 E4.05778
G1 X106.241 Y127.721 E4.12293
G1 X106.159 Y127.728 E4.12676
G1 X105.495 Y127.777 E4.15777
G1 X104.564 Y127.777 E4.20112
G1 X103.732 Y127.717 E4.23996
G1 X103.639 Y127.71 E4.2443
G1 X102.279 Y127.592 E4.30787
G1 X102.183 Y127.583 E4.31236
G1 X101.536 Y127.517 E4.34264
G1 X100.629 Y127.358 E4.38552
G1 X99.751 Y127.138 E4.42767
G1 X99.649 Y127.112 E4.43257
G1 X98.422 Y126.783 E4.49172
G1 X98.348 Y126.762 E4.4953
G1 X97.69 Y126.577 E4.52713
G1 X96.811 Y126.259 E4.57065
G1 X96.001 Y125.897 E4.61197
G1 X95.903 Y125.852 E4.61699
G1 X94.726 Y125.302 E4.67748
G1 X94.651 Y125.267 E4.68134
G1 X94.092 Y124.997 E4.71024
G1 X93.266 Y124.519 E4.75468
G1 X92.332 Y123.881 E4.80735
G1 X92.227 Y123.807 E4.81333
G1 X91.217 Y123.087 E4.87109
G1 X91.15 Y123.039 E4.87493
G1 X90.593 Y122.631 E4.90708
G1 X89.88 Y122.024 E4.95068
G1 X89.278 Y121.43 E4.99006
G1 X89.208 Y121.36 E4.99467
G1 X88.306 Y120.442 E5.0546
G1 X88.244 Y120.378 E5.05874
G1 X87.747 Y119.858 E5.09224
G1 X87.161 Y119.149 E5.13507
G1 X86.646 Y118.426 E5.1764
G1 X86.582 Y118.335 E5.18158
G1 X85.851 Y117.27 E5.24173
G1 X85.797 Y117.189 E5.24626
G1 X85.421 Y116.623 E5.27791
G1 X84.976 Y115.838 E5.31992
G1 X84.623 Y115.098 E5.3581
G1 X84.574 Y114.993 E5.3635
G1 X84 Y113.732 E5.42801
G1 X83.968 Y113.66 E5.43168
G1 X83.706 Y113.065 E5.46195
G1 X83.393 Y112.185 E5.50544
G1 X83.173 Y111.386 E5.54403
G1 X83.146 Y111.284 E5.54895
G1 X82.805 Y109.961 E5.61256
G1 X82.785 Y109.884 E5.61627
G1 X82.631 Y109.254 E5.64647
G1 X82.476 Y108.335 E5.68986
G1 X82.391 Y107.434 E5.732
G1 X82.382 Y107.331 E5.73682
G1 X82.287 Y106.115 E5.79361
G1 X82.28 Y106.017 E5.79819
G1 X82.232 Y105.25 E5.83397
G1 X82.235 Y104.417 E5.87276
G1 X82.273 Y103.857 E5.8989
G1 X82.282 Y103.736 E5.90455
G1 X82.405 Y102.32 E5.97073
G1 X82.413 Y102.233 E5.9748
G1 X82.483 Y101.538 E6.00732
G1 X82.644 Y100.619 E6.05077
G1 X82.87 Y99.72 E6.09393
G1 X82.896 Y99.621 E6.0987
G1 X83.218 Y98.421 E6.15655
G1 X83.239 Y98.345 E6.16022
G1 X83.424 Y97.688 E6.19201
G1 X83.74 Y96.814 E6.23528
G1 X84.102 Y96.003 E6.27664
G1 X84.148 Y95.903 E6.28176
G1 X84.698 Y94.726 E6.34226
G1 X84.733 Y94.651 E6.34611
G1 X85.003 Y94.092 E6.37502
G1 X85.481 Y93.266 E6.41945
G1 X86.119 Y92.332 E6.47212
G1 X86.193 Y92.227 E6.47811
G1 X86.913 Y91.217 E6.53586
G1 X86.961 Y91.15 E6.5397
G1 X87.369 Y90.593 E6.57185
G1 X87.976 Y89.88 E6.61545
G1 X88.238 Y89.614 E6.63284
G0 F1620 X88.57 Y89.278
G0 X88.64 Y89.208
M204 S3000
M205 X10 Y10
G0 F2666.7 X89.033 Y89.607
M204 S1800
M205 X8 Y8
G1 F1800 X89.951 Y88.705 E6.69276
G1 X90.009 Y88.649 E6.69652
G1 X90.529 Y88.152 E6.73001
G1 X91.176 Y87.617 E6.76911
G1 X91.899 Y87.102 E6.81044
G1 X91.982 Y87.044 E6.81515
G1 X93.047 Y86.313 E6.8753
G1 X93.12 Y86.264 E6.8794
G1 X93.686 Y85.888 E6.91104
G1 X94.404 Y85.481 E6.94947
G1 X95.144 Y85.128 E6.98765
G1 X95.239 Y85.084 E6.99252
G1 X96.5 Y84.51 E7.05703
G1 X96.566 Y84.48 E7.06041
G1 X97.161 Y84.218 E7.09068
G1 X97.964 Y83.933 E7.13036
G1 X98.763 Y83.713 E7.16895
G1 X98.855 Y83.688 E7.17339
G1 X100.178 Y83.347 E7.23701
G1 X100.251 Y83.329 E7.24051
G1 X100.898 Y83.171 E7.27152
G1 X101.661 Y83.037 E7.30759
G1 X102.296 Y82.969 E7.33733
G1 X102.413 Y82.958 E7.3428
G1 X103.807 Y82.837 E7.40796
G1 X103.882 Y82.831 E7.41146
G1 X104.546 Y82.782 E7.44246
G1 X105.396 Y82.781 E7.48204
G1 X106.228 Y82.841 E7.52088
G1 X106.313 Y82.848 E7.52485
G1 X107.673 Y82.966 E7.58842
G1 X107.761 Y82.974 E7.59253
G1 X108.408 Y83.04 E7.62282
G1 X109.234 Y83.185 E7.66187
G1 X110.112 Y83.405 E7.70402
G1 X110.205 Y83.429 E7.70849
G1 X111.432 Y83.758 E7.76764
G1 X111.501 Y83.777 E7.77097
G1 X112.159 Y83.962 E7.8028
G1 X112.961 Y84.252 E7.84251
G1 X113.771 Y84.614 E7.88382
G1 X113.86 Y84.655 E7.88839
G1 X115.037 Y85.205 E7.94888
G1 X115.105 Y85.237 E7.95238
G1 X115.664 Y85.507 E7.98129
G1 X116.416 Y85.942 E8.02174
G1 X117.348 Y86.578 E8.07428
G1 X117.448 Y86.648 E8.07996
G1 X118.46 Y87.37 E8.13785
G1 X118.519 Y87.413 E8.14125
G1 X119.076 Y87.821 E8.1734
G1 X119.727 Y88.375 E8.2132
G1 X120.329 Y88.969 E8.25258
G1 X120.393 Y89.033 E8.2568
G1 X121.295 Y89.951 E8.31672
G1 X121.351 Y90.009 E8.32048
G1 X121.848 Y90.529 E8.35397
G1 X122.383 Y91.176 E8.39307
G1 X122.898 Y91.899 E8.4344
G1 X122.956 Y91.982 E8.43911
G1 X123.687 Y93.047 E8.49926
G1 X123.736 Y93.12 E8.50336
G1 X124.112 Y93.686 E8.535
G1 X124.519 Y94.404 E8.57343
G1 X124.872 Y95.144 E8.61161
G1 X124.916 Y95.239 E8.61648
G1 X125.49 Y96.5 E8.68099
G1 X125.52 Y96.566 E8.68437
G1 X125.782 Y97.161 E8.71464
G1 X126.067 Y97.964 E8.75432
G1 X126.287 Y98.763 E8.79291
G1 X126.312 Y98.855 E8.79735
G1 X126.653 Y100.178 E8.86097
G1 X126.671 Y100.251 E8.86447
G1 X126.829 Y100.898 E8.89548
G1 X126.963 Y101.661 E8.93155
G1 X127.031 Y102.296 E8.96129
G1 X127.042 Y102.413 E8.96676
G1 X127.163 Y103.807 E9.03192
G1 X127.169 Y103.881 E9.03537
G1 X127.218 Y104.543 E9.06628
G1 X127.219 Y105.393 E9.10586
G1 X127.159 Y106.227 E9.1448
G1 X127.152 Y106.313 E9.14881
G1 X127.034 Y107.673 E9.21238
G1 X127.026 Y107.761 E9.21649
G1 X126.96 Y108.408 E9.24678
G1 X126.815 Y109.234 E9.28583
G1 X126.595 Y110.112 E9.32798
G1 X126.571 Y110.205 E9.33245
G1 X126.242 Y111.432 E9.3916
G1 X126.223 Y111.501 E9.39493
G1 X126.038 Y112.159 E9.42676
G1 X125.745 Y112.966 E9.46674
G1 X125.382 Y113.776 E9.50807
G1 X125.346 Y113.856 E9.51215
G1 X124.807 Y115.012 E9.57155
G1 X124.775 Y115.079 E9.575
G1 X124.496 Y115.658 E9.60493
G1 X124.059 Y116.415 E9.64563
G1 X123.425 Y117.344 E9.698
G1 X123.357 Y117.442 E9.70356
G1 X122.64 Y118.448 E9.76108
G1 X122.591 Y118.516 E9.76498
G1 X122.173 Y119.085 E9.79786
G1 X121.626 Y119.725 E9.83706
G1 X121.031 Y120.329 E9.87654
G1 X120.962 Y120.399 E9.88112
G1 X120.047 Y121.297 E9.94082
G1 X119.991 Y121.351 E9.94444
G1 X119.471 Y121.848 E9.97793
G1 X118.824 Y122.383 E10.01702
G1 X118.101 Y122.898 E10.05836
G1 X118.018 Y122.956 E10.06307
G1 X116.953 Y123.687 E10.12322
G1 X116.88 Y123.736 E10.12732
G1 X116.314 Y124.112 E10.15896
G1 X115.596 Y124.519 E10.19739
G1 X114.856 Y124.872 E10.23556
G1 X114.761 Y124.916 E10.24044
G1 X113.5 Y125.49 E10.30495
G1 X113.431 Y125.521 E10.30848
G1 X112.835 Y125.783 E10.33879
G1 X112.037 Y126.067 E10.37823
G1 X111.239 Y126.287 E10.41678
G1 X111.145 Y126.312 E10.42131
G1 X109.822 Y126.653 E10.48492
G1 X109.749 Y126.671 E10.48843
G1 X109.102 Y126.829 E10.51944
G1 X108.339 Y126.963 E10.55551
G1 X107.704 Y127.031 E10.58525
G1 X107.587 Y127.042 E10.59072
G1 X106.193 Y127.163 E10.65587
G1 X106.118 Y127.169 E10.65938
G1 X105.454 Y127.218 E10.69038
G1 X104.604 Y127.219 E10.72996
G1 X103.772 Y127.159 E10.7688
G1 X103.687 Y127.152 E10.77277
G1 X102.327 Y127.034 E10.83634
G1 X102.239 Y127.026 E10.84045
G1 X101.592 Y126.96 E10.87074
G1 X100.766 Y126.815 E10.90979
G1 X99.888 Y126.595 E10.95193
G1 X99.795 Y126.571 E10.95641
G1 X98.568 Y126.242 E11.01556
G1 X98.499 Y126.223 E11.01889
G1 X97.841 Y126.038 E11.05072
G1 X97.039 Y125.748 E11.09043
G1 X96.229 Y125.386 E11.13174
G1 X96.14 Y125.345 E11.1363
G1 X94.963 Y124.795 E11.1968
G1 X94.895 Y124.763 E11.2003
G1 X94.336 Y124.493 E11.2292
G1 X93.582 Y124.056 E11.26978
G1 X92.648 Y123.418 E11.32245
G1 X92.552 Y123.351 E11.32791
G1 X91.542 Y122.631 E11.38566
G1 X91.481 Y122.587 E11.38916
G1 X90.924 Y122.179 E11.42131
G1 X90.273 Y121.625 E11.46112
G1 X89.671 Y121.031 E11.5005
G1 X89.607 Y120.967 E11.50471
G1 X88.705 Y120.049 E11.56464
G1 X88.649 Y119.991 E11.56839
G1 X88.152 Y119.471 E11.60189
G1 X87.617 Y118.824 E11.64098
G1 X87.102 Y118.101 E11.68231
G1 X87.044 Y118.018 E11.68703
G1 X86.313 Y116.953 E11.74718
G1 X86.264 Y116.88 E11.75127
G1 X85.888 Y116.314 E11.78291
G1 X85.481 Y115.596 E11.82134
G1 X85.128 Y114.856 E11.85952
G1 X85.084 Y114.761 E11.8644
G1 X84.51 Y113.5 E11.92891
G1 X84.48 Y113.434 E11.93229
G1 X84.218 Y112.839 E11.96256
G1 X83.933 Y112.036 E12.00224
G1 X83.713 Y111.237 E12.04082
G1 X83.688 Y111.145 E12.04526
G1 X83.347 Y109.822 E12.10888
G1 X83.329 Y109.751 E12.11229
G1 X83.175 Y109.121 E12.14249
G1 X83.034 Y108.283 E12.18206
G1 X82.949 Y107.382 E12.2242
G1 X82.941 Y107.288 E12.22859
G1 X82.846 Y106.072 E12.28539
G1 X82.839 Y105.982 E12.28959
G1 X82.791 Y105.215 E12.32538
G1 X82.793 Y104.455 E12.36077
G1 X82.831 Y103.895 E12.3869
G1 X82.84 Y103.785 E12.39204
G1 X82.963 Y102.369 E12.45822
G1 X82.97 Y102.289 E12.46196
G1 X83.04 Y101.594 E12.49449
G1 X83.187 Y100.755 E12.53415
G1 X83.413 Y99.856 E12.57732
G1 X83.437 Y99.766 E12.58165
G1 X83.759 Y98.566 E12.63951
G1 X83.778 Y98.497 E12.64284
G1 X83.963 Y97.84 E12.67462
G1 X84.251 Y97.043 E12.71408
G1 X84.613 Y96.232 E12.75544
G1 X84.655 Y96.14 E12.76015
G1 X85.205 Y94.963 E12.82064
G1 X85.237 Y94.895 E12.82414
G1 X85.507 Y94.336 E12.85305
G1 X85.944 Y93.582 E12.89363
G1 X86.582 Y92.648 E12.9463
G1 X86.649 Y92.552 E12.95175
G1 X87.369 Y91.542 E13.0095
G1 X87.413 Y91.481 E13.013
G1 X87.821 Y90.924 E13.04515
G1 X88.375 Y90.273 E13.08496
G1 X88.631 Y90.013 E13.10195
G0 F1620 X88.969 Y89.671
G0 X89.033 Y89.607
M204 S3000
M205 X10 Y10
G0 F2666.7 X89.425 Y90.007
M204 S1800
M205 X8 Y8
G1 F1800 X90.343 Y89.105 E13.16188
G1 X90.396 Y89.054 E13.1653
G1 X90.916 Y88.557 E13.1988
G1 X91.501 Y88.073 E13.23415
G1 X92.224 Y87.558 E13.27548
G1 X92.299 Y87.506 E13.27973
G1 X93.364 Y86.775 E13.33988
G1 X93.43 Y86.73 E13.3436
G1 X93.996 Y86.354 E13.37524
G1 X94.645 Y85.986 E13.40998
G1 X95.385 Y85.633 E13.44816
G1 X95.471 Y85.593 E13.45258
G1 X96.732 Y85.019 E13.51709
G1 X96.791 Y84.993 E13.52009
G1 X97.386 Y84.731 E13.55037
G1 X98.112 Y84.472 E13.58626
G1 X98.911 Y84.252 E13.62485
G1 X98.995 Y84.23 E13.62889
G1 X100.318 Y83.889 E13.69251
G1 X100.383 Y83.873 E13.69563
G1 X101.03 Y83.715 E13.72664
G1 X101.721 Y83.594 E13.7593
G1 X102.356 Y83.526 E13.78904
G1 X102.461 Y83.516 E13.79395
G1 X103.855 Y83.395 E13.85911
G1 X103.923 Y83.389 E13.86229
G1 X104.587 Y83.34 E13.89329
G1 X105.356 Y83.34 E13.9291
G1 X106.188 Y83.4 E13.96794
G1 X106.264 Y83.406 E13.97149
G1 X107.624 Y83.524 E14.03505
G1 X107.704 Y83.531 E14.03879
G1 X108.351 Y83.597 E14.06908
G1 X109.098 Y83.728 E14.10439
G1 X109.976 Y83.948 E14.14654
G1 X110.06 Y83.97 E14.15058
G1 X111.287 Y84.299 E14.20973
G1 X111.349 Y84.316 E14.21273
G1 X112.007 Y84.501 E14.24455
G1 X112.732 Y84.764 E14.28047
G1 X113.542 Y85.126 E14.32178
G1 X113.623 Y85.162 E14.32591
G1 X114.8 Y85.712 E14.3864
G1 X114.861 Y85.742 E14.38957
G1 X115.42 Y86.012 E14.41847
G1 X116.1 Y86.405 E14.45504
G1 X117.032 Y87.041 E14.50758
G1 X117.123 Y87.104 E14.51274
G1 X118.135 Y87.826 E14.57062
G1 X118.188 Y87.864 E14.57366
G1 X118.745 Y88.272 E14.60581
G1 X119.333 Y88.774 E14.64181
G1 X119.935 Y89.368 E14.68119
G1 X119.993 Y89.425 E14.68498
G1 X120.895 Y90.343 E14.7449
G1 X120.946 Y90.396 E14.74833
G1 X121.443 Y90.916 E14.78182
G1 X121.927 Y91.501 E14.81718
G1 X122.442 Y92.224 E14.85851
G1 X122.494 Y92.299 E14.86276
G1 X123.225 Y93.364 E14.92291
G1 X123.27 Y93.43 E14.92663
G1 X123.646 Y93.996 E14.95827
G1 X124.014 Y94.645 E14.99301
G1 X124.367 Y95.385 E15.03119
G1 X124.407 Y95.471 E15.0356
G1 X124.981 Y96.732 E15.10012
G1 X125.007 Y96.791 E15.10312
G1 X125.269 Y97.386 E15.13339
G1 X125.528 Y98.112 E15.16929
G1 X125.748 Y98.911 E15.20788
G1 X125.77 Y98.995 E15.21192
G1 X126.111 Y100.318 E15.27554
G1 X126.127 Y100.383 E15.27865
G1 X126.285 Y101.03 E15.30967
G1 X126.406 Y101.721 E15.34233
G1 X126.474 Y102.356 E15.37207
G1 X126.484 Y102.461 E15.37698
G1 X126.605 Y103.855 E15.44213
G1 X126.611 Y103.922 E15.44527
G1 X126.66 Y104.584 E15.47618
G1 X126.66 Y105.353 E15.51198
