;FLAVOR:Marlin
;TIME:11805
;Filament used: 7.67312m
;Layer height: 0.2
;MINX:108.448
;MINY:6.968
;MINZ:0.3
;MAXX:204.848
;MAXY:103.368
;MAXZ:4.9
;Generated with Cura_SteamEngine 4.8.0
M140 S60
M105
M190 S60
M104 S215
M105
M109 S215
M82 ;absolute extrusion mode
M140 S60
M105
M190 S60
M104 S200
M105
M109 S200
M82 ;absolute extrusion mode
G28
G29
M501
G92 E0 ;zero the extruded length
G1 F200 E3 ;extrude 3mm of feed stock
G92 E0 ;zero the extruded length again
G1 F100
M117 Printing...
G92 E0
G92 E0
;LAYER_COUNT:24
;LAYER:0
M107
G0 F5400 X108.595 Y15.992 Z0.3
;TYPE:SKIRT
G1 F1800 X108.714 Y15.401 E0.03008
G1 X108.847 Y14.829 E0.05938
G1 X108.947 Y14.487 E0.07715
G1 X109.166 Y13.876 E0.10953
G1 X109.355 Y13.392 E0.13546
G1 X109.506 Y13.062 E0.15356
G1 X109.816 Y12.477 E0.18659
G1 X110.254 Y11.745 E0.22915
G1 X110.635 Y11.222 E0.26143
G1 X110.96 Y10.802 E0.28793
G1 X111.197 Y10.529 E0.30596
G1 X111.646 Y10.069 E0.33803
G1 X112.008 Y9.717 E0.36322
G1 X112.282 Y9.479 E0.38133
G1 X112.802 Y9.079 E0.41406
G1 X113.209 Y8.783 E0.43917
G1 X113.519 Y8.584 E0.45755
G1 X114.075 Y8.272 E0.48936
G1 X114.542 Y8.026 E0.51569
G1 X114.868 Y7.877 E0.53357
G1 X115.471 Y7.642 E0.56586
G1 X115.961 Y7.468 E0.5918
G1 X116.306 Y7.367 E0.60974
G1 X116.864 Y7.237 E0.63832
G1 X117.449 Y7.118 E0.6681
G1 X117.81 Y7.066 E0.6863
G1 X118.425 Y7.014 E0.71709
G1 X119.058 Y6.979 E0.74872
G1 X119.504 Y6.968 E0.77098
G1 X193.489 Y6.968 E4.4621
G1 X194.195 Y6.978 E4.49733
G1 X194.805 Y7.007 E4.5278
G1 X195.477 Y7.065 E4.56145
G1 X195.839 Y7.117 E4.57969
G1 X196.503 Y7.253 E4.61351
G1 X197.323 Y7.465 E4.65576
G1 X197.95 Y7.688 E4.68896
G1 X198.42 Y7.872 E4.71415
G1 X198.744 Y8.02 E4.73192
G1 X199.255 Y8.289 E4.76073
G1 X199.766 Y8.577 E4.78999
G1 X200.072 Y8.774 E4.80815
G1 X200.622 Y9.176 E4.84214
G1 X201.275 Y9.706 E4.88409
G1 X201.744 Y10.163 E4.91676
G1 X202.104 Y10.533 E4.94252
G1 X202.347 Y10.815 E4.96109
G1 X202.734 Y11.32 E4.99283
G1 X203.23 Y12.037 E5.03633
G1 X203.543 Y12.595 E5.06825
G1 X203.789 Y13.062 E5.09458
G1 X203.939 Y13.389 E5.11253
G1 X204.144 Y13.914 E5.14065
G1 X204.343 Y14.47 E5.17011
G1 X204.444 Y14.812 E5.1879
G1 X204.581 Y15.397 E5.21788
G1 X204.697 Y15.968 E5.24695
G1 X204.747 Y16.313 E5.26434
G1 X204.8 Y16.914 E5.29444
G1 X204.833 Y17.478 E5.32263
G1 X204.848 Y17.983 E5.34783
G1 X204.848 Y92.009 E9.041
G1 X204.838 Y92.713 E9.07613
G1 X204.811 Y93.289 E9.1049
G1 X204.75 Y93.999 E9.14045
G1 X204.699 Y94.356 E9.15844
G1 X204.57 Y94.99 E9.19072
G1 X204.45 Y95.504 E9.21705
G1 X204.351 Y95.843 E9.23467
G1 X204.17 Y96.355 E9.26177
G1 X203.945 Y96.934 E9.29276
G1 X203.796 Y97.261 E9.31068
G1 X203.488 Y97.842 E9.34349
G1 X203.235 Y98.29 E9.36916
G1 X203.038 Y98.597 E9.38736
G1 X202.649 Y99.13 E9.42028
G1 X202.112 Y99.792 E9.46281
G1 X201.64 Y100.275 E9.4965
G1 X201.275 Y100.629 E9.52187
G1 X201.003 Y100.865 E9.53983
G1 X200.573 Y101.197 E9.56694
G1 X200.088 Y101.55 E9.59686
G1 X199.785 Y101.746 E9.61487
G1 X199.287 Y102.028 E9.64342
G1 X198.74 Y102.316 E9.67426
G1 X198.417 Y102.463 E9.69197
G1 X197.82 Y102.695 E9.72392
G1 X197.349 Y102.864 E9.74888
G1 X196.986 Y102.971 E9.76777
G1 X196.337 Y103.119 E9.80098
G1 X195.676 Y103.247 E9.83457
G1 X194.974 Y103.313 E9.86974
G1 X194.888 Y103.32 E9.87405
G1 X194.322 Y103.353 E9.90233
G1 X193.819 Y103.368 E9.92744
G1 X119.807 Y103.368 E13.61991
G1 X119 Y103.355 E13.66018
G1 X118.492 Y103.328 E13.68556
G1 X117.777 Y103.264 E13.72137
G1 X116.943 Y103.116 E13.76363
G1 X116.319 Y102.972 E13.79558
G1 X115.97 Y102.87 E13.81372
G1 X115.35 Y102.648 E13.84658
G1 X114.874 Y102.462 E13.87207
G1 X114.55 Y102.314 E13.88984
G1 X114.061 Y102.057 E13.9174
G1 X113.52 Y101.752 E13.94839
G1 X113.212 Y101.554 E13.96666
G1 X112.683 Y101.167 E13.99936
G1 X112.021 Y100.63 E14.04188
G1 X111.537 Y100.157 E14.07565
G1 X110.962 Y99.535 E14.11791
G1 X110.578 Y99.036 E14.14932
G1 X110.272 Y98.617 E14.17521
G1 X110.069 Y98.302 E14.1939
G1 X109.738 Y97.713 E14.22761
G1 X109.504 Y97.269 E14.25265
G1 X109.354 Y96.941 E14.27064
G1 X109.119 Y96.335 E14.30307
G1 X108.948 Y95.853 E14.32859
G1 X108.848 Y95.51 E14.34641
G1 X108.7 Y94.871 E14.37913
G1 X108.598 Y94.369 E14.40469
G1 X108.546 Y94.006 E14.42299
G1 X108.494 Y93.391 E14.45378
G1 X108.459 Y92.756 E14.48551
G1 X108.448 Y92.307 E14.50791
G1 X108.448 Y18.327 E18.19879
G1 X108.458 Y17.621 E18.23402
G1 X108.483 Y17.062 E18.26193
G1 X108.544 Y16.351 E18.29754
G1 X108.595 Y15.992 E18.31563
;MESH:Vesa2.stl
G0 F5400 X115.545 Y18.531
;TYPE:WALL-INNER
G1 F1800 X115.793 Y19.21 E18.35169
G1 X115.852 Y19.356 E18.35955
G1 X116.248 Y19.957 E18.39545
G1 X116.344 Y20.085 E18.40344
G1 X116.867 Y20.574 E18.43916
G1 X116.99 Y20.673 E18.44703
G1 X117.616 Y21.033 E18.48306
G1 X117.76 Y21.095 E18.49088
G1 X118.451 Y21.301 E18.52686
G1 X118.608 Y21.323 E18.53477
G1 X119.326 Y21.364 E18.57065
G1 X119.484 Y21.346 E18.57858
G1 X120.193 Y21.219 E18.61451
G1 X120.34 Y21.16 E18.62242
G1 X121 Y20.873 E18.65832
G1 X121.696 Y20.355 E18.70161
G1 X122.161 Y19.801 E18.73769
G1 X122.258 Y19.677 E18.74555
G1 X122.58 Y19.034 E18.78142
G1 X122.642 Y18.888 E18.78934
G1 X122.807 Y18.189 E18.82517
G1 X122.83 Y18.033 E18.83304
G1 X122.829 Y17.309 E18.86916
G1 X122.809 Y17.151 E18.8771
G1 X122.642 Y16.453 E18.91291
G1 X122.583 Y16.306 E18.92081
G1 X122.26 Y15.667 E18.95653
G1 X122.166 Y15.539 E18.96446
G1 X121.702 Y14.989 E19.00036
G1 X121.579 Y14.89 E19.00823
G1 X120.999 Y14.461 E19.04422
G1 X120.202 Y14.116 E19.08755
G1 X119.49 Y13.991 E19.12362
G1 X119.332 Y13.969 E19.13158
G1 X118.613 Y14.013 E19.16751
G1 X118.456 Y14.032 E19.1754
G1 X117.768 Y14.238 E19.21123
G1 X117.621 Y14.298 E19.21916
G1 X116.999 Y14.659 E19.25504
G1 X116.872 Y14.753 E19.26292
G1 X116.35 Y15.248 E19.29881
G1 X116.252 Y15.372 E19.30669
G1 X115.858 Y15.972 E19.3425
G1 X115.794 Y16.117 E19.35041
G1 X115.548 Y16.8 E19.38663
G1 X115.527 Y16.955 E19.39443
G1 X115.445 Y17.668 E19.43024
G1 X115.545 Y18.531 E19.47358
G0 F5400 X126.048 Y24.568
G1 F1800 X126.048 Y74.963 E21.9878
G1 X126.789 Y75.269 E22.0278
G1 X149.748 Y52.31 E23.64768
G1 X149.748 Y36.343 E24.44427
G1 X149.748 Y35.377 E24.49247
G1 X149.748 Y34.394 E24.54151
G1 X149.748 Y34.305 E24.54595
G1 X149.748 Y34.14 E24.55418
G1 X149.748 Y24.568 E25.03173
G1 X126.048 Y24.568 E26.21413
G0 F5400 X152.194 Y40.098
G1 F1800 X153.026 Y40.742 E26.26662
G1 X153.104 Y40.789 E26.27116
G1 X153.959 Y41.251 E26.31965
G1 X154.043 Y41.285 E26.32417
G1 X154.968 Y41.606 E26.37302
G1 X155.058 Y41.625 E26.37761
G1 X156.009 Y41.793 E26.42579
G1 X156.1 Y41.799 E26.43034
G1 X157.091 Y41.811 E26.47978
G1 X158.144 Y41.654 E26.5329
G1 X159.153 Y41.331 E26.58575
G1 X160.1 Y40.851 E26.63872
G1 X160.957 Y40.225 E26.69167
G1 X161.702 Y39.471 E26.74455
G1 X162.317 Y38.607 E26.79746
G1 X162.786 Y37.655 E26.85041
G1 X163.096 Y36.64 E26.90336
G1 X163.149 Y36.257 E26.92265
G1 X163.238 Y35.604 E26.95552
G1 X163.239 Y35.513 E26.96006
G1 X163.214 Y34.529 E27.00917
G1 X163.149 Y34.183 E27.02674
G1 X163.017 Y33.486 E27.06213
G1 X162.657 Y32.49 E27.11497
G1 X162.141 Y31.562 E27.16794
G1 X161.492 Y30.741 E27.22015
G1 X161.427 Y30.676 E27.22474
G1 X160.701 Y30.014 E27.27375
G1 X159.815 Y29.432 E27.32664
G1 X158.847 Y29 E27.37953
G1 X157.836 Y28.732 E27.43171
G1 X157.746 Y28.718 E27.43625
G1 X156.777 Y28.626 E27.48481
G1 X156.687 Y28.627 E27.4893
G1 X155.706 Y28.688 E27.53834
G1 X154.671 Y28.925 E27.59131
G1 X153.688 Y29.322 E27.6442
G1 X152.781 Y29.872 E27.69712
G1 X151.975 Y30.561 E27.75002
G1 X151.285 Y31.373 E27.80319
G1 X150.736 Y32.285 E27.85629
G1 X150.346 Y33.262 E27.90878
G1 X150.322 Y33.349 E27.91328
G1 X150.147 Y34.144 E27.95389
G1 X150.112 Y34.305 E27.96174
G1 X150.104 Y34.394 E27.96575
G1 X150.047 Y35.377 E28.00598
G1 X150.147 Y36.338 E28.04811
G1 X150.158 Y36.436 E28.05303
G1 X150.437 Y37.463 E28.10613
G1 X150.878 Y38.433 E28.15929
G1 X151.469 Y39.318 E28.21238
G1 X152.194 Y40.098 E28.26551
G0 F5400 X163.548 Y24.568
G1 F1800 X163.548 Y34.177 E28.7449
G1 X163.548 Y34.529 E28.76102
G1 X163.548 Y35.513 E28.80048
G1 X163.548 Y35.604 E28.80399
G1 X163.548 Y36.263 E28.83318
G1 X163.548 Y52.31 E29.63377
G1 X186.507 Y75.269 E31.25365
G1 X187.248 Y74.963 E31.29364
G1 X187.248 Y24.568 E33.80786
G1 X163.548 Y24.568 E34.99026
G0 F5400 X190.545 Y18.531
G1 F1800 X190.793 Y19.21 E35.02632
G1 X190.852 Y19.356 E35.03418
G1 X191.248 Y19.957 E35.07009
G1 X191.344 Y20.085 E35.07807
G1 X191.867 Y20.574 E35.11379
G1 X191.99 Y20.673 E35.12167
G1 X192.616 Y21.033 E35.1577
G1 X192.76 Y21.095 E35.16552
G1 X193.451 Y21.301 E35.20149
G1 X193.608 Y21.323 E35.2094
G1 X194.326 Y21.364 E35.24528
G1 X194.484 Y21.346 E35.25321
G1 X195.193 Y21.219 E35.28915
G1 X195.34 Y21.16 E35.29705
G1 X196 Y20.873 E35.33296
G1 X196.696 Y20.355 E35.37624
G1 X197.161 Y19.801 E35.41233
G1 X197.258 Y19.677 E35.42018
G1 X197.58 Y19.034 E35.45606
G1 X197.642 Y18.888 E35.46397
G1 X197.807 Y18.189 E35.4998
G1 X197.83 Y18.033 E35.50767
G1 X197.829 Y17.309 E35.54379
G1 X197.809 Y17.151 E35.55174
G1 X197.642 Y16.453 E35.58754
G1 X197.583 Y16.306 E35.59545
G1 X197.26 Y15.667 E35.63117
G1 X197.166 Y15.539 E35.63909
G1 X196.702 Y14.989 E35.67499
G1 X196.579 Y14.89 E35.68287
G1 X195.999 Y14.461 E35.71886
G1 X195.202 Y14.116 E35.76219
G1 X194.49 Y13.991 E35.79825
G1 X194.332 Y13.969 E35.80621
G1 X193.613 Y14.013 E35.84215
G1 X193.456 Y14.032 E35.85004
G1 X192.768 Y14.238 E35.88587
G1 X192.621 Y14.298 E35.89379
G1 X191.999 Y14.659 E35.92967
G1 X191.872 Y14.753 E35.93755
G1 X191.35 Y15.248 E35.97344
G1 X191.252 Y15.372 E35.98133
G1 X190.858 Y15.972 E36.01714
G1 X190.794 Y16.117 E36.02505
G1 X190.548 Y16.8 E36.06126
G1 X190.527 Y16.955 E36.06907
G1 X190.445 Y17.668 E36.10487
G1 X190.545 Y18.531 E36.14822
G0 F5400 X195.129 Y10.839
G1 F1800 X196.092 Y11.049 E36.19739
G1 X197.018 Y11.393 E36.24667
G1 X197.878 Y11.865 E36.29562
G1 X198.665 Y12.454 E36.34466
G1 X199.365 Y13.155 E36.39408
G1 X199.948 Y13.935 E36.44267
G1 X200.427 Y14.81 E36.49243
G1 X200.768 Y15.727 E36.54124
G1 X200.976 Y16.689 E36.59035
G1 X201.048 Y17.683 E36.64007
G1 X201.048 Y92.656 E40.38048
G1 X200.976 Y93.65 E40.43021
G1 X200.766 Y94.613 E40.47938
G1 X200.422 Y95.537 E40.52857
G1 X199.95 Y96.397 E40.57751
G1 X199.361 Y97.185 E40.62659
G1 X198.66 Y97.885 E40.67602
G1 X197.881 Y98.468 E40.72456
G1 X197.007 Y98.945 E40.77424
G1 X196.086 Y99.288 E40.82327
G1 X195.126 Y99.496 E40.87227
G1 X194.133 Y99.568 E40.92195
G1 X119.161 Y99.568 E44.66231
G1 X118.163 Y99.495 E44.71224
G1 X117.204 Y99.286 E44.7612
G1 X116.278 Y98.942 E44.81049
G1 X115.418 Y98.47 E44.85943
G1 X114.626 Y97.878 E44.90876
G1 X113.934 Y97.184 E44.95766
G1 X113.347 Y96.4 E45.00652
G1 X112.871 Y95.527 E45.05613
G1 X112.528 Y94.606 E45.10516
G1 X112.319 Y93.646 E45.15418
G1 X112.248 Y92.654 E45.20379
G1 X112.248 Y17.68 E48.94426
G1 X112.319 Y16.688 E48.99388
G1 X112.531 Y15.72 E49.04332
G1 X112.872 Y14.803 E49.09213
G1 X113.349 Y13.933 E49.14163
G1 X113.938 Y13.146 E49.19067
G1 X114.631 Y12.453 E49.23956
G1 X115.415 Y11.867 E49.2884
G1 X116.29 Y11.389 E49.33814
G1 X117.207 Y11.048 E49.38695
G1 X118.17 Y10.839 E49.43611
G1 X119.162 Y10.768 E49.48573
G1 X194.137 Y10.768 E53.22625
G1 X195.129 Y10.839 E53.27587
G0 F5400 X159.842 Y62.215
G1 F1800 X160.73 Y61.624 E53.32908
G1 X161.513 Y60.9 E53.38229
G1 X162.168 Y60.058 E53.43551
G1 X162.679 Y59.122 E53.48871
G1 X163.032 Y58.116 E53.5419
G1 X163.219 Y57.066 E53.59511
G1 X163.235 Y56.001 E53.64825
G1 X163.08 Y54.948 E53.70135
G1 X162.79 Y54.014 E53.75014
G1 X162.364 Y53.134 E53.79892
G1 X161.812 Y52.324 E53.84782
G1 X161.2 Y51.66 E53.89287
G1 X161.139 Y51.601 E53.89711
G1 X160.425 Y51.023 E53.94294
G1 X160.352 Y50.974 E53.94732
G1 X159.568 Y50.519 E53.99255
G1 X159.49 Y50.481 E53.99688
G1 X158.643 Y50.146 E54.04232
G1 X158.559 Y50.12 E54.04671
G1 X157.666 Y49.916 E54.09241
G1 X157.579 Y49.906 E54.09677
G1 X156.676 Y49.838 E54.14195
G1 X156.589 Y49.839 E54.14629
G1 X155.665 Y49.908 E54.19252
G1 X154.695 Y50.13 E54.24217
G1 X153.767 Y50.497 E54.29195
G1 X152.903 Y51 E54.34183
G1 X152.13 Y51.624 E54.39139
G1 X151.468 Y52.344 E54.44019
G1 X150.921 Y53.152 E54.48887
G1 X150.53 Y53.967 E54.53397
G1 X150.496 Y54.045 E54.53821
G1 X150.23 Y54.901 E54.58293
G1 X150.21 Y54.987 E54.58734
G1 X150.069 Y55.949 E54.63585
G1 X150.061 Y56.039 E54.64035
G1 X150.074 Y57.023 E54.68945
G1 X150.084 Y57.112 E54.69392
G1 X150.254 Y58.071 E54.74251
G1 X150.277 Y58.159 E54.74705
G1 X150.599 Y59.075 E54.79549
G1 X150.635 Y59.159 E54.80005
G1 X151.103 Y60.018 E54.84885
G1 X151.153 Y60.095 E54.85343
G1 X151.753 Y60.863 E54.90205
G1 X151.813 Y60.93 E54.90654
G1 X152.53 Y61.594 E54.95529
G1 X152.602 Y61.65 E54.95984
G1 X153.408 Y62.185 E55.00811
G1 X153.487 Y62.232 E55.01269
G1 X154.372 Y62.629 E55.06109
G1 X154.453 Y62.662 E55.06545
G1 X155.266 Y62.89 E55.10758
G1 X155.347 Y62.905 E55.11169
G1 X156.166 Y63.019 E55.15294
G1 X156.249 Y63.023 E55.15708
G1 X157.092 Y63.024 E55.19914
G1 X157.994 Y62.899 E55.24457
G1 X158.875 Y62.651 E55.29023
G1 X159.842 Y62.215 E55.34316
G0 F5400 X156.648 Y64.925
G1 F1800 X148.357 Y73.216 E55.92813
G1 X148.211 Y73.362 E55.93843
G1 X147.803 Y73.77 E55.96722
G1 X148.018 Y73.17 E55.97951
G1 X148.056 Y72.967 E55.98824
G1 X148.209 Y72.156 E56.02941
G1 X148.242 Y71.124 E56.08093
G1 X148.124 Y70.173 E56.12874
G1 X148.108 Y70.085 E56.1332
G1 X147.847 Y69.173 E56.18053
G1 X147.816 Y69.089 E56.18499
G1 X147.418 Y68.235 E56.232
G1 X147.375 Y68.157 E56.23644
G1 X146.846 Y67.37 E56.28375
G1 X146.79 Y67.3 E56.28822
G1 X146.152 Y66.616 E56.33489
G1 X146.089 Y66.554 E56.3393
G1 X145.346 Y65.973 E56.38635
G1 X145.274 Y65.922 E56.39076
G1 X144.444 Y65.46 E56.43815
G1 X144.362 Y65.422 E56.44266
G1 X143.47 Y65.095 E56.49006
G1 X143.384 Y65.07 E56.49452
G1 X142.448 Y64.887 E56.5421
G1 X142.359 Y64.876 E56.54658
G1 X141.414 Y64.842 E56.59376
G1 X141.324 Y64.843 E56.59825
G1 X140.369 Y64.962 E56.64626
G1 X140.283 Y64.981 E56.65065
G1 X139.371 Y65.242 E56.69798
G1 X139.287 Y65.274 E56.70246
G1 X138.427 Y65.676 E56.74983
G1 X138.349 Y65.721 E56.75432
G1 X137.561 Y66.255 E56.80181
G1 X137.492 Y66.31 E56.80621
G1 X136.796 Y66.963 E56.85382
G1 X136.737 Y67.03 E56.85828
G1 X136.154 Y67.78 E56.90567
G1 X136.106 Y67.855 E56.91011
G1 X135.643 Y68.695 E56.95797
G1 X135.609 Y68.778 E56.96244
G1 X135.288 Y69.67 E57.00974
G1 X135.267 Y69.758 E57.01425
G1 X135.092 Y70.688 E57.06146
G1 X135.083 Y70.776 E57.06588
G1 X135.053 Y71.748 E57.11439
G1 X135.184 Y72.781 E57.16634
G1 X135.471 Y73.763 E57.21738
G1 X135.505 Y73.846 E57.22186
G1 X135.92 Y74.72 E57.27013
G1 X136.501 Y75.568 E57.32141
G1 X136.559 Y75.636 E57.32587
G1 X137.222 Y76.336 E57.37397
G1 X138.047 Y76.969 E57.42585
G1 X138.961 Y77.467 E57.47778
G1 X139.942 Y77.815 E57.52971
G1 X140.958 Y78.003 E57.58126
G1 X141.991 Y78.03 E57.63281
G1 X143.015 Y77.896 E57.68434
G1 X143.202 Y77.84 E57.69408
G1 X143.203 Y77.839 E57.69415
G1 X143.955 Y77.618 E57.73325
G1 X143.4 Y78.173 E57.75343
G1 X136.546 Y85.027 E58.23702
G1 X136.852 Y85.768 E58.27701
G1 X176.443 Y85.768 E60.25222
G1 X176.749 Y85.027 E60.29221
G1 X169.896 Y78.174 E60.77573
G1 X169.341 Y77.619 E60.81489
G1 X170.093 Y77.84 E60.83501
G1 X170.094 Y77.841 E60.83508
G1 X170.24 Y77.884 E60.84268
G1 X170.328 Y77.901 E60.84715
G1 X171.26 Y78.024 E60.89405
G1 X171.348 Y78.028 E60.89844
G1 X172.31 Y78.006 E60.94645
G1 X173.318 Y77.823 E60.99756
G1 X173.403 Y77.797 E61.002
G1 X174.297 Y77.483 E61.04927
G1 X174.379 Y77.444 E61.0538
G1 X175.218 Y76.989 E61.10142
G1 X175.291 Y76.938 E61.10586
G1 X176.046 Y76.359 E61.15333
G1 X176.11 Y76.297 E61.15777
G1 X176.773 Y75.598 E61.20584
G1 X177.363 Y74.741 E61.25775
G1 X177.811 Y73.802 E61.30965
G1 X178.102 Y72.816 E61.36094
G1 X178.117 Y72.729 E61.36535
G1 X178.24 Y71.785 E61.41284
G1 X178.241 Y71.695 E61.41733
G1 X178.212 Y70.731 E61.46545
G1 X178.02 Y69.708 E61.51738
G1 X177.669 Y68.729 E61.56926
G1 X177.169 Y67.817 E61.62115
G1 X176.53 Y66.993 E61.67317
G1 X175.771 Y66.28 E61.72513
G1 X174.909 Y65.698 E61.77702
G1 X173.968 Y65.256 E61.82889
G1 X172.967 Y64.968 E61.88085
G1 X171.933 Y64.841 E61.93283
G1 X170.894 Y64.878 E61.9847
G1 X169.872 Y65.077 E62.03664
G1 X168.895 Y65.436 E62.08857
