;FLAVOR:Marlin
;TIME:4194
;Filament used: 5.8409m, 0m, 0m, 0m
;Layer height: 0.3
;MINX:53.463
;MINY:81.087
;MINZ:0.24
;MAXX:161.347
;MAXY:128.649
;MAXZ:51.44
;Generated with Cura_SteamEngine 4.3.0
T0
M140 S60
M105
M190 S60
M104 S215
M105
M109 S215
M82 ;absolute extrusion mode
G21 ;metric values
G90 ;absolute positioning
M82 ;set extruder to absolute mode
M107 ;start with the fan off
G28 X0 Y0 ;move X/Y to min endstops
G28 Z0 ;move Z to min endstops
G1 Z15.0 F100 ;move the platform down 15mm
G92 E0 ;zero the extruded length
G1 F200 E3 ;extrude 3mm of feed stock
G92 E0 ;zero the extruded length again
G1 F100
M117 Printing...
G5
G92 E0
G92 E0
G1 F2400 E-4
;LAYER_COUNT:167
;LAYER:-5
M107
M204 S3000
M205 X10 Y10
G0 F6000 X56.078 Y93.097 Z0.24
M204 S1800
M205 X8 Y8
;TYPE:SUPPORT-INTERFACE
G1 F2400 E0
G1 F1012.5 X56.306 Y92.972 E0.02076
G1 X56.619 Y92.831 E0.04816
G1 X57.114 Y92.648 E0.09029
G1 X57.28 Y92.596 E0.10417
G1 X57.652 Y92.498 E0.13488
G1 X58.022 Y92.421 E0.16505
G1 X58.328 Y92.378 E0.18971
G1 X58.71 Y92.35 E0.22029
G1 X58.897 Y92.342 E0.23523
G1 X61.311 Y92.327 E0.42793
G1 X73.953 Y92.331 E1.43707
G1 X74.33 Y92.355 E1.46722
G1 X74.628 Y92.392 E1.49119
G1 X74.912 Y92.447 E1.51428
G1 X75.203 Y92.523 E1.53829
G1 X75.461 Y92.607 E1.55995
G1 X75.74 Y92.718 E1.58392
G1 X75.998 Y92.84 E1.6067
G1 X76.25 Y92.979 E1.62967
G1 X76.548 Y93.17 E1.65793
G1 X77.135 Y93.493 E1.71141
G1 X77.77 Y93.746 E1.76597
G1 X78.431 Y93.916 E1.82045
G1 X79.108 Y94.001 E1.87492
G1 X79.791 Y94.001 E1.92944
G1 X80.468 Y93.913 E1.98394
G1 X81.129 Y93.742 E2.03844
G1 X81.763 Y93.488 E2.09296
G1 X82.359 Y93.156 E2.14741
G1 X82.91 Y92.752 E2.20195
G1 X83.405 Y92.281 E2.2565
G1 X83.839 Y91.749 E2.3113
G1 X84.299 Y90.973 E2.38331
G1 X84.383 Y90.805 E2.3983
G1 X84.904 Y89.848 E2.48528
G1 X85.114 Y89.496 E2.518
G1 X85.405 Y89.064 E2.55958
G1 X85.993 Y88.281 E2.63774
G1 X86.305 Y87.91 E2.67644
G1 X86.742 Y87.439 E2.72772
G1 X86.998 Y87.184 E2.75657
G1 X87.734 Y86.496 E2.83699
G1 X87.997 Y86.271 E2.86462
G1 X88.561 Y85.825 E2.92202
G1 X88.824 Y85.631 E2.9481
G1 X89.361 Y85.266 E2.99993
G1 X89.761 Y85.023 E3.03729
G1 X90.29 Y84.732 E3.08549
G1 X90.577 Y84.587 E3.11115
G1 X91.516 Y84.152 E3.19376
G1 X91.973 Y83.971 E3.233
G1 X92.903 Y83.657 E3.31135
G1 X93.391 Y83.521 E3.35179
G1 X94.344 Y83.307 E3.42976
G1 X94.862 Y83.221 E3.47167
G1 X95.851 Y83.111 E3.55111
G1 X96.332 Y83.083 E3.58957
G1 X97.325 Y83.076 E3.66883
G1 X97.857 Y83.103 E3.71136
G1 X98.796 Y83.196 E3.78668
G1 X99.31 Y83.276 E3.8282
G1 X100.259 Y83.473 E3.90557
G1 X100.764 Y83.609 E3.94732
G1 X101.687 Y83.907 E4.02474
G1 X102.177 Y84.096 E4.06666
G1 X103.083 Y84.501 E4.14588
G1 X103.524 Y84.729 E4.18551
G1 X104.479 Y85.283 E4.27364
G1 X104.677 Y85.405 E4.2922
G1 X104.807 Y85.491 E4.30465
G1 X105.25 Y85.807 E4.34808
G1 X105.727 Y86.186 E4.39672
G1 X105.992 Y86.412 E4.42452
G1 X106.713 Y87.068 E4.50233
G1 X107.074 Y87.436 E4.54348
G1 X107.725 Y88.167 E4.62161
G1 X107.883 Y88.356 E4.64128
G1 X108.238 Y88.812 E4.68741
G1 X108.418 Y89.06 E4.71187
G1 X113.795 Y96.906 E5.47113
G1 X114.208 Y97.433 E5.52458
G1 X114.693 Y97.913 E5.57905
G1 X115.235 Y98.329 E5.63359
G1 X115.826 Y98.673 E5.68817
G1 X116.454 Y98.938 E5.74258
G1 X117.111 Y99.123 E5.79707
G1 X117.783 Y99.223 E5.8513
G1 X118.233 Y99.242 E5.88725
G1 X128.641 Y99.243 E6.71806
G1 X129.309 Y99.201 E6.77149
G1 X129.979 Y99.072 E6.82596
G1 X130.628 Y98.859 E6.88048
G1 X131.245 Y98.568 E6.93494
G1 X131.821 Y98.199 E6.98954
G1 X132.345 Y97.762 E7.044
G1 X132.809 Y97.262 E7.09846
G1 X133.207 Y96.706 E7.15304
G1 X133.532 Y96.106 E7.20751
G1 X133.778 Y95.469 E7.26201
G1 X133.942 Y94.808 E7.31638
G1 X134.008 Y94.305 E7.35687
G1 X134.017 Y94.19 E7.36608
G1 X134.127 Y93.19 E7.44639
G1 X134.221 Y92.641 E7.49085
G1 X134.425 Y91.713 E7.56669
G1 X134.562 Y91.226 E7.60708
G1 X134.863 Y90.316 E7.68359
G1 X135.065 Y89.811 E7.727
G1 X135.32 Y89.253 E7.77598
G1 X135.48 Y88.934 E7.80447
G1 X136.005 Y87.974 E7.89181
G1 X136.21 Y87.631 E7.9237
G1 X136.501 Y87.196 E7.96548
G1 X137.087 Y86.413 E8.04355
G1 X137.411 Y86.03 E8.08359
G1 X137.848 Y85.559 E8.13488
G1 X138.082 Y85.325 E8.1613
G1 X138.812 Y84.643 E8.24104
G1 X139.203 Y84.317 E8.28168
G1 X139.98 Y83.732 E8.35932
G1 X140.387 Y83.457 E8.39853
G1 X141.231 Y82.952 E8.47704
G1 X141.702 Y82.705 E8.51949
G1 X142.609 Y82.288 E8.59918
G1 X143.062 Y82.11 E8.63803
G1 X143.977 Y81.8 E8.71515
G1 X144.461 Y81.665 E8.75526
G1 X145.385 Y81.454 E8.83091
G1 X145.678 Y81.397 E8.85474
G1 X146.074 Y81.334 E8.88675
G1 X146.449 Y81.293 E8.91686
G1 X146.754 Y81.281 E8.94122
G1 X147.044 Y81.288 E8.96438
G1 X147.313 Y81.31 E8.98592
G1 X147.63 Y81.357 E9.01151
G1 X147.889 Y81.412 E9.03264
G1 X148.177 Y81.493 E9.05652
G1 X148.446 Y81.587 E9.07927
G1 X148.721 Y81.704 E9.10312
G1 X148.979 Y81.833 E9.12615
G1 X149.237 Y81.984 E9.15001
G1 X149.463 Y82.134 E9.17166
G1 X149.811 Y82.399 E9.20658
G1 X149.979 Y82.545 E9.22435
G1 X150.285 Y82.838 E9.25817
G1 X150.461 Y83.03 E9.27896
G1 X151.017 Y83.717 E9.34951
G1 X151.034 Y83.703 E9.35126
G1 X151.368 Y84.042 E9.38925
G1 X151.904 Y84.463 E9.44366
G1 X152.49 Y84.814 E9.49818
G1 X153.114 Y85.088 E9.55258
G1 X153.767 Y85.281 E9.60694
G1 X154.279 Y85.372 E9.64845
G1 X154.395 Y85.387 E9.65779
G1 X154.69 Y85.443 E9.68176
G1 X154.98 Y85.519 E9.70569
G1 X155.238 Y85.603 E9.72734
G1 X155.505 Y85.709 E9.75028
G1 X155.796 Y85.847 E9.77598
G1 X156.029 Y85.976 E9.79724
G1 X156.453 Y86.252 E9.83763
G1 X158.385 Y87.657 E10.02832
G1 X158.531 Y87.772 E10.04315
G1 X158.787 Y87.983 E10.06963
G1 X159.018 Y88.199 E10.09488
G1 X159.215 Y88.411 E10.11798
G1 X159.404 Y88.642 E10.14181
G1 X159.562 Y88.859 E10.16323
G1 X159.727 Y89.12 E10.18788
G1 X159.863 Y89.371 E10.21067
G1 X159.984 Y89.629 E10.23342
G1 X160.159 Y90.083 E10.27226
G1 X160.941 Y92.5 E10.47504
G1 X161.039 Y92.879 E10.50629
G1 X161.092 Y93.156 E10.5288
G1 X161.131 Y93.464 E10.55358
G1 X161.147 Y93.739 E10.57557
G1 X161.147 Y94.034 E10.59912
G1 X161.129 Y94.314 E10.62151
G1 X161.091 Y94.613 E10.64557
G1 X161.034 Y94.907 E10.66948
G1 X160.911 Y95.369 E10.70764
G1 X160.166 Y97.66 E10.89995
G1 X160.112 Y97.809 E10.9126
G1 X159.977 Y98.148 E10.94172
G1 X159.85 Y98.417 E10.96547
G1 X159.699 Y98.691 E10.99044
G1 X159.564 Y98.903 E11.01051
G1 X159.388 Y99.144 E11.03433
G1 X159.19 Y99.382 E11.05904
G1 X159.002 Y99.58 E11.08084
G1 X158.786 Y99.784 E11.10455
G1 X158.392 Y100.102 E11.14497
G1 X156.468 Y101.502 E11.33491
G1 X156.324 Y101.599 E11.34877
G1 X156.019 Y101.793 E11.37762
G1 X155.768 Y101.932 E11.40052
G1 X155.503 Y102.056 E11.42388
G1 X155.225 Y102.166 E11.44774
G1 X154.961 Y102.25 E11.46986
G1 X154.667 Y102.326 E11.4941
G1 X154.381 Y102.379 E11.51732
G1 X154.042 Y102.418 E11.54455
G1 X153.378 Y102.502 E11.59798
G1 X152.717 Y102.673 E11.65248
G1 X152.083 Y102.926 E11.70697
G1 X151.486 Y103.256 E11.76142
G1 X150.932 Y103.663 E11.8163
G1 X150.655 Y103.935 E11.84728
G1 X150.639 Y103.919 E11.84909
G1 X150.145 Y104.452 E11.9071
G1 X150.038 Y104.552 E11.91879
G1 X149.745 Y104.809 E11.9499
G1 X149.528 Y104.978 E11.97186
G1 X149.297 Y105.134 E11.99411
G1 X149.029 Y105.292 E12.01894
G1 X148.268 Y105.678 E12.08706
G1 X148.271 Y105.685 E12.08766
G1 X148.226 Y105.708 E12.0917
G1 X147.663 Y106.093 E12.14614
G1 X147.153 Y106.548 E12.2007
G1 X146.705 Y107.063 E12.25519
G1 X146.324 Y107.631 E12.30978
G1 X146.02 Y108.242 E12.36426
G1 X145.794 Y108.886 E12.41874
G1 X145.651 Y109.556 E12.47343
G1 X145.594 Y110.33 E12.53538
G1 X145.59 Y123.737 E13.60558
G1 X145.568 Y124.097 E13.63437
G1 X145.529 Y124.409 E13.65947
G1 X145.474 Y124.696 E13.6828
G1 X145.401 Y124.976 E13.7059
G1 X145.314 Y125.243 E13.72831
G1 X145.214 Y125.496 E13.75003
G1 X145.073 Y125.794 E13.77634
G1 X144.938 Y126.038 E13.7986
G1 X144.796 Y126.26 E13.81964
G1 X144.605 Y126.518 E13.84526
G1 X144.296 Y126.878 E13.88313
G1 X144.145 Y127.04 E13.90081
G1 X144.038 Y127.14 E13.9125
G1 X143.745 Y127.397 E13.94361
G1 X143.528 Y127.566 E13.96557
G1 X143.297 Y127.722 E13.98782
G1 X143.029 Y127.88 E14.01265
G1 X142.772 Y128.01 E14.03564
G1 X142.503 Y128.125 E14.059
G1 X142.246 Y128.218 E14.08081
G1 X141.954 Y128.302 E14.10507
G1 X141.698 Y128.357 E14.12597
G1 X141.361 Y128.407 E14.15316
G1 X140.916 Y128.441 E14.18879
G1 X140.721 Y128.449 E14.20437
G1 X139.123 Y128.45 E14.33193
G1 X138.934 Y128.444 E14.34702
G1 X138.588 Y128.422 E14.3747
G1 X138.29 Y128.384 E14.39868
G1 X137.74 Y128.272 E14.44348
G1 X137.609 Y128.233 E14.45439
G1 X137.247 Y128.114 E14.48481
G1 X136.975 Y128.004 E14.50823
G1 X136.565 Y127.807 E14.54454
G1 X135.943 Y127.556 E14.59808
G1 X135.276 Y127.381 E14.65313
G1 X134.284 Y127.282 E14.7327
G1 X133.771 Y127.28 E14.77365
G1 X112.888 Y127.273 E16.44063
G1 X111.449 Y127.211 E16.5556
G1 X110.949 Y127.181 E16.59558
G1 X110.6 Y127.147 E16.62357
G1 X109.164 Y126.954 E16.73923
G1 X108.783 Y126.886 E16.77013
G1 X107.376 Y126.587 E16.88495
G1 X107.035 Y126.5 E16.91304
G1 X105.634 Y126.091 E17.02954
G1 X105.288 Y125.975 E17.05867
G1 X103.907 Y125.453 E17.17652
G1 X103.613 Y125.328 E17.20202
G1 X102.295 Y124.716 E17.31802
G1 X101.953 Y124.54 E17.34872
G1 X100.691 Y123.83 E17.46431
G1 X100.382 Y123.64 E17.49327
G1 X99.133 Y122.806 E17.61315
G1 X98.832 Y122.585 E17.64296
G1 X97.708 Y121.705 E17.75691
G1 X97.457 Y121.494 E17.78308
G1 X96.627 Y120.732 E17.87302
G1 X95.509 Y119.627 E17.9985
G1 X95.19 Y119.288 E18.03566
G1 X95.056 Y119.135 E18.05189
G1 X94.709 Y118.705 E18.096
G1 X94.624 Y118.591 E18.10735
G1 X93.37 Y116.767 E18.28404
G1 X91.532 Y114.063 E18.54503
G1 X88.172 Y109.158 E19.01962
G1 X87.76 Y108.63 E19.07308
G1 X87.275 Y108.149 E19.12761
G1 X86.732 Y107.733 E19.18221
G1 X86.143 Y107.39 E19.23662
G1 X85.514 Y107.123 E19.29116
G1 X84.856 Y106.938 E19.34573
G1 X84.181 Y106.838 E19.4002
G1 X83.498 Y106.823 E19.45473
G1 X82.819 Y106.895 E19.50923
G1 X82.155 Y107.051 E19.56368
G1 X81.515 Y107.29 E19.61821
G1 X80.911 Y107.609 E19.67274
G1 X80.352 Y108 E19.72719
G1 X79.846 Y108.46 E19.78178
G1 X79.403 Y108.978 E19.83619
G1 X79.029 Y109.55 E19.89074
G1 X78.729 Y110.164 E19.94529
G1 X78.504 Y110.837 E20.00193
G1 X78.47 Y110.962 E20.01228
G1 X78.388 Y111.214 E20.03343
G1 X78.276 Y111.496 E20.05765
G1 X78.154 Y111.754 E20.08043
G1 X78.01 Y112.013 E20.10409
G1 X77.871 Y112.232 E20.12479
G1 X77.673 Y112.498 E20.15126
G1 X77.369 Y112.852 E20.18851
G1 X77.218 Y113.014 E20.20619
G1 X77.111 Y113.114 E20.21788
G1 X76.818 Y113.371 E20.24899
G1 X76.601 Y113.54 E20.27094
G1 X76.37 Y113.696 E20.29319
G1 X76.102 Y113.854 E20.31803
G1 X75.845 Y113.984 E20.34102
G1 X75.576 Y114.099 E20.36437
G1 X75.319 Y114.192 E20.38619
G1 X75.027 Y114.276 E20.41044
G1 X74.766 Y114.332 E20.43175
G1 X74.446 Y114.38 E20.45758
G1 X73.978 Y114.416 E20.49505
G1 X73.786 Y114.423 E20.51038
G1 X59.208 Y114.423 E21.67406
G1 X58.99 Y114.414 E21.69148
G1 X58.404 Y114.366 E21.73841
G1 X58.226 Y114.344 E21.75273
G1 X57.64 Y114.243 E21.8002
G1 X57.287 Y114.161 E21.82913
G1 X56.998 Y114.075 E21.85319
G1 X56.723 Y113.972 E21.87664
G1 X56.462 Y113.857 E21.8994
G1 X56.235 Y113.739 E21.91982
G1 X55.931 Y113.55 E21.9484
G1 X55.471 Y113.212 E21.99396
G1 X55.311 Y113.082 E22.01042
G1 X55.216 Y112.993 E22.02081
G1 X54.961 Y112.737 E22.04965
G1 X54.758 Y112.506 E22.0742
G1 X54.593 Y112.292 E22.09577
G1 X54.419 Y112.033 E22.12068
G1 X54.259 Y111.762 E22.1458
G1 X54.149 Y111.545 E22.16522
G1 X53.987 Y111.173 E22.19761
G1 X53.954 Y111.075 E22.20586
G1 X53.84 Y110.709 E22.23646
G1 X53.772 Y110.425 E22.25977
G1 X53.718 Y110.11 E22.28529
G1 X53.69 Y109.864 E22.30505
G1 X53.67 Y109.424 E22.34021
G1 X53.664 Y107.654 E22.4815
G1 X53.669 Y107.498 E22.49396
G1 X53.69 Y107.128 E22.52354
G1 X53.726 Y106.841 E22.54663
G1 X53.778 Y106.564 E22.56913
G1 X53.856 Y106.258 E22.59433
G1 X53.942 Y105.995 E22.61642
G1 X54.046 Y105.731 E22.63907
G1 X54.082 Y105.655 E22.64578
G1 X54.326 Y105.031 E22.69927
G1 X54.495 Y104.37 E22.75373
G1 X54.577 Y103.691 E22.80832
G1 X54.575 Y103.009 E22.86276
G1 X54.485 Y102.331 E22.91736
G1 X54.312 Y101.675 E22.97151
G1 X54.13 Y101.201 E23.01204
G1 X53.988 Y100.877 E23.04028
G1 X53.953 Y100.775 E23.04889
G1 X53.841 Y100.41 E23.07937
G1 X53.772 Y100.125 E23.10277
G1 X53.718 Y99.81 E23.12829
G1 X53.69 Y99.563 E23.14813
G1 X53.67 Y99.124 E23.18321
G1 X53.664 Y97.354 E23.3245
G1 X53.669 Y97.198 E23.33696
G1 X53.69 Y96.828 E23.36654
G1 X53.726 Y96.541 E23.38963
G1 X53.778 Y96.264 E23.41213
G1 X53.856 Y95.958 E23.43733
G1 X53.937 Y95.709 E23.45823
G1 X54.049 Y95.426 E23.48253
G1 X54.179 Y95.148 E23.50703
G1 X54.3 Y94.928 E23.52707
G1 X54.633 Y94.419 E23.57562
G1 X54.721 Y94.307 E23.58699
G1 X54.958 Y94.02 E23.6167
G1 X55.161 Y93.805 E23.64031
G1 X55.372 Y93.608 E23.66335
G1 X55.589 Y93.427 E23.68591
G1 X55.825 Y93.257 E23.70912
G1 X56.078 Y93.097 E23.73302
M204 S3000
M205 X10 Y10
G0 F6000 X56 Y93.146
M204 S1800
M205 X8 Y8
G1 F1012.5 X56 Y113.592 E25.36511
M204 S3000
M205 X10 Y10
G0 F6000 X57.6 Y114.233
M204 S1800
M205 X8 Y8
G1 F1012.5 X57.6 Y92.511 E27.09905
M204 S3000
M205 X10 Y10
G0 F6000 X59.2 Y92.34
M204 S1800
M205 X8 Y8
G1 F1012.5 X59.2 Y114.422 E28.86173
M204 S3000
M205 X10 Y10
G0 F6000 X60.8 Y114.423
M204 S1800
M205 X8 Y8
G1 F1012.5 X60.8 Y92.33 E30.62529
M204 S3000
M205 X10 Y10
G0 F6000 X62.4 Y92.328
M204 S1800
M205 X8 Y8
G1 F1012.5 X62.4 Y114.423 E32.38901
M204 S3000
M205 X10 Y10
G0 F6000 X64 Y114.423
M204 S1800
M205 X8 Y8
G1 F1012.5 X64 Y92.328 E34.15273
M204 S3000
M205 X10 Y10
G0 F6000 X65.6 Y92.329
M204 S1800
M205 X8 Y8
G1 F1012.5 X65.6 Y114.423 E35.91637
M204 S3000
M205 X10 Y10
G0 F6000 X67.2 Y114.423
M204 S1800
M205 X8 Y8
G1 F1012.5 X67.2 Y92.329 E37.68001
M204 S3000
M205 X10 Y10
G0 F6000 X68.8 Y92.33
M204 S1800
M205 X8 Y8
G1 F1012.5 X68.8 Y114.423 E39.44356
M204 S3000
M205 X10 Y10
G0 F6000 X70.4 Y114.423
M204 S1800
M205 X8 Y8
G1 F1012.5 X70.4 Y92.33 E41.20712
M204 S3000
M205 X10 Y10
G0 F6000 X72 Y92.331
M204 S1800
M205 X8 Y8
G1 F1012.5 X72 Y114.423 E42.9706
M204 S3000
M205 X10 Y10
G0 F6000 X73.6 Y114.423
M204 S1800
M205 X8 Y8
G1 F1012.5 X73.6 Y92.331 E44.73408
M204 S3000
M205 X10 Y10
G0 F6000 X75.2 Y92.523
M204 S1800
M205 X8 Y8
G1 F1012.5 X75.2 Y114.227 E46.46659
M204 S3000
M205 X10 Y10
G0 F6000 X76.8 Y113.386
M204 S1800
M205 X8 Y8
G1 F1012.5 X76.8 Y93.309 E48.06922
M204 S3000
M205 X10 Y10
G0 F6000 X78.4 Y93.909
M204 S1800
M205 X8 Y8
G1 F1012.5 X78.4 Y111.178 E49.44771
M204 S3000
M205 X10 Y10
G0 F6000 X80 Y108.32
M204 S1800
M205 X8 Y8
G1 F1012.5 X80 Y93.973 E50.59295
M204 S3000
M205 X10 Y10
G0 F6000 X81.6 Y93.553
M204 S1800
M205 X8 Y8
G1 F1012.5 X81.6 Y107.259 E51.68702
M204 S3000
M205 X10 Y10
G0 F6000 X83.2 Y106.855
M204 S1800
M205 X8 Y8
G1 F1012.5 X83.2 Y92.476 E52.83481
M204 S3000
M205 X10 Y10
G0 F6000 X84.8 Y90.039
M204 S1800
M205 X8 Y8
G1 F1012.5 X84.8 Y106.929 E54.18305
M204 S3000
M205 X10 Y10
G0 F6000 X86.4 Y107.539
M204 S1800
M205 X8 Y8
G1 F1012.5 X86.4 Y87.807 E55.75814
M204 S3000
M205 X10 Y10
G0 F6000 X88 Y86.268
M204 S1800
M205 X8 Y8
G1 F1012.5 X88 Y108.937 E57.56768
M204 S3000
M205 X10 Y10
G0 F6000 X89.6 Y111.242
M204 S1800
M205 X8 Y8
G1 F1012.5 X89.6 Y85.12 E59.65285
M204 S3000
M205 X10 Y10
G0 F6000 X91.2 Y84.298
M204 S1800
M205 X8 Y8
G1 F1012.5 X91.2 Y113.578 E61.9901
M204 S3000
M205 X10 Y10
G0 F6000 X92.8 Y115.928
M204 S1800
M205 X8 Y8
G1 F1012.5 X92.8 Y83.691 E64.5634
M204 S3000
M205 X10 Y10
G0 F6000 X94.4 Y83.297
M204 S1800
M205 X8 Y8
G1 F1012.5 X94.4 Y118.265 E67.3547
M204 S3000
M205 X10 Y10
G0 F6000 X96 Y120.112
M204 S1800
M205 X8 Y8
G1 F1012.5 X96 Y83.102 E70.309
M204 S3000
M205 X10 Y10
G0 F6000 X97.6 Y83.09
M204 S1800
M205 X8 Y8
G1 F1012.5 X97.6 Y121.614 E73.38415
M204 S3000
M205 X10 Y10
G0 F6000 X99.2 Y122.85
M204 S1800
M205 X8 Y8
G1 F1012.5 X99.2 Y83.259 E76.54447
M204 S3000
M205 X10 Y10
G0 F6000 X100.8 Y83.621
M204 S1800
M205 X8 Y8
G1 F1012.5 X100.8 Y123.891 E79.759
M204 S3000
M205 X10 Y10
G0 F6000 X102.4 Y124.764
M204 S1800
M205 X8 Y8
G1 F1012.5 X102.4 Y84.196 E82.99731
M204 S3000
M205 X10 Y10
G0 F6000 X104 Y85.006
M204 S1800
M205 X8 Y8
G1 F1012.5 X104 Y125.488 E86.22876
M204 S3000
M205 X10 Y10
G0 F6000 X105.6 Y126.079
M204 S1800
M205 X8 Y8
G1 F1012.5 X105.6 Y86.086 E89.42117
M204 S3000
M205 X10 Y10
