;FLAVOR:Marlin
;TIME:22726
;Filament used: 27.8537m, 0m, 0m, 0m
;Layer height: 0.3
;MINX:48.992
;MINY:32.713
;MINZ:0.24
;MAXX:175.844
;MAXY:177.287
;MAXZ:19.34
;Generated with Cura_SteamEngine 4.3.0
T0
M140 S60
M105
M190 S60
M104 S215
M105
M109 S215
M82 ;absolute extrusion mode
G21 ;metric values
G90 ;absolute positioning
M82 ;set extruder to absolute mode
M107 ;start with the fan off
G28 X0 Y0 ;move X/Y to min endstops
G28 Z0 ;move Z to min endstops
G1 Z15.0 F100 ;move the platform down 15mm
G92 E0 ;zero the extruded length
G1 F200 E3 ;extrude 3mm of feed stock
G92 E0 ;zero the extruded length again
G1 F100
M117 Printing...
G5
G92 E0
G92 E0
G1 F2400 E-4
;LAYER_COUNT:60
;LAYER:-5
M107
M204 S3000
M205 X10 Y10
G0 F6000 X49.999 Y35.085 Z0.24
M204 S1800
M205 X8 Y8
;TYPE:SUPPORT-INTERFACE
G1 F2400 E0
G1 F1012.5 X50.182 Y34.84 E0.02441
G1 X50.55 Y34.42 E0.06899
G1 X50.71 Y34.253 E0.08745
G1 X50.82 Y34.155 E0.09921
G1 X51.11 Y33.908 E0.12961
G1 X51.327 Y33.746 E0.15123
G1 X51.567 Y33.589 E0.17412
G1 X51.838 Y33.435 E0.199
G1 X52.104 Y33.308 E0.22253
G1 X52.36 Y33.202 E0.24465
G1 X52.629 Y33.112 E0.26729
G1 X52.928 Y33.032 E0.292
G1 X53.168 Y32.983 E0.31155
G1 X53.519 Y32.94 E0.33978
G1 X54.037 Y32.914 E0.38118
G1 X54.236 Y32.913 E0.39707
G1 X62.655 Y33.216 E1.06954
G1 X71.15 Y33.624 E1.74843
G1 X79.802 Y34.137 E2.44029
G1 X88.424 Y34.729 E3.13015
G1 X105.552 Y36.121 E4.50189
G1 X106.97 Y36.254 E4.61558
G1 X108.289 Y36.424 E4.72174
G1 X109.442 Y36.634 E4.81529
G1 X109.831 Y36.724 E4.84716
G1 X110.656 Y36.944 E4.91532
G1 X110.843 Y37 E4.9309
G1 X111.34 Y37.168 E4.97278
G1 X112.139 Y37.481 E5.04128
G1 X112.306 Y37.554 E5.05583
G1 X112.805 Y37.795 E5.10006
G1 X112.946 Y37.87 E5.11281
G1 X113.675 Y38.293 E5.18009
G1 X113.856 Y38.408 E5.19721
G1 X114.397 Y38.791 E5.25012
G1 X114.546 Y38.907 E5.26519
G1 X115.157 Y39.427 E5.32923
G1 X115.337 Y39.597 E5.349
G1 X115.811 Y40.086 E5.40336
G1 X115.957 Y40.251 E5.42095
G1 X116.445 Y40.86 E5.48324
G1 X116.576 Y41.04 E5.50101
G1 X116.944 Y41.596 E5.55424
G1 X117.04 Y41.756 E5.56913
G1 X117.438 Y42.493 E5.63599
G1 X117.54 Y42.7 E5.65441
G1 X117.741 Y43.15 E5.69375
G1 X118.017 Y43.83 E5.75234
G1 X118.028 Y43.824 E5.75334
G1 X118.087 Y43.959 E5.7651
G1 X118.437 Y44.546 E5.81965
G1 X118.859 Y45.084 E5.87423
G1 X119.344 Y45.563 E5.92864
G1 X119.886 Y45.979 E5.98318
G1 X120.476 Y46.322 E6.03766
G1 X121.105 Y46.588 E6.09217
G1 X121.762 Y46.773 E6.14666
G1 X122.437 Y46.873 E6.20113
G1 X123.12 Y46.888 E6.25566
G1 X123.795 Y46.817 E6.30984
G1 X124.205 Y46.73 E6.3433
G1 X124.919 Y46.553 E6.40202
G1 X125.343 Y46.47 E6.4365
G1 X126.001 Y46.367 E6.48967
G1 X126.23 Y46.338 E6.50809
G1 X127.11 Y46.252 E6.57867
G1 X130.97 Y45.94 E6.8878
G1 X135.065 Y45.624 E7.21565
G1 X138.877 Y45.342 E7.52078
G1 X143.051 Y45.053 E7.85476
G1 X146.644 Y44.817 E8.14219
G1 X150.24 Y44.597 E8.42977
G1 X155.543 Y44.302 E8.85373
G1 X156.41 Y44.262 E8.92302
G1 X160.947 Y44.042 E9.2856
G1 X166.063 Y43.833 E9.69433
G1 X170.771 Y43.678 E10.07034
G1 X171.16 Y43.69 E10.10141
G1 X171.441 Y43.716 E10.12394
G1 X171.745 Y43.764 E10.1485
G1 X172.001 Y43.821 E10.16944
G1 X172.29 Y43.905 E10.19346
G1 X172.564 Y44.003 E10.21669
G1 X172.833 Y44.12 E10.24011
G1 X173.098 Y44.256 E10.26388
G1 X173.309 Y44.381 E10.28346
G1 X173.596 Y44.58 E10.31134
G1 X173.989 Y44.9 E10.35179
G1 X174.182 Y45.074 E10.37254
G1 X174.273 Y45.167 E10.38292
G1 X174.535 Y45.454 E10.41394
G1 X174.715 Y45.68 E10.43701
G1 X174.872 Y45.902 E10.45871
G1 X175.033 Y46.163 E10.48319
G1 X175.172 Y46.426 E10.50693
G1 X175.289 Y46.684 E10.52955
G1 X175.388 Y46.946 E10.55191
G1 X175.475 Y47.231 E10.57569
G1 X175.538 Y47.496 E10.59743
G1 X175.588 Y47.806 E10.6225
G1 X175.636 Y48.362 E10.66705
G1 X175.644 Y48.569 E10.68358
G1 X175.644 Y161.484 E19.69695
G1 X175.64 Y161.61 E19.70701
G1 X175.616 Y161.987 E19.73716
G1 X175.579 Y162.285 E19.76113
G1 X175.524 Y162.569 E19.78423
G1 X175.448 Y162.86 E19.80823
G1 X175.364 Y163.118 E19.82989
G1 X175.253 Y163.397 E19.85386
G1 X175.131 Y163.655 E19.87664
G1 X174.992 Y163.905 E19.89948
G1 X174.839 Y164.144 E19.92213
G1 X174.655 Y164.391 E19.94671
G1 X174.287 Y164.811 E19.99129
G1 X174.129 Y164.977 E20.00958
G1 X174.017 Y165.076 E20.02152
G1 X173.728 Y165.323 E20.05186
G1 X173.51 Y165.485 E20.07354
G1 X173.27 Y165.642 E20.09644
G1 X172.999 Y165.796 E20.12132
G1 X172.733 Y165.923 E20.14485
G1 X172.477 Y166.029 E20.16696
G1 X172.208 Y166.119 E20.18961
G1 X171.907 Y166.2 E20.21449
G1 X171.675 Y166.246 E20.23337
G1 X171.315 Y166.291 E20.26233
G1 X170.806 Y166.317 E20.30301
G1 X170.606 Y166.318 E20.31898
G1 X165.419 Y166.142 E20.73326
G1 X160.882 Y165.955 E21.09573
G1 X155.085 Y165.669 E21.55904
G1 X150.594 Y165.423 E21.91807
G1 X146.546 Y165.176 E22.2418
G1 X142.182 Y164.886 E22.59092
G1 X138.817 Y164.654 E22.86017
G1 X135.501 Y164.409 E23.12558
G1 X131.367 Y164.092 E23.45655
G1 X127.249 Y163.759 E23.78634
G1 X126.157 Y163.649 E23.87395
G1 X125.335 Y163.526 E23.94029
G1 X124.859 Y163.429 E23.97907
G1 X124.244 Y163.277 E24.02964
G1 X123.719 Y163.16 E24.07257
G1 X123.719 Y163.176 E24.07385
G1 X123.569 Y163.147 E24.08605
G1 X122.887 Y163.105 E24.14059
G1 X122.207 Y163.149 E24.19498
G1 X121.536 Y163.279 E24.24954
G1 X120.887 Y163.492 E24.30407
G1 X120.271 Y163.786 E24.35855
G1 X119.697 Y164.154 E24.41298
G1 X119.173 Y164.593 E24.46755
G1 X118.708 Y165.094 E24.52211
G1 X118.312 Y165.649 E24.57653
G1 X118.019 Y166.193 E24.62586
G1 X118.006 Y166.189 E24.62694
G1 X117.776 Y166.768 E24.67667
G1 X117.545 Y167.291 E24.72231
G1 X117.484 Y167.416 E24.73341
G1 X117.087 Y168.164 E24.80101
G1 X116.987 Y168.333 E24.81669
G1 X116.612 Y168.906 E24.87135
G1 X116.513 Y169.045 E24.88497
G1 X116.004 Y169.691 E24.95062
G1 X115.856 Y169.86 E24.96855
G1 X115.386 Y170.353 E25.02293
G1 X115.232 Y170.501 E25.03998
G1 X114.606 Y171.042 E25.10602
G1 X114.468 Y171.151 E25.12006
G1 X113.905 Y171.556 E25.17542
G1 X113.762 Y171.649 E25.18904
G1 X113.005 Y172.095 E25.25917
G1 X112.852 Y172.178 E25.27307
G1 X112.381 Y172.409 E25.31494
G1 X112.195 Y172.491 E25.33117
G1 X111.258 Y172.861 E25.41158
G1 X110.744 Y173.029 E25.45475
G1 X109.773 Y173.291 E25.53503
G1 X109.375 Y173.379 E25.56757
G1 X108.075 Y173.605 E25.6729
G1 X106.884 Y173.752 E25.76869
G1 X105.643 Y173.871 E25.8682
G1 X88.581 Y175.258 E27.23466
G1 X79.882 Y175.858 E27.9307
G1 X71.265 Y176.369 E28.61976
G1 X62.576 Y176.788 E29.31415
G1 X54.073 Y177.088 E29.99332
G1 X53.677 Y177.076 E30.02495
G1 X53.413 Y177.052 E30.04611
G1 X53.107 Y177.005 E30.07082
G1 X52.848 Y176.947 E30.09201
G1 X52.544 Y176.86 E30.11725
G1 X52.288 Y176.768 E30.13896
G1 X52.015 Y176.651 E30.16267
G1 X51.741 Y176.512 E30.1872
G1 X51.546 Y176.397 E30.20527
G1 X51.235 Y176.18 E30.23554
G1 X50.849 Y175.866 E30.27526
G1 X50.655 Y175.692 E30.29606
G1 X50.564 Y175.599 E30.30645
G1 X50.302 Y175.312 E30.33747
G1 X50.122 Y175.086 E30.36053
G1 X49.964 Y174.863 E30.38235
G1 X49.804 Y174.603 E30.40672
G1 X49.665 Y174.34 E30.43046
G1 X49.548 Y174.082 E30.45308
G1 X49.447 Y173.814 E30.47594
G1 X49.361 Y173.532 E30.49947
G1 X49.299 Y173.27 E30.52096
G1 X49.249 Y172.96 E30.54603
G1 X49.201 Y172.404 E30.59058
G1 X49.193 Y172.197 E30.60711
G1 X49.193 Y37.748 E41.33941
G1 X49.198 Y37.602 E41.35107
G1 X49.221 Y37.244 E41.37971
G1 X49.258 Y36.945 E41.40376
G1 X49.313 Y36.662 E41.42677
G1 X49.389 Y36.371 E41.45078
G1 X49.473 Y36.113 E41.47244
G1 X49.584 Y35.834 E41.49641
G1 X49.706 Y35.576 E41.51919
G1 X49.845 Y35.326 E41.54202
G1 X49.999 Y35.085 E41.56485
M204 S3000
M205 X10 Y10
G0 F6000 X49.6 Y35.8
M204 S1800
M205 X8 Y8
G1 F1012.5 X49.6 Y174.196 E52.61222
M204 S3000
M205 X10 Y10
G0 F6000 X51.2 Y176.151
M204 S1800
M205 X8 Y8
G1 F1012.5 X51.2 Y33.84 E63.9721
M204 S3000
M205 X10 Y10
G0 F6000 X52.8 Y33.066
M204 S1800
M205 X8 Y8
G1 F1012.5 X52.8 Y176.933 E75.45618
M204 S3000
M205 X10 Y10
G0 F6000 X54.4 Y177.077
M204 S1800
M205 X8 Y8
G1 F1012.5 X54.4 Y32.919 E86.9635
M204 S3000
M205 X10 Y10
G0 F6000 X56 Y32.977
M204 S1800
M205 X8 Y8
G1 F1012.5 X56 Y177.021 E98.46171
M204 S3000
M205 X10 Y10
G0 F6000 X57.6 Y176.964
M204 S1800
M205 X8 Y8
G1 F1012.5 X57.6 Y33.035 E109.95075
M204 S3000
M205 X10 Y10
G0 F6000 X59.2 Y33.092
M204 S1800
M205 X8 Y8
G1 F1012.5 X59.2 Y176.908 E121.43076
M204 S3000
M205 X10 Y10
G0 F6000 X60.8 Y176.851
M204 S1800
M205 X8 Y8
G1 F1012.5 X60.8 Y33.15 E132.9016
M204 S3000
M205 X10 Y10
G0 F6000 X62.4 Y33.207
M204 S1800
M205 X8 Y8
G1 F1012.5 X62.4 Y176.795 E144.36341
M204 S3000
M205 X10 Y10
G0 F6000 X64 Y176.72
M204 S1800
M205 X8 Y8
G1 F1012.5 X64 Y33.281 E155.81334
M204 S3000
M205 X10 Y10
G0 F6000 X65.6 Y33.358
M204 S1800
M205 X8 Y8
G1 F1012.5 X65.6 Y176.643 E167.25096
M204 S3000
M205 X10 Y10
G0 F6000 X67.2 Y176.566
M204 S1800
M205 X8 Y8
G1 F1012.5 X67.2 Y33.435 E178.6763
M204 S3000
M205 X10 Y10
G0 F6000 X68.8 Y33.512
M204 S1800
M205 X8 Y8
G1 F1012.5 X68.8 Y176.488 E190.08926
M204 S3000
M205 X10 Y10
G0 F6000 X70.4 Y176.411
M204 S1800
M205 X8 Y8
G1 F1012.5 X70.4 Y33.588 E201.49001
M204 S3000
M205 X10 Y10
G0 F6000 X72 Y33.675
M204 S1800
M205 X8 Y8
G1 F1012.5 X72 Y176.326 E212.87703
M204 S3000
M205 X10 Y10
G0 F6000 X73.6 Y176.231
M204 S1800
M205 X8 Y8
G1 F1012.5 X73.6 Y33.77 E224.24888
M204 S3000
M205 X10 Y10
G0 F6000 X75.2 Y33.865
M204 S1800
M205 X8 Y8
G1 F1012.5 X75.2 Y176.136 E235.60557
M204 S3000
M205 X10 Y10
G0 F6000 X76.8 Y176.041
M204 S1800
M205 X8 Y8
G1 F1012.5 X76.8 Y33.96 E246.94709
M204 S3000
M205 X10 Y10
G0 F6000 X78.4 Y34.054
M204 S1800
M205 X8 Y8
G1 F1012.5 X78.4 Y175.946 E258.27352
M204 S3000
M205 X10 Y10
G0 F6000 X80 Y175.85
M204 S1800
M205 X8 Y8
G1 F1012.5 X80 Y34.151 E269.58455
M204 S3000
M205 X10 Y10
G0 F6000 X81.6 Y34.261
M204 S1800
M205 X8 Y8
G1 F1012.5 X81.6 Y175.74 E280.87802
M204 S3000
M205 X10 Y10
G0 F6000 X83.2 Y175.63
M204 S1800
M205 X8 Y8
G1 F1012.5 X83.2 Y34.371 E292.15392
M204 S3000
M205 X10 Y10
G0 F6000 X84.8 Y34.481
M204 S1800
M205 X8 Y8
G1 F1012.5 X84.8 Y175.519 E303.41218
M204 S3000
M205 X10 Y10
G0 F6000 X86.4 Y175.409
M204 S1800
M205 X8 Y8
G1 F1012.5 X86.4 Y34.591 E314.65288
M204 S3000
M205 X10 Y10
G0 F6000 X88 Y34.7
M204 S1800
M205 X8 Y8
G1 F1012.5 X88 Y175.299 E325.8761
M204 S3000
M205 X10 Y10
G0 F6000 X89.6 Y175.176
M204 S1800
M205 X8 Y8
G1 F1012.5 X89.6 Y34.825 E337.07953
M204 S3000
M205 X10 Y10
G0 F6000 X91.2 Y34.955
M204 S1800
M205 X8 Y8
G1 F1012.5 X91.2 Y175.046 E348.2622
M204 S3000
M205 X10 Y10
G0 F6000 X92.8 Y174.916
M204 S1800
M205 X8 Y8
G1 F1012.5 X92.8 Y35.085 E359.42411
M204 S3000
M205 X10 Y10
G0 F6000 X94.4 Y35.215
M204 S1800
M205 X8 Y8
G1 F1012.5 X94.4 Y174.785 E370.56519
M204 S3000
M205 X10 Y10
G0 F6000 X96 Y174.655
M204 S1800
M205 X8 Y8
G1 F1012.5 X96 Y35.345 E381.68552
M204 S3000
M205 X10 Y10
G0 F6000 X97.6 Y35.475
M204 S1800
M205 X8 Y8
G1 F1012.5 X97.6 Y174.525 E392.78509
M204 S3000
M205 X10 Y10
G0 F6000 X99.2 Y174.395
M204 S1800
M205 X8 Y8
G1 F1012.5 X99.2 Y35.605 E403.86391
M204 S3000
M205 X10 Y10
G0 F6000 X100.8 Y35.735
M204 S1800
M205 X8 Y8
G1 F1012.5 X100.8 Y174.265 E414.92197
M204 S3000
M205 X10 Y10
G0 F6000 X102.4 Y174.135
M204 S1800
M205 X8 Y8
G1 F1012.5 X102.4 Y35.865 E425.95928
M204 S3000
M205 X10 Y10
G0 F6000 X104 Y35.995
M204 S1800
M205 X8 Y8
G1 F1012.5 X104 Y174.005 E436.97584
M204 S3000
M205 X10 Y10
G0 F6000 X105.6 Y173.875
M204 S1800
M205 X8 Y8
G1 F1012.5 X105.6 Y36.126 E447.97156
M204 S3000
M205 X10 Y10
G0 F6000 X107.2 Y36.284
M204 S1800
M205 X8 Y8
G1 F1012.5 X107.2 Y173.713 E458.94174
M204 S3000
M205 X10 Y10
G0 F6000 X108.8 Y173.479
M204 S1800
M205 X8 Y8
G1 F1012.5 X108.8 Y36.518 E469.87456
M204 S3000
M205 X10 Y10
G0 F6000 X110.4 Y36.876
M204 S1800
M205 X8 Y8
G1 F1012.5 X110.4 Y173.122 E480.7503
M204 S3000
M205 X10 Y10
G0 F6000 X112 Y172.569
M204 S1800
M205 X8 Y8
G1 F1012.5 X112 Y37.427 E491.53792
M204 S3000
M205 X10 Y10
G0 F6000 X113.6 Y38.25
M204 S1800
M205 X8 Y8
G1 F1012.5 X113.6 Y171.745 E502.19407
M204 S3000
M205 X10 Y10
G0 F6000 X115.2 Y170.529
M204 S1800
M205 X8 Y8
G1 F1012.5 X115.2 Y39.468 E512.65592
M204 S3000
M205 X10 Y10
G0 F6000 X116.8 Y41.379
M204 S1800
M205 X8 Y8
G1 F1012.5 X116.8 Y168.619 E522.81277
M204 S3000
M205 X10 Y10
G0 F6000 X118.4 Y165.526
M204 S1800
M205 X8 Y8
G1 F1012.5 X118.4 Y44.484 E532.47487
M204 S3000
M205 X10 Y10
G0 F6000 X120 Y46.046
M204 S1800
M205 X8 Y8
G1 F1012.5 X120 Y163.96 E541.88727
M204 S3000
M205 X10 Y10
G0 F6000 X121.6 Y163.267
M204 S1800
M205 X8 Y8
G1 F1012.5 X121.6 Y46.728 E551.18992
M204 S3000
M205 X10 Y10
G0 F6000 X123.2 Y46.879
M204 S1800
M205 X8 Y8
G1 F1012.5 X123.2 Y163.124 E560.4691
M204 S3000
M205 X10 Y10
G0 F6000 X124.8 Y163.414
M204 S1800
M205 X8 Y8
G1 F1012.5 X124.8 Y46.582 E569.79513
M204 S3000
M205 X10 Y10
G0 F6000 X126.4 Y46.321
M204 S1800
M205 X8 Y8
G1 F1012.5 X126.4 Y163.673 E579.16268
M204 S3000
M205 X10 Y10
G0 F6000 X128 Y163.819
M204 S1800
M205 X8 Y8
G1 F1012.5 X128 Y46.18 E588.55313
M204 S3000
M205 X10 Y10
G0 F6000 X129.6 Y46.05
M204 S1800
M205 X8 Y8
G1 F1012.5 X129.6 Y163.949 E597.96434
M204 S3000
M205 X10 Y10
G0 F6000 X131.2 Y164.078
M204 S1800
M205 X8 Y8
G1 F1012.5 X131.2 Y45.922 E607.39606
M204 S3000
M205 X10 Y10
G0 F6000 X132.8 Y45.798
M204 S1800
M205 X8 Y8
G1 F1012.5 X132.8 Y164.201 E616.8475
M204 S3000
M205 X10 Y10
G0 F6000 X134.4 Y164.324
M204 S1800
M205 X8 Y8
G1 F1012.5 X134.4 Y45.675 E626.31858
M204 S3000
M205 X10 Y10
G0 F6000 X136 Y45.554
M204 S1800
M205 X8 Y8
G1 F1012.5 X136 Y164.445 E635.80897
M204 S3000
M205 X10 Y10
G0 F6000 X137.6 Y164.564
M204 S1800
M205 X8 Y8
G1 F1012.5 X137.6 Y45.436 E645.31828
M204 S3000
M205 X10 Y10
G0 F6000 X139.2 Y45.319
M204 S1800
M205 X8 Y8
G1 F1012.5 X139.2 Y164.68 E654.84619
M204 S3000
M205 X10 Y10
G0 F6000 X140.8 Y164.79
M204 S1800
M205 X8 Y8
G1 F1012.5 X140.8 Y45.208 E664.39175
M204 S3000
M205 X10 Y10
G0 F6000 X142.4 Y45.098
M204 S1800
M205 X8 Y8
G1 F1012.5 X142.4 Y164.9 E673.95486
M204 S3000
M205 X10 Y10
G0 F6000 X144 Y165.006
M204 S1800
M205 X8 Y8
G1 F1012.5 X144 Y44.99 E683.53506
M204 S3000
M205 X10 Y10
G0 F6000 X145.6 Y44.885
M204 S1800
M205 X8 Y8
G1 F1012.5 X145.6 Y165.113 E693.13217
M204 S3000
M205 X10 Y10
G0 F6000 X147.2 Y165.215
M204 S1800
M205 X8 Y8
G1 F1012.5 X147.2 Y44.782 E702.74566
M204 S3000
M205 X10 Y10
G0 F6000 X148.8 Y44.685
M204 S1800
M205 X8 Y8
G1 F1012.5 X148.8 Y165.313 E712.37471
M204 S3000
M205 X10 Y10
G0 F6000 X150.4 Y165.411
M204 S1800
M205 X8 Y8
G1 F1012.5 X150.4 Y44.588 E722.01932
M204 S3000
M205 X10 Y10
G0 F6000 X152 Y44.499
M204 S1800
M205 X8 Y8
G1 F1012.5 X152 Y165.5 E731.67814
M204 S3000
M205 X10 Y10
G0 F6000 X153.6 Y165.587
M204 S1800
M205 X8 Y8
G1 F1012.5 X153.6 Y44.41 E741.35101
M204 S3000
M205 X10 Y10
G0 F6000 X155.2 Y44.321
M204 S1800
M205 X8 Y8
G1 F1012.5 X155.2 Y165.674 E751.03794
M204 S3000
M205 X10 Y10
G0 F6000 X156.8 Y165.753
M204 S1800
M205 X8 Y8
G1 F1012.5 X156.8 Y44.243 E760.73739
M204 S3000
M205 X10 Y10
G0 F6000 X158.4 Y44.165
M204 S1800
M205 X8 Y8
G1 F1012.5 X158.4 Y165.832 E770.44938
M204 S3000
M205 X10 Y10
G0 F6000 X160 Y165.911
M204 S1800
M205 X8 Y8
G1 F1012.5 X160 Y44.087 E780.17389
M204 S3000
M205 X10 Y10
G0 F6000 X161.6 Y44.015
M204 S1800
M205 X8 Y8
G1 F1012.5 X161.6 Y165.984 E789.90999
M204 S3000
M205 X10 Y10
G0 F6000 X163.2 Y166.05
M204 S1800
M205 X8 Y8
G1 F1012.5 X163.2 Y43.949 E799.65662
M204 S3000
M205 X10 Y10
G0 F6000 X164.8 Y43.884
M204 S1800
M205 X8 Y8
G1 F1012.5 X164.8 Y166.116 E809.4137
M204 S3000
M205 X10 Y10
G0 F6000 X166.4 Y166.175
M204 S1800
M205 X8 Y8
G1 F1012.5 X166.4 Y43.821 E819.18053
M204 S3000
M205 X10 Y10
G0 F6000 X168 Y43.769
M204 S1800
M205 X8 Y8
G1 F1012.5 X168 Y166.229 E828.95582
M204 S3000
M205 X10 Y10
G0 F6000 X169.6 Y166.283
M204 S1800
M205 X8 Y8
G1 F1012.5 X169.6 Y43.716 E838.73964
M204 S3000
M205 X10 Y10
G0 F6000 X171.2 Y43.694
M204 S1800
M205 X8 Y8
G1 F1012.5 X171.2 Y166.297 E848.52635
M204 S3000
M205 X10 Y10
G0 F6000 X172.8 Y165.892
M204 S1800
M205 X8 Y8
G1 F1012.5 X172.8 Y44.106 E858.24783
M204 S3000
M205 X10 Y10
G0 F6000 X174.4 Y45.307
M204 S1800
M205 X8 Y8
G1 F1012.5 X174.4 Y164.683 E867.77694
M204 S3000
M205 X10 Y10
G0 F600 X174.4 Y164.683 Z0.69
G0 F6000 X175.215 Y46.521
;TIME_ELAPSED:651.981403
;LAYER:-4
M140 S60
M204 S1800
M205 X8 Y8
;TYPE:SUPPORT
