;FLAVOR:Marlin
;TIME:10966
;Filament used: 10.1707m, 0m, 0m, 0m
;Layer height: 0.25
;MINX:41.892
;MINY:41.883
;MINZ:0.2
;MAXX:168.117
;MAXY:168.117
;MAXZ:14.7
;Generated with Cura_SteamEngine 4.3.0
T0
M140 S60
M105
M190 S60
M104 S215
M105
M109 S215
M82 ;absolute extrusion mode
G21 ;metric values
G90 ;absolute positioning
M82 ;set extruder to absolute mode
M107 ;start with the fan off
G28 X0 Y0 ;move X/Y to min endstops
G28 Z0 ;move Z to min endstops
G1 Z15.0 F100 ;move the platform down 15mm
G92 E0 ;zero the extruded length
G1 F200 E3 ;extrude 3mm of feed stock
G92 E0 ;zero the extruded length again
G1 F100
M117 Printing...
G5
G92 E0
G92 E0
G1 F2400 E-4
;LAYER_COUNT:59
;LAYER:0
M106 S255
M204 S3000
M205 X10 Y10
G1 F600 Z0.275
G0 F2666.7 X84.88 Y53.56 Z0.275
M204 S1800
M205 X8 Y8
;TYPE:SKIRT
G1 F600 Z0.2
G1 F2400 E0
G1 F1800 X85.045 Y53.305 E0.01414
G1 X85.833 Y52.15 E0.07925
G1 X85.908 Y52.042 E0.08537
G1 X86.635 Y51.022 E0.1437
G1 X86.688 Y50.95 E0.14786
G1 X87.116 Y50.367 E0.18154
G1 X87.72 Y49.659 E0.22487
G1 X88.318 Y49.053 E0.26451
G1 X88.385 Y48.985 E0.26896
G1 X89.363 Y48.023 E0.33284
G1 X89.429 Y47.959 E0.33712
G1 X89.926 Y47.484 E0.36913
G1 X90.635 Y46.898 E0.41196
G1 X91.313 Y46.415 E0.45072
G1 X91.401 Y46.354 E0.45571
G1 X92.565 Y45.554 E0.52148
G1 X92.638 Y45.504 E0.5256
G1 X93.188 Y45.137 E0.55639
G1 X93.99 Y44.682 E0.59932
G1 X94.797 Y44.298 E0.64094
G1 X94.897 Y44.251 E0.64608
G1 X96.117 Y43.696 E0.70849
G1 X96.198 Y43.66 E0.71262
G1 X96.83 Y43.383 E0.74475
G1 X97.694 Y43.076 E0.78745
G1 X98.526 Y42.846 E0.82764
G1 X98.631 Y42.818 E0.8327
G1 X99.944 Y42.479 E0.89584
G1 X100.017 Y42.461 E0.89935
G1 X100.709 Y42.291 E0.93253
G1 X101.577 Y42.14 E0.97355
G1 X102.205 Y42.075 E1.00295
G1 X102.307 Y42.065 E1.00772
G1 X103.748 Y41.939 E1.07508
G1 X103.85 Y41.931 E1.07984
G1 X104.523 Y41.883 E1.11126
G1 X105.431 Y41.883 E1.15354
G1 X106.263 Y41.942 E1.19238
G1 X106.365 Y41.95 E1.19714
G1 X107.812 Y42.076 E1.26477
G1 X107.902 Y42.085 E1.26899
G1 X108.524 Y42.148 E1.2981
G1 X109.437 Y42.307 E1.34125
G1 X110.246 Y42.51 E1.38009
G1 X110.347 Y42.537 E1.38496
G1 X111.722 Y42.906 E1.45125
G1 X111.802 Y42.928 E1.45511
G1 X112.436 Y43.107 E1.48579
G1 X113.309 Y43.423 E1.52902
G1 X114.092 Y43.773 E1.56895
G1 X114.187 Y43.817 E1.57383
G1 X115.449 Y44.406 E1.63868
G1 X115.52 Y44.439 E1.64232
G1 X116.068 Y44.703 E1.67065
G1 X116.9 Y45.184 E1.7154
G1 X117.853 Y45.835 E1.76914
G1 X117.958 Y45.908 E1.77509
G1 X118.978 Y46.635 E1.83342
G1 X119.05 Y46.688 E1.83758
G1 X119.633 Y47.116 E1.87126
G1 X120.341 Y47.72 E1.91459
G1 X120.947 Y48.318 E1.95424
G1 X121.015 Y48.385 E1.95868
G1 X121.977 Y49.363 E2.02256
G1 X122.041 Y49.429 E2.02684
G1 X122.516 Y49.926 E2.05885
G1 X123.102 Y50.635 E2.10168
G1 X123.585 Y51.313 E2.14045
G1 X123.646 Y51.401 E2.14543
G1 X124.446 Y52.565 E2.2112
G1 X124.496 Y52.638 E2.21532
G1 X124.889 Y53.227 E2.24829
G1 X124.988 Y53.381 E2.25682
G1 X125.648 Y54.435 E2.31472
G1 X127.197 Y56.837 E2.44781
G1 X128.71 Y59.037 E2.57214
G1 X130.26 Y61.159 E2.6945
G1 X131.895 Y63.271 E2.81887
G1 X133.56 Y65.299 E2.94105
G1 X135.303 Y67.303 E3.06472
G1 X137.097 Y69.254 E3.18814
G1 X138.927 Y71.133 E3.31027
G1 X140.837 Y72.987 E3.43422
G1 X142.811 Y74.798 E3.55896
G1 X144.795 Y76.516 E3.68116
G1 X146.819 Y78.171 E3.8029
G1 X148.949 Y79.816 E3.92822
G1 X151.067 Y81.356 E4.05016
G1 X153.271 Y82.866 E4.17456
G1 X155.498 Y84.301 E4.29792
G1 X156.44 Y84.88 E4.34941
G1 X156.695 Y85.045 E4.36355
G1 X157.85 Y85.833 E4.42866
G1 X157.958 Y85.908 E4.43478
G1 X158.978 Y86.635 E4.49311
G1 X159.05 Y86.688 E4.49727
G1 X159.633 Y87.116 E4.53095
G1 X160.341 Y87.72 E4.57428
G1 X160.947 Y88.318 E4.61393
G1 X161.015 Y88.385 E4.61837
G1 X161.977 Y89.363 E4.68225
G1 X162.041 Y89.429 E4.68653
G1 X162.516 Y89.926 E4.71854
G1 X163.102 Y90.635 E4.76137
G1 X163.585 Y91.313 E4.80013
G1 X163.645 Y91.4 E4.80506
G1 X164.442 Y92.559 E4.87055
G1 X164.494 Y92.635 E4.87484
G1 X164.864 Y93.19 E4.9059
G1 X165.318 Y93.99 E4.94873
G1 X165.702 Y94.797 E4.99035
G1 X165.749 Y94.897 E4.99549
G1 X166.304 Y96.117 E5.0579
G1 X166.34 Y96.198 E5.06203
G1 X166.617 Y96.83 E5.09416
G1 X166.924 Y97.694 E5.13686
G1 X167.154 Y98.526 E5.17705
G1 X167.182 Y98.631 E5.18211
G1 X167.521 Y99.944 E5.24525
G1 X167.539 Y100.017 E5.24876
G1 X167.709 Y100.709 E5.28194
G1 X167.86 Y101.576 E5.32291
G1 X167.925 Y102.203 E5.35227
G1 X167.935 Y102.306 E5.35709
G1 X168.061 Y103.748 E5.42449
G1 X168.069 Y103.848 E5.42916
G1 X168.117 Y104.519 E5.46048
G1 X168.117 Y105.428 E5.50281
G1 X168.058 Y106.262 E5.54174
G1 X168.05 Y106.365 E5.54655
G1 X167.924 Y107.812 E5.61419
G1 X167.915 Y107.902 E5.6184
G1 X167.852 Y108.524 E5.64751
G1 X167.693 Y109.437 E5.69066
G1 X167.49 Y110.246 E5.7295
G1 X167.463 Y110.347 E5.73437
G1 X167.094 Y111.722 E5.80066
G1 X167.073 Y111.799 E5.80437
G1 X166.894 Y112.434 E5.8351
G1 X166.576 Y113.311 E5.87853
G1 X166.232 Y114.08 E5.91776
G1 X166.191 Y114.17 E5.92237
G1 X165.601 Y115.436 E5.9874
G1 X165.565 Y115.513 E5.99136
G1 X165.295 Y116.073 E6.02031
G1 X164.817 Y116.9 E6.06479
G1 X164.179 Y117.835 E6.1175
G1 X164.101 Y117.946 E6.12381
G1 X163.343 Y119.008 E6.18457
G1 X163.295 Y119.075 E6.18841
G1 X162.888 Y119.63 E6.22045
G1 X162.283 Y120.34 E6.26389
G1 X161.695 Y120.936 E6.30287
G1 X161.625 Y121.006 E6.30748
G1 X160.635 Y121.979 E6.37212
G1 X160.571 Y122.041 E6.37627
G1 X160.074 Y122.516 E6.40828
G1 X159.365 Y123.102 E6.45111
G1 X158.687 Y123.585 E6.48987
G1 X158.599 Y123.646 E6.49486
G1 X157.435 Y124.446 E6.56063
G1 X157.362 Y124.496 E6.56475
G1 X156.773 Y124.889 E6.59772
G1 X156.619 Y124.988 E6.60624
G1 X155.5 Y125.689 E6.66773
G1 X153.636 Y126.883 E6.7708
G1 X151.44 Y128.373 E6.89438
G1 X149.288 Y129.924 E7.01789
G1 X147.215 Y131.51 E7.13943
G1 X145.13 Y133.199 E7.26438
G1 X143.141 Y134.907 E7.38646
G1 X141.174 Y136.695 E7.51023
G1 X139.254 Y138.543 E7.63432
G1 X137.4 Y140.429 E7.75747
G1 X135.596 Y142.371 E7.88089
G1 X133.86 Y144.353 E8.00358
G1 X132.179 Y146.382 E8.12627
G1 X130.535 Y148.486 E8.2506
G1 X128.966 Y150.615 E8.37375
G1 X127.458 Y152.787 E8.49687
G1 X126.02 Y154.988 E8.61929
G1 X125.459 Y155.906 E8.66939
G1 X125.405 Y155.993 E8.67416
G1 X125.079 Y156.508 E8.70254
G1 X124.96 Y156.688 E8.71259
G1 X124.182 Y157.83 E8.77693
G1 X124.102 Y157.946 E8.78349
G1 X123.343 Y159.009 E8.84431
G1 X123.292 Y159.079 E8.84835
G1 X122.885 Y159.633 E8.88036
G1 X122.287 Y160.335 E8.9233
G1 X121.699 Y160.932 E8.96231
G1 X121.625 Y161.006 E8.96719
G1 X120.635 Y161.979 E9.03182
G1 X120.571 Y162.041 E9.03597
G1 X120.074 Y162.516 E9.06798
G1 X119.365 Y163.102 E9.11081
G1 X118.687 Y163.585 E9.14958
G1 X118.599 Y163.646 E9.15456
G1 X117.435 Y164.446 E9.22033
G1 X117.362 Y164.496 E9.22445
G1 X116.812 Y164.863 E9.25524
G1 X116.01 Y165.318 E9.29817
G1 X115.203 Y165.702 E9.33979
G1 X115.103 Y165.749 E9.34493
G1 X113.883 Y166.304 E9.40734
G1 X113.799 Y166.341 E9.41162
G1 X113.166 Y166.618 E9.44379
G1 X112.307 Y166.923 E9.48624
G1 X111.476 Y167.153 E9.52639
G1 X111.369 Y167.182 E9.53155
G1 X110.056 Y167.521 E9.59469
G1 X109.983 Y167.539 E9.59819
G1 X109.291 Y167.709 E9.63137
G1 X108.423 Y167.86 E9.6724
G1 X107.795 Y167.925 E9.7018
G1 X107.693 Y167.935 E9.70657
G1 X106.252 Y168.061 E9.77393
G1 X106.15 Y168.069 E9.77869
G1 X105.477 Y168.117 E9.81011
G1 X104.569 Y168.117 E9.85239
G1 X103.737 Y168.058 E9.89123
G1 X103.635 Y168.05 E9.89599
G1 X102.188 Y167.924 E9.96362
G1 X102.098 Y167.915 E9.96783
G1 X101.476 Y167.852 E9.99695
G1 X100.563 Y167.693 E10.0401
G1 X99.754 Y167.49 E10.07894
G1 X99.653 Y167.463 E10.08381
G1 X98.278 Y167.094 E10.1501
G1 X98.198 Y167.072 E10.15396
G1 X97.564 Y166.893 E10.18464
G1 X96.691 Y166.577 E10.22787
G1 X95.908 Y166.227 E10.2678
G1 X95.813 Y166.183 E10.27268
G1 X94.551 Y165.594 E10.33753
G1 X94.48 Y165.561 E10.34117
G1 X93.932 Y165.297 E10.3695
G1 X93.102 Y164.817 E10.41414
G1 X92.141 Y164.161 E10.46832
G1 X92.032 Y164.085 E10.47451
G1 X91.02 Y163.363 E10.5324
G1 X90.95 Y163.312 E10.53643
G1 X90.367 Y162.884 E10.57011
G1 X89.659 Y162.28 E10.61344
G1 X89.053 Y161.682 E10.65308
G1 X88.985 Y161.615 E10.65753
G1 X88.023 Y160.637 E10.72141
G1 X87.959 Y160.571 E10.72569
G1 X87.484 Y160.074 E10.7577
G1 X86.898 Y159.365 E10.80053
G1 X86.415 Y158.687 E10.83929
G1 X86.354 Y158.599 E10.84428
G1 X85.554 Y157.435 E10.91005
G1 X85.506 Y157.364 E10.91404
G1 X85.112 Y156.774 E10.94707
G1 X85.009 Y156.616 E10.95586
G1 X84.299 Y155.482 E11.01816
G1 X82.788 Y153.14 E11.14794
G1 X81.307 Y150.986 E11.26966
G1 X79.74 Y148.841 E11.39335
G1 X78.104 Y146.728 E11.51778
G1 X76.44 Y144.701 E11.6399
G1 X74.697 Y142.697 E11.76357
G1 X72.903 Y140.746 E11.88699
G1 X71.072 Y138.866 E12.00919
G1 X69.163 Y137.013 E12.13307
G1 X67.207 Y135.219 E12.25665
G1 X65.201 Y133.481 E12.38024
G1 X63.16 Y131.813 E12.50298
G1 X61.046 Y130.181 E12.62734
G1 X58.932 Y128.643 E12.74907
G1 X56.729 Y127.134 E12.87341
G1 X54.486 Y125.689 E12.99765
G1 X53.56 Y125.12 E13.04826
G1 X53.305 Y124.955 E13.0624
G1 X52.15 Y124.167 E13.12751
G1 X52.042 Y124.092 E13.13363
G1 X51.022 Y123.365 E13.19195
G1 X50.95 Y123.312 E13.19612
G1 X50.367 Y122.884 E13.22979
G1 X49.659 Y122.28 E13.27313
G1 X49.053 Y121.682 E13.31277
G1 X48.985 Y121.615 E13.31722
G1 X48.023 Y120.637 E13.3811
G1 X47.959 Y120.571 E13.38538
G1 X47.484 Y120.074 E13.41739
G1 X46.898 Y119.365 E13.46022
G1 X46.415 Y118.687 E13.49898
G1 X46.354 Y118.599 E13.50397
G1 X45.554 Y117.435 E13.56973
G1 X45.504 Y117.362 E13.57385
G1 X45.137 Y116.812 E13.60464
G1 X44.682 Y116.01 E13.64758
G1 X44.298 Y115.203 E13.68919
G1 X44.251 Y115.103 E13.69434
G1 X43.696 Y113.883 E13.75675
G1 X43.66 Y113.802 E13.76088
G1 X43.383 Y113.17 E13.79301
G1 X43.076 Y112.306 E13.8357
G1 X42.846 Y111.474 E13.8759
G1 X42.818 Y111.369 E13.88096
G1 X42.479 Y110.056 E13.9441
G1 X42.461 Y109.984 E13.94756
G1 X42.297 Y109.317 E13.97954
G1 X42.141 Y108.393 E14.02317
G1 X42.057 Y107.507 E14.06462
G1 X42.047 Y107.396 E14.06981
G1 X41.943 Y106.051 E14.13262
G1 X41.937 Y105.97 E14.1364
G1 X41.892 Y105.272 E14.16897
G1 X41.894 Y104.422 E14.20855
G1 X41.935 Y103.825 E14.23642
G1 X41.944 Y103.709 E14.24183
G1 X42.073 Y102.224 E14.31124
G1 X42.082 Y102.129 E14.31569
G1 X42.149 Y101.472 E14.34644
G1 X42.308 Y100.565 E14.38931
G1 X42.516 Y99.735 E14.42916
G1 X42.542 Y99.634 E14.43401
G1 X42.905 Y98.28 E14.49929
G1 X42.928 Y98.195 E14.50339
G1 X43.107 Y97.562 E14.53402
G1 X43.422 Y96.695 E14.57697
G1 X43.772 Y95.911 E14.61695
G1 X43.817 Y95.813 E14.62197
G1 X44.406 Y94.551 E14.68682
G1 X44.439 Y94.48 E14.69047
G1 X44.703 Y93.932 E14.71879
G1 X45.184 Y93.1 E14.76354
G1 X45.835 Y92.147 E14.81728
G1 X45.908 Y92.042 E14.82324
G1 X46.635 Y91.022 E14.88156
G1 X46.688 Y90.95 E14.88573
G1 X47.116 Y90.367 E14.9194
G1 X47.72 Y89.659 E14.96274
G1 X48.318 Y89.053 E15.00238
G1 X48.385 Y88.985 E15.00683
G1 X49.363 Y88.023 E15.0707
G1 X49.429 Y87.959 E15.07498
G1 X49.926 Y87.484 E15.107
G1 X50.635 Y86.898 E15.14983
G1 X51.313 Y86.415 E15.18859
G1 X51.401 Y86.354 E15.19358
G1 X52.565 Y85.554 E15.25934
G1 X52.64 Y85.503 E15.26357
G1 X53.231 Y85.109 E15.29664
G1 X53.383 Y85.011 E15.30506
G1 X54.473 Y84.328 E15.36496
G1 X56.86 Y82.788 E15.49723
G1 X59.014 Y81.307 E15.61895
G1 X61.159 Y79.74 E15.74264
G1 X63.272 Y78.104 E15.86708
G1 X65.299 Y76.44 E15.98919
G1 X67.303 Y74.697 E16.11287
G1 X69.254 Y72.903 E16.23628
G1 X71.134 Y71.072 E16.35848
G1 X72.987 Y69.163 E16.48236
G1 X74.781 Y67.207 E16.60595
G1 X76.519 Y65.201 E16.72954
G1 X78.187 Y63.16 E16.85228
G1 X79.819 Y61.046 E16.97663
G1 X81.357 Y58.932 E17.09837
G1 X82.866 Y56.729 E17.2227
G1 X84.302 Y54.5 E17.34617
G1 X84.581 Y54.046 E17.37098
G0 F1620 X84.88 Y53.56
M204 S3000
M205 X10 Y10
G0 F2666.7 X85.357 Y53.854
M204 S1800
M205 X8 Y8
G1 F1800 X85.508 Y53.621 E17.38391
G1 X86.296 Y52.466 E17.44902
G1 X86.364 Y52.367 E17.45461
G1 X87.091 Y51.347 E17.51293
G1 X87.139 Y51.281 E17.51673
G1 X87.567 Y50.698 E17.55041
G1 X88.118 Y50.052 E17.58995
G1 X88.716 Y49.446 E17.62959
G1 X88.778 Y49.385 E17.63364
G1 X89.756 Y48.423 E17.69752
G1 X89.816 Y48.364 E17.70144
G1 X90.313 Y47.889 E17.73345
G1 X90.96 Y47.355 E17.77251
G1 X91.638 Y46.872 E17.81128
G1 X91.718 Y46.815 E17.81585
G1 X92.882 Y46.015 E17.88162
G1 X92.949 Y45.97 E17.88538
G1 X93.499 Y45.603 E17.91616
G1 X94.231 Y45.188 E17.95535
G1 X95.038 Y44.804 E17.99696
G1 X95.129 Y44.761 E18.00165
G1 X96.349 Y44.206 E18.06406
G1 X96.423 Y44.173 E18.06783
G1 X97.055 Y43.896 E18.09996
G1 X97.843 Y43.616 E18.1389
G1 X98.675 Y43.386 E18.1791
G1 X98.771 Y43.36 E18.18373
G1 X100.084 Y43.021 E18.24687
G1 X100.151 Y43.005 E18.25008
G1 X100.843 Y42.835 E18.28326
G1 X101.635 Y42.697 E18.32069
G1 X102.263 Y42.632 E18.35009
G1 X102.355 Y42.623 E18.3544
G1 X103.796 Y42.497 E18.42175
G1 X103.89 Y42.49 E18.42614
G1 X104.563 Y42.442 E18.45756
G1 X105.391 Y42.442 E18.49611
G1 X106.223 Y42.501 E18.53495
G1 X106.317 Y42.508 E18.53934
G1 X107.764 Y42.634 E18.60697
G1 X107.846 Y42.642 E18.61081
G1 X108.468 Y42.705 E18.63992
G1 X109.3 Y42.851 E18.67925
G1 X110.109 Y43.054 E18.71809
G1 X110.202 Y43.078 E18.72256
G1 X111.577 Y43.447 E18.78886
G1 X111.65 Y43.467 E18.79238
G1 X112.284 Y43.646 E18.82306
G1 X113.08 Y43.934 E18.86247
G1 X113.863 Y44.284 E18.90241
G1 X113.95 Y44.324 E18.90687
G1 X115.212 Y44.913 E18.97172
G1 X115.277 Y44.944 E18.97507
G1 X115.825 Y45.208 E19.00339
G1 X116.584 Y45.647 E19.04422
G1 X117.537 Y46.298 E19.09796
G1 X117.633 Y46.364 E19.10339
G1 X118.653 Y47.091 E19.16171
G1 X118.719 Y47.139 E19.16551
G1 X119.302 Y47.567 E19.19919
G1 X119.948 Y48.118 E19.23873
G1 X120.554 Y48.716 E19.27837
G1 X120.615 Y48.778 E19.28242
G1 X121.577 Y49.756 E19.3463
G1 X121.636 Y49.816 E19.35022
G1 X122.111 Y50.313 E19.38223
G1 X122.645 Y50.96 E19.42129
G1 X123.128 Y51.638 E19.46005
G1 X123.185 Y51.718 E19.46463
G1 X123.985 Y52.882 E19.5304
G1 X124.03 Y52.949 E19.53415
G1 X124.423 Y53.538 E19.56712
G1 X124.514 Y53.678 E19.5749
G1 X125.208 Y54.785 E19.63574
G1 X126.742 Y57.163 E19.76751
G1 X128.239 Y59.342 E19.89061
G1 X129.825 Y61.513 E20.0158
G1 X131.45 Y63.611 E20.13937
G1 X133.132 Y65.66 E20.26281
G1 X134.883 Y67.674 E20.38708
G1 X136.696 Y69.645 E20.51178
G1 X138.533 Y71.531 E20.63437
G1 X140.464 Y73.405 E20.75967
G1 X142.408 Y75.189 E20.88253
G1 X144.433 Y76.943 E21.00727
G1 X146.505 Y78.637 E21.1319
G1 X148.573 Y80.233 E21.25353
G1 X150.764 Y81.827 E21.3797
G1 X152.971 Y83.339 E21.50427
G1 X155.213 Y84.783 E21.62845
G1 X156.146 Y85.357 E21.67945
G1 X156.379 Y85.508 E21.69238
G1 X157.534 Y86.296 E21.75749
G1 X157.633 Y86.364 E21.76308
G1 X158.653 Y87.091 E21.82141
G1 X158.719 Y87.139 E21.82521
G1 X159.302 Y87.567 E21.85888
G1 X159.948 Y88.118 E21.89842
G1 X160.554 Y88.716 E21.93806
G1 X160.615 Y88.778 E21.94211
G1 X161.577 Y89.756 E22.00599
G1 X161.636 Y89.816 E22.00991
G1 X162.111 Y90.313 E22.04192
G1 X162.645 Y90.96 E22.08098
G1 X163.128 Y91.638 E22.11975
G1 X163.184 Y91.717 E22.12426
G1 X163.981 Y92.876 E22.18975
G1 X164.028 Y92.946 E22.19368
G1 X164.398 Y93.501 E22.22474
G1 X164.812 Y94.231 E22.26382
G1 X165.196 Y95.038 E22.30543
G1 X165.239 Y95.129 E22.31012
G1 X165.794 Y96.349 E22.37253
G1 X165.827 Y96.423 E22.3763
G1 X166.104 Y97.055 E22.40843
G1 X166.384 Y97.843 E22.44737
G1 X166.614 Y98.675 E22.48757
G1 X166.64 Y98.771 E22.4922
G1 X166.979 Y100.084 E22.55534
G1 X166.995 Y100.151 E22.55855
G1 X167.165 Y100.843 E22.59173
G1 X167.303 Y101.634 E22.62912
G1 X167.368 Y102.261 E22.65847
G1 X167.377 Y102.355 E22.66287
G1 X167.503 Y103.797 E22.73027
G1 X167.51 Y103.888 E22.73452
G1 X167.558 Y104.559 E22.76584
G1 X167.558 Y105.388 E22.80444
G1 X167.499 Y106.222 E22.84338
G1 X167.492 Y106.317 E22.84781
G1 X167.366 Y107.764 E22.91545
G1 X167.358 Y107.846 E22.91928
G1 X167.295 Y108.468 E22.94839
G1 X167.149 Y109.3 E22.98773
G1 X166.946 Y110.109 E23.02656
G1 X166.922 Y110.202 E23.03104
G1 X166.553 Y111.577 E23.09733
G1 X166.534 Y111.647 E23.10071
G1 X166.355 Y112.282 E23.13143
G1 X166.065 Y113.083 E23.17109
G1 X165.721 Y113.852 E23.21032
G1 X165.683 Y113.934 E23.21453
G1 X165.093 Y115.2 E23.27957
G1 X165.06 Y115.269 E23.28313
G1 X164.79 Y115.829 E23.31208
G1 X164.354 Y116.585 E23.35271
G1 X163.716 Y117.52 E23.40542
