;FLAVOR:Marlin
;TIME:2106
;Filament used: 4.13437m, 0m, 0m, 0m
;Layer height: 0.25
;MINX:64.05
;MINY:86.731
;MINZ:0.2
;MAXX:122.95
;MAXY:123.269
;MAXZ:33.8
;Generated with Cura_SteamEngine 4.6.1
T0
M140 S60
M105
M190 S60
M104 S200
M105
M109 S200
M82 ;absolute extrusion mode
G28
G29
M501
M420 S1
G92 E0 ;zero the extruded length
G1 F200 E3 ;extrude 3mm of feed stock
G92 E0 ;zero the extruded length again
G1 F200
M117 Printing...
G5
G92 E0
G92 E0
G1 F2400 E-4
;LAYER_COUNT:195
;LAYER:0
M107
M204 S4000
M205 X30 Y30
G1 F600 Z0.275
G0 F3600 X107.405 Y88.455 Z0.275
M204 S3000
M205 X8 Y8
;TYPE:SKIRT
G1 F600 Z0.2
G1 F2400 E0
G1 F1800 X108.181 Y88.582 E0.051
G1 X109.221 Y88.826 E0.12028
G1 X109.56 Y88.918 E0.14306
G1 X110.18 Y89.134 E0.18565
G1 X110.721 Y89.396 E0.22463
G1 X111.534 Y89.848 E0.28496
G1 X114.861 Y91.768 E0.5341
G1 X115.544 Y92.175 E0.58566
G1 X116.086 Y92.545 E0.62822
G1 X116.467 Y92.87 E0.6607
G1 X116.93 Y93.308 E0.70204
G1 X117.318 Y93.697 E0.73767
G1 X117.843 Y94.29 E0.78904
G1 X118.168 Y94.701 E0.82303
G1 X118.482 Y95.124 E0.85719
G1 X119.12 Y96.052 E0.93023
G1 X119.367 Y96.443 E0.96023
G1 X119.591 Y96.845 E0.99007
G1 X120.012 Y97.683 E1.0509
G1 X120.248 Y98.18 E1.08658
G1 X120.511 Y98.762 E1.128
G1 X120.837 Y99.63 E1.18814
G1 X121.109 Y100.537 E1.24955
G1 X121.212 Y100.929 E1.27584
G1 X121.334 Y101.574 E1.31842
G1 X121.375 Y102.158 E1.35639
G1 X121.389 Y103 E1.411
G1 X121.39 Y106.94 E1.66654
G1 X121.379 Y107.715 E1.71681
G1 X121.33 Y108.37 E1.75941
G1 X121.237 Y108.871 E1.79246
G1 X121.092 Y109.477 E1.83287
G1 X120.945 Y110.027 E1.86979
G1 X120.694 Y110.773 E1.92084
G1 X120.493 Y111.279 E1.95616
G1 X120.256 Y111.815 E1.99417
G1 X119.685 Y112.98 E2.07831
G1 X119.354 Y113.561 E2.12168
G1 X118.84 Y114.346 E2.18254
G1 X118.535 Y114.787 E2.21731
G1 X118.14 Y115.337 E2.26123
G1 X117.592 Y116.004 E2.31722
G1 X116.937 Y116.701 E2.37925
G1 X116.655 Y116.982 E2.40507
G1 X116.159 Y117.412 E2.44765
G1 X115.655 Y117.755 E2.48719
G1 X114.877 Y118.222 E2.54604
G1 X111.517 Y120.163 E2.79771
G1 X110.844 Y120.54 E2.84774
G1 X110.252 Y120.825 E2.89035
G1 X109.78 Y120.993 E2.92284
G1 X109.187 Y121.171 E2.963
G1 X108.61 Y121.325 E3.00173
G1 X107.895 Y121.471 E3.04906
G1 X107.302 Y121.559 E3.08794
G1 X106.75 Y121.617 E3.12394
G1 X105.438 Y121.707 E3.20924
G1 X104.766 Y121.711 E3.25282
G1 X103.788 Y121.656 E3.31635
G1 X100.396 Y121.362 E3.53717
G1 X97.732 Y121.206 E3.71025
G1 X95.033 Y121.125 E3.88538
G1 X92.369 Y121.121 E4.05816
G1 X89.704 Y121.192 E4.23106
G1 X87.031 Y121.338 E4.40468
G1 X84.457 Y121.551 E4.5722
G1 X83.868 Y121.608 E4.61058
G1 X82.434 Y121.708 E4.70381
G1 X81.766 Y121.711 E4.74713
G1 X80.788 Y121.656 E4.81066
G1 X79.595 Y121.545 E4.88837
G1 X78.819 Y121.418 E4.93937
G1 X77.779 Y121.174 E5.00865
G1 X77.44 Y121.082 E5.03144
G1 X76.82 Y120.866 E5.07402
G1 X76.279 Y120.604 E5.113
G1 X75.466 Y120.152 E5.17333
G1 X72.139 Y118.232 E5.42247
G1 X71.456 Y117.825 E5.47403
G1 X70.914 Y117.455 E5.5166
G1 X70.533 Y117.13 E5.54908
G1 X70.07 Y116.692 E5.59041
G1 X69.68 Y116.301 E5.62623
G1 X69.137 Y115.685 E5.67949
G1 X68.82 Y115.284 E5.71264
G1 X68.518 Y114.876 E5.74556
G1 X67.878 Y113.944 E5.81889
G1 X67.631 Y113.554 E5.84883
G1 X67.401 Y113.144 E5.87932
G1 X67.022 Y112.391 E5.934
G1 X66.766 Y111.851 E5.97275
G1 X66.472 Y111.198 E6.0192
G1 X66.195 Y110.47 E6.06972
G1 X65.881 Y109.424 E6.14055
G1 X65.798 Y109.113 E6.16143
G1 X65.672 Y108.469 E6.20399
G1 X65.626 Y107.849 E6.24431
G1 X65.611 Y106.95 E6.30262
G1 X65.61 Y103.061 E6.55485
G1 X65.621 Y102.287 E6.60506
G1 X65.67 Y101.632 E6.64766
G1 X65.85 Y100.753 E6.70585
G1 X66.059 Y99.964 E6.75879
G1 X66.293 Y99.26 E6.8069
G1 X66.506 Y98.72 E6.84455
G1 X66.739 Y98.198 E6.88163
G1 X67.325 Y97.003 E6.96795
G1 X67.658 Y96.418 E7.01161
G1 X68.151 Y95.667 E7.06987
G1 X68.481 Y95.19 E7.10749
G1 X68.864 Y94.658 E7.15001
G1 X69.409 Y93.993 E7.20577
G1 X70.066 Y93.296 E7.26789
G1 X70.345 Y93.018 E7.29344
G1 X70.841 Y92.588 E7.33601
G1 X71.345 Y92.245 E7.37555
G1 X72.123 Y91.778 E7.43441
G1 X75.49 Y89.833 E7.6866
G1 X76.155 Y89.46 E7.73605
G1 X76.746 Y89.174 E7.77863
G1 X77.229 Y89.003 E7.81186
G1 X77.815 Y88.829 E7.85151
G1 X78.393 Y88.675 E7.8903
G1 X79.102 Y88.529 E7.93725
G1 X79.698 Y88.441 E7.97633
G1 X80.25 Y88.383 E8.01233
G1 X81.562 Y88.293 E8.09762
G1 X82.234 Y88.289 E8.1412
G1 X83.212 Y88.344 E8.20473
G1 X86.604 Y88.638 E8.42555
G1 X89.268 Y88.794 E8.59863
G1 X91.967 Y88.875 E8.77376
G1 X94.631 Y88.879 E8.94654
G1 X97.296 Y88.808 E9.11944
G1 X99.969 Y88.662 E9.29307
G1 X102.543 Y88.449 E9.46058
G1 X103.132 Y88.392 E9.49896
G1 X104.566 Y88.292 E9.59219
G1 X105.234 Y88.289 E9.63552
G1 X106.212 Y88.344 E9.69905
G1 X106.997 Y88.418 E9.75018
G0 F1620 X107.405 Y88.455
M204 S4000
M205 X30 Y30
G0 F3600 X106.763 Y87.606
M204 S3000
M205 X8 Y8
G1 F1800 X107.484 Y87.679 E9.79719
G1 X108 Y87.754 E9.831
G1 X108.643 Y87.883 E9.87354
G1 X109.405 Y88.068 E9.92439
G1 X109.771 Y88.167 E9.94899
G1 X110.436 Y88.395 E9.99458
G1 X111.1 Y88.714 E10.04236
G1 X111.913 Y89.166 E10.10269
G1 X115.251 Y91.093 E10.35267
G1 X115.944 Y91.505 E10.40496
G1 X116.525 Y91.898 E10.45045
G1 X117.001 Y92.301 E10.4909
G1 X117.482 Y92.757 E10.53389
G1 X117.87 Y93.146 E10.56952
G1 X118.218 Y93.525 E10.60289
G1 X118.576 Y93.954 E10.63913
G1 X119.018 Y94.535 E10.68648
G1 X119.336 Y94.983 E10.72211
G1 X119.765 Y95.613 E10.77154
G1 X120.032 Y96.035 E10.80393
G1 X120.288 Y96.495 E10.83808
G1 X120.709 Y97.333 E10.8989
G1 X120.959 Y97.859 E10.93667
G1 X121.222 Y98.441 E10.97809
G1 X121.421 Y98.938 E11.01281
G1 X121.674 Y99.688 E11.06415
G1 X121.858 Y100.319 E11.10678
G1 X121.968 Y100.738 E11.13488
G1 X122.101 Y101.427 E11.18039
G1 X122.155 Y102.145 E11.22709
G1 X122.169 Y102.987 E11.2817
G1 X122.17 Y106.94 E11.53809
G1 X122.159 Y107.726 E11.58907
G1 X122.109 Y108.427 E11.63465
G1 X121.997 Y109.049 E11.67564
G1 X121.846 Y109.678 E11.71759
G1 X121.699 Y110.228 E11.75452
G1 X121.527 Y110.769 E11.79133
G1 X121.274 Y111.431 E11.8373
G1 X120.956 Y112.158 E11.88876
G1 X120.385 Y113.323 E11.97291
G1 X120.007 Y113.988 E12.02252
G1 X119.493 Y114.773 E12.08338
G1 X119.168 Y115.242 E12.12038
G1 X118.773 Y115.792 E12.1643
G1 X118.434 Y116.223 E12.19987
G1 X117.976 Y116.742 E12.24476
G1 X117.502 Y117.239 E12.2893
G1 X117.201 Y117.539 E12.31687
G1 X116.673 Y118.001 E12.36237
G1 X116.056 Y118.424 E12.41089
G1 X115.278 Y118.891 E12.46974
G1 X111.907 Y120.839 E12.72225
G1 X111.225 Y121.221 E12.77295
G1 X110.593 Y121.529 E12.81855
G1 X110.007 Y121.74 E12.85894
G1 X109.388 Y121.924 E12.90083
G1 X108.811 Y122.078 E12.93956
G1 X108.291 Y122.193 E12.9741
G1 X107.57 Y122.31 E13.02147
G1 X106.803 Y122.396 E13.07153
G1 X105.491 Y122.486 E13.15682
G1 X104.723 Y122.49 E13.20664
G1 X103.745 Y122.435 E13.27017
G1 X100.321 Y122.138 E13.49307
G1 X97.697 Y121.985 E13.66355
G1 X95.044 Y121.905 E13.83569
G1 X92.389 Y121.901 E14.00789
G1 X89.732 Y121.972 E14.18027
G1 X87.065 Y122.118 E14.35351
G1 X84.525 Y122.328 E14.51881
G1 X83.943 Y122.384 E14.55673
G1 X82.487 Y122.486 E14.65139
G1 X81.723 Y122.49 E14.70094
G1 X80.745 Y122.435 E14.76447
G1 X80.237 Y122.394 E14.79753
G1 X79.516 Y122.321 E14.84453
G1 X79 Y122.246 E14.87835
G1 X78.357 Y122.117 E14.92088
G1 X77.595 Y121.932 E14.97174
G1 X77.229 Y121.833 E14.99633
G1 X76.564 Y121.605 E15.04192
G1 X75.9 Y121.286 E15.0897
G1 X75.087 Y120.834 E15.15003
G1 X71.749 Y118.907 E15.40001
G1 X71.056 Y118.495 E15.4523
G1 X70.475 Y118.102 E15.49779
G1 X69.999 Y117.699 E15.53824
G1 X69.518 Y117.243 E15.58123
G1 X69.128 Y116.852 E15.61705
G1 X68.766 Y116.457 E15.6518
G1 X68.428 Y116.049 E15.68616
G1 X67.978 Y115.459 E15.73429
G1 X67.663 Y115.015 E15.76959
G1 X67.233 Y114.383 E15.81917
G1 X66.967 Y113.964 E15.85136
G1 X66.705 Y113.495 E15.8862
G1 X66.326 Y112.742 E15.94088
G1 X66.103 Y112.275 E15.97444
G1 X65.761 Y111.518 E16.02832
G1 X65.571 Y111.046 E16.06132
G1 X65.351 Y110.394 E16.10595
G1 X65.132 Y109.642 E16.15674
G1 X65.043 Y109.309 E16.1791
G1 X64.905 Y108.62 E16.22467
G1 X64.846 Y107.862 E16.27398
G1 X64.831 Y106.963 E16.3323
G1 X64.83 Y103.061 E16.58537
G1 X64.841 Y102.275 E16.63636
G1 X64.891 Y101.575 E16.68187
G1 X64.997 Y100.983 E16.72088
G1 X65.147 Y100.348 E16.76319
G1 X65.306 Y99.76 E16.8027
G1 X65.458 Y99.279 E16.83542
G1 X65.717 Y98.59 E16.88316
G1 X66.038 Y97.854 E16.93523
G1 X66.624 Y96.659 E17.02156
G1 X67.006 Y95.99 E17.07152
G1 X67.499 Y95.239 E17.12979
G1 X67.848 Y94.734 E17.1696
G1 X68.231 Y94.202 E17.21212
G1 X68.563 Y93.78 E17.24694
G1 X69.032 Y93.249 E17.29289
G1 X69.502 Y92.757 E17.33702
G1 X69.799 Y92.461 E17.36421
G1 X70.327 Y91.999 E17.40972
G1 X70.944 Y91.576 E17.45824
G1 X71.722 Y91.109 E17.51709
G1 X75.1 Y89.157 E17.77012
G1 X75.774 Y88.779 E17.82024
G1 X76.405 Y88.472 E17.86575
G1 X77.003 Y88.257 E17.90697
G1 X77.615 Y88.075 E17.94838
G1 X78.193 Y87.921 E17.98718
G1 X78.706 Y87.807 E18.02126
G1 X79.43 Y87.69 E18.06882
G1 X80.197 Y87.604 E18.11888
G1 X81.509 Y87.514 E18.20417
G1 X82.277 Y87.51 E18.25399
G1 X83.255 Y87.565 E18.31752
G1 X86.679 Y87.862 E18.54042
G1 X89.303 Y88.015 E18.7109
G1 X91.956 Y88.095 E18.88304
G1 X94.611 Y88.099 E19.05524
G1 X97.268 Y88.028 E19.22762
G1 X99.935 Y87.882 E19.40086
G1 X102.475 Y87.672 E19.56616
G1 X103.057 Y87.616 E19.60408
G1 X104.513 Y87.514 E19.69874
G1 X105.277 Y87.51 E19.74829
G1 X106.255 Y87.565 E19.81182
G1 X106.354 Y87.573 E19.81827
G0 F1620 X106.763 Y87.606
M204 S4000
M205 X30 Y30
G0 F3600 X106.841 Y86.83
M204 S3000
M205 X8 Y8
G1 F1800 X107.562 Y86.903 E19.86527
G1 X108.144 Y86.987 E19.9034
G1 X108.827 Y87.125 E19.9486
G1 X109.589 Y87.31 E19.99945
G1 X109.982 Y87.416 E20.02585
G1 X110.688 Y87.656 E20.07422
G1 X111.479 Y88.033 E20.13105
G1 X112.292 Y88.485 E20.19138
G1 X115.641 Y90.417 E20.44214
G1 X116.343 Y90.835 E20.49513
G1 X116.962 Y91.251 E20.5435
G1 X117.534 Y91.731 E20.59193
G1 X118.035 Y92.206 E20.6367
G1 X118.423 Y92.595 E20.67234
G1 X118.814 Y93.022 E20.70989
G1 X119.189 Y93.473 E20.74793
G1 X119.643 Y94.068 E20.79647
G1 X119.981 Y94.544 E20.83433
G1 X120.41 Y95.174 E20.88377
G1 X120.696 Y95.626 E20.91846
G1 X120.985 Y96.145 E20.95699
G1 X121.406 Y96.983 E21.01781
G1 X121.623 Y97.437 E21.05045
G1 X121.932 Y98.12 E21.09907
G1 X122.157 Y98.68 E21.13821
G1 X122.423 Y99.469 E21.19221
G1 X122.607 Y100.1 E21.23484
G1 X122.725 Y100.547 E21.26482
G1 X122.868 Y101.278 E21.31313
G1 X122.935 Y102.132 E21.36869
G1 X122.949 Y102.974 E21.42331
G1 X122.95 Y106.94 E21.68053
G1 X122.939 Y107.738 E21.73229
G1 X122.889 Y108.481 E21.78059
G1 X122.756 Y109.227 E21.82974
G1 X122.599 Y109.88 E21.8733
G1 X122.452 Y110.43 E21.91022
G1 X122.259 Y111.039 E21.95165
G1 X121.999 Y111.719 E21.99887
G1 X121.804 Y112.181 E22.0314
G1 X121.086 Y113.667 E22.13843
G1 X120.659 Y114.415 E22.1943
G1 X120.145 Y115.2 E22.25515
G1 X119.861 Y115.613 E22.28766
G1 X119.407 Y116.247 E22.33823
G1 X119.025 Y116.732 E22.37828
G1 X118.54 Y117.281 E22.42579
G1 X118.066 Y117.778 E22.47033
G1 X117.747 Y118.096 E22.49954
G1 X117.188 Y118.589 E22.54788
G1 X116.458 Y119.093 E22.60542
G1 X115.68 Y119.56 E22.66427
G1 X112.297 Y121.514 E22.91765
G1 X111.606 Y121.902 E22.96905
G1 X110.937 Y122.23 E23.01737
G1 X110.235 Y122.486 E23.06584
G1 X109.589 Y122.678 E23.10955
G1 X109.012 Y122.832 E23.14828
G1 X108.426 Y122.962 E23.18721
G1 X107.684 Y123.081 E23.23595
G1 X106.857 Y123.174 E23.28992
G1 X105.545 Y123.264 E23.37521
G1 X104.679 Y123.269 E23.43138
G1 X103.701 Y123.214 E23.49491
G1 X100.277 Y122.917 E23.71782
G1 X97.665 Y122.764 E23.88752
G1 X95.019 Y122.685 E24.0592
G1 X92.408 Y122.681 E24.22855
G1 X89.761 Y122.751 E24.40028
G1 X87.098 Y122.897 E24.57326
G1 X84.665 Y123.098 E24.73159
G1 X84.018 Y123.161 E24.77375
G1 X82.54 Y123.264 E24.86985
G1 X81.679 Y123.269 E24.92569
G1 X80.701 Y123.214 E24.98922
G1 X80.159 Y123.17 E25.02449
G1 X79.438 Y123.097 E25.07149
G1 X78.856 Y123.013 E25.10963
G1 X78.173 Y122.875 E25.15482
G1 X77.411 Y122.69 E25.20568
G1 X77.018 Y122.584 E25.23208
G1 X76.312 Y122.344 E25.28044
G1 X75.521 Y121.967 E25.33727
G1 X74.708 Y121.515 E25.3976
G1 X71.359 Y119.583 E25.64836
G1 X70.657 Y119.165 E25.70135
G1 X70.038 Y118.749 E25.74972
G1 X69.466 Y118.269 E25.79815
G1 X68.965 Y117.794 E25.84293
G1 X68.575 Y117.403 E25.87874
G1 X68.168 Y116.958 E25.91786
G1 X67.816 Y116.533 E25.95365
G1 X67.353 Y115.926 E26.00316
G1 X67.018 Y115.454 E26.0407
G1 X66.588 Y114.822 E26.09028
G1 X66.303 Y114.374 E26.12471
G1 X66.008 Y113.846 E26.16394
G1 X65.629 Y113.093 E26.21862
G1 X65.398 Y112.608 E26.25346
G1 X65.05 Y111.838 E26.30826
G1 X64.836 Y111.307 E26.34539
G1 X64.602 Y110.612 E26.39295
G1 X64.383 Y109.86 E26.44375
G1 X64.288 Y109.505 E26.46759
G1 X64.14 Y108.774 E26.51596
G1 X64.066 Y107.875 E26.57446
G1 X64.051 Y106.976 E26.63278
G1 X64.05 Y103.061 E26.8867
G1 X64.061 Y102.264 E26.93839
G1 X64.111 Y101.521 E26.98669
G1 X64.236 Y100.809 E27.03357
G1 X64.394 Y100.145 E27.07784
G1 X64.553 Y99.557 E27.11735
G1 X64.724 Y99.014 E27.15427
G1 X64.898 Y98.54 E27.18702
G1 X65.195 Y97.822 E27.23741
G1 X65.924 Y96.316 E27.34593
G1 X66.354 Y95.562 E27.40223
G1 X66.847 Y94.811 E27.46049
G1 X67.141 Y94.383 E27.49417
G1 X67.598 Y93.746 E27.54501
G1 X67.972 Y93.271 E27.58422
G1 X68.468 Y92.71 E27.63279
G1 X68.938 Y92.218 E27.67692
G1 X69.253 Y91.904 E27.70577
G1 X69.812 Y91.411 E27.75411
G1 X70.542 Y90.907 E27.81164
G1 X71.32 Y90.44 E27.87049
G1 X74.71 Y88.482 E28.1244
G1 X75.393 Y88.099 E28.17519
G1 X76.062 Y87.77 E28.22354
G1 X76.777 Y87.51 E28.27288
G1 X77.414 Y87.321 E28.31598
G1 X77.992 Y87.167 E28.35477
G1 X78.57 Y87.039 E28.39317
G1 X79.316 Y86.919 E28.44217
G1 X80.143 Y86.826 E28.49615
G1 X81.455 Y86.736 E28.58144
G1 X82.321 Y86.731 E28.63761
G1 X83.299 Y86.786 E28.70114
G1 X86.723 Y87.083 E28.92404
G1 X89.335 Y87.236 E29.09374
G1 X91.981 Y87.315 E29.26543
G1 X94.592 Y87.319 E29.43477
G1 X97.239 Y87.249 E29.60651
G1 X99.902 Y87.103 E29.77948
G1 X102.335 Y86.902 E29.93782
G1 X102.982 Y86.839 E29.97998
G1 X104.46 Y86.736 E30.07607
G1 X105.321 Y86.731 E30.13191
G1 X106.299 Y86.786 E30.19544
G1 X106.432 Y86.797 E30.2041
G0 F1620 X106.841 Y86.83
M204 S4000
M205 X30 Y30
G1 F2400 E26.2041
;MESH:91310A760_HIGH-STRG UNCOATED STL CAP SCREW - CLASS 10.9.stl
G0 F3600 X115.415 Y99.017
G0 X116.24 Y100.763
G0 X116.657 Y102.151
G0 X116.664 Y107.702
G0 X116.381 Y108.839
G0 X115.39 Y111.025
G0 X114.291 Y112.612
G0 X113.299 Y113.668
G0 X108.489 Y116.454
G0 X107.383 Y116.772
G0 X105.446 Y116.991
G0 X104.164 Y116.948
G0 X103.046 Y116.851
G0 X101.64 Y116.519
G0 X96.826 Y113.748
G0 X93.171 Y109.391
G0 X89.017 Y108.278
M204 S3000
M205 X8 Y8
;TYPE:WALL-INNER
G1 F2400 E30.2041
G1 F1800 X88.756 Y108.414 E30.22319
G1 X88.187 Y108.709 E30.26476
G1 X88.187 Y108.069 E30.28853
G1 X88.187 Y108.068 E30.28859
G1 X88.187 Y107.77 E30.30792
G1 X83.255 Y107.77 E30.6278
G1 X82.67 Y107.703 E30.66599
G1 X82.16 Y107.77 E30.69935
G1 X79.272 Y107.77 E30.88665
G1 X78.757 Y107.722 E30.9202
G1 X77.919 Y107.77 E30.97464
G1 X77.072 Y108.036 E31.03222
G1 X76.347 Y108.455 E31.08653
G1 X75.699 Y109.048 E31.1435
G1 X75.248 Y109.734 E31.19674
G1 X75.182 Y109.834 E31.20452
G1 X75.15 Y109.882 E31.20826
G1 X75.078 Y110.087 E31.22235
G1 X75.006 Y109.984
G1 X74.66 Y109.491 E31.25153
G1 X74.596 Y109.39 E31.25863
G1 X74.562 Y109.337 E31.26272
G1 X74.301 Y108.796 E31.30168
G1 X73.916 Y107.97 E31.36078
G1 X73.787 Y107.586 E31.38705
G1 X73.73 Y107.374 E31.40129
G1 X73.73 Y102.697 E31.70463
G1 X73.859 Y102.189 E31.73862
G1 X73.963 Y101.914 E31.75769
G1 X74.442 Y100.885 E31.83131
G1 X74.525 Y100.724 E31.84305
G1 X74.855 Y100.242 E31.88094
G1 X75.384 Y99.485 E31.94084
G1 X75.672 Y99.16 E31.969
G1 X75.805 Y99.027 E31.9812
G1 X79.86 Y96.686 E32.28488
G1 X80.363 Y96.545 E32.31876
G1 X80.665 Y96.495 E32.33861
G1 X81.798 Y96.395 E32.41238
G1 X81.946 Y96.388 E32.42199
G1 X82.567 Y96.437 E32.46239
G1 X83.485 Y96.515 E32.52214
G1 X83.873 Y96.595 E32.54784
G1 X84.066 Y96.647 E32.5608
G1 X88.137 Y98.996 E32.86564
G1 X88.5 Y99.35 E32.89852
G1 X88.689 Y99.582 E32.91793
G1 X89.353 Y100.528 E32.99289
G1 X89.441 Y100.666 E33.00351
G1 X89.699 Y101.205 E33.04226
G1 X90.085 Y102.029 E33.10128
G1 X90.222 Y102.438 E33.12925
G1 X90.27 Y102.62 E33.14146
