;FLAVOR:Marlin
;TIME:3820
;Filament used: 3.64821m, 0m, 0m, 0m
;Layer height: 0.2
;MINX:60.012
;MINY:75.262
;MINZ:0.24
;MAXX:133.55
;MAXY:100.909
;MAXZ:16.09
;Generated with Cura_SteamEngine 4.6.1
T0
M140 S60
M105
M190 S60
M104 S215
M105
M109 S215
M82 ;absolute extrusion mode
G21 ;metric values
G90 ;absolute positioning
M82 ;set extruder to absolute mode
M107 ;start with the fan off
G28 X0 Y0 ;move X/Y to min endstops
G28 Z0 ;move Z to min endstops
G1 Z15.0 F100 ;move the platform down 15mm
G92 E0 ;zero the extruded length
G1 F200 E3 ;extrude 3mm of feed stock
G92 E0 ;zero the extruded length again
G1 F100
M117 Printing...
G5
G92 E0
G92 E0
G1 F2400 E-4
;LAYER_COUNT:75
;LAYER:-6
M107
M204 S3000
M205 X10 Y10
G0 F6000 X62.006 Y76.694 Z0.24
M204 S1800
M205 X8 Y8
;TYPE:SUPPORT-INTERFACE
G1 F2400 E0
G1 F1012.5 X62.273 Y76.482 E0.02721
G1 X62.447 Y76.356 E0.04436
G1 X62.625 Y76.241 E0.06128
G1 X62.784 Y76.155 E0.07571
G1 X63.387 Y75.86 E0.12929
G1 X63.552 Y75.789 E0.14363
G1 X63.676 Y75.746 E0.15411
G1 X64.023 Y75.638 E0.18312
G1 X64.315 Y75.568 E0.20709
G1 X64.619 Y75.515 E0.23172
G1 X64.876 Y75.485 E0.25238
G1 X65.334 Y75.464 E0.28897
G1 X125.736 Y75.463 E5.11052
G1 X126.162 Y75.464 E5.14453
G1 X126.339 Y75.47 E5.15866
G1 X126.673 Y75.492 E5.18538
G1 X126.996 Y75.534 E5.21138
G1 X127.238 Y75.581 E5.23106
G1 X127.573 Y75.673 E5.25879
G1 X128.097 Y75.862 E5.30326
G1 X128.311 Y75.95 E5.32173
G1 X128.57 Y76.075 E5.34469
G1 X128.886 Y76.247 E5.3734
G1 X129.142 Y76.409 E5.39759
G1 X129.375 Y76.577 E5.42052
G1 X129.613 Y76.773 E5.44513
G1 X129.811 Y76.958 E5.46676
G1 X130.014 Y77.173 E5.49036
G1 X130.19 Y77.385 E5.51236
G1 X130.373 Y77.638 E5.53728
G1 X130.537 Y77.897 E5.56175
G1 X130.655 Y78.111 E5.58126
G1 X130.873 Y78.581 E5.62262
G1 X130.925 Y78.711 E5.63379
G1 X130.98 Y78.862 E5.64662
G1 X131.096 Y79.218 E5.67651
G1 X131.162 Y79.471 E5.69738
G1 X131.223 Y79.788 E5.72315
G1 X131.258 Y80.069 E5.74575
G1 X131.286 Y80.595 E5.7878
G1 X131.287 Y93.393 E6.80939
G1 X131.281 Y93.576 E6.82401
G1 X131.259 Y93.931 E6.8524
G1 X131.223 Y94.212 E6.87501
G1 X131.169 Y94.5 E6.8984
G1 X131.091 Y94.793 E6.92261
G1 X130.952 Y95.203 E6.95716
G1 X130.842 Y95.485 E6.98133
G1 X130.756 Y95.673 E6.99783
G1 X130.61 Y95.968 E7.0241
G1 X130.458 Y96.232 E7.04842
G1 X130.305 Y96.461 E7.0704
G1 X130.123 Y96.699 E7.09432
G1 X129.92 Y96.932 E7.11899
G1 X129.739 Y97.117 E7.13965
G1 X129.511 Y97.322 E7.16412
G1 X129.274 Y97.507 E7.18812
G1 X129.049 Y97.662 E7.20993
G1 X128.786 Y97.819 E7.23438
G1 X128.425 Y98.003 E7.26673
G1 X128.155 Y98.124 E7.29034
G1 X127.651 Y98.309 E7.3332
G1 X127.37 Y98.389 E7.35652
G1 X127.093 Y98.449 E7.37915
G1 X126.789 Y98.494 E7.40368
G1 X126.331 Y98.529 E7.44034
G1 X126.134 Y98.536 E7.45608
G1 X123.167 Y98.537 E7.69292
G1 X122.971 Y98.531 E7.70857
G1 X122.752 Y98.517 E7.72609
G1 X122.082 Y98.517 E7.77957
G1 X121.404 Y98.603 E7.83413
G1 X120.743 Y98.775 E7.88865
G1 X120.109 Y99.029 E7.94317
G1 X119.516 Y99.357 E7.99726
G1 X119.156 Y99.609 E8.03234
G1 X119.034 Y99.704 E8.04468
G1 X118.757 Y99.888 E8.07123
G1 X118.543 Y100.014 E8.09105
G1 X118.098 Y100.234 E8.13067
G1 X117.802 Y100.356 E8.15623
G1 X117.449 Y100.48 E8.1861
G1 X117.15 Y100.566 E8.21093
G1 X116.897 Y100.62 E8.23158
G1 X116.571 Y100.667 E8.25787
G1 X116.133 Y100.7 E8.29294
G1 X115.924 Y100.708 E8.30963
G1 X96.267 Y100.708 E9.87874
G1 X96.142 Y100.702 E9.88873
G1 X95.737 Y100.672 E9.92115
G1 X95.481 Y100.636 E9.94178
G1 X95.189 Y100.577 E9.96556
G1 X94.907 Y100.499 E9.98892
G1 X94.469 Y100.346 E10.02595
G1 X94.209 Y100.239 E10.04839
G1 X94.076 Y100.177 E10.06011
G1 X93.742 Y100.006 E10.09006
G1 X93.494 Y99.86 E10.11303
G1 X93.253 Y99.696 E10.1363
G1 X93.021 Y99.517 E10.15969
G1 X92.801 Y99.322 E10.18316
G1 X92.601 Y99.12 E10.20585
G1 X92.4 Y98.891 E10.23017
G1 X92.23 Y98.672 E10.2523
G1 X92.058 Y98.416 E10.27692
G1 X91.927 Y98.195 E10.29743
G1 X91.721 Y97.785 E10.33406
G1 X91.592 Y97.487 E10.35998
G1 X91.461 Y97.135 E10.38996
G1 X91.377 Y96.856 E10.41322
G1 X91.318 Y96.603 E10.43395
G1 X91.249 Y96.169 E10.46903
G1 X91.172 Y95.642 E10.51155
G1 X90.987 Y94.985 E10.56603
G1 X90.722 Y94.355 E10.62059
G1 X90.379 Y93.765 E10.67507
G1 X89.965 Y93.222 E10.72957
G1 X89.485 Y92.736 E10.7841
G1 X88.948 Y92.315 E10.83857
G1 X88.361 Y91.965 E10.89312
G1 X87.736 Y91.691 E10.94759
G1 X87.082 Y91.498 E11.00202
G1 X86.406 Y91.39 E11.05667
G1 X85.725 Y91.367 E11.11106
G1 X85.044 Y91.431 E11.16566
G1 X84.378 Y91.581 E11.22016
G1 X83.736 Y91.812 E11.27462
G1 X83.128 Y92.125 E11.32921
G1 X82.568 Y92.506 E11.38327
G1 X82.25 Y92.777 E11.41662
G1 X80.036 Y94.802 E11.65613
G1 X79.931 Y94.891 E11.66712
G1 X79.618 Y95.143 E11.69919
G1 X79.409 Y95.291 E11.71964
G1 X79.141 Y95.456 E11.74476
G1 X78.886 Y95.591 E11.76779
G1 X78.631 Y95.706 E11.79012
G1 X78.343 Y95.816 E11.81473
G1 X78.082 Y95.896 E11.83652
G1 X77.792 Y95.966 E11.86033
G1 X77.515 Y96.013 E11.88276
G1 X77.37 Y96.03 E11.89442
G1 X76.71 Y96.144 E11.94788
G1 X76.057 Y96.345 E12.00242
G1 X75.435 Y96.627 E12.05693
G1 X74.857 Y96.982 E12.11108
G1 X74.537 Y97.227 E12.14325
G1 X74.3 Y97.423 E12.1678
G1 X74.05 Y97.603 E12.19239
G1 X73.773 Y97.775 E12.21842
G1 X73.386 Y97.98 E12.25338
G1 X73.227 Y98.057 E12.26748
G1 X72.962 Y98.168 E12.29041
G1 X72.617 Y98.294 E12.31973
G1 X72.303 Y98.386 E12.34585
G1 X72.072 Y98.439 E12.36477
G1 X71.736 Y98.489 E12.39188
G1 X71.252 Y98.528 E12.43064
G1 X71.054 Y98.536 E12.44646
G1 X65.359 Y98.537 E12.90106
G1 X65.169 Y98.531 E12.91624
G1 X64.824 Y98.509 E12.94383
G1 X64.529 Y98.472 E12.96756
G1 X64.249 Y98.418 E12.99033
G1 X63.953 Y98.34 E13.01476
G1 X63.539 Y98.2 E13.04965
G1 X63.342 Y98.125 E13.06647
G1 X63.187 Y98.053 E13.08012
G1 X62.898 Y97.911 E13.10582
G1 X62.586 Y97.724 E13.13486
G1 X62.118 Y97.392 E13.18066
G1 X61.973 Y97.279 E13.19533
G1 X61.923 Y97.233 E13.20076
G1 X61.628 Y96.946 E13.23361
G1 X61.444 Y96.744 E13.25542
G1 X61.222 Y96.465 E13.28388
G1 X61.112 Y96.312 E13.29892
G1 X60.991 Y96.125 E13.3167
G1 X60.905 Y95.966 E13.33113
G1 X60.608 Y95.359 E13.38508
G1 X60.54 Y95.201 E13.39881
G1 X60.493 Y95.065 E13.41029
G1 X60.389 Y94.727 E13.43852
G1 X60.318 Y94.435 E13.46251
G1 X60.264 Y94.127 E13.48747
G1 X60.235 Y93.874 E13.5078
G1 X60.214 Y93.427 E13.54352
G1 X60.213 Y80.607 E14.56687
G1 X60.219 Y80.42 E14.5818
G1 X60.241 Y80.069 E14.60988
G1 X60.276 Y79.788 E14.63248
G1 X60.331 Y79.501 E14.65581
G1 X60.412 Y79.197 E14.68092
G1 X60.549 Y78.791 E14.71512
G1 X60.625 Y78.592 E14.73213
G1 X60.693 Y78.445 E14.74506
G1 X60.839 Y78.148 E14.77147
G1 X61.026 Y77.836 E14.80051
G1 X61.351 Y77.379 E14.84527
G1 X61.473 Y77.222 E14.86114
G1 X61.526 Y77.164 E14.86742
G1 X61.804 Y76.878 E14.89925
G1 X62.006 Y76.694 E14.92107
M204 S3000
M205 X10 Y10
G0 F6000 X62.4 Y76.39
M204 S1800
M205 X8 Y8
G1 F1012.5 X62.4 Y97.592 E16.6135
M204 S3000
M205 X10 Y10
G0 F6000 X64 Y98.352
M204 S1800
M205 X8 Y8
G1 F1012.5 X64 Y75.645 E18.42607
M204 S3000
M205 X10 Y10
G0 F6000 X65.6 Y75.463
M204 S1800
M205 X8 Y8
G1 F1012.5 X65.6 Y98.537 E20.26794
M204 S3000
M205 X10 Y10
G0 F6000 X67.2 Y98.537
M204 S1800
M205 X8 Y8
G1 F1012.5 X67.2 Y75.463 E22.1098
M204 S3000
M205 X10 Y10
G0 F6000 X68.8 Y75.463
M204 S1800
M205 X8 Y8
G1 F1012.5 X68.8 Y98.537 E23.95167
M204 S3000
M205 X10 Y10
G0 F6000 X70.4 Y98.537
M204 S1800
M205 X8 Y8
G1 F1012.5 X70.4 Y75.463 E25.79354
M204 S3000
M205 X10 Y10
G0 F6000 X72 Y75.463
M204 S1800
M205 X8 Y8
G1 F1012.5 X72 Y98.45 E27.62846
M204 S3000
M205 X10 Y10
G0 F6000 X73.6 Y97.867
M204 S1800
M205 X8 Y8
G1 F1012.5 X73.6 Y75.463 E29.41684
M204 S3000
M205 X10 Y10
G0 F6000 X75.2 Y75.463
M204 S1800
M205 X8 Y8
G1 F1012.5 X75.2 Y96.772 E31.11782
M204 S3000
M205 X10 Y10
G0 F6000 X76.8 Y96.129
M204 S1800
M205 X8 Y8
G1 F1012.5 X76.8 Y75.463 E32.76747
M204 S3000
M205 X10 Y10
G0 F6000 X78.4 Y75.463
M204 S1800
M205 X8 Y8
G1 F1012.5 X78.4 Y95.795 E34.39046
M204 S3000
M205 X10 Y10
G0 F6000 X80 Y94.833
M204 S1800
M205 X8 Y8
G1 F1012.5 X80 Y75.463 E35.93665
M204 S3000
M205 X10 Y10
G0 F6000 X81.6 Y75.463
M204 S1800
M205 X8 Y8
G1 F1012.5 X81.6 Y93.372 E37.36623
M204 S3000
M205 X10 Y10
G0 F6000 X83.2 Y92.088
M204 S1800
M205 X8 Y8
G1 F1012.5 X83.2 Y75.463 E38.69331
M204 S3000
M205 X10 Y10
G0 F6000 X84.8 Y75.463
M204 S1800
M205 X8 Y8
G1 F1012.5 X84.8 Y91.486 E39.97233
M204 S3000
M205 X10 Y10
G0 F6000 X86.4 Y91.389
M204 S1800
M205 X8 Y8
G1 F1012.5 X86.4 Y75.463 E41.24361
M204 S3000
M205 X10 Y10
G0 F6000 X88 Y75.463
M204 S1800
M205 X8 Y8
G1 F1012.5 X88 Y91.806 E42.54818
M204 S3000
M205 X10 Y10
G0 F6000 X89.6 Y92.852
M204 S1800
M205 X8 Y8
G1 F1012.5 X89.6 Y75.463 E43.93625
M204 S3000
M205 X10 Y10
G0 F6000 X91.2 Y75.463
M204 S1800
M205 X8 Y8
G1 F1012.5 X91.2 Y95.833 E45.56227
M204 S3000
M205 X10 Y10
G0 F6000 X92.8 Y99.32
M204 S1800
M205 X8 Y8
G1 F1012.5 X92.8 Y75.463 E47.46664
M204 S3000
M205 X10 Y10
G0 F6000 X94.4 Y75.463
M204 S1800
M205 X8 Y8
G1 F1012.5 X94.4 Y100.317 E49.45059
M204 S3000
M205 X10 Y10
G0 F6000 X96 Y100.691
M204 S1800
M205 X8 Y8
G1 F1012.5 X96 Y75.463 E51.4644
M204 S3000
M205 X10 Y10
G0 F6000 X97.6 Y75.463
M204 S1800
M205 X8 Y8
G1 F1012.5 X97.6 Y100.708 E53.47957
M204 S3000
M205 X10 Y10
G0 F6000 X99.2 Y100.708
M204 S1800
M205 X8 Y8
G1 F1012.5 X99.2 Y75.463 E55.49473
M204 S3000
M205 X10 Y10
G0 F6000 X100.8 Y75.463
M204 S1800
M205 X8 Y8
G1 F1012.5 X100.8 Y100.708 E57.5099
M204 S3000
M205 X10 Y10
G0 F6000 X102.4 Y100.708
M204 S1800
M205 X8 Y8
G1 F1012.5 X102.4 Y75.463 E59.52506
M204 S3000
M205 X10 Y10
G0 F6000 X104 Y75.463
M204 S1800
M205 X8 Y8
G1 F1012.5 X104 Y100.708 E61.54023
M204 S3000
M205 X10 Y10
G0 F6000 X105.6 Y100.708
M204 S1800
M205 X8 Y8
G1 F1012.5 X105.6 Y75.463 E63.55539
M204 S3000
M205 X10 Y10
G0 F6000 X107.2 Y75.463
M204 S1800
M205 X8 Y8
G1 F1012.5 X107.2 Y100.708 E65.57056
M204 S3000
M205 X10 Y10
G0 F6000 X108.8 Y100.708
M204 S1800
M205 X8 Y8
G1 F1012.5 X108.8 Y75.463 E67.58572
M204 S3000
M205 X10 Y10
G0 F6000 X110.4 Y75.463
M204 S1800
M205 X8 Y8
G1 F1012.5 X110.4 Y100.708 E69.60089
M204 S3000
M205 X10 Y10
G0 F6000 X112 Y100.708
M204 S1800
M205 X8 Y8
G1 F1012.5 X112 Y75.463 E71.61605
M204 S3000
M205 X10 Y10
G0 F6000 X113.6 Y75.463
M204 S1800
M205 X8 Y8
G1 F1012.5 X113.6 Y100.708 E73.63122
M204 S3000
M205 X10 Y10
G0 F6000 X115.2 Y100.708
M204 S1800
M205 X8 Y8
G1 F1012.5 X115.2 Y75.463 E75.64638
M204 S3000
M205 X10 Y10
G0 F6000 X116.8 Y75.463
M204 S1800
M205 X8 Y8
G1 F1012.5 X116.8 Y100.634 E77.65564
M204 S3000
M205 X10 Y10
G0 F6000 X118.4 Y100.085
M204 S1800
M205 X8 Y8
G1 F1012.5 X118.4 Y75.463 E79.62107
M204 S3000
M205 X10 Y10
G0 F6000 X120 Y75.463
M204 S1800
M205 X8 Y8
G1 F1012.5 X120 Y99.09 E81.50708
M204 S3000
M205 X10 Y10
G0 F6000 X121.6 Y98.579
M204 S1800
M205 X8 Y8
G1 F1012.5 X121.6 Y75.463 E83.3523
M204 S3000
M205 X10 Y10
G0 F6000 X123.2 Y75.463
M204 S1800
M205 X8 Y8
G1 F1012.5 X123.2 Y98.537 E85.19417
M204 S3000
M205 X10 Y10
G0 F6000 X124.8 Y98.537
M204 S1800
M205 X8 Y8
G1 F1012.5 X124.8 Y75.463 E87.03604
M204 S3000
M205 X10 Y10
G0 F6000 X126.4 Y75.475
M204 S1800
M205 X8 Y8
G1 F1012.5 X126.4 Y98.524 E88.87591
M204 S3000
M205 X10 Y10
G0 F6000 X128 Y98.181
M204 S1800
M205 X8 Y8
G1 F1012.5 X128 Y75.828 E90.66022
M204 S3000
M205 X10 Y10
G0 F6000 X129.6 Y76.763
M204 S1800
M205 X8 Y8
G1 F1012.5 X129.6 Y97.242 E92.29494
M204 S3000
M205 X10 Y10
G0 F6000 X131.2 Y94.335
M204 S1800
M205 X8 Y8
G1 F1012.5 X131.2 Y79.669 E93.46565
M204 S3000
M205 X10 Y10
G0 F6000 X60.8 Y78.227
M204 S1800
M205 X8 Y8
G1 F1012.5 X60.8 Y95.751 E94.86449
M204 S3000
M205 X10 Y10
G0 F600 X60.8 Y95.751 Z0.54
G0 F6000 X60.317 Y94.434
;TIME_ELAPSED:76.444399
;LAYER:-5
M140 S60
M204 S1800
M205 X8 Y8
;TYPE:SUPPORT
G1 F1012.5 X60.389 Y94.726 E94.8945
G1 X60.492 Y95.064 E94.92975
G1 X60.539 Y95.2 E94.94411
G1 X60.608 Y95.358 E94.96131
G1 X60.905 Y95.964 E95.02865
G1 X60.99 Y96.124 E95.04673
G1 X61.111 Y96.311 E95.06895
G1 X61.222 Y96.464 E95.08781
G1 X61.444 Y96.742 E95.12331
G1 X61.627 Y96.945 E95.15058
G1 X61.923 Y97.232 E95.19172
G1 X61.972 Y97.278 E95.19843
G1 X62.117 Y97.391 E95.21677
G1 X62.586 Y97.723 E95.27411
G1 X62.898 Y97.91 E95.3104
G1 X63.187 Y98.051 E95.34249
G1 X63.341 Y98.124 E95.35949
G1 X63.538 Y98.199 E95.38053
G1 X63.952 Y98.339 E95.42413
G1 X64.248 Y98.417 E95.45468
G1 X64.529 Y98.471 E95.48323
M204 S3000
M205 X10 Y10
G0 F6000 X64.53 Y98.471
M204 S1800
M205 X8 Y8
G1 F1012.5 X60.28 Y94.221 E96.08295
G1 X60.263 Y94.125 E96.09268
G1 X60.234 Y93.873 E96.11799
G1 X60.213 Y93.426 E96.16264
G1 X60.212 Y92.739 E96.23119
G1 X66.008 Y98.535 E97.04907
G1 X67.422 Y98.535 E97.19016
G1 X60.212 Y91.325 E98.20756
G1 X60.212 Y89.911 E98.34865
G1 X68.836 Y98.535 E99.56559
G1 X70.251 Y98.535 E99.70678
G1 X60.212 Y88.497 E101.12332
G1 X60.212 Y87.083 E101.26441
G1 X71.627 Y98.497 E102.87512
G1 X71.735 Y98.488 E102.88594
G1 X72.071 Y98.438 E102.91983
G1 X72.303 Y98.385 E102.94358
G1 X72.617 Y98.293 E102.97622
G1 X72.778 Y98.234 E102.99333
G1 X60.212 Y85.668 E104.76653
G1 X60.212 Y84.254 E104.90762
G1 X73.746 Y97.787 E106.81734
G1 X73.773 Y97.773 E106.82038
G1 X74.05 Y97.602 E106.85286
G1 X74.299 Y97.422 E106.88352
G1 X74.536 Y97.226 E106.91421
G1 X74.571 Y97.198 E106.91868
G1 X60.212 Y82.84 E108.94482
G1 X60.212 Y81.426 E109.08591
G1 X75.421 Y96.634 E111.23199
G1 X75.434 Y96.626 E111.23351
G1 X76.057 Y96.344 E111.30175
G1 X76.429 Y96.228 E111.34063
G1 X60.244 Y80.043 E113.62451
G1 X60.275 Y79.787 E113.65024
G1 X60.331 Y79.5 E113.67942
G1 X60.411 Y79.196 E113.71078
G1 X60.512 Y78.896 E113.74237
G1 X77.61 Y95.995 E116.15515
G1 X77.792 Y95.964 E116.17357
G1 X78.082 Y95.895 E116.20332
G1 X78.343 Y95.815 E116.23055
G1 X78.63 Y95.704 E116.26126
G1 X78.701 Y95.672 E116.26903
G1 X60.965 Y77.935 E118.77184
G1 X61.026 Y77.835 E118.78353
G1 X61.35 Y77.377 E118.83951
G1 X61.473 Y77.221 E118.85933
G1 X61.526 Y77.163 E118.86717
G1 X61.565 Y77.122 E118.87281
G1 X79.599 Y95.155 E121.41754
G1 X79.618 Y95.141 E121.41989
G1 X79.93 Y94.89 E121.45985
G1 X80.036 Y94.801 E121.47366
G1 X80.361 Y94.503 E121.51765
G1 X62.311 Y76.453 E124.0647
G1 X62.446 Y76.355 E124.08135
G1 X62.625 Y76.24 E124.10258
G1 X62.784 Y76.153 E124.12066
G1 X63.215 Y75.943 E124.1685
G1 X81.099 Y93.827 E126.69213
G1 X81.838 Y93.152 E126.79199
G1 X64.266 Y75.579 E129.27166
G1 X64.314 Y75.567 E129.2766
G1 X64.618 Y75.514 E129.30739
G1 X64.876 Y75.484 E129.33331
G1 X65.334 Y75.463 E129.37906
G1 X65.563 Y75.463 E129.40191
G1 X82.59 Y92.49 E131.8046
G1 X83.128 Y92.123 E131.86958
G1 X83.464 Y91.95 E131.90729
G1 X66.977 Y75.463 E134.23379
G1 X68.392 Y75.463 E134.37497
G1 X84.484 Y91.555 E136.64573
G1 X85.043 Y91.43 E136.70288
G1 X85.709 Y91.366 E136.76964
G1 X69.806 Y75.463 E139.01373
G1 X71.22 Y75.463 E139.15482
G1 X87.326 Y91.569 E141.42755
M204 S3000
M205 X10 Y10
G0 F6000 X87.736 Y91.69
M204 S1800
M205 X8 Y8
G1 F1012.5 X88.36 Y91.964 E141.49555
G1 X88.948 Y92.314 E141.56383
G1 X89.485 Y92.734 E141.63185
G1 X89.964 Y93.221 E141.70001
G1 X90.378 Y93.764 E141.76814
G1 X90.722 Y94.354 E141.83629
G1 X90.986 Y94.984 E141.90445
G1 X91.083 Y95.325 E141.93982
G1 X96.464 Y100.707 E142.69921
G1 X97.879 Y100.707 E142.8404
G1 X72.634 Y75.463 E146.40267
G1 X74.048 Y75.463 E146.54376
G1 X99.293 Y100.707 E150.10603
G1 X100.707 Y100.707 E150.24712
G1 X75.463 Y75.463 E153.80932
G1 X76.877 Y75.463 E153.95041
G1 X102.121 Y100.707 E157.51261
G1 X103.535 Y100.707 E157.6537
G1 X78.291 Y75.463 E161.2159
G1 X79.705 Y75.463 E161.35699
G1 X104.95 Y100.707 E164.91927
G1 X106.364 Y100.707 E165.06035
G1 X81.119 Y75.463 E168.62263
G1 X82.534 Y75.463 E168.76382
G1 X107.778 Y100.707 E172.32602
G1 X109.192 Y100.707 E172.46711
G1 X83.948 Y75.463 E176.02931
G1 X85.362 Y75.463 E176.1704
G1 X110.607 Y100.707 E179.73267
G1 X112.021 Y100.707 E179.87376
G1 X86.776 Y75.463 E183.43603
G1 X88.191 Y75.463 E183.57722
G1 X113.435 Y100.707 E187.13942
G1 X114.849 Y100.707 E187.28051
G1 X89.605 Y75.463 E190.84271
G1 X91.019 Y75.463 E190.9838
G1 X116.247 Y100.691 E194.54374
G1 X116.57 Y100.667 E194.57606
G1 X116.896 Y100.619 E194.60894
G1 X117.149 Y100.566 E194.63473
G1 X117.448 Y100.48 E194.66578
M204 S3000
M205 X10 Y10
G0 F6000 X117.449 Y100.479
M204 S1800
M205 X8 Y8
G1 F1012.5 X92.433 Y75.463 E198.1958
G1 X93.847 Y75.463 E198.33689
