;FLAVOR:Marlin
;TIME:6559
;Filament used: 10.3887m, 0m, 0m, 0m
;Layer height: 0.2
;MINX:68.545
;MINY:73.695
;MINZ:0.2
;MAXX:141.455
;MAXY:136.305
;MAXZ:32.815
;Generated with Cura_SteamEngine 4.6.1
T0
M140 S60
M105
M190 S60
M104 S250
M105
M109 S250
M82 ;absolute extrusion mode
G28
G29
M501
M420 S1
G92 E0 ;zero the extruded length
G1 F200 E3 ;extrude 3mm of feed stock
G92 E0 ;zero the extruded length again
G1 F200
M117 Printing...
G5
G92 E0
G92 E0
G1 F2400 E-4
;LAYER_COUNT:135
;LAYER:0
M107
M204 S4000
M205 X30 Y30
G1 F600 Z0.275
G0 F6000 X134.424 Y75.386 Z0.275
M204 S3000
M205 X8 Y8
;TYPE:SKIRT
G1 F600 Z0.2
G1 F2400 E0
G1 F1800 X135.08 Y75.435 E0.04595
G1 X135.725 Y75.563 E0.09188
G1 X136.351 Y75.769 E0.13791
G1 X136.946 Y76.049 E0.18384
G1 X137.503 Y76.4 E0.22982
G1 X138.014 Y76.815 E0.2758
G1 X138.471 Y77.289 E0.32179
G1 X138.867 Y77.815 E0.36778
G1 X139.196 Y78.385 E0.41374
G1 X139.453 Y78.99 E0.45966
G1 X139.636 Y79.623 E0.50568
G1 X139.74 Y80.273 E0.55166
G1 X139.773 Y80.973 E0.6006
G1 X139.775 Y128.536 E3.9227
G1 X139.766 Y129.263 E3.97348
G1 X139.717 Y129.92 E4.0195
G1 X139.59 Y130.565 E4.06542
G1 X139.386 Y131.191 E4.1114
G1 X139.107 Y131.787 E4.15737
G1 X138.757 Y132.345 E4.20337
G1 X138.343 Y132.856 E4.24931
G1 X137.87 Y133.314 E4.2953
G1 X137.345 Y133.711 E4.34127
G1 X136.776 Y134.041 E4.38721
G1 X136.17 Y134.3 E4.43324
G1 X135.538 Y134.483 E4.4792
G1 X134.889 Y134.589 E4.52513
G1 X134.177 Y134.623 E4.57492
G1 X76.282 Y134.625 E8.61867
G1 X75.584 Y134.616 E8.66742
G1 X74.928 Y134.567 E8.71337
G1 X74.282 Y134.439 E8.75937
G1 X73.657 Y134.235 E8.80529
G1 X73.061 Y133.955 E8.85128
G1 X72.503 Y133.606 E8.89725
G1 X71.992 Y133.191 E8.94323
G1 X71.534 Y132.718 E8.98922
G1 X71.138 Y132.193 E9.03515
G1 X70.808 Y131.623 E9.08115
G1 X70.549 Y131.018 E9.12712
G1 X70.366 Y130.386 E9.17308
G1 X70.261 Y129.736 E9.21906
G1 X70.227 Y129.009 E9.2699
G1 X70.225 Y81.396 E12.59549
G1 X70.234 Y80.731 E12.64194
G1 X70.283 Y80.074 E12.68796
G1 X70.411 Y79.429 E12.73389
G1 X70.617 Y78.803 E12.77992
G1 X70.896 Y78.208 E12.82582
G1 X71.246 Y77.65 E12.87182
G1 X71.661 Y77.139 E12.9178
G1 X72.135 Y76.682 E12.96379
G1 X72.66 Y76.286 E13.00972
G1 X73.23 Y75.956 E13.05573
G1 X73.835 Y75.698 E13.10166
G1 X74.468 Y75.515 E13.14769
G1 X75.118 Y75.411 E13.19367
G1 X75.823 Y75.377 E13.24296
G1 X133.648 Y75.375 E17.28183
G1 X134.044 Y75.381 E17.30949
G0 F1620 X134.424 Y75.386
M204 S4000
M205 X30 Y30
G0 F6000 X134.436 Y74.546
M204 S3000
M205 X8 Y8
G1 F1800 X135.141 Y74.596 E17.35885
G1 X135.837 Y74.725 E17.40829
G1 X136.513 Y74.932 E17.45767
G1 X137.162 Y75.214 E17.5071
G1 X137.775 Y75.567 E17.55651
G1 X138.344 Y75.988 E17.60594
G1 X138.862 Y76.47 E17.65537
G1 X139.322 Y77.007 E17.70475
G1 X139.719 Y77.592 E17.75413
G1 X140.047 Y78.219 E17.80356
G1 X140.302 Y78.879 E17.85298
G1 X140.482 Y79.563 E17.90238
G1 X140.583 Y80.263 E17.95178
G1 X140.613 Y80.949 E17.99974
G1 X140.615 Y128.546 E21.32421
G1 X140.606 Y129.273 E21.37499
G1 X140.557 Y129.979 E21.42442
G1 X140.429 Y130.675 E21.47385
G1 X140.223 Y131.352 E21.52328
G1 X139.942 Y132.001 E21.57267
G1 X139.59 Y132.615 E21.62211
G1 X139.171 Y133.184 E21.67146
G1 X138.69 Y133.703 E21.72089
G1 X138.154 Y134.165 E21.77031
G1 X137.569 Y134.562 E21.81969
G1 X136.943 Y134.892 E21.86912
G1 X136.284 Y135.148 E21.9185
G1 X135.6 Y135.329 E21.96792
G1 X134.9 Y135.431 E22.01733
G1 X134.2 Y135.463 E22.06627
G1 X76.352 Y135.465 E26.10674
G1 X75.573 Y135.455 E26.16115
G1 X74.868 Y135.406 E26.21052
G1 X74.172 Y135.278 E26.25994
G1 X73.495 Y135.072 E26.30937
G1 X72.846 Y134.791 E26.35877
G1 X72.233 Y134.438 E26.40817
G1 X71.663 Y134.019 E26.45759
G1 X71.145 Y133.538 E26.50696
G1 X70.683 Y133.001 E26.55644
G1 X70.286 Y132.416 E26.60582
G1 X69.957 Y131.79 E26.65521
G1 X69.701 Y131.131 E26.70459
G1 X69.52 Y130.447 E26.75401
G1 X69.418 Y129.747 E26.80342
G1 X69.387 Y129.032 E26.85341
G1 X69.385 Y81.469 E30.17551
G1 X69.395 Y80.719 E30.2279
G1 X69.444 Y80.014 E30.27726
G1 X69.573 Y79.318 E30.3267
G1 X69.779 Y78.641 E30.37612
G1 X70.061 Y77.993 E30.42548
G1 X70.414 Y77.379 E30.47495
G1 X70.834 Y76.81 E30.52435
G1 X71.315 Y76.292 E30.57372
G1 X71.852 Y75.831 E30.62315
G1 X72.437 Y75.434 E30.67253
G1 X73.063 Y75.105 E30.72193
G1 X73.723 Y74.849 E30.77137
G1 X74.407 Y74.669 E30.82078
G1 X75.107 Y74.568 E30.87017
G1 X75.8 Y74.537 E30.91863
G1 X133.648 Y74.535 E34.95909
G1 X134.056 Y74.541 E34.98759
G0 F1620 X134.436 Y74.546
M204 S4000
M205 X30 Y30
G0 F6000 X134.448 Y73.706
M204 S3000
M205 X8 Y8
G1 F1800 X135.199 Y73.756 E35.04017
G1 X135.941 Y73.887 E35.09279
G1 X136.666 Y74.095 E35.14547
G1 X137.364 Y74.378 E35.19808
G1 X138.028 Y74.734 E35.2507
G1 X138.65 Y75.158 E35.30328
G1 X139.224 Y75.646 E35.35591
G1 X139.743 Y76.192 E35.40852
G1 X140.202 Y76.79 E35.46117
G1 X140.594 Y77.433 E35.51377
G1 X140.916 Y78.114 E35.56639
G1 X141.165 Y78.826 E35.61907
G1 X141.336 Y79.559 E35.67164
G1 X141.443 Y80.605 E35.74508
G1 X141.455 Y81.125 E35.78141
G1 X141.455 Y128.469 E39.08822
G1 X141.445 Y129.284 E39.14515
G1 X141.396 Y130.036 E39.19778
G1 X141.268 Y130.778 E39.25037
G1 X141.061 Y131.503 E39.30304
G1 X140.779 Y132.201 E39.35562
G1 X140.424 Y132.866 E39.40827
G1 X140.001 Y133.489 E39.46086
G1 X139.514 Y134.064 E39.5135
G1 X138.969 Y134.584 E39.56611
G1 X138.372 Y135.044 E39.61875
G1 X137.73 Y135.438 E39.67136
G1 X137.05 Y135.761 E39.72394
G1 X136.339 Y136.011 E39.77658
G1 X135.605 Y136.183 E39.82924
G1 X134.545 Y136.293 E39.90367
G1 X134.025 Y136.305 E39.94
G1 X76.352 Y136.305 E43.96825
G1 X75.562 Y136.295 E44.02343
G1 X74.811 Y136.246 E44.076
G1 X74.068 Y136.117 E44.12867
G1 X73.344 Y135.91 E44.18127
G1 X72.646 Y135.627 E44.23387
G1 X71.981 Y135.272 E44.28652
G1 X71.358 Y134.849 E44.33912
G1 X70.783 Y134.362 E44.39175
G1 X70.263 Y133.817 E44.44437
G1 X69.804 Y133.219 E44.49702
G1 X69.411 Y132.577 E44.54959
G1 X69.087 Y131.896 E44.60227
G1 X68.838 Y131.185 E44.65489
G1 X68.666 Y130.452 E44.70747
G1 X68.557 Y129.388 E44.78218
G1 X68.545 Y128.863 E44.81886
G1 X68.545 Y81.469 E48.12915
G1 X68.555 Y80.708 E48.18231
G1 X68.605 Y79.956 E48.23495
G1 X68.734 Y79.214 E48.28756
G1 X68.942 Y78.49 E48.34017
G1 X69.225 Y77.792 E48.39278
G1 X69.58 Y77.127 E48.44543
G1 X70.004 Y76.504 E48.49806
G1 X70.491 Y75.93 E48.55064
G1 X71.037 Y75.41 E48.60331
G1 X71.634 Y74.951 E48.6559
G1 X72.277 Y74.558 E48.70854
G1 X72.958 Y74.236 E48.76115
G1 X73.669 Y73.987 E48.81377
G1 X74.403 Y73.815 E48.86643
G1 X75.455 Y73.707 E48.94029
G1 X75.975 Y73.695 E48.97662
G1 X133.648 Y73.695 E53.00487
G1 X134.068 Y73.701 E53.03421
G0 F1620 X134.448 Y73.706
M204 S4000
M205 X30 Y30
G1 F2400 E49.03421
G1 F600 Z0.275
;MESH:Base.stl
G0 F6000 X130.839 Y86.937 Z0.275
M204 S3000
M205 X8 Y8
;TYPE:WALL-INNER
G1 F600 Z0.2
G1 F2400 E53.03421
G1 F1200 X130.313 Y86.726 E53.07379
G1 X129.143 Y86.588 E53.15608
G1 X127.978 Y86.758 E53.23831
G1 X126.919 Y87.215 E53.31887
G1 X126.02 Y87.903 E53.39794
G1 X125.298 Y88.839 E53.48051
G1 X124.85 Y89.927 E53.56269
G1 X124.695 Y91.095 E53.64498
G1 X124.85 Y92.262 E53.72721
G1 X125.305 Y93.369 E53.81081
G1 X126.061 Y94.325 E53.89594
G1 X127.003 Y95.028 E53.97803
G1 X128.097 Y95.464 E54.06029
G1 X129.267 Y95.602 E54.14258
G1 X130.431 Y95.432 E54.22474
G1 X130.83 Y95.26 E54.25509
G1 X131.415 Y95.009 E54.29955
G1 X131.415 Y95.645 E54.32543
G1 X131.415 Y95.646 E54.3255
G1 X131.415 Y114.357 E55.63239
G1 X131.415 Y114.358 E55.63246
G1 X131.415 Y114.977 E55.6757
G1 X130.84 Y114.748 E55.70102
G1 X130.839 Y114.747 E55.70112
G1 X130.313 Y114.536 E55.7407
G1 X129.143 Y114.398 E55.82299
G1 X127.978 Y114.568 E55.90522
G1 X126.919 Y115.025 E55.98578
G1 X126.02 Y115.713 E56.06485
G1 X125.298 Y116.648 E56.14736
G1 X124.85 Y117.738 E56.22967
G1 X124.695 Y118.905 E56.3119
G1 X124.85 Y120.074 E56.39427
G1 X125.305 Y121.175 E56.47747
G1 X126.057 Y122.131 E56.56243
G1 X127.003 Y122.838 E56.64492
G1 X128.097 Y123.274 E56.72718
G1 X129.267 Y123.412 E56.80946
G1 X130.431 Y123.242 E56.89163
G1 X130.83 Y123.07 E56.92197
G1 X131.415 Y122.819 E56.96644
G1 X131.415 Y123.455 E56.99231
G1 X131.415 Y123.456 E56.99238
G1 X131.415 Y126.265 E57.18858
G1 X78.585 Y126.265 E60.87856
G1 X78.585 Y123.339 E61.08293
G1 X78.585 Y123.012 E61.10577
G1 X78.585 Y122.793 E61.12107
G1 X78.939 Y123.012 E61.13461
G1 X79.252 Y123.107 E61.15215
G1 X80.062 Y123.353 E61.21128
G1 X81.237 Y123.391 E61.29339
G1 X82.387 Y123.124 E61.37585
G1 X83.406 Y122.576 E61.45667
G1 X84.245 Y121.811 E61.53597
G1 X84.879 Y120.817 E61.61832
G1 X85.235 Y119.694 E61.7006
G1 X85.288 Y118.521 E61.78262
G1 X85.037 Y117.371 E61.86483
G1 X84.484 Y116.308 E61.94852
G1 X83.652 Y115.416 E62.03372
G1 X82.651 Y114.798 E62.11589
G1 X81.528 Y114.457 E62.19786
G1 X80.353 Y114.419 E62.27997
G1 X79.338 Y114.655 E62.35276
G1 X79.203 Y114.686 E62.36243
G1 X78.585 Y115.018 E62.41143
G1 X78.585 Y114.686 E62.4146
G1 X78.585 Y114.547 E62.42331
G1 X78.585 Y95.643 E63.74368
G1 X78.585 Y95.642 E63.74375
G1 X78.585 Y95.023 E63.78698
G1 X79.16 Y95.252 E63.81231
G1 X79.161 Y95.253 E63.8124
G1 X79.687 Y95.464 E63.85199
G1 X80.857 Y95.602 E63.93428
G1 X82.022 Y95.432 E64.01651
G1 X83.081 Y94.975 E64.09707
G1 X83.98 Y94.287 E64.17614
G1 X84.702 Y93.352 E64.25865
G1 X85.15 Y92.262 E64.34096
G1 X85.305 Y91.095 E64.42319
G1 X85.15 Y89.926 E64.50555
G1 X84.695 Y88.825 E64.58876
G1 X83.943 Y87.869 E64.67372
G1 X82.997 Y87.162 E64.75621
G1 X81.903 Y86.726 E64.83846
G1 X80.733 Y86.588 E64.92075
G1 X79.569 Y86.758 E65.00291
G1 X79.17 Y86.93 E65.03326
G1 X78.585 Y87.181 E65.07772
G1 X78.585 Y86.545 E65.1036
G1 X78.585 Y86.544 E65.10367
G1 X78.585 Y83.735 E65.29987
G1 X131.415 Y83.735 E68.98985
G1 X131.415 Y86.547 E69.18626
G1 X131.415 Y86.548 E69.18633
G1 X131.415 Y87.167 E69.22956
G1 X130.84 Y86.938 E69.25488
G1 X130.839 Y86.937 E69.25498
M204 S4000
M205 X30 Y30
G1 F2400 E65.25498
G0 F6000 X129.421 Y90.249
G0 X128.446 Y91.53
G0 X126.037 Y92.94
M204 S3000
M205 X8 Y8
G1 F2400 E69.25498
G1 F1200 X126.652 Y93.718 E69.32425
G1 X127.417 Y94.289 E69.39093
G1 X128.305 Y94.643 E69.4577
G1 X129.255 Y94.755 E69.52451
G1 X130.201 Y94.617 E69.59128
G1 X131.066 Y94.245 E69.65705
G1 X131.489 Y93.919 E69.69435
G1 X131.792 Y93.687 E69.72101
G1 X132.255 Y93.087 E69.77394
G1 X132.255 Y93.687 E69.78331
G1 X132.255 Y94.069 E69.80464
G1 X132.255 Y115.94 E71.33224
G1 X132.255 Y116.284 E71.35627
G1 X132.255 Y116.911 E71.40006
G1 X131.76 Y116.284 E71.42262
G1 X131.485 Y116.078 E71.44221
G1 X130.994 Y115.711 E71.48502
G1 X130.105 Y115.357 E71.55186
G1 X129.155 Y115.245 E71.61867
G1 X128.209 Y115.383 E71.68545
G1 X127.347 Y115.755 E71.75102
G1 X126.618 Y116.313 E71.81514
G1 X126.032 Y117.072 E71.88212
G1 X125.668 Y117.957 E71.94896
G1 X125.542 Y118.905 E72.01575
G1 X125.668 Y119.855 E72.08269
G1 X126.037 Y120.747 E72.15011
G1 X126.649 Y121.525 E72.21925
G1 X127.417 Y122.099 E72.28622
G1 X128.305 Y122.453 E72.35299
G1 X129.255 Y122.565 E72.4198
G1 X130.201 Y122.427 E72.48658
G1 X131.066 Y122.055 E72.55234
G1 X131.49 Y121.729 E72.5897
G1 X131.795 Y121.494 E72.61659
G1 X132.255 Y120.895 E72.66934
G1 X132.255 Y121.494 E72.67864
G1 X132.255 Y121.879 E72.70008
G1 X132.255 Y127.105 E73.0651
G1 X77.745 Y127.105 E76.87242
G1 X77.745 Y121.836 E77.24044
G1 X77.745 Y121.738 E77.24729
G1 X77.745 Y121.013 E77.29793
G1 X77.745 Y120.911 E77.30505
G1 X77.798 Y121.013
G1 X78.475 Y121.738 E77.34447
G1 X78.558 Y121.789 E77.35088
G1 X79.288 Y122.24 E77.41082
G1 X80.2 Y122.517 E77.47739
G1 X81.154 Y122.548 E77.54406
G1 X82.088 Y122.331 E77.61103
G1 X82.917 Y121.885 E77.67678
G1 X83.597 Y121.265 E77.74106
G1 X84.112 Y120.458 E77.80792
G1 X84.401 Y119.546 E77.87475
G1 X84.444 Y118.593 E77.94138
G1 X84.24 Y117.659 E78.00815
G1 X83.792 Y116.797 E78.076
G1 X83.115 Y116.072 E78.14529
G1 X82.302 Y115.57 E78.21203
G1 X81.39 Y115.293 E78.2786
G1 X80.436 Y115.262 E78.34527
G1 X79.502 Y115.479 E78.41224
G1 X78.673 Y115.925 E78.47799
G1 X78.488 Y116.094 E78.49549
G1 X77.993 Y116.545 E78.54227
G1 X77.745 Y116.934 E78.57449
G1 X77.745 Y116.545 E78.57737
G1 X77.745 Y115.875 E78.60909
G1 X77.745 Y94.06 E80.13279
G1 X77.745 Y93.716 E80.15681
G1 X77.745 Y93.089 E80.20061
G1 X78.24 Y93.716 E80.22316
G1 X78.515 Y93.922 E80.24275
G1 X79.006 Y94.289 E80.28557
G1 X79.895 Y94.643 E80.3524
G1 X80.845 Y94.755 E80.41921
G1 X81.791 Y94.617 E80.48599
G1 X82.653 Y94.245 E80.55156
G1 X83.382 Y93.687 E80.61569
G1 X83.968 Y92.928 E80.68266
G1 X84.332 Y92.043 E80.7495
G1 X84.458 Y91.095 E80.8163
G1 X84.332 Y90.145 E80.88323
G1 X83.963 Y89.253 E80.95065
G1 X83.351 Y88.475 E81.01979
G1 X82.583 Y87.901 E81.08676
G1 X81.695 Y87.547 E81.15353
G1 X80.745 Y87.435 E81.22034
G1 X79.799 Y87.573 E81.28712
G1 X78.934 Y87.945 E81.35289
G1 X78.51 Y88.271 E81.39024
G1 X78.205 Y88.506 E81.41714
G1 X77.745 Y89.103 E81.46978
G1 X77.745 Y88.506 E81.47904
G1 X77.745 Y88.121 E81.50048
G1 X77.745 Y82.895 E81.86549
G1 X132.255 Y82.895 E85.67282
G1 X132.255 Y88.13 E86.03846
G1 X132.255 Y88.475 E86.06256
G1 X132.255 Y89.103 E86.10642
G1 X131.761 Y88.475 E86.12897
G1 X131.485 Y88.269 E86.14859
G1 X130.994 Y87.901 E86.19145
G1 X130.105 Y87.547 E86.25828
G1 X129.155 Y87.435 E86.3251
G1 X128.209 Y87.573 E86.39187
G1 X127.347 Y87.945 E86.45744
G1 X126.618 Y88.503 E86.52157
G1 X126.032 Y89.263 E86.5886
G1 X125.668 Y90.146 E86.65531
G1 X125.542 Y91.095 E86.72217
G1 X125.668 Y92.043 E86.78897
G1 X125.893 Y92.589 E86.83022
G0 F1080 X126.037 Y92.94
M204 S4000
M205 X30 Y30
G0 F6000 X126.769 Y92.511
M204 S3000
M205 X8 Y8
G1 F1200 X127.243 Y93.111 E86.88362
G1 X127.831 Y93.55 E86.93488
G1 X128.513 Y93.822 E86.98616
G1 X129.243 Y93.908 E87.0375
G1 X129.97 Y93.802 E87.08882
G1 X130.637 Y93.515 E87.13953
G1 X131.194 Y93.087 E87.1886
G1 X131.644 Y92.504 E87.24004
G1 X131.924 Y91.824 E87.2914
G1 X132.021 Y91.095 E87.34277
G1 X131.924 Y90.365 E87.3942
G1 X131.641 Y89.681 E87.44591
G1 X131.169 Y89.081 E87.49923
G1 X130.58 Y88.64 E87.55062
G1 X129.897 Y88.368 E87.60197
G1 X129.167 Y88.282 E87.65331
G1 X128.44 Y88.388 E87.70462
G1 X127.775 Y88.675 E87.75521
G1 X127.216 Y89.103 E87.80439
G1 X126.766 Y89.687 E87.85588
G1 X126.486 Y90.365 E87.90712
G1 X126.389 Y91.095 E87.95855
G1 X126.486 Y91.824 E88.00992
G1 X126.625 Y92.16 E88.03532
G0 F1080 X126.769 Y92.511
M204 S4000
M205 X30 Y30
G1 F2400 E84.03532
G1 F600 Z0.275
G0 F6000 X132.022 Y118.914 Z0.275
M204 S3000
M205 X8 Y8
G1 F600 Z0.2
G1 F2400 E88.03532
G1 F1200 X131.924 Y118.176 E88.08732
G1 X131.641 Y117.489 E88.13921
G1 X131.169 Y116.891 E88.19242
G1 X130.58 Y116.45 E88.24382
G1 X129.897 Y116.178 E88.29517
G1 X129.167 Y116.092 E88.34651
G1 X128.44 Y116.198 E88.39782
G1 X127.775 Y116.485 E88.44841
G1 X127.216 Y116.913 E88.49758
G1 X126.766 Y117.496 E88.54902
G1 X126.486 Y118.176 E88.60039
G1 X126.389 Y118.905 E88.65175
G1 X126.486 Y119.635 E88.70319
G1 X126.769 Y120.319 E88.75489
G1 X127.241 Y120.919 E88.80821
G1 X127.831 Y121.36 E88.85966
G1 X128.513 Y121.632 E88.91095
G1 X129.243 Y121.718 E88.96229
G1 X129.97 Y121.612 E89.0136
G1 X130.637 Y121.325 E89.06432
G1 X131.196 Y120.895 E89.11358
G1 X131.644 Y120.312 E89.16493
G1 X131.912 Y119.661 E89.21411
G1 X131.967 Y119.289 E89.24037
G0 F1080 X132.022 Y118.914
M204 S4000
M205 X30 Y30
G1 F2400 E85.24037
G1 F600 Z0.275
G0 F6000 X78.49 Y120.524 Z0.275
M204 S3000
M205 X8 Y8
G1 F600 Z0.2
G1 F2400 E89.24037
G1 F1200 X79.012 Y121.082 E89.29374
G1 X79.637 Y121.468 E89.34505
G1 X80.338 Y121.681 E89.39622
G1 X81.071 Y121.705 E89.44745
G1 X81.789 Y121.538 E89.49893
G1 X82.428 Y121.194 E89.54962
G1 X82.949 Y120.719 E89.59887
G1 X83.345 Y120.099 E89.65025
G1 X83.567 Y119.398 E89.70161
G1 X83.6 Y118.665 E89.75286
G1 X83.443 Y117.947 E89.80419
G1 X83.1 Y117.286 E89.85621
G1 X82.578 Y116.728 E89.90958
G1 X81.953 Y116.342 E89.96088
G1 X81.252 Y116.129 E90.01206
G1 X80.519 Y116.105 E90.06328
G1 X79.801 Y116.272 E90.11477
G1 X79.162 Y116.616 E90.16546
G1 X78.641 Y117.091 E90.2147
G1 X78.245 Y117.711 E90.26609
G1 X78.023 Y118.412 E90.31745
G1 X77.99 Y119.145 E90.36869
G1 X78.147 Y119.863 E90.42003
G1 X78.315 Y120.187 E90.44552
G0 F1080 X78.49 Y120.524
M204 S4000
M205 X30 Y30
G1 F2400 E86.44552
G1 F600 Z0.275
G0 F6000 X76.905 Y127.945 Z0.275
M204 S3000
M205 X8 Y8
G1 F600 Z0.2
