;FLAVOR:Marlin
;TIME:6670
;Filament used: 7.46603m
;Layer height: 0.2
;MINX:88.608
;MINY:11.674
;MINZ:0.3
;MAXX:185.008
;MAXY:123.075
;MAXZ:5.9
;Generated with Cura_SteamEngine 4.8.0
M140 S60
M105
M190 S60
M104 S215
M105
M109 S215
M82 ;absolute extrusion mode
M140 S60
M105
M190 S60
M104 S200
M105
M109 S200
M82 ;absolute extrusion mode
G28
G29
M501
G92 E0 ;zero the extruded length
G1 F200 E3 ;extrude 3mm of feed stock
G92 E0 ;zero the extruded length again
G1 F100
M117 Printing...
G92 E0
G92 E0
;LAYER_COUNT:29
;LAYER:0
M107
G0 F2700 X89.322 Y33.591 Z0.3
;TYPE:SKIRT
G1 F1800 X89.511 Y33.108 E0.02588
G1 X89.661 Y32.78 E0.04387
G1 X89.973 Y32.192 E0.07708
G1 X90.417 Y31.446 E0.12039
G1 X90.786 Y30.941 E0.15159
G1 X91.109 Y30.521 E0.17803
G1 X91.349 Y30.244 E0.19631
G1 X91.798 Y29.783 E0.22842
G1 X92.167 Y29.424 E0.2541
G1 X92.446 Y29.183 E0.2725
G1 X92.961 Y28.787 E0.30491
G1 X93.677 Y28.292 E0.34833
G1 X94.264 Y27.963 E0.38191
G1 X95.017 Y27.588 E0.42387
G1 X95.649 Y27.342 E0.45771
G1 X96.124 Y27.173 E0.48286
G1 X96.852 Y26.969 E0.52058
G1 X98.585 Y26.539 E0.60966
G1 X101.232 Y25.803 E0.74673
G1 X103.823 Y25.001 E0.88205
G1 X106.446 Y24.109 E1.02027
G1 X109.036 Y23.144 E1.15816
G1 X111.514 Y22.141 E1.29153
G1 X114.05 Y21.029 E1.42969
G1 X116.531 Y19.858 E1.56656
G1 X118.963 Y18.623 E1.70264
G1 X121.356 Y17.324 E1.83848
G1 X123.747 Y15.935 E1.97644
G1 X126.057 Y14.506 E2.11195
G1 X127.216 Y13.736 E2.18137
G1 X127.373 Y13.649 E2.19033
G1 X128.415 Y12.964 E2.25254
G1 X128.886 Y12.696 E2.27958
G1 X129.01 Y12.631 E2.28656
G1 X129.557 Y12.364 E2.31693
G1 X130.036 Y12.172 E2.34267
G1 X130.431 Y12.05 E2.3633
G1 X131.037 Y11.885 E2.39463
G1 X131.768 Y11.761 E2.43162
G1 X132.409 Y11.706 E2.46372
G1 X132.603 Y11.697 E2.47341
G1 X133.78 Y11.674 E2.53214
G1 X140.168 Y11.675 E2.85084
G1 X140.742 Y11.683 E2.87948
G1 X140.937 Y11.692 E2.88922
G1 X141.682 Y11.748 E2.92649
G1 X142.532 Y11.873 E2.96936
G1 X142.936 Y11.979 E2.99019
G1 X143.481 Y12.143 E3.01859
G1 X144.025 Y12.349 E3.04761
G1 X144.397 Y12.526 E3.06816
G1 X144.938 Y12.81 E3.09865
G1 X145.21 Y12.97 E3.11439
G1 X147.598 Y14.541 E3.257
G1 X149.981 Y16.013 E3.39674
G1 X152.298 Y17.354 E3.5303
G1 X154.721 Y18.667 E3.66779
G1 X157.171 Y19.906 E3.80476
G1 X159.636 Y21.067 E3.9407
G1 X162.17 Y22.173 E4.07864
G1 X164.733 Y23.209 E4.21656
G1 X167.24 Y24.137 E4.34993
G1 X169.87 Y25.028 E4.48846
G1 X172.461 Y25.826 E4.62372
G1 X175.128 Y26.564 E4.76178
G1 X176.625 Y26.934 E4.83871
G1 X177.21 Y27.087 E4.86888
G1 X177.472 Y27.168 E4.88256
G1 X178.105 Y27.394 E4.91609
G1 X178.581 Y27.58 E4.94159
G1 X178.906 Y27.729 E4.95943
G1 X179.406 Y27.992 E4.98761
G1 X179.921 Y28.281 E5.01707
G1 X180.234 Y28.482 E5.03563
G1 X180.778 Y28.879 E5.06923
G1 X181.43 Y29.408 E5.11112
G1 X181.912 Y29.877 E5.14467
G1 X182.49 Y30.502 E5.18714
G1 X182.846 Y30.963 E5.2162
G1 X183.192 Y31.436 E5.24544
G1 X183.396 Y31.752 E5.26421
G1 X183.71 Y32.312 E5.29624
G1 X183.944 Y32.755 E5.32123
G1 X184.094 Y33.084 E5.33927
G1 X184.305 Y33.623 E5.36815
G1 X184.508 Y34.191 E5.39824
G1 X184.608 Y34.531 E5.41592
G1 X184.752 Y35.149 E5.44758
G1 X184.855 Y35.656 E5.47339
G1 X184.907 Y36.014 E5.49144
G1 X184.958 Y36.596 E5.52059
G1 X184.993 Y37.195 E5.55052
G1 X185.008 Y37.707 E5.57608
G1 X185.008 Y111.676 E9.26641
G1 X184.998 Y112.416 E9.30333
G1 X184.97 Y113.007 E9.33285
G1 X184.911 Y113.699 E9.3675
G1 X184.86 Y114.059 E9.38563
G1 X184.729 Y114.704 E9.41847
G1 X184.61 Y115.215 E9.44465
G1 X184.508 Y115.562 E9.46269
G1 X184.329 Y116.065 E9.48933
G1 X184.105 Y116.641 E9.52016
G1 X183.955 Y116.969 E9.53816
G1 X183.683 Y117.484 E9.56721
G1 X183.4 Y117.988 E9.59605
G1 X183.201 Y118.299 E9.61447
G1 X182.83 Y118.808 E9.64589
G1 X182.507 Y119.228 E9.67233
G1 X182.267 Y119.505 E9.69061
G1 X181.815 Y119.969 E9.72293
G1 X181.447 Y120.326 E9.74851
G1 X181.178 Y120.559 E9.76626
G1 X180.655 Y120.962 E9.7992
G1 X179.939 Y121.457 E9.84263
G1 X179.352 Y121.786 E9.8762
G1 X178.599 Y122.161 E9.91817
G1 X178.06 Y122.372 E9.94705
G1 X177.503 Y122.571 E9.97656
G1 X177.166 Y122.67 E9.99408
G1 X176.487 Y122.828 E10.02886
G1 X175.996 Y122.927 E10.05385
G1 X175.638 Y122.978 E10.07189
G1 X175.05 Y123.028 E10.10133
G1 X174.408 Y123.064 E10.13341
G1 X173.977 Y123.075 E10.15492
G1 X99.97 Y123.075 E13.84715
G1 X99.265 Y123.065 E13.88232
G1 X98.69 Y123.038 E13.91104
G1 X97.979 Y122.977 E13.94664
G1 X97.624 Y122.927 E13.96453
G1 X97.075 Y122.817 E13.99246
G1 X96.479 Y122.679 E14.02298
G1 X96.137 Y122.578 E14.04078
G1 X95.511 Y122.355 E14.07393
G1 X95.035 Y122.169 E14.09943
G1 X94.709 Y122.019 E14.11733
G1 X94.121 Y121.708 E14.15052
G1 X93.382 Y121.267 E14.19345
G1 X92.838 Y120.87 E14.22705
G1 X92.186 Y120.341 E14.26894
G1 X91.704 Y119.872 E14.30249
G1 X91.355 Y119.512 E14.3275
G1 X91.117 Y119.236 E14.34569
G1 X90.716 Y118.714 E14.37853
G1 X90.421 Y118.309 E14.40352
G1 X90.22 Y117.995 E14.42212
G1 X89.906 Y117.437 E14.45407
G1 X89.672 Y116.994 E14.47906
G1 X89.522 Y116.665 E14.4971
G1 X89.311 Y116.126 E14.52598
G1 X89.106 Y115.554 E14.55629
G1 X89.003 Y115.204 E14.5745
G1 X88.864 Y114.598 E14.60552
G1 X88.761 Y114.089 E14.63142
G1 X88.709 Y113.734 E14.64932
G1 X88.651 Y113.056 E14.68327
G1 X88.618 Y112.448 E14.71365
G1 X88.609 Y112.06 E14.73301
G1 X88.608 Y38.02 E18.42688
G1 X88.621 Y37.233 E18.46615
G1 X88.646 Y36.742 E18.49068
G1 X88.705 Y36.05 E18.52533
G1 X88.756 Y35.69 E18.54347
G1 X88.888 Y35.041 E18.57651
G1 X89.008 Y34.529 E18.60275
G1 X89.108 Y34.19 E18.62038
G1 X89.322 Y33.591 E18.65212
;MESH:Vesa.stl
G0 F2700 X100.362 Y33.823
;TYPE:WALL-INNER
G1 F1800 X99.65 Y33.698 E18.68818
G1 X99.492 Y33.676 E18.69614
G1 X98.774 Y33.72 E18.73203
G1 X98.618 Y33.739 E18.73987
G1 X97.929 Y33.945 E18.77575
G1 X97.781 Y34.005 E18.78371
G1 X97.159 Y34.366 E18.81959
G1 X97.032 Y34.46 E18.82748
G1 X96.51 Y34.954 E18.86333
G1 X96.412 Y35.079 E18.87126
G1 X96.018 Y35.681 E18.90715
G1 X95.955 Y35.825 E18.91499
G1 X95.709 Y36.507 E18.95116
G1 X95.688 Y36.662 E18.95897
G1 X95.605 Y37.374 E18.99473
G1 X95.706 Y38.239 E19.03818
G1 X95.954 Y38.917 E19.07419
G1 X96.013 Y39.063 E19.08205
G1 X96.41 Y39.665 E19.11803
G1 X96.505 Y39.791 E19.1259
G1 X97.026 Y40.281 E19.16158
G1 X97.15 Y40.38 E19.1695
G1 X97.777 Y40.741 E19.20559
G1 X97.923 Y40.803 E19.21351
G1 X98.612 Y41.008 E19.24937
G1 X98.768 Y41.03 E19.25723
G1 X99.486 Y41.071 E19.29311
G1 X99.644 Y41.053 E19.30104
G1 X100.353 Y40.926 E19.33698
G1 X100.5 Y40.867 E19.34488
G1 X101.16 Y40.58 E19.38079
G1 X101.857 Y40.061 E19.42414
G1 X102.319 Y39.509 E19.46006
G1 X102.417 Y39.385 E19.46794
G1 X102.742 Y38.739 E19.50402
G1 X102.803 Y38.593 E19.51191
G1 X102.967 Y37.896 E19.54764
G1 X102.99 Y37.74 E19.5555
G1 X102.989 Y37.016 E19.59162
G1 X102.969 Y36.858 E19.59957
G1 X102.802 Y36.16 E19.63537
G1 X102.743 Y36.013 E19.64328
G1 X102.42 Y35.374 E19.679
G1 X102.326 Y35.246 E19.68692
G1 X101.862 Y34.696 E19.72282
G1 X101.739 Y34.597 E19.7307
G1 X101.159 Y34.168 E19.76669
G1 X100.362 Y33.823 E19.81002
G0 F2700 X106.208 Y44.274
G1 F1800 X106.208 Y94.67 E22.32429
G1 X106.949 Y94.976 E22.36428
G1 X129.908 Y72.017 E23.98416
G1 X129.908 Y44.274 E25.36827
G1 X106.208 Y44.274 E26.55067
G0 F2700 X135.215 Y64.378
G1 F1800 X136.034 Y64.663 E26.59393
G1 X136.893 Y64.747 E26.63699
G1 X137.696 Y64.633 E26.67745
G1 X137.784 Y64.609 E26.682
G1 X138.506 Y64.319 E26.72082
G1 X138.585 Y64.274 E26.72536
G1 X139.201 Y63.831 E26.76321
G1 X139.27 Y63.772 E26.76774
G1 X139.814 Y63.133 E26.80961
G1 X140.152 Y62.476 E26.84647
G1 X140.183 Y62.398 E26.85066
G1 X140.361 Y61.716 E26.88582
G1 X140.374 Y61.633 E26.89001
G1 X140.403 Y60.895 E26.92686
G1 X140.264 Y60.119 E26.96619
G1 X139.958 Y59.39 E27.00564
G1 X139.499 Y58.747 E27.04505
G1 X138.912 Y58.218 E27.08447
G1 X138.225 Y57.831 E27.12381
G1 X137.469 Y57.603 E27.16321
G1 X136.681 Y57.542 E27.20264
G1 X135.881 Y57.665 E27.24302
G1 X135.794 Y57.69 E27.24753
G1 X135.079 Y57.986 E27.28614
G1 X135 Y58.031 E27.29068
G1 X134.369 Y58.495 E27.32975
G1 X134.305 Y58.559 E27.33427
G1 X133.81 Y59.15 E27.37273
G1 X133.761 Y59.228 E27.37733
G1 X133.401 Y59.968 E27.41838
G1 X133.219 Y60.814 E27.46155
G1 X133.24 Y61.628 E27.50218
G1 X133.255 Y61.719 E27.50678
G1 X133.459 Y62.467 E27.54546
G1 X133.495 Y62.551 E27.55002
G1 X133.898 Y63.271 E27.59118
G1 X134.489 Y63.903 E27.63435
G1 X135.215 Y64.378 E27.67764
G0 F2700 X134.109 Y73.753
G1 F1800 X133.617 Y74.469 E27.72098
G1 X133.308 Y75.282 E27.76437
G1 X133.204 Y76.144 E27.80769
G1 X133.308 Y77.006 E27.85101
G1 X133.617 Y77.819 E27.8944
G1 X134.109 Y78.534 E27.9377
G1 X134.761 Y79.111 E27.98113
G1 X135.53 Y79.514 E28.02445
G1 X136.373 Y79.722 E28.06777
G1 X137.243 Y79.722 E28.11117
G1 X138.086 Y79.514 E28.15449
G1 X138.856 Y79.111 E28.19785
G1 X139.506 Y78.534 E28.24121
G1 X139.999 Y77.819 E28.28454
G1 X140.308 Y77.006 E28.32793
G1 X140.412 Y76.144 E28.37125
G1 X140.308 Y75.282 E28.41457
G1 X139.999 Y74.469 E28.45796
G1 X139.506 Y73.753 E28.50133
G1 X138.855 Y73.177 E28.5447
G1 X138.086 Y72.774 E28.58801
G1 X137.243 Y72.566 E28.63133
G1 X136.373 Y72.566 E28.67473
G1 X135.53 Y72.774 E28.71805
G1 X134.762 Y73.177 E28.76132
G1 X134.109 Y73.753 E28.80476
G0 F2700 X136.808 Y84.632
G1 F1800 X136.667 Y84.773 E28.81471
G1 X116.707 Y104.734 E30.22303
G1 X117.013 Y105.475 E30.26303
G1 X156.603 Y105.475 E32.23818
G1 X156.909 Y104.734 E32.27818
G1 X136.949 Y84.773 E33.6865
G1 X136.808 Y84.632 E33.69293
G0 F2700 X153.238 Y94.453
G1 F1800 X153.961 Y94.034 E33.73462
G1 X154.568 Y93.46 E33.77629
G1 X155.028 Y92.763 E33.81796
G1 X155.314 Y91.978 E33.85964
G1 X155.412 Y91.15 E33.90124
G1 X155.317 Y90.319 E33.94297
G1 X155.053 Y89.585 E33.98188
G1 X155.015 Y89.506 E33.98626
G1 X154.576 Y88.835 E34.02626
G1 X153.971 Y88.261 E34.06787
G1 X153.304 Y87.872 E34.10639
G1 X153.224 Y87.834 E34.11081
G1 X152.513 Y87.615 E34.14793
G1 X152.425 Y87.596 E34.15242
G1 X151.617 Y87.546 E34.19281
G1 X150.849 Y87.674 E34.23165
G1 X150.765 Y87.698 E34.23601
G1 X150.068 Y87.991 E34.27373
G1 X149.993 Y88.036 E34.27809
G1 X149.395 Y88.472 E34.31501
G1 X149.329 Y88.532 E34.31946
G1 X148.806 Y89.149 E34.35982
G1 X148.427 Y89.896 E34.40161
G1 X148.23 Y90.711 E34.44344
G1 X148.226 Y91.501 E34.48285
G1 X148.237 Y91.587 E34.48718
G1 X148.405 Y92.319 E34.52465
G1 X148.435 Y92.402 E34.52905
G1 X148.793 Y93.118 E34.56899
G1 X149.298 Y93.724 E34.60834
G1 X149.362 Y93.784 E34.61272
G1 X150.004 Y94.264 E34.65271
G1 X150.774 Y94.597 E34.69457
G1 X151.601 Y94.742 E34.73646
G1 X152.383 Y94.697 E34.77553
G1 X152.47 Y94.682 E34.77994
G1 X153.238 Y94.453 E34.81992
G0 F2700 X175.362 Y108.823
G1 F1800 X174.65 Y108.698 E34.85599
G1 X174.492 Y108.676 E34.86394
G1 X173.774 Y108.72 E34.89983
G1 X173.618 Y108.739 E34.90767
G1 X172.929 Y108.945 E34.94355
G1 X172.781 Y109.005 E34.95152
G1 X172.159 Y109.366 E34.9874
G1 X172.032 Y109.46 E34.99528
G1 X171.51 Y109.955 E35.03117
G1 X171.412 Y110.08 E35.0391
G1 X171.018 Y110.681 E35.07495
G1 X170.955 Y110.825 E35.08279
G1 X170.709 Y111.507 E35.11896
G1 X170.688 Y111.662 E35.12676
G1 X170.605 Y112.375 E35.16258
G1 X170.706 Y113.239 E35.20598
G1 X170.954 Y113.917 E35.24199
G1 X171.013 Y114.063 E35.24985
G1 X171.408 Y114.664 E35.28573
G1 X171.504 Y114.792 E35.29371
G1 X172.027 Y115.281 E35.32943
G1 X172.15 Y115.38 E35.33731
G1 X172.777 Y115.741 E35.37341
G1 X172.923 Y115.803 E35.38132
G1 X173.612 Y116.008 E35.41718
G1 X173.768 Y116.03 E35.42504
G1 X174.486 Y116.071 E35.46092
G1 X174.644 Y116.053 E35.46886
G1 X175.353 Y115.926 E35.50479
G1 X175.5 Y115.867 E35.51269
G1 X176.16 Y115.58 E35.5486
G1 X176.857 Y115.061 E35.59195
G1 X177.319 Y114.509 E35.62787
G1 X177.417 Y114.385 E35.63575
G1 X177.742 Y113.739 E35.67183
G1 X177.803 Y113.593 E35.67972
G1 X177.967 Y112.896 E35.71545
G1 X177.99 Y112.74 E35.72331
G1 X177.989 Y112.016 E35.75943
G1 X177.969 Y111.858 E35.76738
G1 X177.802 Y111.16 E35.80319
G1 X177.743 Y111.013 E35.81109
G1 X177.42 Y110.374 E35.84681
G1 X177.326 Y110.246 E35.85473
G1 X176.862 Y109.696 E35.89063
G1 X176.739 Y109.597 E35.89851
G1 X176.159 Y109.168 E35.9345
G1 X175.362 Y108.823 E35.97783
G0 F2700 X120.376 Y94.452
G1 F1800 X121.144 Y94.681 E36.01781
G1 X121.229 Y94.696 E36.02212
G1 X122.013 Y94.743 E36.0613
G1 X122.841 Y94.598 E36.10324
G1 X123.611 Y94.265 E36.14509
G1 X124.253 Y93.785 E36.18509
G1 X124.317 Y93.725 E36.18946
G1 X124.822 Y93.119 E36.22882
G1 X125.18 Y92.403 E36.26876
G1 X125.21 Y92.32 E36.27316
G1 X125.379 Y91.587 E36.31069
G1 X125.389 Y91.501 E36.31501
G1 X125.387 Y90.713 E36.35432
G1 X125.19 Y89.897 E36.3962
G1 X124.81 Y89.15 E36.43801
G1 X124.288 Y88.533 E36.47833
G1 X124.222 Y88.473 E36.48278
G1 X123.624 Y88.037 E36.51971
G1 X123.549 Y87.992 E36.52407
G1 X122.852 Y87.699 E36.56179
G1 X122.768 Y87.675 E36.56615
G1 X121.98 Y87.545 E36.60599
G1 X121.191 Y87.595 E36.64544
G1 X121.104 Y87.614 E36.64988
G1 X120.366 Y87.841 E36.6884
G1 X119.647 Y88.26 E36.72992
G1 X119.041 Y88.834 E36.77156
G1 X118.602 Y89.505 E36.81157
G1 X118.564 Y89.584 E36.81594
G1 X118.311 Y90.288 E36.85326
G1 X118.292 Y90.374 E36.85766
G1 X118.209 Y91.115 E36.89486
G1 X118.209 Y91.202 E36.8992
G1 X118.301 Y91.977 E36.93813
G1 X118.587 Y92.762 E36.97981
G1 X119.047 Y93.459 E37.02148
G1 X119.654 Y94.033 E37.06316
G1 X120.376 Y94.452 E37.1048
G0 F2700 X100.362 Y108.823
G1 F1800 X99.65 Y108.698 E37.14087
G1 X99.492 Y108.676 E37.14883
G1 X98.774 Y108.72 E37.18472
G1 X98.618 Y108.739 E37.19256
G1 X97.929 Y108.945 E37.22844
G1 X97.781 Y109.005 E37.2364
G1 X97.159 Y109.366 E37.27228
G1 X97.032 Y109.46 E37.28016
G1 X96.51 Y109.954 E37.31602
G1 X96.412 Y110.079 E37.32394
G1 X96.018 Y110.681 E37.35984
G1 X95.955 Y110.825 E37.36768
G1 X95.709 Y111.507 E37.40385
G1 X95.688 Y111.662 E37.41166
G1 X95.605 Y112.374 E37.44742
G1 X95.706 Y113.239 E37.49087
G1 X95.954 Y113.917 E37.52688
G1 X96.013 Y114.063 E37.53474
G1 X96.41 Y114.665 E37.57072
G1 X96.505 Y114.791 E37.57859
G1 X97.026 Y115.281 E37.61427
G1 X97.15 Y115.38 E37.62219
G1 X97.777 Y115.741 E37.65828
G1 X97.923 Y115.803 E37.6662
G1 X98.612 Y116.008 E37.70206
G1 X98.768 Y116.03 E37.70992
G1 X99.486 Y116.071 E37.7458
G1 X99.644 Y116.053 E37.75373
G1 X100.353 Y115.926 E37.78967
G1 X100.5 Y115.867 E37.79757
G1 X101.16 Y115.58 E37.83348
G1 X101.857 Y115.061 E37.87683
G1 X102.319 Y114.509 E37.91274
G1 X102.417 Y114.385 E37.92063
G1 X102.742 Y113.739 E37.95671
G1 X102.803 Y113.593 E37.9646
G1 X102.967 Y112.896 E38.00032
G1 X102.99 Y112.74 E38.00819
G1 X102.989 Y112.016 E38.04431
G1 X102.969 Y111.858 E38.05226
G1 X102.802 Y111.16 E38.08806
G1 X102.743 Y111.013 E38.09597
G1 X102.42 Y110.374 E38.13169
G1 X102.326 Y110.246 E38.13961
G1 X101.862 Y109.696 E38.17551
G1 X101.739 Y109.597 E38.18339
G1 X101.159 Y109.168 E38.21938
G1 X100.362 Y108.823 E38.26271
G0 F2700 X143.708 Y44.274
G1 F1800 X143.708 Y72.017 E39.64681
G1 X166.667 Y94.976 E41.26669
G1 X167.408 Y94.67 E41.30669
G1 X167.408 Y44.274 E43.82096
G1 X143.708 Y44.274 E45.00335
G0 F2700 X147.992 Y28.202
G1 F1800 X148.69 Y28.982 E45.05557
G1 X149.519 Y29.618 E45.1077
G1 X150.454 Y30.09 E45.15996
G1 X151.459 Y30.379 E45.21213
G1 X152.472 Y30.474 E45.26289
G1 X174.293 Y30.474 E46.35154
G1 X175.289 Y30.546 E46.40136
G1 X176.252 Y30.755 E46.45053
G1 X177.168 Y31.096 E46.49929
G1 X178.041 Y31.574 E46.54895
G1 X178.827 Y32.162 E46.59792
G1 X179.523 Y32.858 E46.64702
G1 X180.106 Y33.639 E46.69565
G1 X180.585 Y34.513 E46.74537
G1 X180.927 Y35.432 E46.79429
G1 X181.137 Y36.395 E46.84347
G1 X181.208 Y37.389 E46.89318
G1 X181.208 Y112.361 E50.63355
G1 X181.137 Y113.354 E50.68322
G1 X180.927 Y114.318 E50.73244
G1 X180.585 Y115.235 E50.78127
G1 X180.106 Y116.11 E50.83103
G1 X179.523 Y116.891 E50.87966
G1 X178.827 Y117.587 E50.92876
G1 X178.041 Y118.175 E50.97774
G1 X177.168 Y118.653 E51.02739
G1 X176.252 Y118.994 E51.07616
G1 X175.289 Y119.203 E51.12532
G1 X174.293 Y119.275 E51.17514
G1 X99.323 Y119.275 E54.91541
G1 X98.327 Y119.203 E54.96523
G1 X97.364 Y118.994 E55.01439
G1 X96.448 Y118.653 E55.06315
G1 X95.575 Y118.175 E55.11281
G1 X94.789 Y117.587 E55.16178
G1 X94.093 Y116.891 E55.21089
G1 X93.51 Y116.11 E55.25951
G1 X93.031 Y115.236 E55.30923
G1 X92.689 Y114.317 E55.35815
G1 X92.479 Y113.354 E55.40733
