;FLAVOR:Marlin
;TIME:3836
;Filament used: 3.60156m, 0m, 0m, 0m
;Layer height: 0.25
;MINX:55.759
;MINY:86.9
;MINZ:0.2
;MAXX:153.353
;MAXY:123.1
;MAXZ:14.45
;Generated with Cura_SteamEngine 4.3.0
T0
M140 S60
M105
M190 S60
M104 S215
M105
M109 S215
M82 ;absolute extrusion mode
G21 ;metric values
G90 ;absolute positioning
M82 ;set extruder to absolute mode
M107 ;start with the fan off
G28 X0 Y0 ;move X/Y to min endstops
G28 Z0 ;move Z to min endstops
G1 Z15.0 F100 ;move the platform down 15mm
G92 E0 ;zero the extruded length
G1 F200 E3 ;extrude 3mm of feed stock
G92 E0 ;zero the extruded length again
G1 F100
M117 Printing...
G5
G92 E0
G92 E0
G1 F2400 E-4
;LAYER_COUNT:58
;LAYER:0
M106 S255
M204 S3000
M205 X10 Y10
G1 F600 Z0.275
G0 F2666.7 X60.992 Y89.035 Z0.275
M204 S1800
M205 X8 Y8
;TYPE:SKIRT
G1 F600 Z0.2
G1 F2400 E0
G1 F1800 X61.522 Y88.691 E0.02942
G1 X62.019 Y88.402 E0.05619
G1 X62.637 Y88.087 E0.08849
G1 X63.195 Y87.839 E0.11692
G1 X63.799 Y87.606 E0.14707
G1 X64.36 Y87.422 E0.17456
G1 X65.024 Y87.243 E0.20658
G1 X65.607 Y87.119 E0.23434
G1 X66.291 Y87.012 E0.26658
G1 X66.891 Y86.951 E0.29466
G1 X67.423 Y86.919 E0.31947
G1 X67.922 Y86.91 E0.34271
G1 X68.036 Y86.909 E0.34802
G1 X146.147 Y86.9 E3.9852
G1 X146.24 Y86.901 E3.98953
G1 X146.936 Y86.911 E4.02194
G1 X147.649 Y86.961 E4.05522
G1 X148.353 Y87.09 E4.08855
G1 X149.037 Y87.298 E4.12184
G1 X149.695 Y87.58 E4.15517
G1 X150.316 Y87.934 E4.18846
G1 X150.894 Y88.355 E4.22176
G1 X151.275 Y88.692 E4.24544
G1 X151.374 Y88.787 E4.25183
G1 X151.862 Y89.31 E4.28514
G1 X152.288 Y89.885 E4.31846
G1 X152.647 Y90.503 E4.35174
G1 X152.936 Y91.158 E4.38508
G1 X153.149 Y91.841 E4.41839
G1 X153.285 Y92.543 E4.45169
G1 X153.342 Y93.281 E4.48615
G1 X153.352 Y93.796 E4.51014
G1 X153.353 Y93.92 E4.51591
G1 X153.353 Y115.863 E5.53767
G1 X153.352 Y115.951 E5.54177
G1 X153.342 Y116.679 E5.57567
G1 X153.293 Y117.392 E5.60895
G1 X153.164 Y118.096 E5.64227
G1 X152.957 Y118.781 E5.6756
G1 X152.675 Y119.438 E5.70889
G1 X152.321 Y120.06 E5.74221
G1 X151.901 Y120.638 E5.77548
G1 X151.561 Y121.022 E5.79936
G1 X151.466 Y121.121 E5.80575
G1 X150.943 Y121.609 E5.83906
G1 X150.368 Y122.035 E5.87238
G1 X149.75 Y122.394 E5.90566
G1 X149.095 Y122.683 E5.939
G1 X148.412 Y122.896 E5.97231
G1 X147.71 Y123.032 E6.00561
G1 X146.963 Y123.089 E6.04049
G1 X146.406 Y123.099 E6.06643
G1 X146.291 Y123.1 E6.07179
G1 X68.841 Y123.1 E9.67819
G1 X68.716 Y123.099 E9.68401
G1 X67.235 Y123.07 E9.75298
G1 X66.72 Y123.039 E9.777
G1 X66.511 Y123.018 E9.78679
G1 X66.166 Y122.974 E9.80298
G1 X65.755 Y122.91 E9.82235
G1 X65.188 Y122.795 E9.84929
G1 X64.604 Y122.649 E9.87732
G1 X63.961 Y122.452 E9.90863
G1 X63.416 Y122.253 E9.93565
G1 X62.801 Y121.991 E9.96678
G1 X62.273 Y121.733 E9.99414
G1 X61.698 Y121.414 E10.02476
G1 X61.183 Y121.093 E10.05302
G1 X60.615 Y120.695 E10.08531
G1 X60.135 Y120.318 E10.11373
G1 X59.636 Y119.883 E10.14456
G1 X59.227 Y119.487 E10.17107
G1 X58.771 Y118.997 E10.20223
G1 X58.381 Y118.531 E10.23053
G1 X57.979 Y117.996 E10.26169
G1 X57.656 Y117.516 E10.28863
G1 X57.315 Y116.947 E10.31952
G1 X57.046 Y116.441 E10.3462
G1 X56.77 Y115.852 E10.37649
G1 X56.541 Y115.29 E10.40475
G1 X56.314 Y114.632 E10.43716
G1 X56.151 Y114.061 E10.46481
G1 X56.004 Y113.426 E10.49516
G1 X55.902 Y112.853 E10.52226
G1 X55.837 Y112.385 E10.54426
G1 X55.815 Y112.171 E10.55428
G1 X55.791 Y111.874 E10.56816
G1 X55.769 Y111.48 E10.58653
G1 X55.764 Y110.863 E10.61526
G1 X55.825 Y109.363 E10.68517
G1 X55.912 Y106.668 E10.81072
G1 X55.923 Y104.028 E10.93365
G1 X55.858 Y101.388 E11.05662
G1 X55.784 Y99.92 E11.12506
G1 X55.78 Y99.814 E11.13
G1 X55.763 Y99.313 E11.15334
G1 X55.759 Y99.019 E11.16703
G1 X55.764 Y98.603 E11.18641
G1 X55.799 Y98.011 E11.21402
G1 X55.861 Y97.421 E11.24164
G1 X55.969 Y96.745 E11.27352
G1 X56.095 Y96.159 E11.30143
G1 X56.262 Y95.538 E11.33137
G1 X56.437 Y94.996 E11.3579
G1 X56.677 Y94.366 E11.38929
G1 X56.926 Y93.805 E11.41787
G1 X57.239 Y93.191 E11.44996
G1 X57.537 Y92.677 E11.47762
G1 X57.903 Y92.116 E11.50881
G1 X58.256 Y91.632 E11.53671
G1 X58.66 Y91.133 E11.5666
G1 X59.047 Y90.701 E11.59361
G1 X59.538 Y90.209 E11.62598
G1 X59.988 Y89.805 E11.65414
G1 X60.517 Y89.378 E11.68579
G1 X60.529 Y89.369 E11.68649
G0 F1620 X60.992 Y89.035
M204 S3000
M205 X10 Y10
G0 F2666.7 X61.32 Y89.489
M204 S1800
M205 X8 Y8
G1 F1800 X61.803 Y89.175 E11.71332
G1 X62.3 Y88.886 E11.74009
G1 X62.864 Y88.598 E11.76958
G1 X63.422 Y88.35 E11.79801
G1 X63.974 Y88.138 E11.82554
G1 X64.535 Y87.954 E11.85303
G1 X65.14 Y87.791 E11.88221
G1 X65.723 Y87.667 E11.90996
G1 X66.347 Y87.569 E11.93938
G1 X66.947 Y87.508 E11.96746
G1 X67.433 Y87.479 E11.99013
G1 X67.932 Y87.47 E12.01337
G1 X68.036 Y87.469 E12.01821
G1 X146.147 Y87.46 E15.65539
G1 X146.232 Y87.461 E15.65935
G1 X146.928 Y87.471 E15.69176
G1 X147.609 Y87.52 E15.72355
G1 X148.28 Y87.649 E15.75537
G1 X148.932 Y87.856 E15.78722
G1 X149.554 Y88.137 E15.819
G1 X150.14 Y88.489 E15.85083
G1 X150.887 Y89.096 E15.89565
G1 X150.986 Y89.191 E15.90204
G1 X151.451 Y89.692 E15.93387
G1 X151.854 Y90.244 E15.96569
G1 X152.189 Y90.839 E15.99749
G1 X152.453 Y91.47 E16.02934
G1 X152.641 Y92.126 E16.06111
G1 X152.752 Y92.801 E16.09297
G1 X152.782 Y93.292 E16.11587
G1 X152.792 Y93.807 E16.13986
G1 X152.793 Y93.92 E16.14512
G1 X152.793 Y115.863 E17.16688
G1 X152.792 Y115.943 E17.1706
G1 X152.782 Y116.671 E17.20451
G1 X152.733 Y117.353 E17.23634
G1 X152.605 Y118.024 E17.26815
G1 X152.398 Y118.675 E17.29996
G1 X152.118 Y119.298 E17.33177
G1 X151.766 Y119.884 E17.3636
G1 X151.157 Y120.634 E17.40858
G1 X151.062 Y120.733 E17.41497
G1 X150.561 Y121.198 E17.4468
G1 X150.009 Y121.601 E17.47862
G1 X149.414 Y121.936 E17.51042
G1 X148.783 Y122.2 E17.54227
G1 X148.127 Y122.388 E17.57405
G1 X147.452 Y122.499 E17.6059
G1 X146.953 Y122.529 E17.62918
G1 X146.396 Y122.539 E17.65512
G1 X146.291 Y122.54 E17.66001
G1 X68.841 Y122.54 E21.2664
G1 X68.727 Y122.539 E21.27171
G1 X67.246 Y122.51 E21.34069
G1 X66.776 Y122.482 E21.36261
G1 X66.567 Y122.461 E21.37239
G1 X66.252 Y122.42 E21.38718
G1 X65.841 Y122.356 E21.40655
G1 X65.324 Y122.252 E21.43111
G1 X64.74 Y122.106 E21.45914
G1 X64.153 Y121.926 E21.48773
G1 X63.608 Y121.727 E21.51474
G1 X63.047 Y121.488 E21.54314
G1 X62.519 Y121.23 E21.5705
G1 X61.994 Y120.939 E21.59845
G1 X61.479 Y120.618 E21.62671
G1 X60.961 Y120.255 E21.65616
G1 X60.481 Y119.878 E21.68458
G1 X60.026 Y119.481 E21.7127
G1 X59.617 Y119.085 E21.73921
G1 X59.2 Y118.637 E21.76771
G1 X58.81 Y118.171 E21.796
G1 X58.444 Y117.683 E21.82441
G1 X58.121 Y117.203 E21.85135
G1 X57.809 Y116.684 E21.87955
G1 X57.54 Y116.178 E21.90623
G1 X57.289 Y115.641 E21.93383
G1 X57.06 Y115.079 E21.96209
G1 X56.852 Y114.478 E21.9917
G1 X56.689 Y113.907 E22.01935
G1 X56.555 Y113.327 E22.04707
G1 X56.453 Y112.754 E22.07417
G1 X56.394 Y112.328 E22.0942
G1 X56.372 Y112.114 E22.10422
G1 X56.35 Y111.843 E22.11688
G1 X56.328 Y111.449 E22.13525
G1 X56.324 Y110.886 E22.16147
G1 X56.385 Y109.386 E22.23137
G1 X56.472 Y106.688 E22.35707
G1 X56.483 Y104.017 E22.48144
G1 X56.419 Y101.386 E22.60399
G1 X56.343 Y99.892 E22.67364
G1 X56.339 Y99.795 E22.67816
G1 X56.322 Y99.294 E22.70151
G1 X56.319 Y99.026 E22.71399
G1 X56.324 Y98.61 E22.73336
G1 X56.356 Y98.07 E22.75855
G1 X56.418 Y97.48 E22.78617
G1 X56.516 Y96.862 E22.81531
G1 X56.642 Y96.276 E22.84322
G1 X56.795 Y95.71 E22.87052
G1 X56.97 Y95.168 E22.89704
G1 X57.189 Y94.593 E22.92569
G1 X57.438 Y94.032 E22.95427
G1 X57.724 Y93.472 E22.98355
G1 X58.022 Y92.958 E23.01122
G1 X58.356 Y92.446 E23.03968
G1 X58.709 Y91.962 E23.06758
G1 X59.077 Y91.506 E23.09486
G1 X59.464 Y91.074 E23.12187
G1 X59.913 Y90.625 E23.15144
G1 X60.363 Y90.221 E23.17959
G1 X60.845 Y89.832 E23.20844
G1 X60.857 Y89.823 E23.20913
G0 F1620 X61.32 Y89.489
M204 S3000
M205 X10 Y10
G0 F2666.7 X61.648 Y89.943
M204 S1800
M205 X8 Y8
G1 F1800 X62.085 Y89.66 E23.23338
G1 X62.582 Y89.371 E23.26015
G1 X63.092 Y89.11 E23.28683
G1 X63.65 Y88.862 E23.31526
G1 X64.148 Y88.67 E23.34011
G1 X64.709 Y88.486 E23.3676
G1 X65.257 Y88.339 E23.39402
G1 X65.84 Y88.215 E23.42178
G1 X66.404 Y88.126 E23.44836
G1 X67.004 Y88.065 E23.47645
G1 X67.443 Y88.039 E23.49692
G1 X67.942 Y88.03 E23.52016
G1 X68.036 Y88.029 E23.52454
G1 X146.147 Y88.02 E27.16172
G1 X146.224 Y88.021 E27.1653
G1 X146.92 Y88.031 E27.19771
G1 X147.568 Y88.08 E27.22797
G1 X148.204 Y88.208 E27.25818
G1 X148.821 Y88.414 E27.28847
G1 X149.407 Y88.694 E27.31871
G1 X149.954 Y89.043 E27.34893
G1 X150.5 Y89.5 E27.38208
G1 X150.599 Y89.595 E27.38847
G1 X151.039 Y90.073 E27.41872
G1 X151.417 Y90.601 E27.44896
G1 X151.728 Y91.172 E27.47923
G1 X151.966 Y91.776 E27.50946
G1 X152.128 Y92.405 E27.53971
G1 X152.222 Y93.302 E27.5817
G1 X152.232 Y93.817 E27.60569
G1 X152.233 Y93.92 E27.61049
G1 X152.233 Y115.936 E28.63564
G1 X152.223 Y116.664 E28.66955
G1 X152.174 Y117.311 E28.69976
G1 X152.046 Y117.948 E28.73001
G1 X151.84 Y118.564 E28.76026
G1 X151.561 Y119.151 E28.79052
G1 X151.212 Y119.699 E28.82077
G1 X150.753 Y120.247 E28.85406
G1 X150.658 Y120.346 E28.86045
G1 X150.18 Y120.786 E28.8907
G1 X149.652 Y121.164 E28.92094
G1 X149.081 Y121.475 E28.95121
G1 X148.477 Y121.713 E28.98144
G1 X147.848 Y121.875 E29.01169
G1 X146.943 Y121.969 E29.05405
G1 X146.386 Y121.979 E29.08
G1 X146.291 Y121.98 E29.08442
G1 X68.841 Y121.98 E32.69082
G1 X68.738 Y121.979 E32.69561
G1 X67.257 Y121.95 E32.76459
G1 X66.832 Y121.925 E32.78441
G1 X66.623 Y121.904 E32.79419
G1 X66.339 Y121.867 E32.80753
G1 X65.928 Y121.803 E32.8269
G1 X65.459 Y121.708 E32.84918
G1 X64.875 Y121.562 E32.87721
G1 X64.345 Y121.4 E32.90301
G1 X63.8 Y121.201 E32.93003
G1 X63.293 Y120.985 E32.95569
G1 X62.765 Y120.727 E32.98306
G1 X62.29 Y120.464 E33.00834
G1 X61.775 Y120.143 E33.0366
G1 X61.307 Y119.814 E33.06323
G1 X60.827 Y119.437 E33.09165
G1 X60.415 Y119.078 E33.1171
G1 X60.006 Y118.682 E33.14361
G1 X59.63 Y118.278 E33.16931
G1 X59.24 Y117.812 E33.1976
G1 X58.908 Y117.371 E33.22331
G1 X58.585 Y116.891 E33.25025
G1 X58.304 Y116.421 E33.27574
G1 X58.035 Y115.915 E33.30243
G1 X57.807 Y115.429 E33.32743
G1 X57.578 Y114.867 E33.35568
G1 X57.391 Y114.324 E33.38243
G1 X57.228 Y113.753 E33.41008
G1 X57.107 Y113.229 E33.43512
G1 X57.005 Y112.656 E33.46222
G1 X56.951 Y112.271 E33.48032
G1 X56.929 Y112.057 E33.49034
G1 X56.909 Y111.811 E33.50183
G1 X56.887 Y111.417 E33.52021
G1 X56.883 Y110.908 E33.54391
G1 X56.944 Y109.408 E33.61381
G1 X57.032 Y106.708 E33.7396
G1 X57.043 Y104.006 E33.86542
G1 X56.978 Y101.344 E33.98941
G1 X56.903 Y99.864 E34.05841
G1 X56.899 Y99.776 E34.06252
G1 X56.882 Y99.275 E34.08586
G1 X56.879 Y99.033 E34.09713
G1 X56.884 Y98.617 E34.1165
G1 X56.913 Y98.128 E34.13931
G1 X56.975 Y97.538 E34.16693
G1 X57.064 Y96.98 E34.19324
G1 X57.19 Y96.394 E34.22115
G1 X57.327 Y95.882 E34.24583
G1 X57.502 Y95.34 E34.27235
G1 X57.701 Y94.82 E34.29828
G1 X57.95 Y94.259 E34.32686
G1 X58.208 Y93.753 E34.35331
G1 X58.506 Y93.239 E34.38097
G1 X58.808 Y92.776 E34.40671
G1 X59.161 Y92.292 E34.43461
G1 X59.494 Y91.88 E34.45928
G1 X59.881 Y91.448 E34.48628
G1 X60.287 Y91.042 E34.51302
G1 X60.737 Y90.638 E34.54118
G1 X61.173 Y90.286 E34.56727
G1 X61.185 Y90.277 E34.56797
G0 F1620 X61.648 Y89.943
M204 S3000
M205 X10 Y10
G1 F2400 E30.56797
;MESH:MyBatteryHolder.stl
G0 F2666.7 X75.196 Y92.644
G0 X75.197 Y94.162
G0 X75.743 Y115.3
M204 S1800
M205 X8 Y8
;TYPE:WALL-INNER
G1 F2400 E34.56797
G1 F1200 X75.743 Y94.708 E35.52682
G1 X145.273 Y94.7 E38.76443
G1 X145.553 Y94.7 E38.77746
G1 X145.553 Y94.98 E38.7859
G1 X145.553 Y115.3 E39.73209
G1 X76.314 Y115.3 E42.95615
G0 F1080 X75.743 Y115.3
M204 S3000
M205 X10 Y10
G0 F2666.7 X75.183 Y115.86
M204 S1800
M205 X8 Y8
G1 F1200 X75.183 Y94.148 E43.96715
G1 X145.833 Y94.14 E47.25691
G1 X146.113 Y94.14 E47.26995
G1 X146.113 Y94.42 E47.27839
G1 X146.113 Y115.86 E48.27672
G1 X75.754 Y115.86 E51.55293
G0 F1080 X75.183 Y115.86
M204 S3000
M205 X10 Y10
G0 F2666.7 X74.623 Y115.98
M204 S1800
M205 X8 Y8
;TYPE:WALL-OUTER
G1 F1200 X74.623 Y94.02 E52.57548
G1 X68.054 Y94.02 E52.88136
G1 X67.546 Y94.035 E52.90503
G1 X67.355 Y94.041 E52.91392
G1 X67.051 Y94.088 E52.92825
G1 X66.806 Y94.126 E52.93979
G1 X66.541 Y94.197 E52.95257
G1 X66.27 Y94.271 E52.96565
G1 X66.059 Y94.355 E52.97622
G1 X65.754 Y94.477 E52.99152
G1 X65.581 Y94.57 E53.00067
G1 X65.265 Y94.74 E53.01737
G1 X65.145 Y94.823 E53.02417
G1 X64.809 Y95.056 E53.04321
G1 X64.73 Y95.125 E53.04809
G1 X64.392 Y95.422 E53.06904
G1 X64.345 Y95.474 E53.07231
G1 X64.019 Y95.833 E53.09489
G1 X64.006 Y95.851 E53.09592
G1 X63.694 Y96.283 E53.12073
G1 X63.424 Y96.768 E53.14658
G1 X63.227 Y97.236 E53.17023
G1 X63.209 Y97.279 E53.1724
G1 X63.084 Y97.712 E53.19338
G1 X63.054 Y97.813 E53.19829
G1 X62.983 Y98.223 E53.21766
G1 X62.959 Y98.36 E53.22414
G1 X62.939 Y98.719 E53.24088
G1 X62.928 Y98.913 E53.24993
G1 X62.945 Y99.238 E53.26508
G1 X62.957 Y99.467 E53.27576
G1 X63.002 Y99.727 E53.28805
G1 X63.052 Y100.015 E53.30166
G1 X63.115 Y100.232 E53.31218
G1 X63.207 Y100.549 E53.32755
G1 X63.27 Y100.7 E53.33517
G1 X63.422 Y101.06 E53.35337
G1 X63.48 Y101.164 E53.35891
G1 X63.692 Y101.545 E53.37921
G1 X63.735 Y101.605 E53.38265
G1 X64.017 Y101.995 E53.40506
G1 X64.026 Y102.005 E53.40569
G1 X64.39 Y102.406 E53.4309
G1 X64.789 Y102.756 E53.45562
G1 X64.807 Y102.772 E53.45674
G1 X65.197 Y103.042 E53.47883
G1 X65.263 Y103.088 E53.48257
G1 X65.64 Y103.291 E53.50251
G1 X65.752 Y103.351 E53.50843
G1 X66.268 Y103.557 E53.5343
G1 X66.804 Y103.702 E53.56015
G1 X67.352 Y103.787 E53.58598
G1 X67.917 Y103.81 E53.61231
G1 X68.436 Y103.695 E53.63706
G1 X68.893 Y103.414 E53.66204
G1 X69.225 Y103.019 E53.68607
G1 X69.423 Y102.518 E53.71115
G1 X69.446 Y101.981 E53.73618
G1 X69.305 Y101.486 E53.76015
G1 X68.999 Y101.042 E53.78526
G1 X68.565 Y100.721 E53.81039
G1 X68.063 Y100.563 E53.8349
G1 X67.547 Y100.53 E53.85897
G1 X67.284 Y100.466 E53.87158
G1 X67.075 Y100.414 E53.88161
G1 X66.698 Y100.23 E53.90114
G1 X66.662 Y100.212 E53.90301
G1 X66.603 Y100.165 E53.90653
G1 X66.286 Y99.916 E53.9253
G1 X66.125 Y99.72 E53.93711
G1 X65.997 Y99.565 E53.94647
G1 X65.799 Y99.179 E53.96667
G1 X65.778 Y99.139 E53.96877
G1 X65.76 Y99.07 E53.97209
G1 X65.661 Y98.702 E53.98984
G1 X65.648 Y98.455 E54.00135
G1 X65.635 Y98.241 E54.01134
G1 X65.703 Y97.804 E54.03193
G1 X65.707 Y97.784 E54.03288
G1 X65.741 Y97.695 E54.03732
G1 X65.868 Y97.366 E54.05374
G1 X66.02 Y97.132 E54.06673
G1 X66.121 Y96.977 E54.07535
G1 X66.458 Y96.642 E54.09747
G1 X66.556 Y96.58 E54.10287
G1 X66.847 Y96.395 E54.11893
G1 X67.127 Y96.291 E54.13284
G1 X67.272 Y96.236 E54.14006
G1 X67.738 Y96.167 E54.16199
G1 X67.791 Y96.166 E54.16446
G1 X68.219 Y96.15 E54.18441
G1 X68.749 Y96.16 E54.20909
G1 X69.095 Y96.186 E54.22525
G1 X69.276 Y96.201 E54.2337
G1 X69.721 Y96.264 E54.25463
G1 X69.79 Y96.274 E54.25788
G1 X70.292 Y96.391 E54.28188
G1 X70.419 Y96.438 E54.28818
G1 X70.764 Y96.567 E54.30533
G1 X71.026 Y96.697 E54.31895
G1 X71.217 Y96.793 E54.32891
G1 X71.594 Y97.033 E54.34972
G1 X71.649 Y97.068 E54.35275
G1 X72.045 Y97.383 E54.37631
G1 X72.149 Y97.485 E54.3831
G1 X72.412 Y97.743 E54.40025
G1 X72.598 Y97.969 E54.41388
G1 X72.733 Y98.133 E54.42377
G1 X72.98 Y98.508 E54.44468
G1 X73.019 Y98.566 E54.44794
G1 X73.247 Y99.002 E54.47085
G1 X73.303 Y99.145 E54.478
G1 X73.439 Y99.49 E54.49527
G1 X73.516 Y99.769 E54.50874
G1 X73.574 Y99.979 E54.51889
G1 X73.647 Y100.413 E54.53938
G1 X73.659 Y100.485 E54.54278
G1 X73.69 Y100.985 E54.56611
G1 X73.69 Y101.044 E54.56885
G1 X73.691 Y108.946 E54.9368
G1 X73.677 Y109.225 E54.94981
G1 X73.664 Y109.481 E54.96175
G1 X73.603 Y109.877 E54.9804
G1 X73.586 Y109.983 E54.9854
G1 X73.454 Y110.474 E55.00908
G1 X73.417 Y110.571 E55.01391
G1 X73.274 Y110.944 E55.03251
G1 X73.156 Y111.176 E55.04463
G1 X73.046 Y111.392 E55.05592
G1 X72.818 Y111.744 E55.07545
G1 X72.77 Y111.818 E55.07956
G1 X72.449 Y112.214 E55.10329
G1 X72.364 Y112.299 E55.10889
G1 X72.093 Y112.57 E55.12674
G1 X71.879 Y112.744 E55.13958
G1 X71.701 Y112.888 E55.15024
G1 X71.339 Y113.123 E55.17034
G1 X71.268 Y113.169 E55.17428
G1 X70.826 Y113.394 E55.19737
G1 X70.701 Y113.442 E55.2036
G1 X70.362 Y113.573 E55.22053
G1 X70.075 Y113.649 E55.23435
G1 X69.858 Y113.707 E55.24481
