;FLAVOR:Marlin
;TIME:969
;Filament used: 1.77652m, 0m, 0m, 0m
;Layer height: 0.2
;MINX:88.6
;MINY:88.6
;MINZ:0.2
;MAXX:121.4
;MAXY:121.4
;MAXZ:19.85
;Generated with Cura_SteamEngine 4.6.1
T0
M104 S200
M105
M109 S200
M82 ;absolute extrusion mode
G28
G29
M501
M420 S1
G92 E0 ;zero the extruded length
G1 F200 E3 ;extrude 3mm of feed stock
G92 E0 ;zero the extruded length again
G1 F200
M117 Printing...
G5
G92 E0
G92 E0
G1 F2400 E-4
;LAYER_COUNT:69
;LAYER:0
M107
M204 S4000
M205 X30 Y30
G1 F600 Z0.275
G0 F3600 X115.067 Y89.731 Z0.275
M204 S3000
M205 X8 Y8
;TYPE:SKIRT
G1 F600 Z0.2
G1 F2400 E0
G1 F1800 X115.714 Y89.78 E0.03021
G1 X116.351 Y89.908 E0.06047
G1 X116.967 Y90.114 E0.09071
G1 X117.554 Y90.394 E0.121
G1 X118.101 Y90.743 E0.15121
G1 X118.602 Y91.157 E0.18147
G1 X119.047 Y91.63 E0.21171
G1 X119.432 Y92.154 E0.24199
G1 X119.749 Y92.721 E0.27224
G1 X119.994 Y93.322 E0.30246
G1 X120.163 Y93.949 E0.3327
G1 X120.269 Y94.862 E0.3755
G1 X120.28 Y114.329 E1.28196
G1 X120.271 Y115.056 E1.31582
G1 X120.223 Y115.704 E1.34607
G1 X120.095 Y116.341 E1.37633
G1 X119.891 Y116.958 E1.40659
G1 X119.612 Y117.545 E1.43685
G1 X119.264 Y118.093 E1.46708
G1 X118.851 Y118.594 E1.49731
G1 X118.379 Y119.041 E1.52758
G1 X117.856 Y119.426 E1.55782
G1 X117.29 Y119.744 E1.58805
G1 X116.688 Y119.991 E1.61835
G1 X116.062 Y120.161 E1.64855
G1 X115.139 Y120.269 E1.69183
G1 X95.639 Y120.28 E2.59983
G1 X94.941 Y120.271 E2.63233
G1 X94.293 Y120.222 E2.66259
G1 X93.656 Y120.095 E2.69284
G1 X93.04 Y119.89 E2.72307
G1 X92.453 Y119.611 E2.75333
G1 X91.905 Y119.262 E2.78358
G1 X91.404 Y118.849 E2.81382
G1 X90.957 Y118.377 E2.84409
G1 X90.572 Y117.854 E2.87433
G1 X90.254 Y117.287 E2.9046
G1 X90.008 Y116.686 E2.93484
G1 X89.838 Y116.059 E2.96509
G1 X89.731 Y115.134 E3.00845
G1 X89.72 Y95.603 E3.91789
G1 X89.729 Y94.938 E3.94886
G1 X89.778 Y94.29 E3.97912
G1 X89.906 Y93.653 E4.00937
G1 X90.111 Y93.036 E4.03965
G1 X90.391 Y92.45 E4.06989
G1 X90.74 Y91.902 E4.10014
G1 X91.154 Y91.401 E4.1304
G1 X91.626 Y90.955 E4.16064
G1 X92.149 Y90.571 E4.19086
G1 X92.716 Y90.253 E4.22113
G1 X93.317 Y90.007 E4.25136
G1 X93.944 Y89.837 E4.28161
G1 X94.861 Y89.731 E4.3246
G1 X114.293 Y89.72 E5.22943
G1 X114.496 Y89.723 E5.23889
G0 F1620 X115.067 Y89.731
M204 S4000
M205 X30 Y30
G0 F3600 X115.075 Y89.171
M204 S3000
M205 X8 Y8
G1 F1800 X115.756 Y89.22 E5.27068
G1 X116.427 Y89.349 E5.3025
G1 X117.078 Y89.556 E5.3343
G1 X117.701 Y89.837 E5.36613
G1 X118.287 Y90.189 E5.39796
G1 X118.827 Y90.607 E5.42976
G1 X119.315 Y91.085 E5.46157
G1 X119.744 Y91.617 E5.49339
G1 X120.108 Y92.195 E5.52519
G1 X120.402 Y92.812 E5.55702
G1 X120.621 Y93.459 E5.58883
G1 X120.764 Y94.127 E5.62064
G1 X120.829 Y94.846 E5.65425
G1 X120.84 Y114.336 E6.56179
G1 X120.831 Y115.063 E6.59564
G1 X120.782 Y115.745 E6.62748
G1 X120.654 Y116.416 E6.65929
G1 X120.449 Y117.068 E6.69111
G1 X120.169 Y117.691 E6.72292
G1 X119.819 Y118.277 E6.7547
G1 X119.402 Y118.819 E6.78655
G1 X118.925 Y119.308 E6.81835
G1 X118.394 Y119.737 E6.85014
G1 X117.816 Y120.102 E6.88197
G1 X117.2 Y120.397 E6.91378
G1 X116.553 Y120.618 E6.94561
G1 X115.885 Y120.762 E6.97743
G1 X115.155 Y120.829 E7.01157
G1 X95.632 Y120.84 E7.92064
G1 X94.934 Y120.831 E7.95314
G1 X94.252 Y120.782 E7.98498
G1 X93.581 Y120.654 E8.01679
G1 X92.93 Y120.448 E8.04858
G1 X92.306 Y120.168 E8.08043
G1 X91.72 Y119.817 E8.11224
G1 X91.179 Y119.4 E8.14404
G1 X90.69 Y118.922 E8.17589
G1 X90.261 Y118.391 E8.20767
G1 X89.896 Y117.813 E8.2395
G1 X89.602 Y117.197 E8.27129
G1 X89.381 Y116.55 E8.30312
G1 X89.237 Y115.882 E8.33494
G1 X89.171 Y115.149 E8.36921
G1 X89.16 Y95.674 E9.27605
G1 X89.17 Y94.93 E9.3107
G1 X89.219 Y94.249 E9.34249
G1 X89.347 Y93.577 E9.37434
G1 X89.553 Y92.926 E9.40614
G1 X89.834 Y92.303 E9.43796
G1 X90.185 Y91.717 E9.46977
G1 X90.603 Y91.176 E9.5016
G1 X91.08 Y90.688 E9.53338
G1 X91.612 Y90.259 E9.5652
G1 X92.19 Y89.894 E9.59703
G1 X92.807 Y89.6 E9.62886
G1 X93.453 Y89.38 E9.66063
G1 X94.121 Y89.237 E9.69244
G1 X94.845 Y89.171 E9.7263
G1 X114.293 Y89.16 E10.63188
G1 X114.504 Y89.163 E10.6417
G0 F1620 X115.075 Y89.171
M204 S4000
M205 X30 Y30
G0 F3600 X115.083 Y88.611
M204 S3000
M205 X8 Y8
G1 F1800 X115.796 Y88.661 E10.67498
G1 X116.5 Y88.79 E10.70831
G1 X117.184 Y88.998 E10.7416
G1 X117.841 Y89.28 E10.77489
G1 X118.463 Y89.634 E10.80822
G1 X119.041 Y90.055 E10.84152
G1 X119.569 Y90.538 E10.87484
G1 X120.039 Y91.076 E10.9081
G1 X120.447 Y91.664 E10.94143
G1 X120.786 Y92.294 E10.97474
G1 X121.053 Y92.957 E11.00802
G1 X121.244 Y93.647 E11.04136
G1 X121.357 Y94.353 E11.07465
G1 X121.397 Y95.15 E11.11181
G1 X121.4 Y114.343 E12.00552
G1 X121.391 Y115.07 E12.03937
G1 X121.342 Y115.784 E12.0727
G1 X121.214 Y116.488 E12.10601
G1 X121.008 Y117.173 E12.13932
G1 X120.727 Y117.83 E12.17259
G1 X120.374 Y118.453 E12.20594
G1 X119.954 Y119.032 E12.23924
G1 X119.472 Y119.56 E12.27253
G1 X118.935 Y120.032 E12.30583
G1 X118.347 Y120.44 E12.33915
G1 X117.718 Y120.781 E12.37247
G1 X117.055 Y121.049 E12.40577
G1 X116.366 Y121.241 E12.43907
G1 X115.66 Y121.356 E12.47238
G1 X114.849 Y121.397 E12.51019
G1 X95.707 Y121.4 E13.40152
G1 X94.926 Y121.39 E13.43789
G1 X94.213 Y121.341 E13.47117
G1 X93.509 Y121.213 E13.50449
G1 X92.824 Y121.007 E13.5378
G1 X92.167 Y120.725 E13.57109
G1 X91.545 Y120.372 E13.60439
G1 X90.966 Y119.952 E13.6377
G1 X90.437 Y119.47 E13.67102
G1 X89.966 Y118.932 E13.70432
G1 X89.558 Y118.345 E13.7376
G1 X89.218 Y117.715 E13.77094
G1 X88.95 Y117.052 E13.80424
G1 X88.758 Y116.363 E13.83754
G1 X88.644 Y115.657 E13.87084
G1 X88.602 Y114.831 E13.90935
G1 X88.6 Y95.674 E14.80138
G1 X88.61 Y94.922 E14.8364
G1 X88.659 Y94.209 E14.86968
G1 X88.788 Y93.505 E14.90301
G1 X88.995 Y92.821 E14.93629
G1 X89.277 Y92.163 E14.96962
G1 X89.63 Y91.541 E15.00292
G1 X90.05 Y90.963 E15.03619
G1 X90.533 Y90.435 E15.06951
G1 X91.071 Y89.964 E15.10281
G1 X91.659 Y89.556 E15.13613
G1 X92.288 Y89.216 E15.16943
G1 X92.952 Y88.949 E15.20275
G1 X93.641 Y88.757 E15.23606
G1 X94.347 Y88.643 E15.26936
G1 X95.151 Y88.603 E15.30684
G1 X114.293 Y88.6 E16.19817
G1 X114.512 Y88.604 E16.20837
G0 F1620 X115.083 Y88.611
M204 S4000
M205 X30 Y30
G1 F2400 E12.20837
;MESH:20mmTestCube_repaired.stl
G0 F3600 X94.89 Y94.339
G0 X94.335 Y113.04
G0 X96.96 Y113.04
M204 S3000
M205 X8 Y8
;TYPE:WALL-INNER
G1 F2400 E16.20837
G1 F1800 X96.96 Y96.96 E16.95712
G1 X113.04 Y96.96 E17.70588
G1 X113.04 Y113.04 E18.45463
G1 X97.531 Y113.04 E19.17679
G0 F1620 X96.96 Y113.04
M204 S4000
M205 X30 Y30
G0 F3600 X96.4 Y113.6
M204 S3000
M205 X8 Y8
G1 F1800 X96.4 Y96.4 E19.9777
G1 X113.6 Y96.4 E20.7786
G1 X113.6 Y113.6 E21.5795
G1 X96.971 Y113.6 E22.35382
G0 F1620 X96.4 Y113.6
M204 S4000
M205 X30 Y30
G0 F3600 X95.84 Y114.16
M204 S3000
M205 X8 Y8
G1 F1800 X95.84 Y95.84 E23.20688
G1 X114.16 Y95.84 E24.05993
G1 X114.16 Y114.16 E24.91299
G1 X96.411 Y114.16 E25.73946
G0 F1620 X95.84 Y114.16
M204 S4000
M205 X30 Y30
G0 F3600 X95.28 Y114.72
M204 S3000
M205 X8 Y8
;TYPE:WALL-OUTER
G1 F1800 X95.28 Y95.28 E26.64466
G1 X114.72 Y95.28 E27.54987
G1 X114.72 Y114.72 E28.45508
G1 X95.851 Y114.72 E29.3337
G0 F1620 X95.28 Y114.72
M204 S4000
M205 X30 Y30
G0 F3600 X95.28 Y114.52
G0 X97.51 Y112.49
M204 S3000
M205 X8 Y8
;TYPE:SKIN
G1 F1800 X97.51 Y97.51 E30.03123
G1 X112.49 Y97.51 E30.72876
G1 X112.49 Y112.49 E31.42629
G1 X98.081 Y112.49 E32.09724
G0 F1620 X97.51 Y112.49
M204 S4000
M205 X30 Y30
G0 F3600 X97.973 Y112.229
M204 S3000
M205 X8 Y8
G1 F1800 X97.769 Y112.024 E32.1107
M204 S4000
M205 X30 Y30
G0 F3600 X97.769 Y111.232
M204 S3000
M205 X8 Y8
G1 F1800 X98.765 Y112.229 E32.17633
M204 S4000
M205 X30 Y30
G0 F3600 X99.557 Y112.229
M204 S3000
M205 X8 Y8
G1 F1800 X97.769 Y110.44 E32.2941
M204 S4000
M205 X30 Y30
G0 F3600 X97.769 Y109.648
M204 S3000
M205 X8 Y8
G1 F1800 X100.349 Y112.229 E32.46403
M204 S4000
M205 X30 Y30
G0 F3600 X101.141 Y112.229
M204 S3000
M205 X8 Y8
G1 F1800 X97.769 Y108.856 E32.68612
M204 S4000
M205 X30 Y30
G0 F3600 X97.769 Y108.065
M204 S3000
M205 X8 Y8
G1 F1800 X101.933 Y112.229 E32.96032
M204 S4000
M205 X30 Y30
G0 F3600 X102.725 Y112.229
M204 S3000
M205 X8 Y8
G1 F1800 X97.769 Y107.273 E33.28668
M204 S4000
M205 X30 Y30
G0 F3600 X97.769 Y106.481
M204 S3000
M205 X8 Y8
G1 F1800 X103.517 Y112.229 E33.6652
M204 S4000
M205 X30 Y30
G0 F3600 X104.309 Y112.229
M204 S3000
M205 X8 Y8
G1 F1800 X97.769 Y105.689 E34.09587
M204 S4000
M205 X30 Y30
G0 F3600 X97.769 Y104.897
M204 S3000
M205 X8 Y8
G1 F1800 X105.101 Y112.229 E34.57869
M204 S4000
M205 X30 Y30
G0 F3600 X105.893 Y112.229
M204 S3000
M205 X8 Y8
G1 F1800 X97.769 Y104.105 E35.11367
M204 S4000
M205 X30 Y30
G0 F3600 X97.769 Y103.313
M204 S3000
M205 X8 Y8
G1 F1800 X106.685 Y112.229 E35.70081
M204 S4000
M205 X30 Y30
G0 F3600 X107.477 Y112.229
M204 S3000
M205 X8 Y8
G1 F1800 X97.769 Y102.521 E36.3401
M204 S4000
M205 X30 Y30
G0 F3600 X97.769 Y101.729
M204 S3000
M205 X8 Y8
G1 F1800 X108.269 Y112.229 E37.03154
M204 S4000
M205 X30 Y30
G0 F3600 X109.061 Y112.229
M204 S3000
M205 X8 Y8
G1 F1800 X97.769 Y100.937 E37.77514
M204 S4000
M205 X30 Y30
G0 F3600 X97.769 Y100.145
M204 S3000
M205 X8 Y8
G1 F1800 X109.853 Y112.229 E38.57089
M204 S4000
M205 X30 Y30
G0 F3600 X110.645 Y112.229
M204 S3000
M205 X8 Y8
G1 F1800 X97.769 Y99.353 E39.41879
M204 S4000
M205 X30 Y30
G0 F3600 X97.769 Y98.561
M204 S3000
M205 X8 Y8
G1 F1800 X111.437 Y112.229 E40.31886
M204 S4000
M205 X30 Y30
G0 F3600 X112.229 Y112.229
M204 S3000
M205 X8 Y8
G1 F1800 X97.769 Y97.769 E41.27107
M204 S4000
M205 X30 Y30
G0 F3600 X98.562 Y97.77
M204 S3000
M205 X8 Y8
G1 F1800 X112.229 Y111.437 E42.17107
M204 S4000
M205 X30 Y30
G0 F3600 X112.229 Y110.645
M204 S3000
M205 X8 Y8
G1 F1800 X99.354 Y97.77 E43.01891
M204 S4000
M205 X30 Y30
G0 F3600 X100.146 Y97.77
M204 S3000
M205 X8 Y8
G1 F1800 X112.229 Y109.853 E43.81459
M204 S4000
M205 X30 Y30
G0 F3600 X112.229 Y109.062
M204 S3000
M205 X8 Y8
G1 F1800 X100.938 Y97.77 E44.55816
M204 S4000
M205 X30 Y30
G0 F3600 X101.73 Y97.77
M204 S3000
M205 X8 Y8
G1 F1800 X112.229 Y108.27 E45.24957
M204 S4000
M205 X30 Y30
G0 F3600 X112.229 Y107.478
M204 S3000
M205 X8 Y8
G1 F1800 X102.521 Y97.77 E45.88886
M204 S4000
M205 X30 Y30
G0 F3600 X103.313 Y97.77
M204 S3000
M205 X8 Y8
G1 F1800 X112.229 Y106.686 E46.47599
M204 S4000
M205 X30 Y30
G0 F3600 X112.229 Y105.894
M204 S3000
M205 X8 Y8
G1 F1800 X104.105 Y97.77 E47.01097
M204 S4000
M205 X30 Y30
G0 F3600 X104.897 Y97.77
M204 S3000
M205 X8 Y8
G1 F1800 X112.229 Y105.102 E47.49379
M204 S4000
M205 X30 Y30
G0 F3600 X112.229 Y104.31
M204 S3000
M205 X8 Y8
G1 F1800 X105.689 Y97.77 E47.92446
M204 S4000
M205 X30 Y30
G0 F3600 X106.481 Y97.77
M204 S3000
M205 X8 Y8
G1 F1800 X112.229 Y103.518 E48.30298
M204 S4000
M205 X30 Y30
G0 F3600 X112.229 Y102.726
M204 S3000
M205 X8 Y8
G1 F1800 X107.273 Y97.77 E48.62934
M204 S4000
M205 X30 Y30
G0 F3600 X108.065 Y97.77
M204 S3000
M205 X8 Y8
G1 F1800 X112.229 Y101.934 E48.90355
M204 S4000
M205 X30 Y30
G0 F3600 X112.229 Y101.142
M204 S3000
M205 X8 Y8
G1 F1800 X108.857 Y97.77 E49.1256
M204 S4000
M205 X30 Y30
G0 F3600 X109.649 Y97.77
M204 S3000
M205 X8 Y8
G1 F1800 X112.229 Y100.35 E49.2955
M204 S4000
M205 X30 Y30
G0 F3600 X112.229 Y99.558
M204 S3000
M205 X8 Y8
G1 F1800 X110.441 Y97.77 E49.41324
M204 S4000
M205 X30 Y30
G0 F3600 X111.233 Y97.77
M204 S3000
M205 X8 Y8
G1 F1800 X112.229 Y98.766 E49.47883
M204 S4000
M205 X30 Y30
G0 F3600 X112.229 Y97.974
M204 S3000
M205 X8 Y8
G1 F1800 X112.025 Y97.77 E49.49226
M204 S4000
M205 X30 Y30
G1 F2400 E45.49226
;MESH:NONMESH
G0 F600 X112.025 Y97.77 Z0.41
G0 F3600 X112.025 Y94.335
G0 X94.89 Y94.339
G0 X94.335 Y113.6
G0 X96.4 Y113.6
;TIME_ELAPSED:42.633271
;LAYER:1
M106 S127.5
M204 S2250
M205 X8 Y8
;TYPE:WALL-INNER
;MESH:20mmTestCube_repaired.stl
G1 F2400 E49.49226
G1 F3900 X96.4 Y96.4 E50.09294
G1 X113.6 Y96.4 E50.69362
G1 X113.6 Y113.6 E51.2943
G1 X97.16 Y113.6 E51.86843
G0 F3510 X96.4 Y113.6
M204 S4000
M205 X30 Y30
G0 F7800 X96 Y114
M204 S2250
M205 X8 Y8
G1 F3900 X96 Y96 E52.49705
G1 X114 Y96 E53.12567
G1 X114 Y114 E53.75428
G1 X96.76 Y114 E54.35636
G0 F3510 X96 Y114
M204 S4000
M205 X30 Y30
G0 F7800 X95.6 Y114.4
M204 S2250
M205 X8 Y8
G1 F3900 X95.6 Y95.6 E55.01291
G1 X114.4 Y95.6 E55.66947
G1 X114.4 Y114.4 E56.32602
G1 X96.36 Y114.4 E56.95604
G0 F3510 X95.6 Y114.4
M204 S4000
M205 X30 Y30
G0 F7800 X95.2 Y114.8
M204 S1900
M205 X8 Y8
;TYPE:WALL-OUTER
G1 F2250 X95.2 Y95.2 E57.64053
G1 X114.8 Y95.2 E58.32502
G1 X114.8 Y114.8 E59.00952
G1 X95.96 Y114.8 E59.66747
G0 F2025 X95.2 Y114.8
M204 S4000
M205 X30 Y30
G0 F7800 X95.2 Y114.6
G0 X96.79 Y113.21
M204 S3000
M205 X8 Y8
;TYPE:SKIN
G1 F1440 X96.79 Y96.79 E60.24091
G1 X113.21 Y96.79 E60.81434
G1 X113.21 Y113.21 E61.38778
G1 X97.55 Y113.21 E61.93468
G0 F1296 X96.79 Y113.21
M204 S4000
M205 X30 Y30
G1 F2400 E57.93468
G0 F7800 X94.335 Y113.21
G0 X94.335 Y97.06
G0 X96.969 Y97.06
M204 S3000
M205 X8 Y8
G1 F2400 E61.93468
G1 F1440 X97.06 Y96.969 E61.93917
M204 S4000
M205 X30 Y30
G0 F7800 X97.625 Y96.969
M204 S3000
M205 X8 Y8
G1 F1440 X96.969 Y97.625 E61.97157
M204 S4000
M205 X30 Y30
G0 F7800 X96.969 Y98.191
M204 S3000
M205 X8 Y8
G1 F1440 X98.191 Y96.969 E62.03193
M204 S4000
M205 X30 Y30
G0 F7800 X98.757 Y96.969
M204 S3000
M205 X8 Y8
G1 F1440 X96.969 Y98.757 E62.12023
M204 S4000
M205 X30 Y30
G0 F7800 X96.969 Y99.323
M204 S3000
M205 X8 Y8
G1 F1440 X99.323 Y96.969 E62.23649
M204 S4000
M205 X30 Y30
G0 F7800 X99.888 Y96.969
M204 S3000
M205 X8 Y8
G1 F1440 X96.969 Y99.888 E62.38066
M204 S4000
M205 X30 Y30
G0 F7800 X96.969 Y100.454
M204 S3000
M205 X8 Y8
G1 F1440 X100.454 Y96.969 E62.55278
M204 S4000
M205 X30 Y30
G0 F7800 X101.02 Y96.969
M204 S3000
M205 X8 Y8
G1 F1440 X96.969 Y101.02 E62.75285
M204 S4000
M205 X30 Y30
G0 F7800 X96.969 Y101.585
M204 S3000
M205 X8 Y8
G1 F1440 X101.585 Y96.969 E62.98083
M204 S4000
M205 X30 Y30
G0 F7800 X102.151 Y96.969
M204 S3000
M205 X8 Y8
G1 F1440 X96.969 Y102.151 E63.23676
M204 S4000
M205 X30 Y30
G0 F7800 X96.969 Y102.717
M204 S3000
M205 X8 Y8
G1 F1440 X102.717 Y96.969 E63.52065
M204 S4000
M205 X30 Y30
G0 F7800 X103.282 Y96.969
M204 S3000
M205 X8 Y8
G1 F1440 X96.969 Y103.282 E63.83244
M204 S4000
M205 X30 Y30
G0 F7800 X96.969 Y103.848
M204 S3000
M205 X8 Y8
G1 F1440 X103.848 Y96.969 E64.17219
M204 S4000
M205 X30 Y30
G0 F7800 X104.414 Y96.969
M204 S3000
M205 X8 Y8
G1 F1440 X96.969 Y104.414 E64.53989
M204 S4000
M205 X30 Y30
G0 F7800 X96.969 Y104.979
M204 S3000
M205 X8 Y8
G1 F1440 X104.979 Y96.969 E64.93549
M204 S4000
M205 X30 Y30
G0 F7800 X105.545 Y96.969
M204 S3000
M205 X8 Y8
G1 F1440 X96.969 Y105.545 E65.35905
M204 S4000
M205 X30 Y30
G0 F7800 X96.969 Y106.111
M204 S3000
M205 X8 Y8
G1 F1440 X106.111 Y96.969 E65.81056
M204 S4000
M205 X30 Y30
G0 F7800 X106.676 Y96.969
M204 S3000
M205 X8 Y8
G1 F1440 X96.969 Y106.676 E66.28998
M204 S4000
M205 X30 Y30
G0 F7800 X96.969 Y107.242
M204 S3000
M205 X8 Y8
G1 F1440 X107.242 Y96.969 E66.79735
M204 S4000
M205 X30 Y30
G0 F7800 X107.808 Y96.969
M204 S3000
M205 X8 Y8
G1 F1440 X96.969 Y107.808 E67.33268
M204 S4000
M205 X30 Y30
G0 F7800 X96.969 Y108.374
M204 S3000
M205 X8 Y8
G1 F1440 X108.374 Y96.969 E67.89595
M204 S4000
M205 X30 Y30
G0 F7800 X108.939 Y96.969
M204 S3000
M205 X8 Y8
G1 F1440 X96.969 Y108.939 E68.48714
M204 S4000
M205 X30 Y30
G0 F7800 X96.969 Y109.505
M204 S3000
M205 X8 Y8
G1 F1440 X109.505 Y96.969 E69.10628
M204 S4000
M205 X30 Y30
G0 F7800 X110.071 Y96.969
M204 S3000
M205 X8 Y8
G1 F1440 X96.969 Y110.071 E69.75337
M204 S4000
M205 X30 Y30
G0 F7800 X96.969 Y110.636
M204 S3000
M205 X8 Y8
G1 F1440 X110.636 Y96.969 E70.42836
M204 S4000
M205 X30 Y30
G0 F7800 X111.202 Y96.969
M204 S3000
M205 X8 Y8
G1 F1440 X96.969 Y111.202 E71.13131
M204 S4000
M205 X30 Y30
G0 F7800 X96.969 Y111.768
M204 S3000
M205 X8 Y8
G1 F1440 X111.768 Y96.969 E71.86222
M204 S4000
M205 X30 Y30
G0 F7800 X112.333 Y96.969
M204 S3000
M205 X8 Y8
G1 F1440 X96.969 Y112.333 E72.62103
M204 S4000
M205 X30 Y30
G0 F7800 X96.969 Y112.899
M204 S3000
M205 X8 Y8
G1 F1440 X112.899 Y96.969 E73.40779
M204 S4000
M205 X30 Y30
G0 F7800 X113.029 Y97.405
M204 S3000
M205 X8 Y8
G1 F1440 X97.405 Y113.029 E74.17944
M204 S4000
M205 X30 Y30
G0 F7800 X97.971 Y113.029
M204 S3000
M205 X8 Y8
G1 F1440 X113.029 Y97.971 E74.92314
M204 S4000
M205 X30 Y30
G0 F7800 X113.029 Y98.536
M204 S3000
M205 X8 Y8
