;FLAVOR:Marlin
;TIME:1721
;Filament used: 1.77421m, 0m, 0m, 0m
;Layer height: 0.2
;MINX:82.206
;MINY:94.199
;MINZ:0.24
;MAXX:127.793
;MAXY:115.8
;MAXZ:23.465
;Generated with Cura_SteamEngine 4.6.1
T0
M140 S60
M105
M190 S60
M104 S230
M105
M109 S230
M82 ;absolute extrusion mode
G21 ;metric values
G90 ;absolute positioning
M82 ;set extruder to absolute mode
M107 ;start with the fan off
G28 X0 Y0 ;move X/Y to min endstops
G28 Z0 ;move Z to min endstops
G1 Z15.0 F200 ;move the platform down 15mm
G92 E0 ;zero the extruded length
G1 F200 E3 ;extrude 3mm of feed stock
G92 E0 ;zero the extruded length again
G1 F200
M117 Printing...
G5
G92 E0
G92 E0
G1 F2400 E-4
;LAYER_COUNT:89
;LAYER:-6
M107
M204 S4000
M205 X30 Y30
G0 F12000 X85.573 Y98.06 Z0.24
M204 S3000
M205 X8 Y8
;TYPE:SUPPORT-INTERFACE
G1 F2400 E0
G1 F2250 X85.84 Y97.837 E0.02777
G1 X85.989 Y97.72 E0.04289
G1 X86.454 Y97.382 E0.08878
G1 X86.872 Y97.116 E0.12833
G1 X87.365 Y96.84 E0.17343
G1 X87.739 Y96.657 E0.20667
G1 X87.879 Y96.595 E0.21889
G1 X88.451 Y96.363 E0.26816
G1 X88.968 Y96.193 E0.3116
G1 X89.499 Y96.051 E0.35548
G1 X89.996 Y95.946 E0.39603
G1 X90.318 Y95.89 E0.42212
G1 X100.062 Y94.491 E1.2079
G1 X100.587 Y94.432 E1.25007
G1 X101.156 Y94.403 E1.29555
G1 X108.761 Y94.402 E1.90262
G1 X109.088 Y94.415 E1.92874
G1 X109.564 Y94.447 E1.96682
G1 X109.902 Y94.483 E1.99396
G1 X119.355 Y95.844 E2.75632
G1 X120.075 Y95.959 E2.81452
G1 X120.554 Y96.063 E2.85364
G1 X120.929 Y96.161 E2.88458
G1 X121.077 Y96.206 E2.89693
G1 X121.636 Y96.395 E2.94403
G1 X122.133 Y96.6 E2.98695
G1 X122.629 Y96.838 E3.03086
G1 X123.109 Y97.105 E3.07471
G1 X123.61 Y97.427 E3.12225
G1 X124.028 Y97.732 E3.16355
G1 X124.485 Y98.11 E3.21089
G1 X124.874 Y98.475 E3.25348
G1 X125.271 Y98.893 E3.29949
G1 X125.609 Y99.296 E3.34148
G1 X125.958 Y99.767 E3.38827
G1 X126.255 Y100.226 E3.43191
G1 X126.546 Y100.74 E3.47906
G1 X126.768 Y101.195 E3.51947
G1 X126.995 Y101.74 E3.5666
G1 X127.173 Y102.259 E3.6104
G1 X127.33 Y102.823 E3.65713
G1 X127.406 Y103.163 E3.68494
G1 X127.441 Y103.347 E3.69989
G1 X127.526 Y103.9 E3.74455
G1 X127.575 Y104.435 E3.78744
G1 X127.593 Y105.024 E3.83448
G1 X127.576 Y105.571 E3.87816
G1 X127.52 Y106.162 E3.92555
G1 X127.444 Y106.65 E3.96497
G1 X127.323 Y107.217 E4.01125
G1 X127.219 Y107.602 E4.04309
G1 X127.174 Y107.747 E4.05521
G1 X126.982 Y108.298 E4.10178
G1 X126.838 Y108.652 E4.13229
G1 X126.762 Y108.818 E4.14686
G1 X126.59 Y109.176 E4.17857
G1 X126.505 Y109.339 E4.19324
G1 X126.327 Y109.657 E4.22233
G1 X126.239 Y109.802 E4.23587
G1 X125.935 Y110.267 E4.28022
G1 X125.609 Y110.702 E4.32361
G1 X125.328 Y111.04 E4.3587
G1 X125.223 Y111.158 E4.37131
G1 X124.857 Y111.542 E4.41365
G1 X124.549 Y111.832 E4.44742
G1 X124.427 Y111.94 E4.46043
G1 X124.16 Y112.163 E4.4882
G1 X123.546 Y112.618 E4.5492
G1 X123.118 Y112.89 E4.58968
G1 X122.646 Y113.154 E4.63285
G1 X122.265 Y113.341 E4.66673
G1 X122.121 Y113.405 E4.67931
G1 X121.549 Y113.637 E4.72858
G1 X121.032 Y113.807 E4.77202
G1 X120.501 Y113.949 E4.8159
G1 X119.96 Y114.062 E4.86001
G1 X119.683 Y114.11 E4.88246
G1 X109.77 Y115.529 E5.68182
G1 X109.202 Y115.579 E5.72734
G1 X108.717 Y115.599 E5.76608
G1 X101.24 Y115.599 E6.36293
G1 X100.952 Y115.589 E6.38593
G1 X100.465 Y115.556 E6.4249
G1 X100.063 Y115.512 E6.45718
G1 X90.645 Y114.156 E7.21672
G1 X89.925 Y114.041 E7.27492
G1 X89.446 Y113.937 E7.31404
G1 X89.069 Y113.838 E7.34516
G1 X88.924 Y113.794 E7.35725
G1 X88.364 Y113.605 E7.40443
G1 X87.867 Y113.4 E7.44735
G1 X87.365 Y113.159 E7.4918
G1 X86.891 Y112.895 E7.53511
G1 X86.525 Y112.664 E7.56966
G1 X86.389 Y112.572 E7.58276
G1 X85.962 Y112.26 E7.62498
G1 X85.506 Y111.882 E7.67226
G1 X85.126 Y111.525 E7.71388
G1 X84.718 Y111.094 E7.76125
G1 X84.391 Y110.704 E7.80188
G1 X84.032 Y110.218 E7.85011
G1 X83.739 Y109.764 E7.89324
G1 X83.453 Y109.258 E7.93964
G1 X83.232 Y108.805 E7.97987
G1 X83.002 Y108.251 E8.02775
G1 X82.827 Y107.741 E8.07079
G1 X82.668 Y107.168 E8.11826
G1 X82.594 Y106.837 E8.14534
G1 X82.557 Y106.641 E8.16126
G1 X82.474 Y106.098 E8.20511
G1 X82.425 Y105.565 E8.24783
G1 X82.407 Y104.963 E8.29591
G1 X82.416 Y104.58 E8.32649
G1 X82.426 Y104.408 E8.34024
G1 X82.459 Y104.029 E8.37061
G1 X82.482 Y103.833 E8.38636
G1 X82.556 Y103.35 E8.42537
G1 X82.684 Y102.755 E8.47395
G1 X82.781 Y102.398 E8.50348
G1 X82.826 Y102.253 E8.5156
G1 X83.022 Y101.691 E8.56311
G1 X83.163 Y101.348 E8.59271
G1 X83.238 Y101.182 E8.60725
G1 X83.418 Y100.809 E8.64031
G1 X83.495 Y100.661 E8.65363
G1 X83.673 Y100.343 E8.68272
G1 X83.761 Y100.198 E8.69626
G1 X84.071 Y99.725 E8.7414
G1 X84.39 Y99.297 E8.78401
G1 X84.674 Y98.957 E8.81938
G1 X84.777 Y98.842 E8.8317
G1 X85.143 Y98.458 E8.87405
G1 X85.328 Y98.284 E8.89432
G0 F2025 X85.451 Y98.168
G0 X85.573 Y98.06
M204 S4000
M205 X30 Y30
G0 F12000 X86.4 Y97.421
M204 S3000
M205 X8 Y8
G1 F2250 X86.4 Y112.579 E10.1043
M204 S4000
M205 X30 Y30
G0 F12000 X88 Y113.454
M204 S3000
M205 X8 Y8
G1 F2250 X88 Y96.545 E11.45405
M204 S4000
M205 X30 Y30
G0 F12000 X89.6 Y96.029
M204 S3000
M205 X8 Y8
G1 F2250 X89.6 Y113.97 E12.88617
M204 S4000
M205 X30 Y30
G0 F12000 X91.2 Y114.235
M204 S3000
M205 X8 Y8
G1 F2250 X91.2 Y95.763 E14.36069
M204 S4000
M205 X30 Y30
G0 F12000 X92.8 Y95.533
M204 S3000
M205 X8 Y8
G1 F2250 X92.8 Y114.466 E15.872
M204 S4000
M205 X30 Y30
G0 F12000 X94.4 Y114.696
M204 S3000
M205 X8 Y8
G1 F2250 X94.4 Y95.303 E17.42004
M204 S4000
M205 X30 Y30
G0 F12000 X96 Y95.074
M204 S3000
M205 X8 Y8
G1 F2250 X96 Y114.927 E19.00479
M204 S4000
M205 X30 Y30
G0 F12000 X97.6 Y115.157
M204 S3000
M205 X8 Y8
G1 F2250 X97.6 Y94.844 E20.62626
M204 S4000
M205 X30 Y30
G0 F12000 X99.2 Y94.614
M204 S3000
M205 X8 Y8
G1 F2250 X99.2 Y115.387 E22.28445
M204 S4000
M205 X30 Y30
G0 F12000 X100.8 Y115.578
M204 S3000
M205 X8 Y8
G1 F2250 X100.8 Y94.421 E23.97329
M204 S4000
M205 X30 Y30
G0 F12000 X102.4 Y94.402
M204 S3000
M205 X8 Y8
G1 F2250 X102.4 Y115.599 E25.66533
M204 S4000
M205 X30 Y30
G0 F12000 X104 Y115.599
M204 S3000
M205 X8 Y8
G1 F2250 X104 Y94.402 E27.35737
M204 S4000
M205 X30 Y30
G0 F12000 X105.6 Y94.402
M204 S3000
M205 X8 Y8
G1 F2250 X105.6 Y115.599 E29.0494
M204 S4000
M205 X30 Y30
G0 F12000 X107.2 Y115.599
M204 S3000
M205 X8 Y8
G1 F2250 X107.2 Y94.402 E30.74144
M204 S4000
M205 X30 Y30
G0 F12000 X108.8 Y94.404
M204 S3000
M205 X8 Y8
G1 F2250 X108.8 Y115.596 E32.43308
M204 S4000
M205 X30 Y30
G0 F12000 X110.4 Y115.439
M204 S3000
M205 X8 Y8
G1 F2250 X110.4 Y94.555 E34.10013
M204 S4000
M205 X30 Y30
G0 F12000 X112 Y94.786
M204 S3000
M205 X8 Y8
G1 F2250 X112 Y115.21 E35.73046
M204 S4000
M205 X30 Y30
G0 F12000 X113.6 Y114.981
M204 S3000
M205 X8 Y8
G1 F2250 X113.6 Y95.016 E37.32415
M204 S4000
M205 X30 Y30
G0 F12000 X115.2 Y95.246
M204 S3000
M205 X8 Y8
G1 F2250 X115.2 Y114.752 E38.88121
M204 S4000
M205 X30 Y30
G0 F12000 X116.8 Y114.523
M204 S3000
M205 X8 Y8
G1 F2250 X116.8 Y95.477 E40.40154
M204 S4000
M205 X30 Y30
G0 F12000 X118.4 Y95.707
M204 S3000
M205 X8 Y8
G1 F2250 X118.4 Y114.294 E41.88523
M204 S4000
M205 X30 Y30
G0 F12000 X120 Y114.054
M204 S3000
M205 X8 Y8
G1 F2250 X120 Y95.948 E43.33053
M204 S4000
M205 X30 Y30
G0 F12000 X121.6 Y96.383
M204 S3000
M205 X8 Y8
G1 F2250 X121.6 Y113.617 E44.70623
M204 S4000
M205 X30 Y30
G0 F12000 X123.2 Y112.838
M204 S3000
M205 X8 Y8
G1 F2250 X123.2 Y97.164 E45.95739
M204 S4000
M205 X30 Y30
G0 F12000 X124.8 Y98.406
M204 S3000
M205 X8 Y8
G1 F2250 X124.8 Y111.596 E47.01027
M204 S4000
M205 X30 Y30
G0 F12000 X126.4 Y109.527
M204 S3000
M205 X8 Y8
G1 F2250 X126.4 Y100.483 E47.73221
M204 S4000
M205 X30 Y30
G0 F12000 X84.8 Y98.817
M204 S3000
M205 X8 Y8
G1 F2250 X84.8 Y111.18 E48.71907
M204 S4000
M205 X30 Y30
G0 F12000 X83.2 Y108.727
M204 S3000
M205 X8 Y8
G1 F2250 X83.2 Y101.266 E49.31464
M204 S4000
M205 X30 Y30
G1 F2400 E45.31464
G0 F600 X83.2 Y101.266 Z0.54
G0 F12000 X83.232 Y108.803
;TIME_ELAPSED:21.370532
;LAYER:-5
M140 S60
M204 S3000
M205 X8 Y8
;TYPE:SUPPORT
G1 F2400 E49.31464
G1 F2250 X83.453 Y109.257 E49.36503
G1 X83.739 Y109.763 E49.42302
G1 X84.031 Y110.217 E49.47688
G1 X84.39 Y110.703 E49.53717
G1 X84.717 Y111.092 E49.58788
G1 X85.126 Y111.524 E49.64724
G1 X85.506 Y111.881 E49.69926
G1 X85.962 Y112.259 E49.75836
G1 X86.388 Y112.571 E49.81105
G1 X86.524 Y112.663 E49.82743
G1 X86.891 Y112.894 E49.8707
G1 X87.364 Y113.158 E49.92475
G1 X87.867 Y113.399 E49.98041
G1 X87.997 Y113.453 E49.99445
G1 X83.149 Y108.605 E50.67856
G1 X83.002 Y108.25 E50.7169
G1 X82.826 Y107.739 E50.77082
G1 X82.667 Y107.167 E50.83006
G1 X82.593 Y106.836 E50.8639
G1 X82.557 Y106.64 E50.88379
G1 X82.549 Y106.591 E50.88874
G1 X90.011 Y114.053 E51.94171
G1 X90.645 Y114.155 E52.00578
G1 X91.675 Y114.303 E52.10961
G1 X82.409 Y105.036 E53.41722
G1 X82.406 Y104.962 E53.42461
G1 X82.416 Y104.579 E53.46284
G1 X82.426 Y104.407 E53.48003
G1 X82.458 Y104.028 E53.51798
G1 X82.481 Y103.832 E53.53767
G1 X82.499 Y103.712 E53.54978
G1 X93.328 Y114.541 E55.07787
G1 X94.979 Y114.778 E55.24429
G1 X82.741 Y102.54 E56.97121
G1 X82.78 Y102.397 E56.986
G1 X82.826 Y102.251 E57.00127
G1 X83.022 Y101.689 E57.06066
G1 X83.104 Y101.488 E57.08232
G1 X96.632 Y115.017 E58.99134
G1 X98.284 Y115.254 E59.15786
G1 X83.564 Y100.535 E61.23494
G1 X83.672 Y100.341 E61.2571
G1 X83.761 Y100.197 E61.27399
G1 X84.07 Y99.724 E61.33036
G1 X84.111 Y99.668 E61.33729
G1 X99.936 Y115.493 E63.57037
G1 X100.062 Y115.511 E63.58307
G1 X100.465 Y115.554 E63.62351
G1 X100.952 Y115.587 E63.67221
G1 X101.24 Y115.598 E63.70097
G1 X101.456 Y115.598 E63.72252
G1 X84.739 Y98.881 E66.08147
G1 X84.777 Y98.841 E66.08698
G1 X85.142 Y98.457 E66.13984
G1 X85.445 Y98.173 E66.18128
G1 X102.87 Y115.598 E68.64013
G1 X104.284 Y115.598 E68.78122
G1 X86.23 Y97.543 E71.32891
G1 X86.453 Y97.381 E71.35641
G1 X86.872 Y97.115 E71.40593
G1 X87.092 Y96.992 E71.43108
G1 X105.699 Y115.598 E74.05666
G1 X107.113 Y115.598 E74.19775
G1 X88.043 Y96.528 E76.88873
G1 X88.451 Y96.362 E76.93268
G1 X88.968 Y96.191 E76.98702
G1 X89.089 Y96.16 E76.99948
G1 X108.527 Y115.598 E79.74239
G1 X108.716 Y115.598 E79.76125
G1 X109.202 Y115.578 E79.80978
G1 X109.769 Y115.528 E79.86658
G1 X109.858 Y115.515 E79.87555
G1 X90.245 Y95.902 E82.64316
G1 X90.318 Y95.888 E82.65058
G1 X91.479 Y95.722 E82.7676
G1 X111.095 Y115.338 E85.53563
G1 X112.333 Y115.161 E85.66041
G1 X92.716 Y95.544 E88.42858
G1 X93.953 Y95.367 E88.55327
G1 X113.569 Y114.984 E91.32137
G1 X114.807 Y114.807 E91.44615
G1 X95.19 Y95.19 E94.21433
G1 X96.426 Y95.012 E94.33893
G1 X116.044 Y114.63 E97.10724
G1 X117.281 Y114.453 E97.23192
G1 X97.663 Y94.835 E100.00024
G1 X98.9 Y94.657 E100.12493
G1 X118.518 Y114.276 E102.89332
G1 X119.682 Y114.11 E103.01064
G1 X119.754 Y114.097 E103.01794
G1 X100.139 Y94.482 E105.78583
G1 X100.586 Y94.431 E105.83072
G1 X101.155 Y94.402 E105.88757
G1 X101.474 Y94.402 E105.9194
G1 X120.91 Y113.839 E108.6621
G1 X121.031 Y113.807 E108.67458
G1 X121.548 Y113.637 E108.72889
G1 X121.956 Y113.47 E108.77288
G1 X102.888 Y94.402 E111.46358
G1 X104.302 Y94.402 E111.60467
G1 X122.906 Y113.006 E114.22989
G1 X123.117 Y112.889 E114.25397
G1 X123.545 Y112.618 E114.30451
G1 X123.767 Y112.453 E114.33211
G1 X105.715 Y94.402 E116.87937
G1 X107.13 Y94.402 E117.02056
G1 X124.554 Y111.826 E119.47928
G1 X124.856 Y111.541 E119.52071
G1 X125.222 Y111.157 E119.57364
G1 X125.259 Y111.116 E119.57915
G1 X108.544 Y94.402 E121.93775
G1 X108.76 Y94.401 E121.9593
G1 X109.087 Y94.415 E121.99196
G1 X109.563 Y94.446 E122.03956
G1 X109.901 Y94.483 E122.07348
G1 X110.063 Y94.506 E122.08981
G1 X125.887 Y110.331 E124.32282
G1 X125.934 Y110.267 E124.33074
G1 X126.238 Y109.802 E124.38618
G1 X126.326 Y109.656 E124.40318
G1 X126.434 Y109.463 E124.42525
G1 X111.715 Y94.745 E126.50219
G1 X113.367 Y94.982 E126.66872
G1 X126.895 Y108.51 E128.57766
G1 X126.981 Y108.298 E128.60049
G1 X127.173 Y107.747 E128.65871
G1 X127.218 Y107.601 E128.67396
G1 X127.257 Y107.458 E128.68875
G1 X115.019 Y95.22 E130.41566
G1 X116.671 Y95.458 E130.5822
G1 X127.5 Y106.287 E132.11029
G1 X127.519 Y106.162 E132.1229
G1 X127.574 Y105.571 E132.18213
G1 X127.592 Y105.024 E132.23674
G1 X127.591 Y104.963 E132.24283
G1 X118.323 Y95.696 E133.55057
G1 X119.353 Y95.844 E133.6544
G1 X119.987 Y95.945 E133.71846
G1 X127.45 Y103.408 E134.77157
G1 X127.44 Y103.346 E134.77783
G1 X127.405 Y103.162 E134.79652
G1 X127.329 Y102.822 E134.83129
G1 X127.171 Y102.258 E134.88973
G1 X126.994 Y101.74 E134.94435
G1 X126.85 Y101.394 E134.98174
G1 X122.002 Y96.546 E135.66585
G1 X122.132 Y96.599 E135.67986
G1 X122.627 Y96.838 E135.7347
G1 X123.107 Y97.104 E135.78946
G1 X123.609 Y97.426 E135.84897
G1 X124.027 Y97.731 E135.9006
G1 X124.484 Y98.11 E135.95984
G1 X124.872 Y98.475 E136.01299
G1 X125.27 Y98.892 E136.07051
G1 X125.608 Y99.295 E136.12299
G1 X125.956 Y99.767 E136.18151
G1 X126.254 Y100.226 E136.23611
G1 X126.545 Y100.74 E136.29505
G1 X126.767 Y101.195 E136.34556
M204 S4000
M205 X30 Y30
G1 F2400 E132.34556
G0 F600 X126.767 Y101.195 Z0.74
G0 F12000 X125.114 Y111.566
;TIME_ELAPSED:45.583687
;LAYER:-4
M204 S3000
M205 X8 Y8
;TYPE:SUPPORT-INTERFACE
G1 F2400 E136.34556
G1 F3000 X125.369 Y111.294 E136.35797
G1 X125.448 Y111.2 E136.36205
G1 X84.545 Y111.2 E137.72249
G1 X84.227 Y110.819 E137.73899
G1 X84.213 Y110.8 E137.73978
G1 X125.784 Y110.8 E139.12244
G1 X126.084 Y110.4 E139.13907
G1 X83.918 Y110.4 E140.54151
G1 X83.869 Y110.333 E140.54427
G1 X83.652 Y110 E140.55749
G1 X126.347 Y110 E141.97754
G1 X126.41 Y109.905 E141.98133
G1 X126.585 Y109.6 E141.99302
G1 X83.415 Y109.6 E143.42886
G1 X83.279 Y109.358 E143.4381
G1 X83.201 Y109.2 E143.44396
G1 X126.796 Y109.2 E144.89393
G1 X126.947 Y108.895 E144.90525
G1 X126.987 Y108.8 E144.90868
G1 X83.012 Y108.8 E146.37129
G1 X82.847 Y108.4 E146.38569
G1 X127.155 Y108.4 E147.85938
G1 X127.172 Y108.361 E147.86079
G1 X127.297 Y108 E147.8735
G1 X82.704 Y108 E149.35667
G1 X82.633 Y107.79 E149.36404
G1 X82.58 Y107.6 E149.3706
G1 X127.423 Y107.6 E150.86208
G1 X127.516 Y107.269 E150.87352
G1 X127.53 Y107.2 E150.87586
G1 X82.47 Y107.2 E152.37456
G1 X82.385 Y106.8 E152.38816
G1 X127.616 Y106.8 E153.89255
G1 X127.64 Y106.69 E153.8963
G1 X127.684 Y106.4 E153.90605
G1 X82.317 Y106.4 E155.41497
G1 X82.275 Y106.124 E155.42425
G1 X82.263 Y106 E155.4284
G1 X127.735 Y106 E156.9408
G1 X127.773 Y105.6 E156.95416
G1 X82.227 Y105.6 E158.46903
G1 X82.225 Y105.567 E158.47013
G1 X82.214 Y105.2 E158.48234
G1 X127.787 Y105.2 E159.99811
G1 X127.793 Y105.027 E160.00386
G1 X127.787 Y104.8 E160.01142
G1 X82.213 Y104.8 E161.52721
G1 X82.228 Y104.4 E161.54053
G1 X127.773 Y104.4 E163.05536
G1 X127.737 Y104 E163.06872
G1 X82.266 Y104 E164.58109
G1 X82.284 Y103.803 E164.58767
G1 X82.316 Y103.6 E164.5945
G1 X127.683 Y103.6 E166.10342
G1 X127.639 Y103.314 E166.11304
G1 X127.615 Y103.2 E166.11692
G1 X82.384 Y103.2 E167.6213
G1 X82.471 Y102.8 E167.63492
G1 X127.53 Y102.8 E169.13359
G1 X127.525 Y102.778 E169.13434
G1 X127.421 Y102.4 E169.14738
G1 X82.577 Y102.4 E170.6389
G1 X82.636 Y102.189 E170.64618
G1 X82.703 Y102 E170.65285
G1 X127.296 Y102 E172.13602
G1 X127.184 Y101.673 E172.14752
G1 X127.154 Y101.6 E172.15014
G1 X82.844 Y101.6 E173.6239
G1 X83.013 Y101.2 E173.63834
G1 X126.988 Y101.2 E175.10096
G1 X126.953 Y101.116 E175.10398
G1 X126.799 Y100.8 E175.11567
G1 X83.203 Y100.8 E176.56568
G1 X83.314 Y100.574 E176.57406
G1 X83.415 Y100.4 E176.58075
G1 X126.585 Y100.4 E178.01659
G1 X126.429 Y100.125 E178.02711
G1 X126.348 Y100 E178.03206
G1 X83.652 Y100 E179.45213
G1 X83.91 Y99.606 E179.4678
G1 X83.915 Y99.6 E179.46806
G1 X126.084 Y99.6 E180.8706
G1 X125.788 Y99.2 E180.88716
G1 X84.214 Y99.2 E182.26991
G1 X84.237 Y99.169 E182.2712
G1 X84.551 Y98.8 E182.28731
G1 X125.455 Y98.8 E183.64778
G1 X125.423 Y98.762 E183.64944
G1 X125.08 Y98.4 E183.66602
G1 X84.922 Y98.4 E185.00168
G1 X84.996 Y98.322 E185.00526
G1 X85.344 Y98 E185.02103
G1 X124.661 Y98 E186.32872
G1 X124.62 Y97.962 E186.33058
G1 X124.184 Y97.6 E186.34942
G1 X85.82 Y97.6 E187.62542
G1 X85.861 Y97.566 E187.62719
G1 X86.333 Y97.222 E187.64661
G1 X86.368 Y97.2 E187.64799
G1 X123.629 Y97.2 E188.88729
G1 X123.21 Y96.932 E188.90384
G1 X122.974 Y96.8 E188.91283
G1 X87.028 Y96.8 E190.1084
G1 X87.277 Y96.661 E190.11788
G1 X87.808 Y96.408 E190.13745
G1 X87.828 Y96.4 E190.13816
