;FLAVOR:Marlin
;TIME:4047
;Filament used: 1.58794m, 0m, 0m, 0m
;Layer height: 0.1
;MINX:85.403
;MINY:85.349
;MINZ:0.24
;MAXX:123.597
;MAXY:123.939
;MAXZ:12.715
;Generated with Cura_SteamEngine 4.6.1
T0
M140 S60
M105
M190 S60
M104 S200
M105
M109 S200
M82 ;absolute extrusion mode
G28
G29
M501
M420 S1
G92 E0 ;zero the extruded length
G1 F200 E3 ;extrude 3mm of feed stock
G92 E0 ;zero the extruded length again
G1 F200
M117 Printing...
G5
G92 E0
G92 E0
G1 F2400 E-4
;LAYER_COUNT:194
;LAYER:-7
M107
M204 S4000
M205 X30 Y30
G0 F12000 X91.658 Y87.715 Z0.24
M204 S3000
M205 X8 Y8
;TYPE:SUPPORT-INTERFACE
G1 F2400 E0
G1 F900 X91.858 Y87.506 E0.03464
G1 X92.057 Y87.32 E0.06725
G1 X92.299 Y87.12 E0.10484
G1 X92.446 Y87.006 E0.12712
G1 X93.192 Y86.468 E0.23725
G1 X93.497 Y86.274 E0.28053
G1 X93.749 Y86.135 E0.31499
G1 X93.998 Y86.019 E0.34788
G1 X94.26 Y85.915 E0.38163
G1 X94.517 Y85.831 E0.414
G1 X94.78 Y85.764 E0.4465
G1 X95.064 Y85.711 E0.48109
G1 X95.334 Y85.676 E0.51369
G1 X95.835 Y85.65 E0.57376
G1 X96.759 Y85.654 E0.6844
G1 X97.146 Y85.679 E0.73083
G1 X97.417 Y85.712 E0.76352
G1 X97.69 Y85.765 E0.79682
G1 X97.964 Y85.837 E0.83074
G1 X98.225 Y85.922 E0.86361
G1 X98.466 Y86.018 E0.89467
G1 X98.733 Y86.145 E0.93007
G1 X98.975 Y86.278 E0.96314
G1 X99.386 Y86.546 E1.02189
G1 X100.019 Y87.007 E1.11565
G1 X100.171 Y87.125 E1.13869
G1 X100.426 Y87.337 E1.17839
G1 X100.686 Y87.588 E1.22167
G1 X101.187 Y88.061 E1.30417
G1 X101.76 Y88.478 E1.38902
G1 X102.38 Y88.818 E1.47369
G1 X103.039 Y89.079 E1.55856
G1 X103.733 Y89.256 E1.64431
G1 X104.736 Y89.35 E1.76493
G1 X109.604 Y89.354 E2.34781
G1 X109.987 Y89.378 E2.39376
G1 X110.056 Y89.387 E2.40209
G1 X110.056 Y89.404 E2.40413
G1 X111.079 Y89.46 E2.5268
G1 X111.353 Y89.492 E2.55983
G1 X111.625 Y89.542 E2.59295
G1 X111.89 Y89.607 E2.62562
G1 X112.177 Y89.698 E2.66167
G1 X112.407 Y89.788 E2.69124
G1 X112.677 Y89.913 E2.72687
G1 X112.92 Y90.044 E2.75992
G1 X113.135 Y90.179 E2.79032
G1 X113.389 Y90.361 E2.82773
G1 X113.735 Y90.647 E2.88148
G1 X114.29 Y91.046 E2.96333
G1 X114.563 Y91.201 E3.00092
G1 X114.91 Y91.407 E3.04924
G1 X115.151 Y91.572 E3.08421
G1 X115.349 Y91.727 E3.11432
G1 X115.586 Y91.937 E3.15223
G1 X115.766 Y92.119 E3.18288
G1 X115.943 Y92.323 E3.21522
G1 X116.038 Y92.444 E3.23364
G1 X116.699 Y93.16 E3.35032
G1 X117.139 Y93.555 E3.42112
G1 X117.676 Y93.98 E3.50312
G1 X118.433 Y94.449 E3.60974
G1 X118.672 Y94.625 E3.64528
G1 X118.84 Y94.766 E3.67154
G1 X119.088 Y95.007 E3.71295
G1 X119.467 Y95.439 E3.78176
G1 X119.592 Y95.595 E3.8057
G1 X120.382 Y96.69 E3.96737
G1 X120.573 Y96.992 E4.01015
G1 X120.719 Y97.257 E4.04638
G1 X120.83 Y97.495 E4.07782
G1 X120.93 Y97.751 E4.11073
G1 X121.02 Y98.029 E4.14572
G1 X121.084 Y98.276 E4.17627
G1 X121.138 Y98.566 E4.21159
G1 X121.171 Y98.843 E4.24499
G1 X121.187 Y99.108 E4.27678
G1 X121.186 Y99.395 E4.31115
G1 X121.169 Y99.639 E4.34043
G1 X121.12 Y99.977 E4.38133
G1 X121.065 Y100.664 E4.46385
G1 X121.097 Y101.37 E4.54847
G1 X121.218 Y102.069 E4.63341
G1 X121.427 Y102.743 E4.7179
G1 X121.671 Y103.295 E4.79017
G1 X121.728 Y103.406 E4.80511
G1 X121.821 Y103.615 E4.8325
G1 X121.939 Y103.928 E4.87255
G1 X122.255 Y104.91 E4.99607
G1 X122.347 Y105.267 E5.04021
G1 X122.399 Y105.547 E5.07431
G1 X122.537 Y106.633 E5.20539
G1 X122.566 Y106.627 E5.20894
G1 X122.742 Y107.324 E5.29501
G1 X122.79 Y107.574 E5.32549
G1 X122.826 Y107.854 E5.3593
G1 X122.843 Y108.148 E5.39456
G1 X122.843 Y108.414 E5.42641
G1 X122.824 Y108.7 E5.46073
G1 X122.789 Y108.974 E5.4938
G1 X122.736 Y109.251 E5.52757
G1 X122.62 Y109.688 E5.58171
G1 X122.307 Y110.639 E5.70159
G1 X121.876 Y111.721 E5.84104
G1 X121.916 Y111.736 E5.84616
G1 X121.901 Y111.79 E5.85287
G1 X121.866 Y111.784 E5.85712
G1 X121.701 Y112.823 E5.98308
G1 X121.637 Y113.106 E6.01783
G1 X121.556 Y113.385 E6.05261
G1 X121.207 Y114.37 E6.17774
G1 X121.246 Y114.381 E6.18259
G1 X121.101 Y115.192 E6.28123
G1 X121.062 Y115.625 E6.33329
G1 X121.007 Y115.999 E6.37855
G1 X120.945 Y116.287 E6.41383
G1 X120.871 Y116.548 E6.44631
G1 X120.784 Y116.799 E6.47812
G1 X120.668 Y117.073 E6.51374
G1 X120.555 Y117.301 E6.54421
G1 X120.406 Y117.557 E6.57968
G1 X120.257 Y117.78 E6.61179
G1 X120.095 Y117.991 E6.64364
G1 X119.899 Y118.216 E6.67937
G1 X119.123 Y118.993 E6.81086
G1 X119.149 Y119.019 E6.81526
G1 X118.983 Y119.206 E6.8452
G1 X118.83 Y119.41 E6.87574
G1 X118.646 Y119.627 E6.9098
G1 X118.452 Y119.827 E6.94317
G1 X118.267 Y119.997 E6.97325
G1 X118.019 Y120.196 E7.01132
G1 X117.817 Y120.339 E7.04096
G1 X117.554 Y120.5 E7.07788
G1 X117.325 Y120.621 E7.10889
G1 X117.07 Y120.736 E7.14238
G1 X116.822 Y120.83 E7.17414
G1 X116.529 Y120.919 E7.21081
G1 X116.284 Y120.978 E7.24098
G1 X116.002 Y121.027 E7.27525
G1 X115.754 Y121.054 E7.30512
G1 X115.428 Y121.065 E7.34418
G1 X114.939 Y121.047 E7.40277
G1 X114.747 Y121.031 E7.42584
G1 X114.197 Y120.968 E7.49212
G1 X113.817 Y120.933 E7.53782
G1 X113.539 Y120.888 E7.57154
G1 X113.277 Y120.829 E7.60369
G1 X113.05 Y120.763 E7.632
G1 X112.378 Y120.614 E7.71442
G1 X111.667 Y120.547 E7.79992
G1 X110.725 Y120.602 E7.91291
G1 X110.674 Y120.61 E7.91909
G1 X110.236 Y120.643 E7.97168
G1 X110.034 Y120.65 E7.99588
G1 X99.775 Y120.645 E9.22426
G1 X99.082 Y120.625 E9.30727
G1 X99.082 Y120.651 E9.31039
G1 X98.379 Y120.748 E9.39536
G1 X97.696 Y120.931 E9.48002
G1 X97.04 Y121.199 E9.56487
G1 X96.426 Y121.548 E9.64944
G1 X95.939 Y121.905 E9.72174
G1 X95.628 Y122.162 E9.77005
G1 X95.473 Y122.282 E9.79352
G1 X94.726 Y122.821 E9.90381
G1 X94.421 Y123.015 E9.94709
G1 X94.174 Y123.152 E9.98091
G1 X93.92 Y123.27 E10.01445
G1 X93.658 Y123.374 E10.0482
G1 X93.401 Y123.458 E10.08057
G1 X93.138 Y123.525 E10.11307
G1 X92.854 Y123.578 E10.14766
G1 X92.584 Y123.613 E10.18026
G1 X92.083 Y123.639 E10.24033
G1 X91.159 Y123.635 E10.35097
G1 X90.772 Y123.61 E10.3974
G1 X90.501 Y123.577 E10.43009
G1 X90.228 Y123.524 E10.46339
G1 X89.954 Y123.452 E10.49731
G1 X89.693 Y123.367 E10.53018
G1 X89.452 Y123.271 E10.56124
G1 X89.185 Y123.144 E10.59664
G1 X88.943 Y123.011 E10.62971
G1 X88.532 Y122.743 E10.68846
G1 X87.897 Y122.281 E10.78248
G1 X87.747 Y122.164 E10.80526
G1 X87.491 Y121.951 E10.84514
G1 X87.283 Y121.756 E10.87927
G1 X87.085 Y121.543 E10.9141
G1 X86.93 Y121.355 E10.94327
G1 X86.748 Y121.104 E10.98039
G1 X86.615 Y120.892 E11.01036
G1 X86.464 Y120.613 E11.04834
G1 X86.363 Y120.394 E11.07722
G1 X86.189 Y119.943 E11.1351
G1 X85.897 Y119.029 E11.24999
G1 X85.804 Y118.668 E11.29463
G1 X85.756 Y118.418 E11.32511
G1 X85.721 Y118.141 E11.35854
G1 X85.704 Y117.851 E11.39332
G1 X85.704 Y117.586 E11.42505
G1 X85.723 Y117.294 E11.46009
G1 X85.758 Y117.022 E11.49293
G1 X85.809 Y116.757 E11.52524
G1 X85.927 Y116.312 E11.58036
G1 X86.119 Y115.723 E11.65454
G1 X86.291 Y115.054 E11.73725
G1 X86.379 Y114.352 E11.82196
G1 X86.377 Y113.644 E11.90673
G1 X86.288 Y112.947 E11.99087
G1 X86.171 Y112.466 E12.05014
G1 X86.115 Y112.27 E12.07455
G1 X86.024 Y111.918 E12.11808
G1 X85.969 Y111.626 E12.15366
G1 X85.936 Y111.363 E12.1854
G1 X85.919 Y111.091 E12.21803
G1 X85.919 Y110.811 E12.25155
G1 X85.938 Y110.521 E12.28635
G1 X85.975 Y110.242 E12.32005
G1 X86.02 Y110.001 E12.34941
G1 X86.151 Y109.512 E12.41002
G1 X86.456 Y108.587 E12.52664
G1 X86.651 Y108.098 E12.58968
G1 X86.685 Y108.109 E12.59396
G1 X86.803 Y107.719 E12.64275
G1 X86.864 Y107.566 E12.66247
G1 X86.851 Y107.56 E12.66418
G1 X86.994 Y107.087 E12.72335
G1 X87.092 Y106.823 E12.75707
G1 X87.524 Y105.854 E12.8841
G1 X87.5 Y105.844 E12.88721
G1 X87.57 Y105.673 E12.90934
G1 X87.616 Y105.52 E12.92847
G1 X87.712 Y105.261 E12.96154
G1 X87.829 Y105.002 E12.99557
G1 X88.041 Y104.592 E13.05084
G1 X88.068 Y104.603 E13.05433
G1 X88.451 Y103.62 E13.18065
G1 X88.57 Y103.365 E13.21434
G1 X88.705 Y103.118 E13.24804
G1 X88.851 Y102.887 E13.28077
G1 X89.017 Y102.657 E13.31473
G1 X89.192 Y102.446 E13.34755
G1 X89.857 Y101.738 E13.46386
G1 X90.273 Y101.165 E13.54864
G1 X90.597 Y100.577 E13.62902
G1 X90.717 Y100.323 E13.66266
G1 X90.789 Y100.193 E13.68045
G1 X91.083 Y99.569 E13.76305
G1 X91.301 Y98.895 E13.84787
G1 X91.433 Y98.199 E13.93269
G1 X91.475 Y97.496 E14.01701
G1 X91.444 Y96.934 E14.08441
G1 X91.416 Y96.665 E14.11679
G1 X91.401 Y96.284 E14.16245
G1 X91.328 Y95.599 E14.24493
G1 X91.193 Y95.027 E14.3153
G1 X91.219 Y95.021 E14.3185
G1 X90.735 Y93.782 E14.47777
G1 X90.443 Y92.868 E14.59266
G1 X90.351 Y92.51 E14.63691
G1 X90.302 Y92.255 E14.66801
G1 X90.267 Y91.98 E14.7012
G1 X90.25 Y91.69 E14.73598
G1 X90.25 Y91.425 E14.76771
G1 X90.269 Y91.135 E14.80251
G1 X90.304 Y90.862 E14.83547
G1 X90.355 Y90.596 E14.8679
G1 X90.48 Y90.129 E14.92578
G1 X90.779 Y89.223 E15.04002
G1 X90.906 Y88.903 E15.08124
G1 X91.041 Y88.617 E15.11911
G1 X91.169 Y88.384 E15.15094
G1 X91.314 Y88.157 E15.18319
G1 X91.477 Y87.933 E15.21636
G1 X91.517 Y87.885 E15.22384
G0 F810 X91.658 Y87.715
M204 S4000
M205 X30 Y30
G0 F12000 X91.2 Y88.335
M204 S3000
M205 X8 Y8
G1 F900 X91.2 Y94.972 E16.01853
M204 S4000
M205 X30 Y30
G0 F12000 X91.2 Y99.207
M204 S3000
M205 X8 Y8
G1 F900 X91.2 Y123.635 E18.94346
M204 S4000
M205 X30 Y30
G0 F12000 X93.6 Y123.393
M204 S3000
M205 X8 Y8
G1 F900 X93.6 Y86.217 E23.39478
M204 S4000
M205 X30 Y30
G0 F12000 X96 Y85.651
M204 S3000
M205 X8 Y8
G1 F900 X96 Y121.861 E27.73044
M204 S4000
M205 X30 Y30
G0 F12000 X98.4 Y120.746
M204 S3000
M205 X8 Y8
G1 F900 X98.4 Y85.992 E31.89176
M204 S4000
M205 X30 Y30
G0 F12000 X100.8 Y87.696
M204 S3000
M205 X8 Y8
G1 F900 X100.8 Y120.645 E35.83696
M204 S4000
M205 X30 Y30
G0 F12000 X103.2 Y120.646
M204 S3000
M205 X8 Y8
G1 F900 X103.2 Y89.121 E39.61165
M204 S4000
M205 X30 Y30
G0 F12000 X105.6 Y89.351
M204 S3000
M205 X8 Y8
G1 F900 X105.6 Y120.647 E43.35892
M204 S4000
M205 X30 Y30
G0 F12000 X108 Y120.649
M204 S3000
M205 X8 Y8
G1 F900 X108 Y89.353 E47.1062
M204 S4000
M205 X30 Y30
G0 F12000 X110.4 Y89.423
M204 S3000
M205 X8 Y8
G1 F900 X110.4 Y120.631 E50.84293
M204 S4000
M205 X30 Y30
G0 F12000 X112.8 Y120.707
M204 S3000
M205 X8 Y8
G1 F900 X112.8 Y89.98 E54.52208
M204 S4000
M205 X30 Y30
G0 F12000 X115.2 Y91.611
M204 S3000
M205 X8 Y8
G1 F900 X115.2 Y121.056 E58.04772
M204 S4000
M205 X30 Y30
G0 F12000 X117.6 Y120.472
M204 S3000
M205 X8 Y8
G1 F900 X117.6 Y93.92 E61.22696
M204 S4000
M205 X30 Y30
G0 F12000 X120 Y96.161
M204 S3000
M205 X8 Y8
G1 F900 X120 Y118.101 E63.85398
M204 S4000
M205 X30 Y30
G0 F12000 X122.4 Y110.357
M204 S3000
M205 X8 Y8
G1 F900 X122.4 Y105.555 E64.42895
M204 S4000
M205 X30 Y30
G0 F12000 X88.8 Y102.967
M204 S3000
M205 X8 Y8
G1 F900 X88.8 Y122.917 E66.8177
M204 S4000
M205 X30 Y30
G0 F12000 X86.4 Y120.474
M204 S3000
M205 X8 Y8
G1 F900 X86.4 Y108.756 E68.22077
M204 S4000
M205 X30 Y30
G1 F2400 E64.22077
G0 F600 X86.4 Y108.756 Z0.39
G0 F12000 X86.144 Y119.802
;TIME_ELAPSED:42.578103
;LAYER:-6
M140 S60
M204 S3000
M205 X8 Y8
;TYPE:SUPPORT
G1 F2400 E68.22077
G1 F900 X89.715 Y123.373 E68.5987
G1 X89.692 Y123.366 E68.6005
G1 X89.451 Y123.269 E68.61994
G1 X89.185 Y123.143 E68.64197
G1 X88.943 Y123.01 E68.66263
G1 X88.531 Y122.741 E68.69945
G1 X87.896 Y122.28 E68.75818
G1 X87.747 Y122.163 E68.77235
G1 X87.491 Y121.949 E68.79732
G1 X87.282 Y121.755 E68.81866
G1 X87.085 Y121.542 E68.84037
G1 X86.929 Y121.354 E68.85866
G1 X86.747 Y121.103 E68.88186
G1 X86.614 Y120.891 E68.90059
G1 X86.464 Y120.611 E68.92436
G1 X86.363 Y120.393 E68.94234
G1 X86.189 Y119.942 E68.97851
M204 S4000
M205 X30 Y30
G0 F12000 X89.715 Y123.373
M204 S3000
M205 X8 Y8
G1 F900 X89.953 Y123.45 E68.99723
G1 X90.228 Y123.523 E69.01853
G1 X90.501 Y123.576 E69.03934
G1 X90.772 Y123.608 E69.05976
G1 X91.159 Y123.634 E69.08879
G1 X91.959 Y123.637 E69.14865
G1 X85.715 Y117.393 E69.80948
G1 X85.722 Y117.293 E69.81698
G1 X85.758 Y117.021 E69.83751
G1 X85.808 Y116.756 E69.85769
G1 X85.926 Y116.311 E69.89214
G1 X86.095 Y115.793 E69.93292
G1 X93.669 Y123.368 E70.73455
G1 X93.92 Y123.269 E70.75474
G1 X94.173 Y123.151 E70.77564
G1 X94.42 Y123.014 E70.79677
G1 X94.725 Y122.82 E70.82382
G1 X94.943 Y122.662 E70.84397
G1 X86.378 Y114.096 E71.75049
G1 X86.377 Y113.643 E71.78439
G1 X86.288 Y112.946 E71.83697
G1 X86.17 Y112.465 E71.87403
G1 X86.114 Y112.269 E71.88929
G1 X86.024 Y111.917 E71.91648
G1 X85.987 Y111.726 E71.93104
G1 X96.068 Y121.807 E72.99794
G1 X96.426 Y121.546 E73.0311
G1 X97.04 Y121.198 E73.08391
G1 X97.323 Y121.082 E73.1068
G1 X86.066 Y109.824 E74.29822
G1 X86.151 Y109.511 E74.32249
G1 X86.456 Y108.586 E74.39538
G1 X86.556 Y108.335 E74.4156
G1 X98.896 Y120.675 E75.72158
G1 X99.081 Y120.65 E75.73555
G1 X99.081 Y120.624 E75.73749
G1 X99.774 Y120.644 E75.78937
G1 X100.845 Y120.644 E75.86952
G1 X87.073 Y106.872 E77.32706
G1 X87.092 Y106.821 E77.33113
G1 X87.523 Y105.853 E77.41043
G1 X87.499 Y105.843 E77.41237
G1 X87.57 Y105.672 E77.42623
G1 X87.615 Y105.519 E77.43816
G1 X87.638 Y105.457 E77.44311
G1 X102.826 Y120.645 E79.0505
G1 X104.807 Y120.646 E79.19875
G1 X88.262 Y104.101 E80.94976
G1 X88.45 Y103.619 E80.98848
G1 X88.57 Y103.364 E81.00957
G1 X88.705 Y103.117 E81.03064
G1 X88.851 Y102.886 E81.05109
G1 X88.924 Y102.783 E81.06053
G1 X106.787 Y120.647 E82.95108
G1 X108.769 Y120.648 E83.09941
G1 X89.857 Y101.736 E85.10092
G1 X90.273 Y101.164 E85.15385
G1 X90.597 Y100.576 E85.20409
G1 X90.622 Y100.521 E85.20861
G1 X110.704 Y120.604 E87.33401
G1 X110.724 Y120.601 E87.33552
G1 X111.667 Y120.546 E87.40621
G1 X112.378 Y120.613 E87.45965
G1 X112.782 Y120.702 E87.49061
G1 X91.221 Y99.14 E89.77253
G1 X91.3 Y98.893 E89.79194
G1 X91.433 Y98.198 E89.84489
G1 X91.474 Y97.495 E89.89759
G1 X91.469 Y97.409 E89.90404
G1 X115.112 Y121.052 E92.40625
G1 X115.428 Y121.063 E92.42991
G1 X115.754 Y121.053 E92.45432
G1 X116.001 Y121.026 E92.47292
G1 X116.283 Y120.977 E92.49433
G1 X116.529 Y120.918 E92.51327
G1 X116.821 Y120.829 E92.53611
G1 X116.856 Y120.816 E92.5389
G1 X91.231 Y95.191 E95.25088
G1 X91.192 Y95.026 E95.26357
G1 X91.218 Y95.02 E95.26556
G1 X90.735 Y93.781 E95.36508
G1 X90.443 Y92.867 E95.43689
G1 X90.351 Y92.509 E95.46455
G1 X90.308 Y92.288 E95.4814
G1 X118.127 Y120.107 E98.42557
G1 X118.267 Y119.996 E98.43894
G1 X118.451 Y119.826 E98.45768
G1 X118.646 Y119.626 E98.47859
G1 X118.83 Y119.409 E98.49988
G1 X118.983 Y119.205 E98.51896
G1 X119.088 Y119.088 E98.53073
G1 X90.405 Y90.405 E101.56634
G1 X90.479 Y90.128 E101.58779
G1 X90.778 Y89.222 E101.65919
G1 X90.898 Y88.918 E101.68365
G1 X120.037 Y118.057 E104.76752
G1 X120.094 Y117.991 E104.77405
G1 X120.256 Y117.779 E104.79401
G1 X120.405 Y117.557 E104.81402
G1 X120.553 Y117.301 E104.83615
G1 X120.667 Y117.072 E104.85529
G1 X120.775 Y116.816 E104.87609
G1 X91.665 Y87.705 E107.95694
G1 X91.857 Y87.505 E107.97769
G1 X92.056 Y87.319 E107.99807
G1 X92.298 Y87.119 E108.02157
G1 X92.445 Y87.005 E108.03549
G1 X92.736 Y86.796 E108.0623
G1 X121.105 Y115.165 E111.06468
G1 X121.245 Y114.38 E111.12435
G1 X121.206 Y114.37 E111.12737
G1 X121.49 Y113.57 E111.1909
G1 X93.957 Y86.037 E114.1048
G1 X93.997 Y86.018 E114.10811
G1 X94.258 Y85.914 E114.12914
G1 X94.516 Y85.831 E114.14942
G1 X94.779 Y85.763 E114.16975
G1 X95.063 Y85.711 E114.19135
G1 X95.333 Y85.675 E114.21174
G1 X95.564 Y85.664 E114.22905
G1 X121.84 Y111.941 E117.00997
G1 X121.865 Y111.783 E117.02194
G1 X121.9 Y111.79 E117.02461
G1 X121.915 Y111.735 E117.02888
G1 X121.875 Y111.721 E117.03205
G1 X122.306 Y110.638 E117.11928
G1 X122.359 Y110.479 E117.13182
G1 X97.633 Y85.754 E119.7486
G1 X97.689 Y85.764 E119.75285
G1 X97.963 Y85.836 E119.77405
G1 X98.224 Y85.921 E119.7946
G1 X98.465 Y86.017 E119.81401
G1 X98.732 Y86.144 E119.83614
G1 X98.974 Y86.277 E119.8568
G1 X99.385 Y86.545 E119.89352
G1 X100.018 Y87.007 E119.95217
G1 X100.17 Y87.125 E119.96657
G1 X100.425 Y87.336 E119.99133
G1 X100.684 Y87.587 E120.01833
G1 X101.186 Y88.06 E120.06994
G1 X101.759 Y88.478 E120.12302
G1 X102.379 Y88.818 E120.17594
G1 X102.872 Y89.013 E120.21561
G1 X122.794 Y108.934 E122.32397
G1 X122.823 Y108.699 E122.34169
G1 X122.842 Y108.414 E122.36306
G1 X122.842 Y108.148 E122.38297
G1 X122.825 Y107.854 E122.40501
G1 X122.789 Y107.573 E122.42621
G1 X122.741 Y107.323 E122.44526
G1 X122.598 Y106.759 E122.4888
G1 X105.189 Y89.35 E124.33125
G1 X107.171 Y89.352 E124.47957
G1 X122.028 Y104.209 E126.05193
G1 X121.938 Y103.928 E126.07401
G1 X121.82 Y103.615 E126.09905
