;FLAVOR:Marlin
;TIME:5702
;Filament used: 5.8268m, 0m, 0m, 0m
;Layer height: 0.25
;MINX:47.353
;MINY:78.499
;MINZ:0.24
;MAXX:161.753
;MAXY:131.5
;MAXZ:15.715
;Generated with Cura_SteamEngine 4.3.0
T0
M140 S60
M105
M190 S60
M104 S215
M105
M109 S215
M82 ;absolute extrusion mode
G21 ;metric values
G90 ;absolute positioning
M82 ;set extruder to absolute mode
M107 ;start with the fan off
G28 X0 Y0 ;move X/Y to min endstops
G28 Z0 ;move Z to min endstops
G1 Z15.0 F100 ;move the platform down 15mm
G92 E0 ;zero the extruded length
G1 F200 E3 ;extrude 3mm of feed stock
G92 E0 ;zero the extruded length again
G1 F100
M117 Printing...
G5
G92 E0
G92 E0
G1 F2400 E-4
;LAYER_COUNT:58
;LAYER:-5
M107
M204 S3000
M205 X10 Y10
G0 F6000 X56.204 Y82.369 Z0.24
M204 S1800
M205 X8 Y8
;TYPE:SUPPORT-INTERFACE
G1 F2400 E0
G1 F1012.5 X57.503 Y81.53 E0.12344
G1 X57.981 Y81.258 E0.16734
G1 X59.384 Y80.547 E0.29289
G1 X59.867 Y80.334 E0.33503
G1 X61.341 Y79.771 E0.46098
G1 X61.868 Y79.601 E0.50519
G1 X63.401 Y79.194 E0.6318
G1 X63.95 Y79.081 E0.67654
G1 X65.476 Y78.844 E0.79981
G1 X66.035 Y78.787 E0.84466
G1 X67.591 Y78.709 E0.96903
G1 X146.354 Y78.7 E7.25623
G1 X146.856 Y78.701 E7.2963
G1 X147.98 Y78.746 E7.3861
G1 X148.897 Y78.848 E7.45975
G1 X149.072 Y78.873 E7.47386
G1 X149.961 Y79.037 E7.54602
G1 X150.084 Y79.065 E7.55609
G1 X150.978 Y79.299 E7.62985
G1 X151.141 Y79.348 E7.64344
G1 X151.983 Y79.635 E7.71445
G1 X152.149 Y79.698 E7.72862
G1 X152.952 Y80.039 E7.79826
G1 X153.141 Y80.127 E7.8149
G1 X154.052 Y80.601 E7.89688
G1 X154.831 Y81.076 E7.96971
G1 X154.982 Y81.176 E7.98417
G1 X155.696 Y81.687 E8.05425
G1 X155.844 Y81.8 E8.06912
G1 X156.644 Y82.473 E8.15257
G1 X157.295 Y83.095 E8.22444
G1 X157.941 Y83.791 E8.30024
G1 X158.06 Y83.93 E8.31485
G1 X158.614 Y84.621 E8.38555
G1 X158.718 Y84.76 E8.3994
G1 X159.211 Y85.475 E8.46873
G1 X159.327 Y85.659 E8.48609
G1 X159.77 Y86.415 E8.55604
G1 X159.847 Y86.557 E8.56893
G1 X160.25 Y87.376 E8.64179
G1 X160.306 Y87.502 E8.6528
G1 X160.648 Y88.347 E8.72557
G1 X160.707 Y88.512 E8.73956
G1 X160.979 Y89.359 E8.81057
G1 X161.025 Y89.521 E8.82401
G1 X161.237 Y90.395 E8.8958
G1 X161.27 Y90.553 E8.90868
G1 X161.418 Y91.445 E8.98086
G1 X161.442 Y91.631 E8.99583
G1 X161.524 Y92.515 E9.0667
G1 X161.532 Y92.667 E9.07885
G1 X161.553 Y93.4 E9.13738
G1 X161.553 Y116.586 E10.98819
G1 X161.517 Y117.592 E11.06855
G1 X161.507 Y117.727 E11.07935
G1 X161.405 Y118.644 E11.153
G1 X161.381 Y118.814 E11.16671
G1 X161.218 Y119.697 E11.23838
G1 X161.188 Y119.831 E11.24934
G1 X160.957 Y120.716 E11.32235
G1 X160.905 Y120.888 E11.3367
G1 X160.618 Y121.73 E11.40771
G1 X160.555 Y121.896 E11.42188
G1 X160.214 Y122.699 E11.49152
G1 X160.133 Y122.874 E11.50691
G1 X159.717 Y123.682 E11.57946
G1 X159.177 Y124.578 E11.66296
G1 X159.077 Y124.729 E11.67742
G1 X158.566 Y125.443 E11.74751
G1 X158.453 Y125.591 E11.76237
G1 X157.78 Y126.391 E11.84582
G1 X157.176 Y127.025 E11.91572
G1 X156.462 Y127.688 E11.9935
G1 X156.323 Y127.807 E12.00811
G1 X155.632 Y128.361 E12.0788
G1 X155.493 Y128.465 E12.09266
G1 X154.788 Y128.951 E12.16101
G1 X154.607 Y129.067 E12.17817
G1 X153.838 Y129.517 E12.2493
G1 X153.696 Y129.594 E12.26219
G1 X152.751 Y130.053 E12.34605
G1 X151.896 Y130.398 E12.41965
G1 X151.733 Y130.456 E12.43346
G1 X150.89 Y130.727 E12.50414
G1 X150.726 Y130.773 E12.51774
G1 X149.854 Y130.985 E12.58937
G1 X149.692 Y131.018 E12.60257
G1 X148.799 Y131.166 E12.67483
G1 X148.622 Y131.189 E12.68907
G1 X147.728 Y131.272 E12.76074
G1 X147.586 Y131.279 E12.77209
G1 X146.845 Y131.3 E12.83127
G1 X67.925 Y131.3 E19.131
G1 X67.251 Y131.287 E19.18481
G1 X66.695 Y131.262 E19.22924
G1 X65.248 Y131.13 E19.34523
G1 X64.701 Y131.051 E19.38934
G1 X63.134 Y130.745 E19.51679
G1 X62.578 Y130.603 E19.5626
G1 X61.128 Y130.156 E19.68372
G1 X60.572 Y129.951 E19.73102
G1 X59.152 Y129.346 E19.85423
G1 X58.607 Y129.075 E19.90282
G1 X57.265 Y128.326 E20.0255
G1 X56.788 Y128.023 E20.0706
G1 X55.53 Y127.14 E20.19329
G1 X55.076 Y126.781 E20.23949
G1 X53.909 Y125.763 E20.36311
G1 X53.497 Y125.36 E20.40911
G1 X52.461 Y124.247 E20.53049
G1 X52.078 Y123.786 E20.57833
G1 X51.149 Y122.551 E20.70169
G1 X50.845 Y122.096 E20.74537
G1 X50.02 Y120.715 E20.87378
G1 X49.765 Y120.227 E20.91774
G1 X49.106 Y118.804 E21.04292
G1 X48.902 Y118.288 E21.08721
G1 X48.404 Y116.832 E21.21004
G1 X48.258 Y116.319 E21.25262
G1 X47.902 Y114.766 E21.3798
G1 X47.807 Y114.208 E21.42498
G1 X47.622 Y112.683 E21.54761
G1 X47.585 Y112.135 E21.59145
G1 X47.56 Y110.574 E21.71607
G1 X47.578 Y110.036 E21.75904
G1 X47.721 Y108.426 E21.88807
G1 X47.801 Y107.874 E21.93259
G1 X48.116 Y106.285 E22.0619
G1 X48.237 Y105.627 E22.1153
G1 X48.275 Y104.946 E22.16975
G1 X48.226 Y104.264 E22.22433
G1 X47.931 Y102.852 E22.33947
G1 X47.692 Y101.327 E22.46269
G1 X47.635 Y100.769 E22.50747
G1 X47.556 Y99.259 E22.62817
G1 X47.557 Y98.675 E22.67478
G1 X47.64 Y97.097 E22.80092
G1 X47.705 Y96.512 E22.84791
G1 X47.953 Y94.969 E22.97265
G1 X48.076 Y94.407 E23.01858
G1 X48.467 Y92.959 E23.1383
G1 X48.653 Y92.397 E23.18556
G1 X49.215 Y90.935 E23.31059
G1 X49.442 Y90.431 E23.35471
G1 X50.162 Y89.029 E23.48052
G1 X50.442 Y88.55 E23.52481
G1 X51.304 Y87.231 E23.65059
G1 X51.559 Y86.879 E23.68528
G1 X51.645 Y86.77 E23.69637
G1 X52.579 Y85.617 E23.81481
G1 X52.991 Y85.164 E23.86369
G1 X54.101 Y84.058 E23.98877
G1 X54.515 Y83.69 E24.03299
G1 X55.744 Y82.699 E24.15901
G1 X55.935 Y82.562 E24.17778
G0 F911.2 X56.204 Y82.369
M204 S3000
M205 X10 Y10
G0 F6000 X56 Y82.515
M204 S1800
M205 X8 Y8
G1 F1012.5 X56 Y127.469 E27.7662
M204 S3000
M205 X10 Y10
G0 F6000 X57.6 Y128.512
M204 S1800
M205 X8 Y8
G1 F1012.5 X57.6 Y81.474 E31.52097
M204 S3000
M205 X10 Y10
G0 F6000 X59.2 Y80.64
M204 S1800
M205 X8 Y8
G1 F1012.5 X59.2 Y129.366 E35.41049
M204 S3000
M205 X10 Y10
G0 F6000 X60.8 Y130.035
M204 S1800
M205 X8 Y8
G1 F1012.5 X60.8 Y79.977 E39.40634
M204 S3000
M205 X10 Y10
G0 F6000 X62.4 Y79.459
M204 S1800
M205 X8 Y8
G1 F1012.5 X62.4 Y130.548 E43.48449
M204 S3000
M205 X10 Y10
G0 F6000 X64 Y130.914
M204 S1800
M205 X8 Y8
G1 F1012.5 X64 Y79.073 E47.62266
M204 S3000
M205 X10 Y10
G0 F6000 X65.6 Y78.831
M204 S1800
M205 X8 Y8
G1 F1012.5 X65.6 Y131.162 E51.79995
M204 S3000
M205 X10 Y10
G0 F6000 X67.2 Y131.284
M204 S1800
M205 X8 Y8
G1 F1012.5 X67.2 Y78.728 E55.99519
M204 S3000
M205 X10 Y10
G0 F6000 X68.8 Y78.708
M204 S1800
M205 X8 Y8
G1 F1012.5 X68.8 Y131.3 E60.19331
M204 S3000
M205 X10 Y10
G0 F6000 X70.4 Y131.3
M204 S1800
M205 X8 Y8
G1 F1012.5 X70.4 Y78.708 E64.39143
M204 S3000
M205 X10 Y10
G0 F6000 X72 Y78.708
M204 S1800
M205 X8 Y8
G1 F1012.5 X72 Y131.3 E68.58955
M204 S3000
M205 X10 Y10
G0 F6000 X73.6 Y131.3
M204 S1800
M205 X8 Y8
G1 F1012.5 X73.6 Y78.708 E72.78768
M204 S3000
M205 X10 Y10
G0 F6000 X75.2 Y78.708
M204 S1800
M205 X8 Y8
G1 F1012.5 X75.2 Y131.3 E76.9858
M204 S3000
M205 X10 Y10
G0 F6000 X76.8 Y131.3
M204 S1800
M205 X8 Y8
G1 F1012.5 X76.8 Y78.707 E81.184
M204 S3000
M205 X10 Y10
G0 F6000 X78.4 Y78.707
M204 S1800
M205 X8 Y8
G1 F1012.5 X78.4 Y131.3 E85.3822
M204 S3000
M205 X10 Y10
G0 F6000 X80 Y131.3
M204 S1800
M205 X8 Y8
G1 F1012.5 X80 Y78.707 E89.5804
M204 S3000
M205 X10 Y10
G0 F6000 X81.6 Y78.707
M204 S1800
M205 X8 Y8
G1 F1012.5 X81.6 Y131.3 E93.7786
M204 S3000
M205 X10 Y10
G0 F6000 X83.2 Y131.3
M204 S1800
M205 X8 Y8
G1 F1012.5 X83.2 Y78.707 E97.9768
M204 S3000
M205 X10 Y10
G0 F6000 X84.8 Y78.707
M204 S1800
M205 X8 Y8
G1 F1012.5 X84.8 Y131.3 E102.175
M204 S3000
M205 X10 Y10
G0 F6000 X86.4 Y131.3
M204 S1800
M205 X8 Y8
G1 F1012.5 X86.4 Y78.706 E106.37328
M204 S3000
M205 X10 Y10
G0 F6000 X88 Y78.706
M204 S1800
M205 X8 Y8
G1 F1012.5 X88 Y131.3 E110.57156
M204 S3000
M205 X10 Y10
G0 F6000 X89.6 Y131.3
M204 S1800
M205 X8 Y8
G1 F1012.5 X89.6 Y78.706 E114.76984
M204 S3000
M205 X10 Y10
G0 F6000 X91.2 Y78.706
M204 S1800
M205 X8 Y8
G1 F1012.5 X91.2 Y131.3 E118.96812
M204 S3000
M205 X10 Y10
G0 F6000 X92.8 Y131.3
M204 S1800
M205 X8 Y8
G1 F1012.5 X92.8 Y78.706 E123.1664
M204 S3000
M205 X10 Y10
G0 F6000 X94.4 Y78.705
M204 S1800
M205 X8 Y8
G1 F1012.5 X94.4 Y131.3 E127.36476
M204 S3000
M205 X10 Y10
G0 F6000 X96 Y131.3
M204 S1800
M205 X8 Y8
G1 F1012.5 X96 Y78.705 E131.56312
M204 S3000
M205 X10 Y10
G0 F6000 X97.6 Y78.705
M204 S1800
M205 X8 Y8
G1 F1012.5 X97.6 Y131.3 E135.76148
M204 S3000
M205 X10 Y10
G0 F6000 X99.2 Y131.3
M204 S1800
M205 X8 Y8
G1 F1012.5 X99.2 Y78.705 E139.95984
M204 S3000
M205 X10 Y10
G0 F6000 X100.8 Y78.705
M204 S1800
M205 X8 Y8
G1 F1012.5 X100.8 Y131.3 E144.1582
M204 S3000
M205 X10 Y10
G0 F6000 X102.4 Y131.3
M204 S1800
M205 X8 Y8
G1 F1012.5 X102.4 Y78.705 E148.35657
M204 S3000
M205 X10 Y10
G0 F6000 X104 Y78.704
M204 S1800
M205 X8 Y8
G1 F1012.5 X104 Y131.3 E152.55501
M204 S3000
M205 X10 Y10
G0 F6000 X105.6 Y131.3
M204 S1800
M205 X8 Y8
G1 F1012.5 X105.6 Y78.704 E156.75345
M204 S3000
M205 X10 Y10
G0 F6000 X107.2 Y78.704
M204 S1800
M205 X8 Y8
G1 F1012.5 X107.2 Y131.3 E160.95189
M204 S3000
M205 X10 Y10
G0 F6000 X108.8 Y131.3
M204 S1800
M205 X8 Y8
G1 F1012.5 X108.8 Y78.704 E165.15033
M204 S3000
M205 X10 Y10
G0 F6000 X110.4 Y78.704
M204 S1800
M205 X8 Y8
G1 F1012.5 X110.4 Y131.3 E169.34877
M204 S3000
M205 X10 Y10
G0 F6000 X112 Y131.3
M204 S1800
M205 X8 Y8
G1 F1012.5 X112 Y78.703 E173.54729
M204 S3000
M205 X10 Y10
G0 F6000 X113.6 Y78.703
M204 S1800
M205 X8 Y8
G1 F1012.5 X113.6 Y131.3 E177.74581
M204 S3000
M205 X10 Y10
G0 F6000 X115.2 Y131.3
M204 S1800
M205 X8 Y8
G1 F1012.5 X115.2 Y78.703 E181.94433
M204 S3000
M205 X10 Y10
G0 F6000 X116.8 Y78.703
M204 S1800
M205 X8 Y8
G1 F1012.5 X116.8 Y131.3 E186.14285
M204 S3000
M205 X10 Y10
G0 F6000 X118.4 Y131.3
M204 S1800
M205 X8 Y8
G1 F1012.5 X118.4 Y78.703 E190.34137
M204 S3000
M205 X10 Y10
G0 F6000 X120 Y78.703
M204 S1800
M205 X8 Y8
G1 F1012.5 X120 Y131.3 E194.53989
M204 S3000
M205 X10 Y10
G0 F6000 X121.6 Y131.3
M204 S1800
M205 X8 Y8
G1 F1012.5 X121.6 Y78.702 E198.73849
M204 S3000
M205 X10 Y10
G0 F6000 X123.2 Y78.702
M204 S1800
M205 X8 Y8
G1 F1012.5 X123.2 Y131.3 E202.93709
M204 S3000
M205 X10 Y10
G0 F6000 X124.8 Y131.3
M204 S1800
M205 X8 Y8
G1 F1012.5 X124.8 Y78.702 E207.13569
M204 S3000
M205 X10 Y10
G0 F6000 X126.4 Y78.702
M204 S1800
M205 X8 Y8
G1 F1012.5 X126.4 Y131.3 E211.33428
M204 S3000
M205 X10 Y10
G0 F6000 X128 Y131.3
M204 S1800
M205 X8 Y8
G1 F1012.5 X128 Y78.702 E215.53288
M204 S3000
M205 X10 Y10
G0 F6000 X129.6 Y78.701
M204 S1800
M205 X8 Y8
G1 F1012.5 X129.6 Y131.3 E219.73156
M204 S3000
M205 X10 Y10
G0 F6000 X131.2 Y131.3
M204 S1800
M205 X8 Y8
G1 F1012.5 X131.2 Y78.701 E223.93024
M204 S3000
M205 X10 Y10
G0 F6000 X132.8 Y78.701
M204 S1800
M205 X8 Y8
G1 F1012.5 X132.8 Y131.3 E228.12892
M204 S3000
M205 X10 Y10
G0 F6000 X134.4 Y131.3
M204 S1800
M205 X8 Y8
G1 F1012.5 X134.4 Y78.701 E232.3276
M204 S3000
M205 X10 Y10
G0 F6000 X136 Y78.701
M204 S1800
M205 X8 Y8
G1 F1012.5 X136 Y131.3 E236.52628
M204 S3000
M205 X10 Y10
G0 F6000 X137.6 Y131.3
M204 S1800
M205 X8 Y8
G1 F1012.5 X137.6 Y78.701 E240.72496
M204 S3000
M205 X10 Y10
G0 F6000 X139.2 Y78.7
M204 S1800
M205 X8 Y8
G1 F1012.5 X139.2 Y131.3 E244.92372
M204 S3000
M205 X10 Y10
G0 F6000 X140.8 Y131.3
M204 S1800
M205 X8 Y8
G1 F1012.5 X140.8 Y78.7 E249.12248
M204 S3000
M205 X10 Y10
G0 F6000 X142.4 Y78.7
M204 S1800
M205 X8 Y8
G1 F1012.5 X142.4 Y131.3 E253.32124
M204 S3000
M205 X10 Y10
G0 F6000 X144 Y131.3
M204 S1800
M205 X8 Y8
G1 F1012.5 X144 Y78.7 E257.52
M204 S3000
M205 X10 Y10
G0 F6000 X145.6 Y78.7
M204 S1800
M205 X8 Y8
G1 F1012.5 X145.6 Y131.3 E261.71876
M204 S3000
M205 X10 Y10
G0 F6000 X147.2 Y131.29
M204 S1800
M205 X8 Y8
G1 F1012.5 X147.2 Y78.715 E265.91552
M204 S3000
M205 X10 Y10
G0 F6000 X148.8 Y78.838
M204 S1800
M205 X8 Y8
G1 F1012.5 X148.8 Y131.166 E270.09257
M204 S3000
M205 X10 Y10
G0 F6000 X150.4 Y130.853
M204 S1800
M205 X8 Y8
G1 F1012.5 X150.4 Y79.148 E274.21989
M204 S3000
M205 X10 Y10
G0 F6000 X152 Y79.642
M204 S1800
M205 X8 Y8
G1 F1012.5 X152 Y130.357 E278.26818
M204 S3000
M205 X10 Y10
G0 F6000 X153.6 Y129.641
M204 S1800
M205 X8 Y8
G1 F1012.5 X153.6 Y80.366 E282.20152
M204 S3000
M205 X10 Y10
G0 F6000 X155.2 Y81.333
M204 S1800
M205 X8 Y8
G1 F1012.5 X155.2 Y128.667 E285.97993
M204 S3000
M205 X10 Y10
G0 F6000 X156.8 Y127.375
M204 S1800
M205 X8 Y8
G1 F1012.5 X156.8 Y82.623 E289.55222
M204 S3000
M205 X10 Y10
G0 F6000 X158.4 Y84.355
M204 S1800
M205 X8 Y8
G1 F1012.5 X158.4 Y125.655 E292.84897
M204 S3000
M205 X10 Y10
G0 F6000 X160 Y123.133
M204 S1800
M205 X8 Y8
G1 F1012.5 X160 Y86.868 E295.7438
M204 S3000
M205 X10 Y10
G0 F6000 X54.4 Y83.792
M204 S1800
M205 X8 Y8
G1 F1012.5 X54.4 Y126.191 E299.12827
M204 S3000
M205 X10 Y10
G0 F6000 X52.8 Y124.611
M204 S1800
M205 X8 Y8
G1 F1012.5 X52.8 Y85.374 E302.26034
M204 S3000
M205 X10 Y10
G0 F6000 X51.2 Y87.39
M204 S1800
M205 X8 Y8
G1 F1012.5 X51.2 Y122.618 E305.07239
M204 S3000
M205 X10 Y10
G0 F6000 X49.6 Y119.87
M204 S1800
M205 X8 Y8
G1 F1012.5 X49.6 Y90.123 E307.44692
M204 S3000
M205 X10 Y10
G0 F6000 X48 Y94.754
M204 S1800
M205 X8 Y8
G1 F1012.5 X48 Y103.182 E308.11968
M204 S3000
M205 X10 Y10
G0 F6000 X48 Y106.87
M204 S1800
M205 X8 Y8
G1 F1012.5 X48 Y115.193 E308.78406
M204 S3000
M205 X10 Y10
G0 F600 X48 Y115.193 Z0.615
G0 F6000 X50.844 Y122.095
;TIME_ELAPSED:237.067593
;LAYER:-4
M140 S60
M204 S1800
M205 X8 Y8
;TYPE:SUPPORT
G1 F1012.5 X51.149 Y122.55 E308.85238
G1 X52.077 Y123.785 E309.04506
G1 X52.46 Y124.246 E309.11981
G1 X53.496 Y125.358 E309.30937
G1 X53.909 Y125.762 E309.38143
G1 X55.075 Y126.78 E309.57449
G1 X55.53 Y127.139 E309.64677
G1 X56.788 Y128.022 E309.83847
G1 X57.265 Y128.325 E309.90895
G1 X58.055 Y128.766 E310.0218
G1 X50.044 Y120.755 E311.43485
G1 X50.02 Y120.713 E311.44088
G1 X49.764 Y120.226 E311.5095
G1 X49.106 Y118.803 E311.70504
G1 X48.902 Y118.287 E311.77425
G1 X48.855 Y118.151 E311.7922
G1 X60.701 Y129.998 E313.88178
G1 X61.127 Y130.155 E313.93841
G1 X62.578 Y130.601 E314.12774
G1 X62.768 Y130.65 E314.15222
G1 X48.204 Y116.087 E316.72105
G1 X47.902 Y114.764 E316.89031
G1 X47.82 Y114.288 E316.95055
G1 X64.553 Y131.021 E319.90206
G1 X64.7 Y131.05 E319.92075
G1 X65.248 Y131.129 E319.9898
G1 X66.158 Y131.212 E320.10378
G1 X47.62 Y112.674 E323.37367
G1 X47.585 Y112.134 E323.44116
G1 X47.569 Y111.209 E323.55655
G1 X67.653 Y131.293 E327.09913
G1 X67.925 Y131.299 E327.13307
G1 X69.073 Y131.299 E327.27625
G1 X47.596 Y109.821 E331.06464
G1 X47.712 Y108.523 E331.22717
G1 X70.487 Y131.299 E335.24451
G1 X71.902 Y131.299 E335.421
G1 X47.912 Y107.309 E339.65256
G1 X48.115 Y106.283 E339.78301
G1 X48.144 Y106.126 E339.80292
G1 X73.316 Y131.299 E344.24306
G1 X74.73 Y131.299 E344.41942
G1 X48.266 Y104.834 E349.08746
G1 X48.226 Y104.262 E349.15897
G1 X47.992 Y103.146 E349.30119
G1 X76.144 Y131.299 E354.26697
G1 X77.559 Y131.299 E354.44346
G1 X47.711 Y101.451 E359.7083
G1 X47.692 Y101.326 E359.72407
G1 X47.634 Y100.768 E359.79404
G1 X47.589 Y99.915 E359.90058
G1 X78.973 Y131.299 E365.43636
G1 X80.387 Y131.299 E365.61272
G1 X47.567 Y98.478 E371.40188
G1 X47.637 Y97.135 E371.56961
G1 X81.801 Y131.299 E377.59575
G1 X83.215 Y131.299 E377.77211
G1 X47.804 Y95.887 E384.01829
G1 X47.953 Y94.968 E384.13441
G1 X48.014 Y94.683 E384.17076
G1 X84.63 Y131.299 E390.62941
G1 X86.044 Y131.299 E390.80577
G1 X48.304 Y93.559 E397.46267
G1 X48.467 Y92.958 E397.54034
G1 X48.628 Y92.469 E397.60455
G1 X87.458 Y131.299 E404.45371
G1 X88.872 Y131.299 E404.63008
G1 X49.018 Y91.445 E411.65986
G1 X49.215 Y90.934 E411.72817
G1 X49.434 Y90.446 E411.79488
G1 X90.286 Y131.299 E419.0008
G1 X91.701 Y131.299 E419.17728
G1 X49.913 Y89.511 E426.54821
G1 X50.161 Y89.028 E426.61593
G1 X50.413 Y88.597 E426.6782
G1 X93.115 Y131.299 E434.21034
G1 X94.529 Y131.299 E434.3867
G1 X50.97 Y87.739 E442.07009
G1 X51.304 Y87.23 E442.14603
G1 X51.543 Y86.899 E442.19695
G1 X95.943 Y131.299 E450.0286
G1 X97.357 Y131.299 E450.20496
G1 X52.174 Y86.115 E458.17481
G1 X52.579 Y85.616 E458.25497
G1 X52.821 Y85.348 E458.30001
G1 X98.772 Y131.299 E466.40523
G1 X100.186 Y131.299 E466.5816
G1 X53.522 Y84.635 E474.81259
G1 X54.101 Y84.057 E474.91463
G1 X54.237 Y83.936 E474.93733
G1 X101.6 Y131.299 E483.29162
G1 X103.014 Y131.299 E483.46798
G1 X55.007 Y83.292 E491.93587
G1 X55.743 Y82.698 E492.05383
G1 X55.792 Y82.662 E492.06142
G1 X104.429 Y131.299 E500.64042
