;FLAVOR:Marlin
;TIME:8179
;Filament used: 5.8552m
;Layer height: 0.2
;MINX:62.195
;MINY:4.406
;MINZ:0.3
;MAXX:203.955
;MAXY:61.71
;MAXZ:9.9
;Generated with Cura_SteamEngine 4.8.0
M140 S60
M105
M190 S60
M104 S215
M105
M109 S215
M82 ;absolute extrusion mode
M140 S60
M105
M190 S60
M104 S200
M105
M109 S200
M82 ;absolute extrusion mode
G28
G29
M501
G92 E0 ;zero the extruded length
G1 F200 E3 ;extrude 3mm of feed stock
G92 E0 ;zero the extruded length again
G1 F100
M117 Printing...
G92 E0
G92 E0
;LAYER_COUNT:49
;LAYER:0
M107
G0 F5400 X62.545 Y29.649 Z0.3
;TYPE:SKIRT
G1 F1800 X62.81 Y29.218 E0.02524
G1 X63.139 Y28.834 E0.05047
G1 X63.525 Y28.507 E0.07571
G1 X63.957 Y28.245 E0.10092
G1 X64.425 Y28.055 E0.12611
G1 X65.017 Y27.912 E0.1565
G1 X65.104 Y27.894 E0.16093
G1 X189.157 Y4.571 E6.45839
G1 X189.839 Y4.453 E6.49292
G1 X190.343 Y4.406 E6.51818
G1 X190.847 Y4.44 E6.54338
G1 X191.097 Y4.486 E6.55606
G1 X192.216 Y4.742 E6.61333
G1 X192.543 Y4.822 E6.63013
G1 X195.185 Y5.391 E6.76496
G1 X197.919 Y5.9 E6.9037
G1 X200.611 Y6.318 E7.03962
G1 X201.242 Y6.41 E7.07143
G1 X201.733 Y6.527 E7.09661
G1 X202.2 Y6.721 E7.12184
G1 X202.631 Y6.985 E7.14706
G1 X203.015 Y7.314 E7.17228
G1 X203.342 Y7.7 E7.19752
G1 X203.604 Y8.132 E7.22273
G1 X203.795 Y8.6 E7.24795
G1 X203.91 Y9.093 E7.2732
G1 X203.954 Y9.802 E7.30864
G1 X203.955 Y55.87 E9.60699
G1 X203.945 Y56.596 E9.64321
G1 X203.898 Y57.099 E9.66841
G1 X203.772 Y57.589 E9.69366
G1 X203.571 Y58.053 E9.71888
G1 X203.299 Y58.479 E9.7441
G1 X202.964 Y58.858 E9.76933
G1 X202.573 Y59.178 E9.79454
G1 X202.137 Y59.434 E9.81977
G1 X201.666 Y59.617 E9.84498
G1 X201.204 Y59.719 E9.86858
G1 X200.421 Y59.832 E9.90805
G1 X197.665 Y60.268 E10.04726
G1 X195.031 Y60.76 E10.18094
G1 X191.08 Y61.639 E10.38288
G1 X190.58 Y61.71 E10.40807
G1 X189.881 Y61.677 E10.44298
G1 X189.45 Y61.607 E10.46477
G1 X65.471 Y38.298 E16.75847
G1 X64.76 Y38.154 E16.79466
G1 X64.274 Y38.015 E16.81988
G1 X63.816 Y37.801 E16.8451
G1 X63.397 Y37.518 E16.87033
G1 X63.028 Y37.172 E16.89557
G1 X62.719 Y36.772 E16.92078
G1 X62.476 Y36.329 E16.94599
G1 X62.306 Y35.853 E16.97121
G1 X62.213 Y35.356 E16.99643
G1 X62.2 Y34.665 E17.03091
G1 X62.204 Y31.914 E17.16816
G1 X62.195 Y31.112 E17.20818
G1 X62.234 Y30.607 E17.23345
G1 X62.351 Y30.116 E17.25863
G1 X62.545 Y29.649 E17.28386
;MESH:Knife.stl
G0 F5400 X72.769 Y34.917
;TYPE:WALL-INNER
G1 F1800 X73.249 Y34.848 E17.30805
G1 X73.694 Y34.66 E17.33215
G1 X74.076 Y34.363 E17.35629
G1 X74.368 Y33.975 E17.38052
G1 X74.548 Y33.529 E17.40451
G1 X74.61 Y33.049 E17.42866
G1 X74.541 Y32.567 E17.45295
G1 X74.353 Y32.123 E17.47701
G1 X74.056 Y31.741 E17.50115
G1 X73.67 Y31.449 E17.52529
G1 X73.222 Y31.268 E17.5494
G1 X72.742 Y31.207 E17.57354
G1 X72.261 Y31.275 E17.59778
G1 X71.816 Y31.463 E17.62188
G1 X71.434 Y31.761 E17.64605
G1 X71.142 Y32.147 E17.6702
G1 X70.961 Y32.594 E17.69426
G1 X70.9 Y33.076 E17.71849
G1 X70.968 Y33.555 E17.74263
G1 X71.156 Y34.001 E17.76678
G1 X71.456 Y34.384 E17.79105
G1 X71.841 Y34.674 E17.8151
G1 X72.287 Y34.855 E17.83911
G1 X72.769 Y34.917 E17.86336
G0 F5400 X190.769 Y53.417
G1 F1800 X191.249 Y53.348 E17.88755
G1 X191.694 Y53.16 E17.91165
G1 X192.076 Y52.863 E17.93579
G1 X192.368 Y52.475 E17.96002
G1 X192.548 Y52.029 E17.98401
G1 X192.61 Y51.549 E18.00816
G1 X192.541 Y51.067 E18.03245
G1 X192.353 Y50.623 E18.05651
G1 X192.056 Y50.241 E18.08065
G1 X191.67 Y49.949 E18.10479
G1 X191.222 Y49.768 E18.1289
G1 X190.742 Y49.707 E18.15304
G1 X190.261 Y49.775 E18.17728
G1 X189.816 Y49.963 E18.20138
G1 X189.434 Y50.261 E18.22555
G1 X189.142 Y50.647 E18.2497
G1 X188.961 Y51.094 E18.27376
G1 X188.9 Y51.576 E18.29799
G1 X188.968 Y52.056 E18.32218
G1 X189.156 Y52.5 E18.34624
G1 X189.454 Y52.882 E18.37041
G1 X189.84 Y53.174 E18.39455
G1 X190.287 Y53.355 E18.41861
G1 X190.769 Y53.417 E18.44286
G0 F5400 X190.769 Y16.417
G1 F1800 X191.249 Y16.348 E18.46705
G1 X191.694 Y16.16 E18.49115
G1 X192.076 Y15.863 E18.51529
G1 X192.368 Y15.475 E18.53952
G1 X192.548 Y15.029 E18.56352
G1 X192.61 Y14.549 E18.58766
G1 X192.541 Y14.067 E18.61195
G1 X192.353 Y13.623 E18.63601
G1 X192.056 Y13.241 E18.66015
G1 X191.67 Y12.949 E18.6843
G1 X191.222 Y12.768 E18.7084
G1 X190.742 Y12.707 E18.73254
G1 X190.261 Y12.775 E18.75678
G1 X189.816 Y12.963 E18.78088
G1 X189.434 Y13.261 E18.80505
G1 X189.142 Y13.647 E18.8292
G1 X188.961 Y14.094 E18.85326
G1 X188.9 Y14.576 E18.8775
G1 X188.968 Y15.056 E18.90168
G1 X189.156 Y15.5 E18.92574
G1 X189.454 Y15.882 E18.94991
G1 X189.84 Y16.174 E18.97406
G1 X190.287 Y16.355 E18.99812
G1 X190.769 Y16.417 E19.02236
G0 F5400 X190.257 Y10.162
G1 F1800 X200.155 Y10.162 E19.51617
G1 X200.155 Y55.962 E21.80115
G1 X190.257 Y55.962 E22.29496
G1 X189.906 Y57.826 E22.38959
G1 X66.282 Y34.584 E28.66527
G1 X66.086 Y34.548 E28.67521
G1 X66.123 Y34.352 E28.68164
G1 X66.366 Y33.062 E28.74713
G1 X66.123 Y31.771 E28.81267
G1 X66.086 Y31.575 E28.82262
G1 X66.282 Y31.539 E28.82904
G1 X189.906 Y8.297 E35.10472
G1 X190.257 Y10.162 E35.1994
G0 F5400 X190.589 Y9.762
;TYPE:WALL-OUTER
G1 F1800 X200.555 Y9.762 E35.6966
G1 X200.555 Y56.362 E38.02149
G1 X190.589 Y56.362 E38.51869
G1 X190.225 Y58.293 E38.61673
G1 X65.815 Y34.903 E44.93231
G1 X65.619 Y34.867 E44.94225
G1 X65.656 Y34.671 E44.94868
G1 X65.959 Y33.062 E45.03036
G1 X65.656 Y31.452 E45.1121
G1 X65.619 Y31.256 E45.12205
G1 X65.815 Y31.22 E45.12847
G1 X190.225 Y7.83 E51.44405
G1 X190.589 Y9.762 E51.54213
G0 F5400 X190.789 Y9.762
G0 X190.766 Y16.013
G1 F1800 X191.141 Y15.959 E51.56104
G1 X191.49 Y15.812 E51.57993
G1 X191.789 Y15.58 E51.59881
G1 X192.017 Y15.277 E51.61773
G1 X192.158 Y14.927 E51.63655
G1 X192.206 Y14.552 E51.65541
G1 X192.152 Y14.175 E51.67442
G1 X192.005 Y13.827 E51.69326
G1 X191.773 Y13.528 E51.71214
G1 X191.471 Y13.3 E51.73102
G1 X191.12 Y13.158 E51.74991
G1 X190.745 Y13.111 E51.76877
G1 X190.368 Y13.164 E51.78776
G1 X190.02 Y13.311 E51.80661
G1 X189.721 Y13.544 E51.82552
G1 X189.493 Y13.846 E51.8444
G1 X189.351 Y14.196 E51.86324
G1 X189.304 Y14.573 E51.8822
G1 X189.357 Y14.948 E51.90109
G1 X189.504 Y15.296 E51.91994
G1 X189.737 Y15.595 E51.93885
G1 X190.039 Y15.823 E51.95773
G1 X190.389 Y15.965 E51.97657
G1 X190.766 Y16.013 E51.99553
G0 F5400 X190.964 Y15.985
G0 X190.766 Y53.013
G1 F1800 X191.141 Y52.959 E52.01444
G1 X191.49 Y52.812 E52.03333
G1 X191.789 Y52.58 E52.05221
G1 X192.017 Y52.277 E52.07113
G1 X192.158 Y51.927 E52.08995
G1 X192.206 Y51.552 E52.10881
G1 X192.152 Y51.175 E52.12781
G1 X192.005 Y50.827 E52.14666
G1 X191.773 Y50.528 E52.16554
G1 X191.471 Y50.3 E52.18442
G1 X191.12 Y50.158 E52.20331
G1 X190.745 Y50.111 E52.22217
G1 X190.368 Y50.164 E52.24116
G1 X190.02 Y50.311 E52.26001
G1 X189.721 Y50.544 E52.27892
G1 X189.493 Y50.846 E52.2978
G1 X189.351 Y51.196 E52.31664
G1 X189.304 Y51.573 E52.3356
G1 X189.357 Y51.948 E52.35449
G1 X189.504 Y52.296 E52.37334
G1 X189.737 Y52.595 E52.39225
G1 X190.039 Y52.823 E52.41113
G1 X190.389 Y52.965 E52.42997
G1 X190.766 Y53.013 E52.44893
G0 F5400 X190.964 Y52.985
G0 X72.766 Y34.513
G1 F1800 X73.141 Y34.459 E52.46783
G1 X73.49 Y34.312 E52.48673
G1 X73.789 Y34.08 E52.50561
G1 X74.017 Y33.777 E52.52453
G1 X74.158 Y33.427 E52.54335
G1 X74.206 Y33.052 E52.56221
G1 X74.152 Y32.675 E52.58121
G1 X74.005 Y32.327 E52.60006
G1 X73.773 Y32.028 E52.61894
G1 X73.471 Y31.8 E52.63782
G1 X73.12 Y31.658 E52.65671
G1 X72.745 Y31.611 E52.67557
G1 X72.368 Y31.664 E52.69456
G1 X72.02 Y31.811 E52.71341
G1 X71.721 Y32.044 E52.73232
G1 X71.493 Y32.346 E52.7512
G1 X71.351 Y32.696 E52.77004
G1 X71.304 Y33.073 E52.789
G1 X71.357 Y33.448 E52.80789
G1 X71.504 Y33.797 E52.82678
G1 X71.738 Y34.096 E52.84573
G1 X72.04 Y34.323 E52.86457
G1 X72.389 Y34.465 E52.88337
G1 X72.766 Y34.513 E52.90233
G0 F5400 X72.964 Y34.485
G0 X73.354 Y35.227
;TYPE:SKIN
G1 F1800 X73.893 Y34.999 E52.93153
G1 X74.357 Y34.64 E52.9608
G1 X74.711 Y34.168 E52.99023
G1 X74.928 Y33.628 E53.01927
G1 X75.004 Y33.047 E53.0485
G1 X74.92 Y32.462 E53.07799
G1 X74.692 Y31.924 E53.10714
G1 X74.333 Y31.461 E53.13637
G1 X73.864 Y31.106 E53.16571
G1 X73.321 Y30.888 E53.19491
G1 X72.74 Y30.813 E53.22413
G1 X72.156 Y30.896 E53.25356
G1 X71.617 Y31.124 E53.28276
G1 X71.153 Y31.484 E53.31206
G1 X70.8 Y31.952 E53.3413
G1 X70.581 Y32.495 E53.37052
G1 X70.506 Y33.08 E53.39994
G1 X70.589 Y33.66 E53.42917
G1 X70.817 Y34.2 E53.45841
G1 X71.181 Y34.665 E53.48788
G1 X71.648 Y35.016 E53.51702
G1 X72.187 Y35.235 E53.54605
G1 X72.771 Y35.311 E53.57543
G1 X73.354 Y35.227 E53.60482
G0 F5400 X66.763 Y33.062
G1 F1800 X66.542 Y31.887 E53.66446
G1 X189.594 Y8.753 E59.9111
G1 X189.933 Y10.552 E60.00244
G1 X199.765 Y10.552 E60.49296
G1 X199.765 Y55.572 E62.73901
G1 X189.933 Y55.572 E63.22953
G1 X189.594 Y57.37 E63.32082
G1 X66.542 Y34.236 E69.56746
G1 X66.763 Y33.062 E69.62706
G0 F5400 X188.581 Y50.995
G1 F1800 X188.506 Y51.578 E69.65638
G1 X188.589 Y52.161 E69.68576
G1 X188.817 Y52.699 E69.71491
G1 X189.177 Y53.163 E69.74421
G1 X189.645 Y53.516 E69.77346
G1 X190.187 Y53.735 E69.80262
G1 X190.771 Y53.811 E69.832
G1 X191.354 Y53.727 E69.86139
G1 X191.893 Y53.499 E69.89059
G1 X192.357 Y53.14 E69.91986
G1 X192.711 Y52.668 E69.94929
G1 X192.928 Y52.128 E69.97833
G1 X193.004 Y51.547 E70.00756
G1 X192.92 Y50.962 E70.03704
G1 X192.692 Y50.424 E70.0662
G1 X192.333 Y49.961 E70.09543
G1 X191.864 Y49.606 E70.12477
G1 X191.321 Y49.388 E70.15396
G1 X190.74 Y49.313 E70.18319
G1 X190.156 Y49.396 E70.21262
G1 X189.617 Y49.624 E70.24182
G1 X189.153 Y49.984 E70.27112
G1 X188.8 Y50.452 E70.30036
G1 X188.581 Y50.995 E70.32957
G0 F5400 X188.589 Y15.161
G1 F1800 X188.817 Y15.699 E70.35872
G1 X189.177 Y16.163 E70.38802
G1 X189.645 Y16.516 E70.41727
G1 X190.187 Y16.735 E70.44643
G1 X190.771 Y16.811 E70.47582
G1 X191.354 Y16.727 E70.5052
G1 X191.893 Y16.499 E70.5344
G1 X192.357 Y16.14 E70.56367
G1 X192.711 Y15.668 E70.5931
G1 X192.928 Y15.128 E70.62214
G1 X193.004 Y14.547 E70.65137
G1 X192.92 Y13.962 E70.68086
G1 X192.692 Y13.424 E70.71001
G1 X192.333 Y12.961 E70.73924
G1 X191.864 Y12.606 E70.76858
G1 X191.321 Y12.388 E70.79778
G1 X190.74 Y12.313 E70.827
G1 X190.156 Y12.396 E70.85643
G1 X189.617 Y12.624 E70.88563
G1 X189.153 Y12.984 E70.91493
G1 X188.8 Y13.452 E70.94417
G1 X188.581 Y13.995 E70.97338
G1 X188.506 Y14.578 E71.00271
G1 X188.589 Y15.161 E71.03209
G0 F5400 X199.584 Y11.211
G1 F1800 X199.105 Y10.732 E71.06589
G0 F5400 X198.54 Y10.732
G1 F1800 X199.584 Y11.776 E71.13955
G0 F5400 X199.584 Y12.342
G1 F1800 X197.974 Y10.732 E71.25314
G0 F5400 X197.408 Y10.732
G1 F1800 X199.584 Y12.908 E71.40667
G0 F5400 X199.584 Y13.473
G1 F1800 X196.842 Y10.732 E71.6001
G0 F5400 X196.277 Y10.732
G1 F1800 X199.584 Y14.039 E71.83342
G0 F5400 X199.584 Y14.605
G1 F1800 X195.711 Y10.732 E72.10668
G0 F5400 X195.145 Y10.732
G1 F1800 X199.584 Y15.17 E72.41984
G0 F5400 X199.584 Y15.736
G1 F1800 X194.58 Y10.732 E72.7729
G0 F5400 X194.014 Y10.732
G1 F1800 X199.584 Y16.302 E73.1659
G0 F5400 X199.584 Y16.868
G1 F1800 X193.448 Y10.732 E73.59882
G0 F5400 X192.883 Y10.732
G1 F1800 X199.584 Y17.433 E74.07162
G0 F5400 X199.584 Y17.999
G1 F1800 X192.317 Y10.732 E74.58434
G0 F5400 X191.751 Y10.732
G1 F1800 X199.584 Y18.565 E75.137
G0 F5400 X199.584 Y19.13
G1 F1800 X191.186 Y10.732 E75.72953
G0 F5400 X190.62 Y10.732
G1 F1800 X199.584 Y19.696 E76.36199
G0 F5400 X199.584 Y20.262
G1 F1800 X192.989 Y13.667 E76.8273
G0 F5400 X193.164 Y14.408
G1 F1800 X199.584 Y20.827 E77.28023
G0 F5400 X199.584 Y21.393
G1 F1800 X193.132 Y14.941 E77.73545
G0 F5400 X193.015 Y15.39
G1 F1800 X199.584 Y21.959 E78.19893
G0 F5400 X199.584 Y22.524
G1 F1800 X192.846 Y15.786 E78.67433
G0 F5400 X192.603 Y16.11
G1 F1800 X199.584 Y23.09 E79.16685
G0 F5400 X199.584 Y23.656
G1 F1800 X192.323 Y16.394 E79.67918
G0 F5400 X192.003 Y16.641
G1 F1800 X199.584 Y24.221 E80.21403
G0 F5400 X199.584 Y24.787
G1 F1800 X191.611 Y16.814 E80.77657
G0 F5400 X191.167 Y16.935
G1 F1800 X199.584 Y25.353 E81.37047
G0 F5400 X199.584 Y25.918
G1 F1800 X190.641 Y16.976 E82.00141
G0 F5400 X189.922 Y16.822
G1 F1800 X199.584 Y26.484 E82.68311
G0 F5400 X199.584 Y27.05
G1 F1800 X182.756 Y10.222 E83.87042
G0 F5400 X182.28 Y10.311
G1 F1800 X199.584 Y27.616 E85.09135
G0 F5400 X199.584 Y28.181
G1 F1800 X181.804 Y10.401 E86.34582
G0 F5400 X181.328 Y10.491
G1 F1800 X199.584 Y28.747 E87.63388
G0 F5400 X199.584 Y29.313
G1 F1800 X180.851 Y10.58 E88.9556
G0 F5400 X180.375 Y10.67
G1 F1800 X199.584 Y29.878 E90.31086
G0 F5400 X199.584 Y30.444
G1 F1800 X179.899 Y10.759 E91.69974
G0 F5400 X179.423 Y10.849
G1 F1800 X199.584 Y31.01 E93.12221
G0 F5400 X199.584 Y31.575
G1 F1800 X178.947 Y10.938 E94.57826
G0 F5400 X178.47 Y11.028
G1 F1800 X199.584 Y32.141 E96.06793
G0 F5400 X199.584 Y32.707
G1 F1800 X177.995 Y11.117 E97.59119
G0 F5400 X177.518 Y11.206
G1 F1800 X199.584 Y33.272 E99.14806
G0 F5400 X199.584 Y33.838
G1 F1800 X177.042 Y11.296 E100.73852
G0 F5400 X176.566 Y11.386
G1 F1800 X199.584 Y34.404 E102.36257
G0 F5400 X199.584 Y34.969
G1 F1800 X176.09 Y11.475 E104.0202
G0 F5400 X175.614 Y11.565
G1 F1800 X199.584 Y35.535 E105.71141
G0 F5400 X199.584 Y36.101
G1 F1800 X175.137 Y11.654 E107.43628
G0 F5400 X174.661 Y11.744
G1 F1800 X199.584 Y36.667 E109.19473
G0 F5400 X199.584 Y37.232
G1 F1800 X174.185 Y11.834 E110.98673
G0 F5400 X173.709 Y11.923
G1 F1800 X199.584 Y37.798 E112.81235
G0 F5400 X199.584 Y38.364
G1 F1800 X173.233 Y12.013 E114.67156
G0 F5400 X172.756 Y12.102
G1 F1800 X199.584 Y38.929 E116.56438
G0 F5400 X199.584 Y39.495
G1 F1800 X172.28 Y12.191 E118.49083
G0 F5400 X171.805 Y12.281
G1 F1800 X199.584 Y40.061 E120.45082
G0 F5400 X199.584 Y40.626
G1 F1800 X171.328 Y12.37 E122.44443
G0 F5400 X170.852 Y12.46
G1 F1800 X199.584 Y41.192 E124.47163
G0 F5400 X199.584 Y41.758
G1 F1800 X170.375 Y12.549 E126.53248
G0 F5400 X169.9 Y12.639
G1 F1800 X199.584 Y42.323 E128.62685
G0 F5400 X199.584 Y42.889
G1 F1800 X169.424 Y12.729 E130.7548
G0 F5400 X168.947 Y12.818
G1 F1800 X199.584 Y43.455 E132.91641
G0 F5400 X199.584 Y44.02
G1 F1800 X168.471 Y12.908 E135.11156
G0 F5400 X167.995 Y12.997
G1 F1800 X199.584 Y44.586 E137.34034
G0 F5400 X199.584 Y45.152
G1 F1800 X167.519 Y13.087 E139.6027
G0 F5400 X167.043 Y13.176
G1 F1800 X199.584 Y45.717 E141.89864
G0 F5400 X199.584 Y46.283
G1 F1800 X166.566 Y13.266 E144.2282
G0 F5400 X166.09 Y13.355
G1 F1800 X199.584 Y46.849 E146.59139
G0 F5400 X199.584 Y47.415
G1 F1800 X165.614 Y13.444 E148.98819
G0 F5400 X165.138 Y13.534
G1 F1800 X199.584 Y47.98 E151.41854
G0 F5400 X199.584 Y48.546
G1 F1800 X164.662 Y13.624 E153.88247
G0 F5400 X164.185 Y13.713
G1 F1800 X199.584 Y49.112 E156.38007
G0 F5400 X199.584 Y49.677
G1 F1800 X163.71 Y13.803 E158.91117
G0 F5400 X163.233 Y13.892
G1 F1800 X199.584 Y50.243 E161.47593
G0 F5400 X199.584 Y50.809
G1 F1800 X162.757 Y13.982 E164.07427
G0 F5400 X162.281 Y14.072
G1 F1800 X199.584 Y51.374 E166.70617
G0 F5400 X199.584 Y51.94
G1 F1800 X161.805 Y14.161 E169.37168
G0 F5400 X161.329 Y14.251
G1 F1800 X199.584 Y52.506 E172.07078
G0 F5400 X199.584 Y53.071
G1 F1800 X160.852 Y14.34 E174.80349
G0 F5400 X160.376 Y14.429
G1 F1800 X199.584 Y53.637 E177.56983
G0 F5400 X199.584 Y54.203
G1 F1800 X159.9 Y14.519 E180.36975
G0 F5400 X159.424 Y14.608
G1 F1800 X199.584 Y54.768 E183.20325
G0 F5400 X199.584 Y55.334
G1 F1800 X158.948 Y14.698 E186.07034
G0 F5400 X158.471 Y14.787
G1 F1800 X199.076 Y55.391 E188.93521
G0 F5400 X198.51 Y55.391
G1 F1800 X157.995 Y14.877 E191.79373
G0 F5400 X157.52 Y14.967
G1 F1800 X192.15 Y49.597 E194.23706
G1 X192.22 Y49.667
G0 F5400 X192.721 Y50.168
G1 F1800 X197.944 Y55.391 E194.60557
G0 F5400 X197.378 Y55.391
G1 F1800 X193.125 Y51.138 E194.90564
G0 F5400 X193.159 Y51.738
G1 F1800 X196.813 Y55.391 E195.16342
G0 F5400 X196.247 Y55.391
G1 F1800 X193.081 Y52.225 E195.3868
G0 F5400 X192.919 Y52.629
G1 F1800 X195.681 Y55.391 E195.58167
G0 F5400 X195.116 Y55.391
G1 F1800 X192.702 Y52.978 E195.75195
G0 F5400 X192.453 Y53.294
G1 F1800 X194.55 Y55.391 E195.89991
G0 F5400 X193.984 Y55.391
G1 F1800 X192.133 Y53.54 E196.03051
G0 F5400 X191.773 Y53.745
G1 F1800 X193.419 Y55.391 E196.14664
G0 F5400 X192.853 Y55.391
G1 F1800 X191.367 Y53.906 E196.25145
G0 F5400 X190.873 Y53.977
G1 F1800 X192.287 Y55.391 E196.35122
G0 F5400 X191.722 Y55.391
