;FLAVOR:Marlin
;TIME:11696
;Filament used: 22.055m, 0m, 0m, 0m
;Layer height: 0.3
;MINX:55.199
;MINY:82.396
;MINZ:0.24
;MAXX:157.748
;MAXY:123.3
;MAXZ:70.34
;Generated with Cura_SteamEngine 4.6.1
T0
M140 S60
M105
M190 S60
M104 S215
M105
M109 S215
M82 ;absolute extrusion mode
G21 ;metric values
G90 ;absolute positioning
M82 ;set extruder to absolute mode
M107 ;start with the fan off
G28 X0 Y0 ;move X/Y to min endstops
G28 Z0 ;move Z to min endstops
G1 Z15.0 F100 ;move the platform down 15mm
G92 E0 ;zero the extruded length
G1 F200 E3 ;extrude 3mm of feed stock
G92 E0 ;zero the extruded length again
G1 F100
M117 Printing...
G5
G92 E0
G92 E0
G1 F2400 E-4
;LAYER_COUNT:230
;LAYER:-5
M107
M204 S3000
M205 X10 Y10
G0 F6000 X57.439 Y87.688 Z0.24
M204 S1800
M205 X8 Y8
;TYPE:SUPPORT-INTERFACE
G1 F2400 E0
G1 F1012.5 X57.698 Y87.526 E0.02439
G1 X57.937 Y87.398 E0.04603
G1 X58.212 Y87.271 E0.07021
G1 X58.473 Y87.169 E0.09258
G1 X58.776 Y87.074 E0.11792
G1 X58.997 Y87.02 E0.13608
G1 X59.353 Y86.96 E0.1649
G1 X59.987 Y86.906 E0.21569
G1 X60.654 Y86.833 E0.26925
G1 X61.317 Y86.674 E0.32368
G1 X61.956 Y86.432 E0.37822
G1 X62.559 Y86.111 E0.43275
G1 X63.117 Y85.717 E0.48728
G1 X63.62 Y85.256 E0.54174
G1 X64.07 Y84.722 E0.59748
G1 X64.324 Y84.377 E0.63168
G1 X64.515 Y84.148 E0.65549
G1 X64.727 Y83.924 E0.68011
G1 X64.929 Y83.737 E0.70208
G1 X65.159 Y83.549 E0.72579
G1 X65.387 Y83.385 E0.74821
G1 X65.646 Y83.223 E0.7726
G1 X65.885 Y83.095 E0.79424
G1 X66.16 Y82.968 E0.81842
G1 X66.421 Y82.866 E0.84079
G1 X66.724 Y82.771 E0.86613
G1 X66.945 Y82.717 E0.88429
G1 X67.301 Y82.657 E0.91311
G1 X67.855 Y82.607 E0.95751
G1 X68.077 Y82.597 E0.97525
G1 X152.872 Y82.597 E7.74396
G1 X152.998 Y82.601 E7.75402
G1 X153.375 Y82.625 E7.78417
G1 X153.673 Y82.662 E7.80814
G1 X153.957 Y82.717 E7.83124
G1 X154.248 Y82.793 E7.85524
G1 X154.506 Y82.877 E7.8769
G1 X154.785 Y82.988 E7.90087
G1 X155.043 Y83.11 E7.92365
G1 X155.301 Y83.253 E7.9472
G1 X155.54 Y83.405 E7.96981
G1 X155.787 Y83.587 E7.9943
G1 X155.988 Y83.756 E8.01526
G1 X156.221 Y83.976 E8.04084
G1 X156.408 Y84.178 E8.06282
G1 X156.596 Y84.408 E8.08653
G1 X156.76 Y84.636 E8.10895
G1 X156.922 Y84.895 E8.13333
G1 X157.05 Y85.134 E8.15497
G1 X157.177 Y85.409 E8.17915
G1 X157.281 Y85.675 E8.20195
G1 X157.373 Y85.97 E8.22662
G1 X157.429 Y86.198 E8.24536
G1 X157.488 Y86.549 E8.27377
G1 X157.538 Y87.104 E8.31825
G1 X157.548 Y87.326 E8.33599
G1 X157.544 Y111.247 E10.24547
G1 X157.52 Y111.624 E10.27562
G1 X157.483 Y111.922 E10.29959
G1 X157.428 Y112.206 E10.32269
G1 X157.352 Y112.497 E10.34669
G1 X157.268 Y112.755 E10.36835
G1 X157.157 Y113.034 E10.39232
G1 X157.035 Y113.292 E10.4151
G1 X156.892 Y113.55 E10.43865
G1 X156.74 Y113.789 E10.46126
G1 X156.558 Y114.036 E10.48575
G1 X156.389 Y114.237 E10.50671
G1 X156.07 Y114.575 E10.54381
G1 X155.64 Y115.09 E10.59737
G1 X155.273 Y115.666 E10.65189
G1 X154.982 Y116.283 E10.70634
G1 X154.77 Y116.932 E10.76084
G1 X154.641 Y117.603 E10.81538
G1 X154.6 Y118.267 E10.86849
G1 X154.596 Y118.55 E10.89108
G1 X154.572 Y118.927 E10.92123
G1 X154.535 Y119.225 E10.9452
G1 X154.48 Y119.509 E10.9683
G1 X154.404 Y119.8 E10.9923
G1 X154.32 Y120.058 E11.01396
G1 X154.209 Y120.337 E11.03793
G1 X154.087 Y120.595 E11.06071
G1 X153.944 Y120.853 E11.08426
G1 X153.792 Y121.092 E11.10687
G1 X153.619 Y121.327 E11.13016
G1 X153.438 Y121.544 E11.15272
G1 X153.224 Y121.77 E11.17756
G1 X153.019 Y121.96 E11.19988
G1 X152.789 Y122.148 E11.22359
G1 X152.561 Y122.312 E11.24601
G1 X152.302 Y122.474 E11.27039
G1 X152.063 Y122.602 E11.29203
G1 X151.788 Y122.729 E11.31621
G1 X151.527 Y122.831 E11.33858
G1 X151.224 Y122.926 E11.36393
G1 X151.003 Y122.98 E11.38209
G1 X150.647 Y123.04 E11.41091
G1 X150.093 Y123.09 E11.45531
G1 X149.871 Y123.1 E11.47305
G1 X60.076 Y123.1 E18.64088
G1 X59.573 Y123.072 E18.68109
G1 X59.275 Y123.035 E18.70506
G1 X58.991 Y122.98 E18.72815
G1 X58.7 Y122.904 E18.75216
G1 X58.44 Y122.819 E18.77399
G1 X58.163 Y122.709 E18.79778
G1 X57.904 Y122.586 E18.82067
G1 X57.647 Y122.444 E18.84411
G1 X57.408 Y122.292 E18.86672
G1 X57.161 Y122.11 E18.89121
G1 X56.96 Y121.941 E18.91217
G1 X56.727 Y121.721 E18.93775
G1 X56.54 Y121.519 E18.95973
G1 X56.348 Y121.284 E18.98395
G1 X56.188 Y121.061 E19.00586
G1 X56.026 Y120.802 E19.03024
G1 X55.898 Y120.563 E19.05189
G1 X55.771 Y120.288 E19.07607
G1 X55.669 Y120.027 E19.09843
G1 X55.574 Y119.724 E19.12378
G1 X55.518 Y119.495 E19.1426
G1 X55.46 Y119.147 E19.17076
G1 X55.41 Y118.593 E19.21516
G1 X55.4 Y118.371 E19.2329
G1 X55.404 Y91.45 E21.38185
G1 X55.428 Y91.073 E21.41201
G1 X55.465 Y90.775 E21.43598
G1 X55.52 Y90.491 E21.45907
G1 X55.596 Y90.2 E21.48308
G1 X55.68 Y89.942 E21.50474
G1 X55.791 Y89.663 E21.52871
G1 X55.913 Y89.405 E21.55149
G1 X56.059 Y89.142 E21.5755
G1 X56.208 Y88.908 E21.59764
G1 X56.39 Y88.661 E21.62213
G1 X56.559 Y88.46 E21.6431
G1 X56.779 Y88.227 E21.66868
G1 X56.981 Y88.04 E21.69065
G1 X57.211 Y87.852 E21.71436
G1 X57.439 Y87.688 E21.73678
M204 S3000
M205 X10 Y10
G0 F6000 X77.755 Y96.841
M204 S1800
M205 X8 Y8
G1 F1012.5 X77.231 Y97.279 E21.7913
G1 X76.767 Y97.779 E21.84575
G1 X76.368 Y98.335 E21.90038
G1 X76.044 Y98.935 E21.95481
G1 X75.798 Y99.571 E22.00924
G1 X75.632 Y100.24 E22.06426
G1 X75.548 Y101.179 E22.13952
G1 X75.548 Y105.513 E22.48548
G1 X75.59 Y106.181 E22.5389
G1 X75.719 Y106.852 E22.59345
G1 X75.932 Y107.501 E22.64797
G1 X76.224 Y108.118 E22.70246
G1 X76.592 Y108.693 E22.75695
G1 X77.03 Y109.217 E22.81147
G1 X77.53 Y109.681 E22.86592
G1 X78.086 Y110.08 E22.92055
G1 X78.686 Y110.404 E22.97498
G1 X79.322 Y110.65 E23.02941
G1 X79.991 Y110.816 E23.08444
G1 X80.93 Y110.9 E23.15969
G1 X139.961 Y110.9 E27.8718
G1 X140.629 Y110.858 E27.92523
G1 X141.3 Y110.729 E27.97977
G1 X141.949 Y110.516 E28.03429
G1 X142.566 Y110.224 E28.08878
G1 X143.141 Y109.856 E28.14328
G1 X143.665 Y109.418 E28.19779
G1 X144.129 Y108.918 E28.25224
G1 X144.528 Y108.362 E28.30687
G1 X144.852 Y107.762 E28.3613
G1 X145.098 Y107.126 E28.41574
G1 X145.264 Y106.457 E28.47076
G1 X145.348 Y105.518 E28.54601
G1 X145.348 Y101.184 E28.89197
G1 X145.306 Y100.516 E28.9454
G1 X145.177 Y99.845 E28.99994
G1 X144.964 Y99.196 E29.05447
G1 X144.672 Y98.579 E29.10896
G1 X144.304 Y98.004 E29.16345
G1 X143.866 Y97.48 E29.21797
G1 X143.366 Y97.016 E29.27242
G1 X142.81 Y96.617 E29.32704
G1 X142.21 Y96.293 E29.38148
G1 X141.574 Y96.047 E29.43591
G1 X140.905 Y95.881 E29.49093
G1 X139.966 Y95.797 E29.56619
G1 X80.935 Y95.797 E34.2783
G1 X80.267 Y95.839 E34.33172
G1 X79.596 Y95.968 E34.38627
G1 X78.947 Y96.181 E34.44079
G1 X78.33 Y96.473 E34.49528
G1 X77.755 Y96.841 E34.54977
M204 S3000
M205 X10 Y10
G0 F6000 X78.4 Y96.44
M204 S1800
M205 X8 Y8
G1 F1012.5 X78.4 Y82.597 E35.65478
M204 S3000
M205 X10 Y10
G0 F6000 X76.8 Y82.597
M204 S1800
M205 X8 Y8
G1 F1012.5 X76.8 Y97.744 E36.86388
M204 S3000
M205 X10 Y10
G0 F6000 X80 Y95.891
M204 S1800
M205 X8 Y8
G1 F1012.5 X80 Y82.597 E37.92507
M204 S3000
M205 X10 Y10
G0 F6000 X81.6 Y82.597
M204 S1800
M205 X8 Y8
G1 F1012.5 X81.6 Y95.797 E38.97875
M204 S3000
M205 X10 Y10
G0 F6000 X83.2 Y95.797
M204 S1800
M205 X8 Y8
G1 F1012.5 X83.2 Y82.597 E40.03243
M204 S3000
M205 X10 Y10
G0 F6000 X84.8 Y82.597
M204 S1800
M205 X8 Y8
G1 F1012.5 X84.8 Y95.797 E41.08611
M204 S3000
M205 X10 Y10
G0 F6000 X86.4 Y95.797
M204 S1800
M205 X8 Y8
G1 F1012.5 X86.4 Y82.597 E42.13979
M204 S3000
M205 X10 Y10
G0 F6000 X88 Y82.597
M204 S1800
M205 X8 Y8
G1 F1012.5 X88 Y95.797 E43.19347
M204 S3000
M205 X10 Y10
G0 F6000 X89.6 Y95.797
M204 S1800
M205 X8 Y8
G1 F1012.5 X89.6 Y82.597 E44.24715
M204 S3000
M205 X10 Y10
G0 F6000 X91.2 Y82.597
M204 S1800
M205 X8 Y8
G1 F1012.5 X91.2 Y95.797 E45.30083
M204 S3000
M205 X10 Y10
G0 F6000 X92.8 Y95.797
M204 S1800
M205 X8 Y8
G1 F1012.5 X92.8 Y82.597 E46.35451
M204 S3000
M205 X10 Y10
G0 F6000 X94.4 Y82.597
M204 S1800
M205 X8 Y8
G1 F1012.5 X94.4 Y95.797 E47.4082
M204 S3000
M205 X10 Y10
G0 F6000 X96 Y95.797
M204 S1800
M205 X8 Y8
G1 F1012.5 X96 Y82.597 E48.46188
M204 S3000
M205 X10 Y10
G0 F6000 X97.6 Y82.597
M204 S1800
M205 X8 Y8
G1 F1012.5 X97.6 Y95.797 E49.51556
M204 S3000
M205 X10 Y10
G0 F6000 X99.2 Y95.797
M204 S1800
M205 X8 Y8
G1 F1012.5 X99.2 Y82.597 E50.56924
M204 S3000
M205 X10 Y10
G0 F6000 X100.8 Y82.597
M204 S1800
M205 X8 Y8
G1 F1012.5 X100.8 Y95.797 E51.62292
M204 S3000
M205 X10 Y10
G0 F6000 X102.4 Y95.797
M204 S1800
M205 X8 Y8
G1 F1012.5 X102.4 Y82.597 E52.6766
M204 S3000
M205 X10 Y10
G0 F6000 X104 Y82.597
M204 S1800
M205 X8 Y8
G1 F1012.5 X104 Y95.797 E53.73028
M204 S3000
M205 X10 Y10
G0 F6000 X105.6 Y95.797
M204 S1800
M205 X8 Y8
G1 F1012.5 X105.6 Y82.597 E54.78396
M204 S3000
M205 X10 Y10
G0 F6000 X107.2 Y82.597
M204 S1800
M205 X8 Y8
G1 F1012.5 X107.2 Y95.797 E55.83764
M204 S3000
M205 X10 Y10
G0 F6000 X108.8 Y95.797
M204 S1800
M205 X8 Y8
G1 F1012.5 X108.8 Y82.597 E56.89133
M204 S3000
M205 X10 Y10
G0 F6000 X110.4 Y82.597
M204 S1800
M205 X8 Y8
G1 F1012.5 X110.4 Y95.797 E57.94501
M204 S3000
M205 X10 Y10
G0 F6000 X112 Y95.797
M204 S1800
M205 X8 Y8
G1 F1012.5 X112 Y82.597 E58.99869
M204 S3000
M205 X10 Y10
G0 F6000 X113.6 Y82.597
M204 S1800
M205 X8 Y8
G1 F1012.5 X113.6 Y95.797 E60.05237
M204 S3000
M205 X10 Y10
G0 F6000 X115.2 Y95.797
M204 S1800
M205 X8 Y8
G1 F1012.5 X115.2 Y82.597 E61.10605
M204 S3000
M205 X10 Y10
G0 F6000 X116.8 Y82.597
M204 S1800
M205 X8 Y8
G1 F1012.5 X116.8 Y95.797 E62.15973
M204 S3000
M205 X10 Y10
G0 F6000 X118.4 Y95.797
M204 S1800
M205 X8 Y8
G1 F1012.5 X118.4 Y82.597 E63.21341
M204 S3000
M205 X10 Y10
G0 F6000 X120 Y82.597
M204 S1800
M205 X8 Y8
G1 F1012.5 X120 Y95.797 E64.26709
M204 S3000
M205 X10 Y10
G0 F6000 X121.6 Y95.797
M204 S1800
M205 X8 Y8
G1 F1012.5 X121.6 Y82.597 E65.32077
M204 S3000
M205 X10 Y10
G0 F6000 X123.2 Y82.597
M204 S1800
M205 X8 Y8
G1 F1012.5 X123.2 Y95.797 E66.37446
M204 S3000
M205 X10 Y10
G0 F6000 X124.8 Y95.797
M204 S1800
M205 X8 Y8
G1 F1012.5 X124.8 Y82.597 E67.42814
M204 S3000
M205 X10 Y10
G0 F6000 X126.4 Y82.597
M204 S1800
M205 X8 Y8
G1 F1012.5 X126.4 Y95.797 E68.48182
M204 S3000
M205 X10 Y10
G0 F6000 X128 Y95.797
M204 S1800
M205 X8 Y8
G1 F1012.5 X128 Y82.597 E69.5355
M204 S3000
M205 X10 Y10
G0 F6000 X129.6 Y82.597
M204 S1800
M205 X8 Y8
G1 F1012.5 X129.6 Y95.797 E70.58918
M204 S3000
M205 X10 Y10
G0 F6000 X131.2 Y95.797
M204 S1800
M205 X8 Y8
G1 F1012.5 X131.2 Y82.597 E71.64286
M204 S3000
M205 X10 Y10
G0 F6000 X132.8 Y82.597
M204 S1800
M205 X8 Y8
G1 F1012.5 X132.8 Y95.797 E72.69654
M204 S3000
M205 X10 Y10
G0 F6000 X134.4 Y95.797
M204 S1800
M205 X8 Y8
G1 F1012.5 X134.4 Y82.597 E73.75022
M204 S3000
M205 X10 Y10
G0 F6000 X136 Y82.597
M204 S1800
M205 X8 Y8
G1 F1012.5 X136 Y95.797 E74.8039
M204 S3000
M205 X10 Y10
G0 F6000 X137.6 Y95.797
M204 S1800
M205 X8 Y8
G1 F1012.5 X137.6 Y82.597 E75.85759
M204 S3000
M205 X10 Y10
G0 F6000 X139.2 Y82.597
M204 S1800
M205 X8 Y8
G1 F1012.5 X139.2 Y95.797 E76.91127
M204 S3000
M205 X10 Y10
G0 F6000 X140.8 Y95.871
M204 S1800
M205 X8 Y8
G1 F1012.5 X140.8 Y82.597 E77.97085
M204 S3000
M205 X10 Y10
G0 F6000 X142.4 Y82.597
M204 S1800
M205 X8 Y8
G1 F1012.5 X142.4 Y96.395 E79.07227
M204 S3000
M205 X10 Y10
G0 F6000 X144 Y97.64
M204 S1800
M205 X8 Y8
G1 F1012.5 X144 Y82.597 E80.27307
M204 S3000
M205 X10 Y10
G0 F6000 X145.6 Y82.597
M204 S1800
M205 X8 Y8
G1 F1012.5 X145.6 Y123.1 E83.50619
M204 S3000
M205 X10 Y10
G0 F6000 X144 Y123.1
M204 S1800
M205 X8 Y8
G1 F1012.5 X144 Y109.057 E84.62717
M204 S3000
M205 X10 Y10
G0 F6000 X142.4 Y110.302
M204 S1800
M205 X8 Y8
G1 F1012.5 X142.4 Y123.1 E85.64876
M204 S3000
M205 X10 Y10
G0 F6000 X140.8 Y123.1
M204 S1800
M205 X8 Y8
G1 F1012.5 X140.8 Y110.825 E86.6286
M204 S3000
M205 X10 Y10
G0 F6000 X139.2 Y110.9
M204 S1800
M205 X8 Y8
G1 F1012.5 X139.2 Y123.1 E87.60246
M204 S3000
M205 X10 Y10
G0 F6000 X137.6 Y123.1
M204 S1800
M205 X8 Y8
G1 F1012.5 X137.6 Y110.9 E88.57631
M204 S3000
M205 X10 Y10
G0 F6000 X136 Y110.9
M204 S1800
M205 X8 Y8
G1 F1012.5 X136 Y123.1 E89.55017
M204 S3000
M205 X10 Y10
G0 F6000 X134.4 Y123.1
M204 S1800
M205 X8 Y8
G1 F1012.5 X134.4 Y110.9 E90.52403
M204 S3000
M205 X10 Y10
G0 F6000 X132.8 Y110.9
M204 S1800
M205 X8 Y8
G1 F1012.5 X132.8 Y123.1 E91.49788
M204 S3000
M205 X10 Y10
G0 F6000 X131.2 Y123.1
M204 S1800
M205 X8 Y8
G1 F1012.5 X131.2 Y110.9 E92.47174
M204 S3000
M205 X10 Y10
G0 F6000 X129.6 Y110.9
M204 S1800
M205 X8 Y8
G1 F1012.5 X129.6 Y123.1 E93.4456
M204 S3000
M205 X10 Y10
G0 F6000 X128 Y123.1
M204 S1800
M205 X8 Y8
G1 F1012.5 X128 Y110.9 E94.41945
M204 S3000
M205 X10 Y10
G0 F6000 X126.4 Y110.9
M204 S1800
M205 X8 Y8
G1 F1012.5 X126.4 Y123.1 E95.39331
M204 S3000
M205 X10 Y10
G0 F6000 X124.8 Y123.1
M204 S1800
M205 X8 Y8
G1 F1012.5 X124.8 Y110.9 E96.36717
M204 S3000
M205 X10 Y10
G0 F6000 X123.2 Y110.9
M204 S1800
M205 X8 Y8
G1 F1012.5 X123.2 Y123.1 E97.34102
M204 S3000
M205 X10 Y10
G0 F6000 X121.6 Y123.1
M204 S1800
M205 X8 Y8
G1 F1012.5 X121.6 Y110.9 E98.31488
M204 S3000
M205 X10 Y10
G0 F6000 X120 Y110.9
M204 S1800
M205 X8 Y8
G1 F1012.5 X120 Y123.1 E99.28874
M204 S3000
M205 X10 Y10
G0 F6000 X118.4 Y123.1
M204 S1800
M205 X8 Y8
G1 F1012.5 X118.4 Y110.9 E100.2626
M204 S3000
M205 X10 Y10
G0 F6000 X116.8 Y110.9
M204 S1800
M205 X8 Y8
G1 F1012.5 X116.8 Y123.1 E101.23645
M204 S3000
M205 X10 Y10
G0 F6000 X115.2 Y123.1
M204 S1800
M205 X8 Y8
G1 F1012.5 X115.2 Y110.9 E102.21031
M204 S3000
M205 X10 Y10
G0 F6000 X113.6 Y110.9
M204 S1800
M205 X8 Y8
G1 F1012.5 X113.6 Y123.1 E103.18417
M204 S3000
M205 X10 Y10
G0 F6000 X112 Y123.1
M204 S1800
M205 X8 Y8
G1 F1012.5 X112 Y110.9 E104.15802
M204 S3000
M205 X10 Y10
G0 F6000 X110.4 Y110.9
M204 S1800
M205 X8 Y8
G1 F1012.5 X110.4 Y123.1 E105.13188
M204 S3000
M205 X10 Y10
G0 F6000 X108.8 Y123.1
M204 S1800
M205 X8 Y8
G1 F1012.5 X108.8 Y110.9 E106.10574
M204 S3000
M205 X10 Y10
G0 F6000 X107.2 Y110.9
M204 S1800
M205 X8 Y8
G1 F1012.5 X107.2 Y123.1 E107.07959
M204 S3000
M205 X10 Y10
G0 F6000 X105.6 Y123.1
M204 S1800
M205 X8 Y8
G1 F1012.5 X105.6 Y110.9 E108.05345
M204 S3000
M205 X10 Y10
G0 F6000 X104 Y110.9
M204 S1800
M205 X8 Y8
G1 F1012.5 X104 Y123.1 E109.02731
M204 S3000
M205 X10 Y10
G0 F6000 X102.4 Y123.1
M204 S1800
M205 X8 Y8
G1 F1012.5 X102.4 Y110.9 E110.00116
M204 S3000
M205 X10 Y10
G0 F6000 X100.8 Y110.9
M204 S1800
M205 X8 Y8
G1 F1012.5 X100.8 Y123.1 E110.97502
M204 S3000
M205 X10 Y10
G0 F6000 X99.2 Y123.1
M204 S1800
M205 X8 Y8
G1 F1012.5 X99.2 Y110.9 E111.94888
M204 S3000
M205 X10 Y10
G0 F6000 X97.6 Y110.9
M204 S1800
M205 X8 Y8
G1 F1012.5 X97.6 Y123.1 E112.92273
M204 S3000
M205 X10 Y10
G0 F6000 X96 Y123.1
M204 S1800
M205 X8 Y8
G1 F1012.5 X96 Y110.9 E113.89659
M204 S3000
M205 X10 Y10
G0 F6000 X94.4 Y110.9
M204 S1800
M205 X8 Y8
G1 F1012.5 X94.4 Y123.1 E114.87045
M204 S3000
M205 X10 Y10
G0 F6000 X92.8 Y123.1
M204 S1800
M205 X8 Y8
G1 F1012.5 X92.8 Y110.9 E115.8443
M204 S3000
M205 X10 Y10
G0 F6000 X91.2 Y110.9
M204 S1800
M205 X8 Y8
G1 F1012.5 X91.2 Y123.1 E116.81816
M204 S3000
M205 X10 Y10
G0 F6000 X89.6 Y123.1
M204 S1800
M205 X8 Y8
G1 F1012.5 X89.6 Y110.9 E117.79202
M204 S3000
M205 X10 Y10
G0 F6000 X88 Y110.9
M204 S1800
M205 X8 Y8
G1 F1012.5 X88 Y123.1 E118.76587
M204 S3000
M205 X10 Y10
G0 F6000 X86.4 Y123.1
M204 S1800
M205 X8 Y8
G1 F1012.5 X86.4 Y110.9 E119.73973
M204 S3000
M205 X10 Y10
G0 F6000 X84.8 Y110.9
M204 S1800
M205 X8 Y8
G1 F1012.5 X84.8 Y123.1 E120.71359
M204 S3000
M205 X10 Y10
G0 F6000 X83.2 Y123.1
M204 S1800
M205 X8 Y8
G1 F1012.5 X83.2 Y110.9 E121.68744
M204 S3000
M205 X10 Y10
G0 F6000 X81.6 Y110.9
M204 S1800
M205 X8 Y8
G1 F1012.5 X81.6 Y123.1 E122.6613
M204 S3000
M205 X10 Y10
G0 F6000 X80 Y123.1
M204 S1800
M205 X8 Y8
G1 F1012.5 X80 Y110.817 E123.64178
M204 S3000
M205 X10 Y10
G0 F6000 X78.4 Y110.25
M204 S1800
M205 X8 Y8
G1 F1012.5 X78.4 Y123.1 E124.66753
M204 S3000
M205 X10 Y10
G0 F6000 X76.8 Y123.1
M204 S1800
M205 X8 Y8
G1 F1012.5 X76.8 Y108.942 E125.79768
M204 S3000
M205 X10 Y10
G0 F6000 X75.2 Y123.1
M204 S1800
M205 X8 Y8
G1 F1012.5 X75.2 Y82.597 E129.0308
M204 S3000
M205 X10 Y10
G0 F6000 X73.6 Y82.597
M204 S1800
M205 X8 Y8
G1 F1012.5 X73.6 Y123.1 E132.26393
M204 S3000
M205 X10 Y10
G0 F6000 X72 Y123.1
M204 S1800
M205 X8 Y8
G1 F1012.5 X72 Y82.597 E135.49705
M204 S3000
M205 X10 Y10
G0 F6000 X70.4 Y82.597
M204 S1800
M205 X8 Y8
G1 F1012.5 X70.4 Y123.1 E138.73018
M204 S3000
