;FLAVOR:Marlin
;TIME:823
;Filament used: 2.02987m
;Layer height: 0.2
;MINX:80.839
;MINY:60.843
;MINZ:0.36
;MAXX:129.159
;MAXY:148.256
;MAXZ:10.01
;Generated with Cura_SteamEngine 4.8.0
M140 S60
M105
M190 S60
M104 S215
M105
M109 S215
M82 ;absolute extrusion mode
M140 S60
M105
M190 S60
M104 S200
M105
M109 S200
M82 ;absolute extrusion mode
G28
G29
M501
G92 E0 ;zero the extruded length
G1 F200 E3 ;extrude 3mm of feed stock
G92 E0 ;zero the extruded length again
G1 F100
M117 Printing...
G92 E0
G92 E0
;LAYER_COUNT:40
;LAYER:-6
M107
G0 F7200 X86.543 Y69.877 Z0.36
;TYPE:SUPPORT-INTERFACE
G1 F2025 X86.97 Y69.369 E0.11919
G1 X87.625 Y68.644 E0.29467
G1 X87.993 Y68.261 E0.39007
G1 X88.1 Y68.154 E0.41725
G1 X88.857 Y67.426 E0.60588
G1 X89.285 Y67.043 E0.70903
G1 X90.037 Y66.412 E0.88535
G1 X90.588 Y65.982 E1.01088
G1 X91.412 Y65.385 E1.19363
G1 X91.852 Y65.087 E1.28908
G1 X91.966 Y65.013 E1.31349
G1 X92.735 Y64.532 E1.4764
G1 X92.825 Y64.478 E1.49525
G1 X93.355 Y64.173 E1.60507
G1 X94.25 Y63.698 E1.78706
G1 X94.79 Y63.434 E1.89501
G1 X94.904 Y63.381 E1.91759
G1 X95.709 Y63.022 E2.0759
G1 X96.296 Y62.782 E2.1898
G1 X97.264 Y62.428 E2.37492
G1 X97.414 Y62.376 E2.40343
G1 X97.862 Y62.231 E2.488
G1 X97.986 Y62.193 E2.5113
G1 X98.948 Y61.918 E2.691
G1 X99.501 Y61.78 E2.79336
G1 X100.575 Y61.551 E2.9906
G1 X101.093 Y61.46 E3.08506
G1 X101.25 Y61.436 E3.11358
G1 X102.194 Y61.305 E3.28475
G1 X102.772 Y61.243 E3.38916
G1 X103.758 Y61.172 E3.56671
G1 X103.864 Y61.166 E3.58578
G1 X104.495 Y61.144 E3.69918
G1 X105.536 Y61.145 E3.88615
G1 X106.137 Y61.166 E3.99415
G1 X107.2 Y61.24 E4.18554
G1 X107.825 Y61.306 E4.29841
G1 X108.85 Y61.452 E4.48437
G1 X109.474 Y61.562 E4.59817
G1 X110.385 Y61.754 E4.76538
G1 X110.994 Y61.903 E4.87799
G1 X111.083 Y61.927 E4.89454
G1 X112.122 Y62.226 E5.08873
G1 X112.689 Y62.412 E5.1959
G1 X113.611 Y62.747 E5.37209
G1 X114.23 Y62.997 E5.49199
G1 X115.101 Y63.383 E5.6631
G1 X115.675 Y63.66 E5.77757
G1 X115.783 Y63.715 E5.79934
G1 X116.649 Y64.176 E5.97554
G1 X117.183 Y64.483 E6.08617
G1 X118.023 Y65.006 E6.26389
G1 X118.568 Y65.372 E6.3818
G1 X118.646 Y65.426 E6.39884
G1 X119.404 Y65.977 E6.56714
G1 X119.892 Y66.357 E6.67823
G1 X119.972 Y66.421 E6.69663
G1 X120.663 Y66.999 E6.85843
G1 X121.149 Y67.433 E6.97546
G1 X121.901 Y68.154 E7.16257
G1 X122.011 Y68.264 E7.19051
G1 X122.429 Y68.701 E7.29912
G1 X123.003 Y69.34 E7.45339
G1 X123.09 Y69.44 E7.4772
G1 X123.43 Y69.843 E7.5719
G1 X124.106 Y70.705 E7.76865
G1 X124.448 Y71.175 E7.87304
G1 X124.53 Y71.292 E7.8987
G1 X125.009 Y72.003 E8.05268
G1 X125.083 Y72.117 E8.07709
G1 X125.387 Y72.602 E8.1799
G1 X125.892 Y73.471 E8.36041
G1 X126.18 Y74.009 E8.47001
G1 X126.629 Y74.923 E8.65291
G1 X126.884 Y75.488 E8.76424
G1 X127.29 Y76.483 E8.95726
G1 X127.538 Y77.163 E9.08726
G1 X127.858 Y78.155 E9.27446
G1 X128.024 Y78.734 E9.38264
G1 X128.261 Y79.684 E9.5585
G1 X128.4 Y80.338 E9.67858
G1 X128.573 Y81.303 E9.85467
G1 X128.66 Y81.903 E9.96356
G1 X128.78 Y83.017 E10.16479
G1 X128.822 Y83.609 E10.27139
G1 X128.859 Y84.623 E10.45363
G1 X128.859 Y85.318 E10.57845
G1 X128.823 Y86.371 E10.76769
G1 X128.778 Y86.987 E10.87862
G1 X128.687 Y87.868 E11.03769
G1 X128.668 Y88.035 E11.06788
G1 X128.604 Y88.497 E11.15165
G1 X128.584 Y88.627 E11.17527
G1 X128.419 Y89.576 E11.34827
G1 X128.282 Y90.229 E11.46811
G1 X128.266 Y90.3 E11.48118
G1 X128.02 Y91.28 E11.66265
G1 X127.833 Y91.925 E11.78327
G1 X127.553 Y92.787 E11.94605
G1 X127.504 Y92.93 E11.9732
G1 X127.342 Y93.379 E12.05893
G1 X127.266 Y93.572 E12.09619
G1 X127.048 Y94.226 E12.22
G1 X126.91 Y94.921 E12.34726
G1 X126.862 Y95.628 E12.47454
G1 X126.903 Y96.334 E12.60155
G1 X127.03 Y97.022 E12.72721
G1 X127.137 Y97.387 E12.79552
G1 X127.401 Y98.195 E12.94819
G1 X127.432 Y98.295 E12.967
G1 X127.582 Y98.819 E13.06489
G1 X127.83 Y99.815 E13.24924
G1 X127.963 Y100.447 E13.36523
G1 X128.13 Y101.378 E13.53511
G1 X128.216 Y101.972 E13.64291
G1 X128.331 Y103.047 E13.83709
G1 X128.373 Y103.639 E13.94368
G1 X128.41 Y104.661 E14.12736
G1 X128.41 Y105.302 E14.24248
G1 X128.374 Y106.341 E14.42921
G1 X128.339 Y106.848 E14.52048
G1 X128.328 Y106.974 E14.5432
G1 X128.239 Y107.832 E14.69813
G1 X128.222 Y107.975 E14.72399
G1 X128.155 Y108.459 E14.81175
G1 X127.976 Y109.493 E15.00022
G1 X127.849 Y110.099 E15.11143
G1 X127.824 Y110.211 E15.13204
G1 X127.609 Y111.077 E15.2923
G1 X127.581 Y111.183 E15.31199
G1 X127.441 Y111.674 E15.40369
G1 X127.408 Y111.781 E15.4238
G1 X127.091 Y112.756 E15.60794
G1 X126.86 Y113.383 E15.72795
G1 X126.792 Y113.547 E15.75984
G1 X126.573 Y114.201 E15.88371
G1 X126.434 Y114.895 E16.01083
G1 X126.384 Y115.601 E16.13795
G1 X126.423 Y116.308 E16.26512
G1 X126.55 Y116.997 E16.39095
G1 X126.659 Y117.371 E16.46092
G1 X126.971 Y118.327 E16.64153
G1 X127.007 Y118.445 E16.66369
G1 X127.164 Y118.999 E16.76711
G1 X127.387 Y119.895 E16.93295
G1 X127.506 Y120.448 E17.03454
G1 X127.674 Y121.38 E17.20463
G1 X127.769 Y122.031 E17.32279
G1 X127.886 Y123.125 E17.5204
G1 X127.923 Y123.654 E17.61564
G1 X127.96 Y124.675 E17.79914
G1 X127.96 Y125.278 E17.90744
G1 X127.924 Y126.326 E18.09578
G1 X127.89 Y126.81 E18.18292
G1 X127.887 Y126.857 E18.19138
G1 X127.794 Y127.764 E18.35514
G1 X127.782 Y127.873 E18.37483
G1 X127.705 Y128.431 E18.476
G1 X127.513 Y129.52 E18.67461
G1 X127.392 Y130.087 E18.77874
G1 X127.157 Y131.029 E18.95311
G1 X126.997 Y131.591 E19.05806
G1 X126.648 Y132.656 E19.25934
G1 X126.487 Y133.096 E19.3435
G1 X126.443 Y133.211 E19.36561
G1 X126.093 Y134.074 E19.53287
G1 X125.849 Y134.62 E19.64028
G1 X125.411 Y135.519 E19.81989
G1 X125.103 Y136.095 E19.9372
G1 X124.624 Y136.925 E20.10932
G1 X124.358 Y137.352 E20.19967
G1 X123.774 Y138.22 E20.38757
G1 X123.714 Y138.306 E20.40641
G1 X123.379 Y138.766 E20.50861
G1 X122.777 Y139.533 E20.68373
G1 X122.418 Y139.962 E20.7842
G1 X121.732 Y140.724 E20.96835
G1 X121.38 Y141.091 E21.05968
G1 X121.272 Y141.199 E21.08711
G1 X120.619 Y141.831 E21.25033
G1 X120.189 Y142.219 E21.35435
G1 X120.101 Y142.296 E21.37536
G1 X119.398 Y142.887 E21.54031
G1 X118.895 Y143.281 E21.65506
G1 X118.075 Y143.877 E21.83713
G1 X117.605 Y144.194 E21.93895
G1 X116.754 Y144.726 E22.1192
G1 X116.212 Y145.039 E22.23162
G1 X115.358 Y145.493 E22.40533
G1 X114.794 Y145.769 E22.5181
G1 X113.92 Y146.158 E22.68992
G1 X113.822 Y146.2 E22.70907
G1 X113.411 Y146.366 E22.78868
G1 X113.28 Y146.416 E22.81387
G1 X112.319 Y146.764 E22.99744
G1 X111.876 Y146.909 E23.08115
G1 X110.88 Y147.197 E23.26737
G1 X110.315 Y147.339 E23.372
G1 X109.306 Y147.554 E23.55729
G1 X109.215 Y147.572 E23.57395
G1 X108.647 Y147.67 E23.67747
G1 X107.67 Y147.807 E23.85466
G1 X107.122 Y147.864 E23.95362
G1 X106.105 Y147.935 E24.13672
G1 X105.514 Y147.956 E24.24294
G1 X104.462 Y147.955 E24.43188
G1 X103.873 Y147.933 E24.53774
G1 X102.863 Y147.861 E24.7196
G1 X102.287 Y147.8 E24.82363
G1 X101.379 Y147.673 E24.9883
G1 X101.227 Y147.649 E25.01594
G1 X100.782 Y147.571 E25.09708
G1 X99.835 Y147.372 E25.27088
G1 X99.718 Y147.345 E25.29245
G1 X99.154 Y147.205 E25.39682
G1 X98.116 Y146.905 E25.59088
G1 X97.563 Y146.722 E25.6955
G1 X96.72 Y146.416 E25.85657
G1 X96.176 Y146.197 E25.9619
G1 X95.226 Y145.776 E26.14852
G1 X95.142 Y145.737 E26.16516
G1 X94.655 Y145.499 E26.26251
G1 X93.773 Y145.029 E26.44201
G1 X93.277 Y144.743 E26.54484
G1 X92.386 Y144.186 E26.73357
G1 X91.985 Y143.916 E26.82039
G1 X91.884 Y143.845 E26.84257
G1 X91.091 Y143.27 E27.01849
G1 X90.609 Y142.893 E27.1284
G1 X89.846 Y142.25 E27.30761
G1 X89.477 Y141.919 E27.39664
G1 X89.401 Y141.848 E27.41532
G1 X88.726 Y141.198 E27.58363
G1 X88.627 Y141.099 E27.60877
G1 X88.254 Y140.711 E27.70544
G1 X87.585 Y139.964 E27.88554
G1 X87.276 Y139.597 E27.97171
G1 X87.183 Y139.483 E27.99813
G1 X86.61 Y138.748 E28.16552
G1 X86.251 Y138.256 E28.27491
G1 X85.738 Y137.496 E28.43959
G1 X85.412 Y136.98 E28.54921
G1 X85.347 Y136.872 E28.57185
G1 X84.88 Y136.063 E28.73962
G1 X84.585 Y135.51 E28.85219
G1 X84.165 Y134.65 E29.02409
G1 X83.904 Y134.066 E29.13898
G1 X83.532 Y133.148 E29.31688
G1 X83.323 Y132.572 E29.42693
G1 X82.993 Y131.555 E29.61896
G1 X82.836 Y131.002 E29.72221
G1 X82.599 Y130.04 E29.90016
G1 X82.503 Y129.593 E29.98227
G1 X82.484 Y129.496 E30.00002
G1 X82.31 Y128.525 E30.1772
G1 X82.224 Y127.918 E30.28731
G1 X82.112 Y126.853 E30.47964
G1 X82.076 Y126.324 E30.57487
G1 X82.04 Y125.302 E30.75854
G1 X82.039 Y124.753 E30.85714
G1 X82.078 Y123.643 E31.05663
G1 X82.112 Y123.163 E31.14305
G1 X82.12 Y123.067 E31.16036
G1 X82.207 Y122.236 E31.31042
G1 X82.226 Y122.071 E31.34025
G1 X82.284 Y121.654 E31.41587
G1 X82.31 Y121.485 E31.44658
G1 X82.468 Y120.58 E31.61158
G1 X82.495 Y120.441 E31.63701
G1 X82.61 Y119.903 E31.73582
G1 X82.857 Y118.92 E31.91786
G1 X83.008 Y118.393 E32.01632
G1 X83.345 Y117.36 E32.21148
G1 X83.517 Y116.692 E32.33537
G1 X83.605 Y115.99 E32.46244
G1 X83.605 Y115.281 E32.58978
G1 X83.514 Y114.579 E32.71691
G1 X83.338 Y113.901 E32.84272
G1 X83.206 Y113.542 E32.91142
G1 X83.138 Y113.375 E32.94381
G1 X83.087 Y113.242 E32.96939
G1 X82.921 Y112.788 E33.05621
G1 X82.573 Y111.722 E33.25761
G1 X82.417 Y111.177 E33.35943
G1 X82.179 Y110.223 E33.53602
G1 X82.057 Y109.656 E33.64019
G1 X82.034 Y109.538 E33.66178
G1 X81.882 Y108.687 E33.81704
G1 X81.86 Y108.554 E33.84125
G1 X81.778 Y107.977 E33.94593
G1 X81.666 Y106.921 E34.13665
G1 X81.626 Y106.333 E34.24251
G1 X81.59 Y105.316 E34.42528
G1 X81.589 Y104.737 E34.52927
G1 X81.627 Y103.631 E34.72803
G1 X81.673 Y103.012 E34.83951
G1 X81.761 Y102.168 E34.99192
G1 X81.781 Y102.001 E35.02213
G1 X81.844 Y101.542 E35.10534
G1 X82.028 Y100.487 E35.29768
G1 X82.151 Y99.901 E35.40522
G1 X82.176 Y99.789 E35.42584
G1 X82.386 Y98.942 E35.58257
G1 X82.394 Y98.918 E35.58711
G1 X82.404 Y98.872 E35.59556
G1 X82.582 Y98.244 E35.7128
G1 X82.865 Y97.378 E35.87643
G1 X83.038 Y96.711 E36.00019
G1 X83.126 Y96.008 E36.12744
G1 X83.126 Y95.299 E36.25478
G1 X83.035 Y94.597 E36.38192
G1 X82.861 Y93.92 E36.50746
G1 X82.732 Y93.569 E36.57463
G1 X82.672 Y93.416 E36.60414
G1 X82.462 Y92.838 E36.71459
G1 X82.139 Y91.836 E36.90368
G1 X81.983 Y91.29 E37.00566
G1 X81.731 Y90.288 E37.19123
G1 X81.601 Y89.672 E37.30431
G1 X81.418 Y88.641 E37.49237
G1 X81.343 Y88.111 E37.58851
G1 X81.325 Y87.966 E37.61475
G1 X81.22 Y86.983 E37.79231
G1 X81.176 Y86.346 E37.90699
G1 X81.141 Y85.339 E38.08796
G1 X81.14 Y84.718 E38.1995
G1 X81.178 Y83.613 E38.39808
G1 X81.216 Y83.086 E38.49297
G1 X81.226 Y82.967 E38.51442
G1 X81.313 Y82.133 E38.66503
G1 X81.332 Y81.968 E38.69486
G1 X81.399 Y81.488 E38.7819
G1 X81.425 Y81.32 E38.81244
G1 X81.602 Y80.318 E38.99519
G1 X81.746 Y79.652 E39.11757
G1 X81.976 Y78.732 E39.28789
G1 X82.161 Y78.088 E39.40823
G1 X82.471 Y77.138 E39.58771
G1 X82.679 Y76.564 E39.69736
G1 X83.054 Y75.631 E39.87796
G1 X83.291 Y75.097 E39.98289
G1 X83.367 Y74.934 E40.0152
G1 X83.757 Y74.135 E40.17488
G1 X83.813 Y74.024 E40.19721
G1 X84.085 Y73.512 E40.30134
G1 X84.563 Y72.684 E40.47306
G1 X84.647 Y72.545 E40.50222
G1 X84.954 Y72.057 E40.60577
G1 X85.51 Y71.232 E40.78446
G1 X85.844 Y70.772 E40.88656
G1 X85.923 Y70.668 E40.91001
G1 X86.543 Y69.877 E41.09052
G0 F7200 X86.4 Y70.059
G1 F2025 X86.4 Y138.46 E53.37566
G0 F7200 X88.8 Y141.269
G1 F2025 X88.8 Y67.48 E66.62852
G0 F7200 X91.2 Y65.538
G1 F2025 X91.2 Y143.349 E80.60374
G0 F7200 X93.6 Y144.929
G1 F2025 X93.6 Y64.042 E95.13143
G0 F7200 X96 Y62.903
G1 F2025 X96 Y146.119 E110.07742
G0 F7200 X98.4 Y146.987
G1 F2025 X98.4 Y62.074 E125.32819
G0 F7200 X100.8 Y61.511
G1 F2025 X100.8 Y147.574 E140.78551
G0 F7200 X103.2 Y147.885
G1 F2025 X103.2 Y61.212 E156.35239
G0 F7200 X105.6 Y61.148
G1 F2025 X105.6 Y147.953 E171.94298
G0 F7200 X108 Y147.761
G1 F2025 X108 Y61.331 E187.46622
G0 F7200 X110.4 Y61.758
G1 F2025 X110.4 Y147.318 E202.8332
G0 F7200 X112.8 Y146.59
G1 F2025 X112.8 Y62.453 E217.9446
G0 F7200 X115.2 Y63.431
G1 F2025 X115.2 Y145.571 E232.69734
G0 F7200 X117.6 Y144.198
G1 F2025 X117.6 Y64.743 E246.96783
G0 F7200 X120 Y66.445
G1 F2025 X120 Y142.381 E260.60629
G0 F7200 X122.4 Y139.982
G1 F2025 X122.4 Y68.671 E273.41409
G0 F7200 X124.8 Y71.693
G1 F2025 X124.8 Y136.621 E285.07546
G0 F7200 X127.2 Y130.857
G1 F2025 X127.2 Y119.144 E287.17917
G0 F7200 X127.061 Y115.961
G0 X127.2 Y112.421
G1 F2025 X127.2 Y97.58 E289.84469
G0 F7200 X127.2 Y93.77
G1 F2025 X127.2 Y76.263 E292.98903
G0 F7200 X84 Y73.672
G1 F2025 X84 Y134.28 E303.87451
G0 F7200 X82.944 Y115.323
G0 X81.6 Y105.598
G1 F2025 X81.6 Y104.416 E304.0868
G0 F7200 X82.465 Y95.968
G0 X81.6 Y89.666
G1 F2025 X81.6 Y80.329 E305.76377
G0 F600 X81.6 Y80.329 Z0.66
G0 F7200 X83.604 Y115.28
;TIME_ELAPSED:53.655189
;LAYER:-5
;TYPE:SUPPORT
G1 F2025 X83.513 Y114.578 E305.86972
G1 X83.338 Y113.9 E305.97452
G1 X83.205 Y113.54 E306.03196
G1 X83.138 Y113.373 E306.0589
G1 X83.087 Y113.241 E306.08008
G1 X82.92 Y112.787 E306.15248
G1 X82.838 Y112.537 E306.19186
G1 X115.642 Y145.34 E313.13525
G1 X116.212 Y145.038 E313.23179
G1 X116.753 Y144.725 E313.32534
G1 X116.909 Y144.628 E313.35284
G1 X82.089 Y109.808 E320.72305
G1 X82.056 Y109.655 E320.74648
G1 X82.033 Y109.537 E320.76447
G1 X81.882 Y108.685 E320.89398
G1 X81.86 Y108.553 E320.91401
G1 X81.778 Y107.976 E321.00124
G1 X81.723 Y107.462 E321.07861
G1 X118.11 Y143.849 E328.7805
G1 X118.895 Y143.28 E328.92561
G1 X119.245 Y143.004 E328.99233
G1 X81.59 Y105.349 E336.96262
G1 X81.59 Y105.315 E336.96771
G1 X81.588 Y104.736 E337.05437
G1 X81.626 Y103.63 E337.22
G1 X81.642 Y103.421 E337.25137
G1 X120.32 Y142.099 E345.4382
G1 X120.618 Y141.83 E345.49828
G1 X121.272 Y141.198 E345.63441
G1 X121.335 Y141.134 E345.64785
G1 X81.831 Y101.63 E354.00951
G1 X81.844 Y101.541 E354.02297
G1 X82.027 Y100.486 E354.18323
G1 X82.138 Y99.957 E354.26413
G1 X122.287 Y140.106 E362.76232
G1 X122.417 Y139.961 E362.79146
G1 X122.777 Y139.532 E362.87529
G1 X123.18 Y139.019 E362.97292
G1 X82.542 Y98.381 E371.57462
G1 X82.582 Y98.243 E371.59612
G1 X82.865 Y97.377 E371.73248
G1 X82.998 Y96.858 E371.81267
G1 X124.009 Y137.868 E380.49321
G1 X124.357 Y137.351 E380.58648
G1 X124.624 Y136.924 E380.66186
G1 X124.778 Y136.657 E380.70799
G1 X83.082 Y94.961 E389.53363
G1 X83.034 Y94.596 E389.58873
G1 X82.861 Y93.919 E389.69331
G1 X82.732 Y93.567 E389.74942
G1 X82.672 Y93.415 E389.77388
G1 X82.462 Y92.836 E389.86606
G1 X82.235 Y92.135 E389.97634
G1 X125.479 Y135.379 E399.12964
G1 X125.848 Y134.619 E399.25608
G1 X126.092 Y134.073 E399.34559
G1 X126.11 Y134.029 E399.35271
G1 X81.567 Y89.487 E408.78085
G1 X81.417 Y88.64 E408.90959
G1 X81.343 Y88.11 E408.98969
G1 X81.325 Y87.964 E409.01171
G1 X81.24 Y87.18 E409.12974
G1 X126.664 Y132.604 E418.74446
G1 X126.997 Y131.59 E418.9042
G1 X127.138 Y131.098 E418.9808
G1 X81.14 Y85.1 E428.71703
G1 X81.139 Y84.717 E428.77435
G1 X81.177 Y83.611 E428.93998
G1 X81.208 Y83.188 E429.00346
G1 X127.516 Y129.496 E438.8053
G1 X127.704 Y128.43 E438.96731
G1 X127.781 Y127.872 E439.05162
G1 X127.791 Y127.791 E439.06384
G1 X81.41 Y81.41 E448.88113
G1 X81.424 Y81.32 E448.89476
G1 X81.6 Y80.318 E449.04703
G1 X81.724 Y79.744 E449.13492
G1 X127.936 Y125.956 E458.91644
G1 X127.959 Y125.278 E459.01797
G1 X127.958 Y124.674 E459.10837
G1 X127.934 Y123.974 E459.2132
G1 X82.135 Y78.175 E468.9073
G1 X82.16 Y78.087 E468.921
G1 X82.47 Y77.137 E469.07056
G1 X82.631 Y76.691 E469.14153
G1 X127.733 Y121.794 E478.68821
G1 X127.673 Y121.379 E478.75097
G1 X127.504 Y120.447 E478.89273
G1 X127.385 Y119.894 E478.9774
G1 X127.244 Y119.324 E479.06528
G1 X83.205 Y75.286 E488.38674
G1 X83.29 Y75.096 E488.41789
G1 X83.366 Y74.933 E488.44481
G1 X83.756 Y74.135 E488.57775
G1 X83.811 Y74.024 E488.59629
G1 X83.85 Y73.95 E488.60881
G1 X126.47 Y116.571 E497.63013
G1 X126.422 Y116.307 E497.67029
G1 X126.383 Y115.601 E497.77612
G1 X126.433 Y114.894 E497.8822
G1 X126.49 Y114.611 E497.92541
G1 X84.562 Y72.682 E506.80026
G1 X84.646 Y72.544 E506.82444
G1 X84.953 Y72.057 E506.9106
G1 X85.34 Y71.481 E507.01446
G1 X126.962 Y113.103 E515.82443
G1 X127.09 Y112.755 E515.87993
G1 X127.407 Y111.781 E516.03323
G1 X127.439 Y111.674 E516.04995
G1 X127.456 Y111.617 E516.05885
G1 X86.178 Y70.339 E524.79601
G1 X86.542 Y69.876 E524.88416
G1 X86.969 Y69.369 E524.98337
G1 X87.073 Y69.254 E525.00658
G1 X127.86 Y110.041 E533.6398
