;FLAVOR:Marlin
;TIME:11072
;Filament used: 7.28756m
;Layer height: 0.2
;MINX:56.8
;MINY:56.8
;MINZ:0.3
;MAXX:153.2
;MAXY:153.2
;MAXZ:4.3
;Generated with Cura_SteamEngine 4.8.0
M140 S60
M105
M190 S60
M104 S215
M105
M109 S215
M82 ;absolute extrusion mode
M140 S60
M105
M190 S60
M104 S200
M105
M109 S200
M82 ;absolute extrusion mode
G28
G29
M501
G92 E0 ;zero the extruded length
G1 F200 E3 ;extrude 3mm of feed stock
G92 E0 ;zero the extruded length again
G1 F100
M117 Printing...
G92 E0
G92 E0
;LAYER_COUNT:21
;LAYER:0
M107
G0 F5400 X59.999 Y59.9 Z0.3
;TYPE:SKIRT
G1 F1800 X60.359 Y59.55 E0.02505
G1 X60.636 Y59.31 E0.04333
G1 X61.153 Y58.913 E0.07586
G1 X61.869 Y58.418 E0.11928
G1 X62.456 Y58.089 E0.15285
G1 X63.209 Y57.714 E0.19482
G1 X63.748 Y57.503 E0.2237
G1 X64.306 Y57.303 E0.25327
G1 X64.654 Y57.2 E0.27138
G1 X65.208 Y57.071 E0.29976
G1 X65.784 Y56.953 E0.32909
G1 X66.142 Y56.901 E0.34714
G1 X66.811 Y56.844 E0.38064
G1 X67.414 Y56.811 E0.41077
G1 X67.863 Y56.8 E0.43317
G1 X141.853 Y56.801 E4.12455
G1 X142.56 Y56.811 E4.15983
G1 X143.175 Y56.84 E4.19054
G1 X143.823 Y56.896 E4.22299
G1 X144.178 Y56.947 E4.24088
G1 X144.844 Y57.082 E4.27479
G1 X145.343 Y57.199 E4.30036
G1 X145.69 Y57.302 E4.31842
G1 X146.278 Y57.513 E4.34958
G1 X146.772 Y57.706 E4.37604
G1 X147.098 Y57.855 E4.39392
G1 X147.598 Y58.118 E4.42211
G1 X148.113 Y58.407 E4.45157
G1 X148.426 Y58.608 E4.47013
G1 X148.966 Y59.002 E4.50348
G1 X149.622 Y59.534 E4.54562
G1 X150.104 Y60.003 E4.57917
G1 X150.684 Y60.63 E4.62178
G1 X151.086 Y61.151 E4.65461
G1 X151.581 Y61.867 E4.69804
G1 X151.911 Y62.456 E4.73172
G1 X152.286 Y63.209 E4.77369
G1 X152.491 Y63.733 E4.80176
G1 X152.696 Y64.303 E4.83198
G1 X152.8 Y64.654 E4.85025
G1 X152.929 Y65.208 E4.87863
G1 X153.047 Y65.784 E4.90796
G1 X153.099 Y66.142 E4.92601
G1 X153.156 Y66.81 E4.95946
G1 X153.188 Y67.389 E4.98839
G1 X153.2 Y67.854 E5.01159
G1 X153.199 Y141.841 E8.70282
G1 X153.189 Y142.559 E8.73864
G1 X153.16 Y143.175 E8.76941
G1 X153.104 Y143.823 E8.80186
G1 X153.053 Y144.178 E8.81975
G1 X152.918 Y144.844 E8.85366
G1 X152.802 Y145.339 E8.87902
G1 X152.7 Y145.683 E8.89692
G1 X152.493 Y146.261 E8.92755
G1 X152.296 Y146.767 E8.95464
G1 X152.145 Y147.097 E8.97275
G1 X151.835 Y147.683 E9.00582
G1 X151.396 Y148.421 E9.04866
G1 X151.057 Y148.888 E9.07745
G1 X150.699 Y149.353 E9.10673
G1 X150.466 Y149.622 E9.12448
G1 X150.001 Y150.1 E9.15775
G1 X149.641 Y150.45 E9.1828
G1 X149.364 Y150.69 E9.20109
G1 X148.853 Y151.082 E9.23322
G1 X148.444 Y151.38 E9.25847
G1 X148.131 Y151.582 E9.27705
G1 X147.544 Y151.911 E9.31062
G1 X146.791 Y152.286 E9.35259
G1 X146.252 Y152.497 E9.38147
G1 X145.694 Y152.697 E9.41104
G1 X145.346 Y152.8 E9.42915
G1 X144.792 Y152.929 E9.45753
G1 X144.216 Y153.047 E9.48686
G1 X143.858 Y153.099 E9.50491
G1 X143.189 Y153.156 E9.53841
G1 X142.586 Y153.189 E9.56854
G1 X142.137 Y153.2 E9.59094
G1 X68.147 Y153.199 E13.28232
G1 X67.441 Y153.189 E13.31755
G1 X66.825 Y153.16 E13.34831
G1 X66.177 Y153.104 E13.38076
G1 X65.822 Y153.053 E13.39865
G1 X65.156 Y152.918 E13.43256
G1 X64.657 Y152.801 E13.45813
G1 X64.31 Y152.698 E13.47619
G1 X63.722 Y152.487 E13.50735
G1 X63.228 Y152.294 E13.53381
G1 X62.901 Y152.144 E13.55176
G1 X62.313 Y151.833 E13.58495
G1 X61.574 Y151.392 E13.62788
G1 X61.03 Y150.995 E13.66148
G1 X60.378 Y150.466 E13.70337
G1 X59.9 Y150.001 E13.73664
G1 X59.55 Y149.641 E13.76169
G1 X59.31 Y149.364 E13.77997
G1 X58.913 Y148.847 E13.81249
G1 X58.418 Y148.131 E13.85592
G1 X58.089 Y147.544 E13.88949
G1 X57.714 Y146.791 E13.93146
G1 X57.503 Y146.252 E13.96034
G1 X57.303 Y145.694 E13.98991
G1 X57.2 Y145.346 E14.00802
G1 X57.071 Y144.792 E14.0364
G1 X56.953 Y144.216 E14.06573
G1 X56.901 Y143.858 E14.08378
G1 X56.844 Y143.189 E14.11728
G1 X56.811 Y142.586 E14.14741
G1 X56.8 Y142.136 E14.16986
G1 X56.801 Y68.147 E17.86119
G1 X56.811 Y67.44 E17.89646
G1 X56.84 Y66.824 E17.92723
G1 X56.896 Y66.179 E17.95953
G1 X56.946 Y65.828 E17.97722
G1 X57.06 Y65.258 E18.00622
G1 X57.2 Y64.656 E18.03706
G1 X57.3 Y64.316 E18.05474
G1 X57.479 Y63.813 E18.08137
G1 X57.705 Y63.231 E18.11252
G1 X57.855 Y62.903 E18.13052
G1 X58.164 Y62.318 E18.16352
G1 X58.608 Y61.574 E18.20675
G1 X59.005 Y61.03 E18.24035
G1 X59.534 Y60.378 E18.28224
G1 X59.999 Y59.9 E18.31551
;MESH:Vesa2.stl
G0 F5400 X65.762 Y70.189
;TYPE:WALL-INNER
G1 F1800 X66.48 Y70.531 E18.35518
G1 X67.227 Y70.68 E18.39318
G1 X67.594 Y70.7 E18.41152
G1 X68.367 Y70.583 E18.45053
G1 X69.1 Y70.275 E18.49019
G1 X69.737 Y69.795 E18.52999
G1 X70.233 Y69.172 E18.56971
G1 X70.56 Y68.445 E18.60948
G1 X70.697 Y67.66 E18.64924
G1 X70.634 Y66.868 E18.68888
G1 X70.391 Y66.147 E18.72684
G1 X70.223 Y65.817 E18.74531
G1 X69.737 Y65.207 E18.78422
G1 X69.102 Y64.725 E18.824
G1 X68.369 Y64.416 E18.86368
G1 X67.581 Y64.297 E18.90344
G1 X66.79 Y64.378 E18.94311
G1 X66.042 Y64.651 E18.98284
G1 X65.385 Y65.1 E19.02254
G1 X64.881 Y65.674 E19.06065
G1 X64.68 Y65.983 E19.07904
G1 X64.396 Y66.71 E19.11798
G1 X64.296 Y67.5 E19.1577
G1 X64.395 Y68.291 E19.19748
G1 X64.686 Y69.031 E19.23715
G1 X65.151 Y69.677 E19.27686
G1 X65.762 Y70.189 E19.31663
G0 F5400 X101.153 Y79.691
G1 F1800 X100.978 Y79.837 E19.328
G1 X100.347 Y80.375 E19.36937
G1 X100.194 Y80.547 E19.38085
G1 X99.655 Y81.184 E19.42248
G1 X99.532 Y81.377 E19.4339
G1 X99.099 Y82.095 E19.47573
G1 X99.011 Y82.306 E19.48714
G1 X98.703 Y83.08 E19.5287
G1 X98.647 Y83.302 E19.54012
G1 X98.467 Y84.118 E19.58181
G1 X98.447 Y84.345 E19.59318
G1 X98.4 Y85.182 E19.635
G1 X98.419 Y85.41 E19.64642
G1 X98.506 Y86.239 E19.688
G1 X98.56 Y86.462 E19.69945
G1 X98.78 Y87.269 E19.74118
G1 X98.87 Y87.48 E19.75262
G1 X99.217 Y88.238 E19.79422
G1 X99.338 Y88.431 E19.80558
G1 X99.804 Y89.128 E19.84741
G1 X99.956 Y89.299 E19.85882
G1 X100.526 Y89.908 E19.90044
G1 X100.702 Y90.053 E19.91182
G1 X101.363 Y90.564 E19.9535
G1 X101.561 Y90.68 E19.96495
G1 X102.296 Y91.077 E20.00662
G1 X102.51 Y91.159 E20.01806
G1 X103.299 Y91.433 E20.05973
G1 X103.523 Y91.48 E20.07115
G1 X104.345 Y91.623 E20.11277
G1 X104.572 Y91.634 E20.12411
G1 X105.411 Y91.644 E20.16597
G1 X105.638 Y91.616 E20.17738
G1 X106.465 Y91.494 E20.21909
G1 X106.685 Y91.428 E20.23055
G1 X107.476 Y91.175 E20.27198
G1 X107.682 Y91.078 E20.28334
G1 X108.425 Y90.699 E20.32495
G1 X108.613 Y90.569 E20.33635
G1 X109.285 Y90.078 E20.37788
G1 X109.449 Y89.919 E20.38927
G1 X110.034 Y89.327 E20.43079
G1 X110.171 Y89.144 E20.4422
G1 X110.652 Y88.465 E20.48371
G1 X110.758 Y88.263 E20.49509
G1 X111.124 Y87.516 E20.5366
G1 X111.198 Y87.301 E20.54794
G1 X111.44 Y86.502 E20.58959
G1 X111.478 Y86.276 E20.60102
G1 X111.588 Y85.453 E20.64245
G1 X111.589 Y85.225 E20.65382
G1 X111.569 Y84.39 E20.69549
G1 X111.531 Y84.163 E20.70698
G1 X111.377 Y83.349 E20.74831
G1 X111.305 Y83.131 E20.75976
G1 X111.02 Y82.348 E20.80133
G1 X110.914 Y82.146 E20.81271
G1 X110.508 Y81.418 E20.8543
G1 X110.371 Y81.236 E20.86567
G1 X109.854 Y80.582 E20.90726
G1 X109.689 Y80.424 E20.91865
G1 X109.075 Y79.863 E20.96015
G1 X108.887 Y79.734 E20.97152
G1 X108.191 Y79.277 E21.01306
G1 X107.984 Y79.179 E21.02449
G1 X107.224 Y78.841 E21.06599
G1 X107.004 Y78.778 E21.0774
G1 X106.2 Y78.565 E21.1189
G1 X105.973 Y78.537 E21.13031
G1 X105.144 Y78.457 E21.17186
G1 X104.917 Y78.465 E21.18319
G1 X104.085 Y78.519 E21.22479
G1 X103.861 Y78.564 E21.23619
G1 X103.048 Y78.749 E21.27779
G1 X102.835 Y78.831 E21.28917
G1 X102.064 Y79.144 E21.33069
G1 X101.866 Y79.258 E21.34208
G1 X101.153 Y79.691 E21.3837
G0 F5400 X101.254 Y100.833
G1 F1800 X100.475 Y101.463 E21.43369
G1 X99.954 Y102.029 E21.47207
G1 X99.805 Y102.197 E21.48327
G1 X99.375 Y102.832 E21.52153
G1 X99.254 Y103.021 E21.53272
G1 X98.921 Y103.714 E21.57108
G1 X98.832 Y103.921 E21.58232
G1 X98.605 Y104.654 E21.62061
G1 X98.551 Y104.874 E21.63191
G1 X98.429 Y105.702 E21.67366
G1 X98.411 Y105.929 E21.68503
G1 X98.422 Y106.767 E21.72684
G1 X98.441 Y106.994 E21.7382
G1 X98.588 Y107.819 E21.78001
G1 X98.642 Y108.04 E21.79136
G1 X98.922 Y108.83 E21.83317
G1 X99.012 Y109.041 E21.84462
G1 X99.413 Y109.773 E21.88626
G1 X99.534 Y109.966 E21.89762
G1 X100.048 Y110.627 E21.9394
G1 X100.201 Y110.798 E21.95085
G1 X100.815 Y111.367 E21.99261
G1 X100.991 Y111.511 E22.00396
G1 X101.69 Y111.973 E22.04576
G1 X101.887 Y112.087 E22.05711
G1 X102.65 Y112.432 E22.09889
G1 X102.86 Y112.511 E22.11008
G1 X103.55 Y112.705 E22.14584
G1 X103.766 Y112.749 E22.15684
G1 X104.477 Y112.847 E22.19265
G1 X104.697 Y112.856 E22.20363
G1 X105.416 Y112.857 E22.2395
G1 X105.635 Y112.83 E22.25051
G1 X106.343 Y112.734 E22.28616
G1 X107.243 Y112.478 E22.33284
G1 X108.008 Y112.134 E22.37469
G1 X108.214 Y112.036 E22.38607
G1 X108.911 Y111.573 E22.42781
G1 X109.1 Y111.443 E22.43926
G1 X109.713 Y110.874 E22.48099
G1 X109.879 Y110.716 E22.49242
G1 X110.393 Y110.056 E22.53415
G1 X110.53 Y109.873 E22.54556
G1 X110.93 Y109.14 E22.58722
G1 X111.037 Y108.938 E22.59862
G1 X111.316 Y108.148 E22.64042
G1 X111.389 Y107.932 E22.6518
G1 X111.535 Y107.108 E22.69355
G1 X111.573 Y106.883 E22.70493
G1 X111.585 Y106.046 E22.74669
G1 X111.586 Y105.818 E22.75807
G1 X111.465 Y104.987 E22.79997
G1 X111.428 Y104.764 E22.81124
G1 X111.2 Y104.029 E22.84964
G1 X111.128 Y103.816 E22.86085
G1 X110.796 Y103.126 E22.89906
G1 X110.692 Y102.927 E22.91026
G1 X110.262 Y102.293 E22.94848
G1 X110.127 Y102.113 E22.9597
G1 X109.607 Y101.549 E22.99797
G1 X109.446 Y101.393 E23.00916
G1 X108.836 Y100.903 E23.04819
G1 X108.652 Y100.774 E23.05941
G1 X107.972 Y100.379 E23.09864
G1 X107.77 Y100.282 E23.10982
G1 X107.042 Y99.996 E23.14884
G1 X106.826 Y99.931 E23.16009
G1 X106.061 Y99.757 E23.19924
G1 X105.839 Y99.729 E23.2104
G1 X105.059 Y99.671 E23.24942
G1 X104.834 Y99.677 E23.26065
G1 X104.05 Y99.737 E23.29988
G1 X103.829 Y99.782 E23.31113
G1 X103.067 Y99.957 E23.35014
G1 X102.856 Y100.037 E23.36139
G1 X102.126 Y100.326 E23.40056
G1 X101.254 Y100.833 E23.45089
G0 F5400 X121.319 Y114.8
G1 F1800 X120.284 Y114.674 E23.50291
G1 X119.465 Y114.701 E23.54379
G1 X119.237 Y114.712 E23.55518
G1 X118.436 Y114.868 E23.59589
G1 X118.213 Y114.914 E23.60725
G1 X117.447 Y115.194 E23.64794
G1 X117.234 Y115.274 E23.65929
G1 X116.524 Y115.669 E23.69982
G1 X116.329 Y115.783 E23.71109
G1 X115.689 Y116.283 E23.75161
G1 X115.514 Y116.427 E23.76292
G1 X114.961 Y117.019 E23.80333
G1 X114.81 Y117.19 E23.81472
G1 X114.356 Y117.862 E23.85518
G1 X114.235 Y118.054 E23.8665
G1 X113.892 Y118.789 E23.90696
G1 X113.802 Y118.998 E23.91832
G1 X113.578 Y119.777 E23.95876
G1 X113.524 Y119.998 E23.97011
G1 X113.423 Y120.802 E24.01053
G1 X113.404 Y121.028 E24.02185
G1 X113.43 Y121.842 E24.06248
G1 X113.449 Y122.067 E24.07374
G1 X113.6 Y122.862 E24.11412
G1 X113.655 Y123.083 E24.12548
G1 X113.928 Y123.846 E24.16591
G1 X114.018 Y124.056 E24.17731
G1 X114.408 Y124.767 E24.21776
G1 X114.529 Y124.958 E24.22904
G1 X115.025 Y125.602 E24.2696
G1 X115.177 Y125.772 E24.28098
G1 X115.766 Y126.326 E24.32132
G1 X115.941 Y126.47 E24.33262
G1 X116.609 Y126.927 E24.373
G1 X116.806 Y127.042 E24.38438
G1 X117.538 Y127.39 E24.42482
G1 X117.751 Y127.471 E24.43619
G1 X118.529 Y127.7 E24.47665
G1 X118.752 Y127.747 E24.48802
G1 X119.557 Y127.852 E24.52852
G1 X119.781 Y127.861 E24.53971
G1 X120.594 Y127.842 E24.58028
G1 X120.819 Y127.815 E24.59158
G1 X121.619 Y127.668 E24.63216
G1 X121.836 Y127.603 E24.64347
G1 X122.605 Y127.332 E24.68414
G1 X122.811 Y127.235 E24.6955
G1 X123.53 Y126.847 E24.73626
G1 X123.718 Y126.717 E24.74767
G1 X124.366 Y126.218 E24.78847
G1 X124.529 Y126.061 E24.79976
G1 X125.091 Y125.469 E24.84049
G1 X125.229 Y125.288 E24.85184
G1 X125.691 Y124.612 E24.89269
G1 X125.796 Y124.411 E24.90401
G1 X126.146 Y123.675 E24.94467
G1 X126.22 Y123.458 E24.9561
G1 X126.449 Y122.673 E24.9969
G1 X126.486 Y122.45 E25.00818
G1 X126.59 Y121.64 E25.04892
G1 X126.591 Y121.413 E25.06025
G1 X126.568 Y120.592 E25.10122
G1 X126.53 Y120.368 E25.11256
G1 X126.379 Y119.566 E25.15327
G1 X126.306 Y119.35 E25.16465
G1 X126.029 Y118.581 E25.20542
G1 X125.923 Y118.381 E25.21672
G1 X125.531 Y117.664 E25.25749
G1 X125.394 Y117.483 E25.26881
G1 X124.891 Y116.835 E25.30974
G1 X124.132 Y116.12 E25.36176
G1 X123.269 Y115.534 E25.4138
G1 X122.325 Y115.09 E25.46585
G1 X121.319 Y114.8 E25.51808
G0 F5400 X92.356 Y127.437
G1 F1800 X93.294 Y126.99 E25.56992
G1 X94.148 Y126.405 E25.62156
G1 X94.902 Y125.692 E25.67334
G1 X95.398 Y125.049 E25.71385
G1 X95.535 Y124.868 E25.72518
G1 X95.924 Y124.157 E25.76561
G1 X96.031 Y123.955 E25.77701
G1 X96.304 Y123.191 E25.81749
G1 X96.377 Y122.976 E25.82882
G1 X96.529 Y122.178 E25.86935
G1 X96.565 Y121.953 E25.88072
G1 X96.591 Y121.145 E25.92105
G1 X96.592 Y120.918 E25.93237
G1 X96.491 Y120.11 E25.973
G1 X96.454 Y119.888 E25.98423
G1 X96.23 Y119.108 E26.02471
G1 X96.157 Y118.892 E26.03609
G1 X95.814 Y118.158 E26.07651
G1 X95.709 Y117.957 E26.08782
G1 X95.255 Y117.285 E26.12828
G1 X95.12 Y117.103 E26.13959
G1 X94.567 Y116.511 E26.18
G1 X94.404 Y116.353 E26.19133
G1 X93.762 Y115.853 E26.23193
G1 X93.577 Y115.724 E26.24318
G1 X92.869 Y115.33 E26.2836
G1 X92.663 Y115.231 E26.29501
G1 X91.895 Y114.952 E26.33577
G1 X91.677 Y114.888 E26.34711
G1 X90.876 Y114.731 E26.38783
G1 X90.65 Y114.703 E26.39919
G1 X89.831 Y114.674 E26.44008
G1 X89.604 Y114.684 E26.45141
G1 X88.794 Y114.782 E26.49212
G1 X88.571 Y114.828 E26.50348
G1 X87.783 Y115.053 E26.54436
G1 X87.571 Y115.136 E26.55572
G1 X86.832 Y115.482 E26.59643
G1 X86.637 Y115.595 E26.60767
G1 X85.958 Y116.054 E26.64856
G1 X85.783 Y116.198 E26.65987
G1 X85.188 Y116.754 E26.7005
G1 X85.036 Y116.925 E26.71191
G1 X84.535 Y117.571 E26.7527
G1 X84.414 Y117.763 E26.76402
G1 X84.021 Y118.479 E26.80477
G1 X83.932 Y118.687 E26.81606
G1 X83.655 Y119.457 E26.85688
G1 X83.6 Y119.678 E26.86824
G1 X83.449 Y120.48 E26.90896
G1 X83.43 Y120.705 E26.92022
G1 X83.405 Y121.524 E26.9611
G1 X83.423 Y121.752 E26.97251
G1 X83.527 Y122.562 E27.01326
G1 X83.582 Y122.782 E27.02457
G1 X83.811 Y123.568 E27.06541
G1 X83.902 Y123.777 E27.07679
G1 X84.252 Y124.514 E27.11749
G1 X84.374 Y124.705 E27.1288
G1 X84.835 Y125.38 E27.16958
G1 X84.988 Y125.551 E27.18103
G1 X85.549 Y126.143 E27.22172
G1 X85.726 Y126.287 E27.2331
G1 X86.372 Y126.783 E27.27373
G1 X86.569 Y126.898 E27.28511
G1 X87.288 Y127.287 E27.3259
G1 X87.5 Y127.369 E27.33724
G1 X88.272 Y127.639 E27.37804
G1 X88.494 Y127.685 E27.38935
G1 X89.29 Y127.831 E27.42973
G1 X89.518 Y127.842 E27.44112
G1 X90.332 Y127.863 E27.48174
G1 X91.36 Y127.73 E27.53345
G1 X92.356 Y127.437 E27.58525
G0 F5400 X65.762 Y145.189
G1 F1800 X66.48 Y145.531 E27.62493
G1 X67.227 Y145.68 E27.66293
G1 X67.594 Y145.7 E27.68127
G1 X68.367 Y145.583 E27.72027
G1 X69.1 Y145.275 E27.75994
G1 X69.737 Y144.795 E27.79973
G1 X70.233 Y144.172 E27.83946
G1 X70.56 Y143.445 E27.87923
G1 X70.697 Y142.66 E27.91899
G1 X70.634 Y141.868 E27.95862
G1 X70.391 Y141.147 E27.99658
G1 X70.223 Y140.817 E28.01506
G1 X69.737 Y140.207 E28.05397
G1 X69.102 Y139.725 E28.09374
G1 X68.369 Y139.416 E28.13343
G1 X67.581 Y139.297 E28.17319
G1 X66.79 Y139.378 E28.21286
G1 X66.042 Y139.651 E28.25258
G1 X65.385 Y140.1 E28.29228
G1 X64.881 Y140.674 E28.33039
G1 X64.68 Y140.983 E28.34878
G1 X64.396 Y141.71 E28.38772
G1 X64.296 Y142.5 E28.42745
G1 X64.395 Y143.291 E28.46722
G1 X64.686 Y144.031 E28.50689
G1 X65.151 Y144.677 E28.5466
G1 X65.762 Y145.189 E28.58637
G0 F5400 X140.762 Y145.189
G1 F1800 X141.48 Y145.531 E28.62605
G1 X142.226 Y145.68 E28.664
G1 X142.593 Y145.701 E28.68234
G1 X143.368 Y145.583 E28.72145
G1 X144.1 Y145.275 E28.76107
G1 X144.737 Y144.795 E28.80087
G1 X145.233 Y144.172 E28.8406
G1 X145.56 Y143.445 E28.88037
G1 X145.697 Y142.66 E28.92012
G1 X145.634 Y141.868 E28.95976
G1 X145.391 Y141.147 E28.99772
G1 X145.223 Y140.817 E29.01619
G1 X144.737 Y140.207 E29.0551
G1 X144.102 Y139.725 E29.09488
G1 X143.369 Y139.416 E29.13456
G1 X142.581 Y139.297 E29.17432
G1 X141.79 Y139.378 E29.21399
G1 X141.042 Y139.651 E29.25372
G1 X140.385 Y140.1 E29.29342
G1 X139.881 Y140.674 E29.33153
G1 X139.68 Y140.983 E29.34992
G1 X139.396 Y141.71 E29.38886
G1 X139.296 Y142.5 E29.42859
G1 X139.395 Y143.291 E29.46836
G1 X139.686 Y144.031 E29.50803
G1 X140.151 Y144.677 E29.54774
G1 X140.762 Y145.189 E29.58751
G0 F5400 X140.762 Y70.189
