;FLAVOR:Marlin
;TIME:1842
;Filament used: 1.94183m, 0m, 0m, 0m
;Layer height: 0.25
;MINX:81.892
;MINY:81.883
;MINZ:0.2
;MAXX:128.117
;MAXY:128.117
;MAXZ:14.7
;Generated with Cura_SteamEngine 4.3.0
T0
M140 S60
M105
M190 S60
M104 S215
M105
M109 S215
M82 ;absolute extrusion mode
G21 ;metric values
G90 ;absolute positioning
M82 ;set extruder to absolute mode
M107 ;start with the fan off
G28 X0 Y0 ;move X/Y to min endstops
G28 Z0 ;move Z to min endstops
G1 Z15.0 F100 ;move the platform down 15mm
G92 E0 ;zero the extruded length
G1 F200 E3 ;extrude 3mm of feed stock
G92 E0 ;zero the extruded length again
G1 F100
M117 Printing...
G5
G92 E0
G92 E0
G1 F2400 E-4
;LAYER_COUNT:59
;LAYER:0
M106 S255
M204 S3000
M205 X10 Y10
G1 F600 Z0.275
G0 F2666.7 X88.375 Y88.994 Z0.275
M204 S1800
M205 X8 Y8
;TYPE:SKIRT
G1 F600 Z0.2
G1 F2400 E0
G1 F1800 X89.365 Y88.021 E0.06464
G1 X89.429 Y87.959 E0.06879
G1 X89.926 Y87.484 E0.1008
G1 X90.635 Y86.898 E0.14363
G1 X91.313 Y86.415 E0.18239
G1 X91.401 Y86.354 E0.18738
G1 X92.565 Y85.554 E0.25314
G1 X92.638 Y85.504 E0.25726
G1 X93.188 Y85.137 E0.28805
G1 X93.99 Y84.682 E0.33099
G1 X94.797 Y84.298 E0.3726
G1 X94.897 Y84.251 E0.37775
G1 X96.117 Y83.696 E0.44016
G1 X96.198 Y83.66 E0.44429
G1 X96.83 Y83.383 E0.47642
G1 X97.694 Y83.076 E0.51911
G1 X98.526 Y82.846 E0.55931
G1 X98.631 Y82.818 E0.56437
G1 X99.944 Y82.479 E0.62751
G1 X100.017 Y82.461 E0.63101
G1 X100.709 Y82.291 E0.66419
G1 X101.577 Y82.14 E0.70522
G1 X102.205 Y82.075 E0.73462
G1 X102.307 Y82.065 E0.73939
G1 X103.748 Y81.939 E0.80674
G1 X103.85 Y81.931 E0.81151
G1 X104.523 Y81.883 E0.84292
G1 X105.431 Y81.883 E0.8852
G1 X106.263 Y81.942 E0.92404
G1 X106.365 Y81.95 E0.92881
G1 X107.812 Y82.076 E0.99644
G1 X107.902 Y82.085 E1.00065
G1 X108.524 Y82.148 E1.02976
G1 X109.437 Y82.307 E1.07292
G1 X110.246 Y82.51 E1.11175
G1 X110.347 Y82.537 E1.11662
G1 X111.722 Y82.906 E1.18291
G1 X111.797 Y82.926 E1.18653
G1 X112.433 Y83.105 E1.21729
G1 X113.315 Y83.425 E1.26098
G1 X114.083 Y83.769 E1.30017
G1 X114.17 Y83.809 E1.30463
G1 X115.436 Y84.399 E1.36966
G1 X115.513 Y84.435 E1.37362
G1 X116.073 Y84.705 E1.40257
G1 X116.9 Y85.183 E1.44705
G1 X117.835 Y85.821 E1.49976
G1 X117.946 Y85.899 E1.50607
G1 X119.008 Y86.657 E1.56683
G1 X119.075 Y86.705 E1.57067
G1 X119.63 Y87.112 E1.60271
G1 X120.34 Y87.717 E1.64615
G1 X120.936 Y88.305 E1.68513
G1 X121.006 Y88.375 E1.68974
G1 X121.979 Y89.365 E1.75438
G1 X122.041 Y89.429 E1.75853
G1 X122.516 Y89.926 E1.79054
G1 X123.102 Y90.635 E1.83337
G1 X123.585 Y91.313 E1.87213
G1 X123.645 Y91.4 E1.87706
G1 X124.442 Y92.559 E1.94255
G1 X124.494 Y92.635 E1.94684
G1 X124.864 Y93.19 E1.9779
G1 X125.318 Y93.99 E2.02073
G1 X125.702 Y94.797 E2.06235
G1 X125.749 Y94.897 E2.06749
G1 X126.304 Y96.117 E2.1299
G1 X126.34 Y96.198 E2.13403
G1 X126.617 Y96.83 E2.16616
G1 X126.924 Y97.694 E2.20886
G1 X127.154 Y98.526 E2.24905
G1 X127.182 Y98.631 E2.25411
G1 X127.521 Y99.944 E2.31725
G1 X127.539 Y100.017 E2.32075
G1 X127.709 Y100.709 E2.35394
G1 X127.86 Y101.576 E2.39491
G1 X127.925 Y102.203 E2.42427
G1 X127.935 Y102.306 E2.42909
G1 X128.061 Y103.748 E2.49649
G1 X128.069 Y103.848 E2.50116
G1 X128.117 Y104.519 E2.53248
G1 X128.117 Y105.428 E2.57481
G1 X128.058 Y106.262 E2.61374
G1 X128.05 Y106.365 E2.61855
G1 X127.924 Y107.812 E2.68618
G1 X127.915 Y107.902 E2.6904
G1 X127.852 Y108.524 E2.71951
G1 X127.693 Y109.437 E2.76266
G1 X127.49 Y110.246 E2.8015
G1 X127.463 Y110.347 E2.80637
G1 X127.094 Y111.722 E2.87266
G1 X127.073 Y111.799 E2.87637
G1 X126.894 Y112.434 E2.90709
G1 X126.576 Y113.311 E2.95053
G1 X126.232 Y114.08 E2.98976
G1 X126.191 Y114.17 E2.99437
G1 X125.601 Y115.436 E3.0594
G1 X125.565 Y115.513 E3.06336
G1 X125.295 Y116.073 E3.09231
G1 X124.817 Y116.9 E3.13679
G1 X124.179 Y117.835 E3.1895
G1 X124.101 Y117.946 E3.19581
G1 X123.343 Y119.008 E3.25657
G1 X123.295 Y119.075 E3.26041
G1 X122.888 Y119.63 E3.29245
G1 X122.283 Y120.34 E3.33589
G1 X121.695 Y120.936 E3.37487
G1 X121.625 Y121.006 E3.37948
G1 X120.635 Y121.979 E3.44412
G1 X120.571 Y122.041 E3.44827
G1 X120.074 Y122.516 E3.48028
G1 X119.365 Y123.102 E3.52311
G1 X118.687 Y123.585 E3.56187
G1 X118.599 Y123.646 E3.56686
G1 X117.435 Y124.446 E3.63263
G1 X117.362 Y124.496 E3.63675
G1 X116.812 Y124.863 E3.66754
G1 X116.01 Y125.318 E3.71047
G1 X115.203 Y125.702 E3.75209
G1 X115.103 Y125.749 E3.75723
G1 X113.883 Y126.304 E3.81964
G1 X113.799 Y126.341 E3.82392
G1 X113.166 Y126.618 E3.85609
G1 X112.307 Y126.923 E3.89853
G1 X111.476 Y127.153 E3.93868
G1 X111.369 Y127.182 E3.94385
G1 X110.056 Y127.521 E4.00699
G1 X109.983 Y127.539 E4.01049
G1 X109.291 Y127.709 E4.04367
G1 X108.423 Y127.86 E4.0847
G1 X107.795 Y127.925 E4.11409
G1 X107.693 Y127.935 E4.11887
G1 X106.252 Y128.061 E4.18622
G1 X106.15 Y128.069 E4.19099
G1 X105.477 Y128.117 E4.2224
G1 X104.569 Y128.117 E4.26468
G1 X103.737 Y128.058 E4.30352
G1 X103.635 Y128.05 E4.30829
G1 X102.188 Y127.924 E4.37592
G1 X102.098 Y127.915 E4.38013
G1 X101.476 Y127.852 E4.40924
G1 X100.563 Y127.693 E4.4524
G1 X99.754 Y127.49 E4.49123
G1 X99.653 Y127.463 E4.4961
G1 X98.278 Y127.094 E4.56239
G1 X98.198 Y127.072 E4.56626
G1 X97.564 Y126.893 E4.59693
G1 X96.691 Y126.577 E4.64016
G1 X95.908 Y126.227 E4.6801
G1 X95.813 Y126.183 E4.68498
G1 X94.551 Y125.594 E4.74982
G1 X94.48 Y125.561 E4.75347
G1 X93.932 Y125.297 E4.78179
G1 X93.102 Y124.817 E4.82644
G1 X92.141 Y124.161 E4.88062
G1 X92.032 Y124.085 E4.88681
G1 X91.02 Y123.363 E4.94469
G1 X90.95 Y123.312 E4.94873
G1 X90.367 Y122.884 E4.9824
G1 X89.659 Y122.28 E5.02574
G1 X89.053 Y121.682 E5.06538
G1 X88.985 Y121.615 E5.06983
G1 X88.023 Y120.637 E5.1337
G1 X87.959 Y120.571 E5.13799
G1 X87.484 Y120.074 E5.17
G1 X86.898 Y119.365 E5.21283
G1 X86.415 Y118.687 E5.25159
G1 X86.354 Y118.599 E5.25658
G1 X85.554 Y117.435 E5.32234
G1 X85.504 Y117.362 E5.32646
G1 X85.137 Y116.812 E5.35725
G1 X84.682 Y116.01 E5.40019
G1 X84.298 Y115.203 E5.4418
G1 X84.251 Y115.103 E5.44695
G1 X83.696 Y113.883 E5.50936
G1 X83.66 Y113.802 E5.51349
G1 X83.383 Y113.17 E5.54562
G1 X83.076 Y112.306 E5.58831
G1 X82.846 Y111.474 E5.62851
G1 X82.818 Y111.369 E5.63357
G1 X82.479 Y110.056 E5.69671
G1 X82.461 Y109.984 E5.70017
G1 X82.297 Y109.317 E5.73215
G1 X82.141 Y108.393 E5.77578
G1 X82.057 Y107.507 E5.81723
G1 X82.047 Y107.396 E5.82242
G1 X81.943 Y106.051 E5.88523
G1 X81.937 Y105.97 E5.88901
G1 X81.892 Y105.272 E5.92158
G1 X81.894 Y104.422 E5.96116
G1 X81.935 Y103.825 E5.98903
G1 X81.944 Y103.709 E5.99444
G1 X82.073 Y102.224 E6.06385
G1 X82.082 Y102.129 E6.0683
G1 X82.149 Y101.472 E6.09905
G1 X82.308 Y100.565 E6.14192
G1 X82.516 Y99.735 E6.18177
G1 X82.542 Y99.634 E6.18662
G1 X82.905 Y98.28 E6.2519
G1 X82.927 Y98.201 E6.25572
G1 X83.106 Y97.566 E6.28644
G1 X83.424 Y96.689 E6.32988
G1 X83.768 Y95.92 E6.3691
G1 X83.809 Y95.83 E6.37371
G1 X84.399 Y94.564 E6.43875
G1 X84.435 Y94.487 E6.4427
G1 X84.705 Y93.927 E6.47165
G1 X85.183 Y93.1 E6.51613
G1 X85.821 Y92.165 E6.56884
G1 X85.899 Y92.054 E6.57516
G1 X86.657 Y90.992 E6.63591
G1 X86.705 Y90.925 E6.63975
G1 X87.112 Y90.37 E6.6718
G1 X87.717 Y89.66 E6.71523
G1 X87.973 Y89.4 E6.73222
G0 F1620 X88.305 Y89.064
G0 X88.375 Y88.994
M204 S3000
M205 X10 Y10
G0 F2666.7 X88.767 Y89.394
M204 S1800
M205 X8 Y8
G1 F1800 X89.757 Y88.421 E6.79686
G1 X89.816 Y88.364 E6.80068
G1 X90.313 Y87.889 E6.83269
G1 X90.96 Y87.355 E6.87175
G1 X91.638 Y86.872 E6.91051
G1 X91.718 Y86.815 E6.91509
G1 X92.882 Y86.015 E6.98086
G1 X92.949 Y85.97 E6.98461
G1 X93.499 Y85.603 E7.0154
G1 X94.231 Y85.188 E7.05458
G1 X95.038 Y84.804 E7.0962
G1 X95.129 Y84.761 E7.10089
G1 X96.349 Y84.206 E7.1633
G1 X96.423 Y84.173 E7.16707
G1 X97.055 Y83.896 E7.1992
G1 X97.843 Y83.616 E7.23814
G1 X98.675 Y83.386 E7.27833
G1 X98.771 Y83.36 E7.28297
G1 X100.084 Y83.021 E7.34611
G1 X100.151 Y83.005 E7.34932
G1 X100.843 Y82.835 E7.3825
G1 X101.635 Y82.697 E7.41993
G1 X102.263 Y82.632 E7.44933
G1 X102.355 Y82.623 E7.45364
G1 X103.796 Y82.497 E7.52099
G1 X103.89 Y82.49 E7.52538
G1 X104.563 Y82.442 E7.5568
G1 X105.391 Y82.442 E7.59535
G1 X106.223 Y82.501 E7.63419
G1 X106.317 Y82.508 E7.63858
G1 X107.764 Y82.634 E7.70621
G1 X107.846 Y82.642 E7.71005
G1 X108.468 Y82.705 E7.73916
G1 X109.3 Y82.851 E7.77849
G1 X110.109 Y83.054 E7.81733
G1 X110.202 Y83.078 E7.8218
G1 X111.577 Y83.447 E7.8881
G1 X111.645 Y83.465 E7.89137
G1 X112.281 Y83.644 E7.92214
G1 X113.086 Y83.936 E7.96201
G1 X113.854 Y84.28 E8.0012
G1 X113.934 Y84.317 E8.0053
G1 X115.2 Y84.907 E8.07034
G1 X115.269 Y84.94 E8.0739
G1 X115.829 Y85.21 E8.10285
G1 X116.585 Y85.646 E8.14348
G1 X117.52 Y86.284 E8.19619
G1 X117.621 Y86.355 E8.20194
G1 X118.683 Y87.113 E8.2627
G1 X118.744 Y87.157 E8.2662
G1 X119.299 Y87.564 E8.29825
G1 X119.947 Y88.116 E8.33788
G1 X120.543 Y88.704 E8.37687
G1 X120.606 Y88.767 E8.38102
G1 X121.579 Y89.757 E8.44565
G1 X121.636 Y89.816 E8.44947
G1 X122.111 Y90.313 E8.48148
G1 X122.645 Y90.96 E8.52055
G1 X123.128 Y91.638 E8.55931
G1 X123.184 Y91.717 E8.56382
G1 X123.981 Y92.876 E8.62932
G1 X124.028 Y92.946 E8.63324
G1 X124.398 Y93.501 E8.6643
G1 X124.812 Y94.231 E8.70338
G1 X125.196 Y95.038 E8.74499
G1 X125.239 Y95.129 E8.74968
G1 X125.794 Y96.349 E8.81209
G1 X125.827 Y96.423 E8.81586
G1 X126.104 Y97.055 E8.84799
G1 X126.384 Y97.843 E8.88693
G1 X126.614 Y98.675 E8.92713
G1 X126.64 Y98.771 E8.93176
G1 X126.979 Y100.084 E8.9949
G1 X126.995 Y100.151 E8.99811
G1 X127.165 Y100.843 E9.03129
G1 X127.303 Y101.634 E9.06868
G1 X127.368 Y102.261 E9.09803
G1 X127.377 Y102.355 E9.10243
G1 X127.503 Y103.797 E9.16983
G1 X127.51 Y103.888 E9.17408
G1 X127.558 Y104.559 E9.20541
G1 X127.558 Y105.388 E9.24401
G1 X127.499 Y106.222 E9.28294
G1 X127.492 Y106.317 E9.28737
G1 X127.366 Y107.764 E9.35501
G1 X127.358 Y107.846 E9.35884
G1 X127.295 Y108.468 E9.38796
G1 X127.149 Y109.3 E9.42729
G1 X126.946 Y110.109 E9.46613
G1 X126.922 Y110.202 E9.4706
G1 X126.553 Y111.577 E9.53689
G1 X126.534 Y111.647 E9.54027
G1 X126.355 Y112.282 E9.57099
G1 X126.065 Y113.083 E9.61066
G1 X125.721 Y113.852 E9.64988
G1 X125.683 Y113.934 E9.65409
G1 X125.093 Y115.2 E9.71913
G1 X125.06 Y115.269 E9.72269
G1 X124.79 Y115.829 E9.75164
G1 X124.354 Y116.585 E9.79228
G1 X123.716 Y117.52 E9.84498
G1 X123.645 Y117.621 E9.85073
G1 X122.887 Y118.683 E9.91149
G1 X122.843 Y118.744 E9.91499
G1 X122.436 Y119.299 E9.94704
G1 X121.884 Y119.947 E9.98667
G1 X121.296 Y120.543 E10.02566
G1 X121.233 Y120.606 E10.02981
G1 X120.243 Y121.579 E10.09444
G1 X120.184 Y121.636 E10.09826
G1 X119.687 Y122.111 E10.13028
G1 X119.04 Y122.645 E10.16934
G1 X118.362 Y123.128 E10.2081
G1 X118.282 Y123.185 E10.21268
G1 X117.118 Y123.985 E10.27844
G1 X117.051 Y124.03 E10.2822
G1 X116.501 Y124.397 E10.31299
G1 X115.769 Y124.812 E10.35217
G1 X114.962 Y125.196 E10.39379
G1 X114.871 Y125.239 E10.39847
G1 X113.651 Y125.794 E10.46088
G1 X113.574 Y125.828 E10.4648
G1 X112.941 Y126.105 E10.49698
G1 X112.158 Y126.383 E10.53567
G1 X111.327 Y126.613 E10.57582
G1 X111.229 Y126.64 E10.58055
G1 X109.916 Y126.979 E10.64369
G1 X109.849 Y126.995 E10.6469
G1 X109.157 Y127.165 E10.68008
G1 X108.365 Y127.303 E10.71751
G1 X107.737 Y127.368 E10.74691
G1 X107.645 Y127.377 E10.75122
G1 X106.204 Y127.503 E10.81857
G1 X106.11 Y127.51 E10.82296
G1 X105.437 Y127.558 E10.85438
G1 X104.609 Y127.558 E10.89293
G1 X103.777 Y127.499 E10.93177
G1 X103.683 Y127.492 E10.93616
G1 X102.236 Y127.366 E11.0038
G1 X102.154 Y127.358 E11.00763
G1 X101.532 Y127.295 E11.03674
G1 X100.7 Y127.149 E11.07608
G1 X99.891 Y126.946 E11.11491
G1 X99.798 Y126.922 E11.11939
G1 X98.423 Y126.553 E11.18568
G1 X98.35 Y126.533 E11.1892
G1 X97.716 Y126.354 E11.21988
G1 X96.92 Y126.066 E11.25929
G1 X96.137 Y125.716 E11.29923
G1 X96.05 Y125.676 E11.30369
G1 X94.788 Y125.087 E11.36854
G1 X94.723 Y125.056 E11.37189
G1 X94.175 Y124.792 E11.40022
G1 X93.417 Y124.354 E11.44098
G1 X92.456 Y123.698 E11.49516
G1 X92.357 Y123.629 E11.50078
G1 X91.345 Y122.907 E11.55867
G1 X91.281 Y122.861 E11.56234
G1 X90.698 Y122.433 E11.59601
G1 X90.052 Y121.882 E11.63555
G1 X89.446 Y121.284 E11.67519
G1 X89.385 Y121.222 E11.67924
G1 X88.423 Y120.244 E11.74312
G1 X88.364 Y120.184 E11.74704
G1 X87.889 Y119.687 E11.77905
G1 X87.355 Y119.04 E11.81811
G1 X86.872 Y118.362 E11.85688
G1 X86.815 Y118.282 E11.86145
G1 X86.015 Y117.118 E11.92722
G1 X85.97 Y117.051 E11.93098
G1 X85.603 Y116.501 E11.96177
G1 X85.188 Y115.769 E12.00095
G1 X84.804 Y114.962 E12.04256
G1 X84.761 Y114.871 E12.04725
G1 X84.206 Y113.651 E12.10966
G1 X84.173 Y113.577 E12.11343
G1 X83.896 Y112.945 E12.14556
G1 X83.616 Y112.157 E12.1845
G1 X83.386 Y111.325 E12.2247
G1 X83.36 Y111.229 E12.22933
G1 X83.021 Y109.916 E12.29247
G1 X83.005 Y109.85 E12.29563
G1 X82.841 Y109.183 E12.32762
G1 X82.698 Y108.34 E12.36743
G1 X82.614 Y107.454 E12.40887
G1 X82.605 Y107.353 E12.41359
G1 X82.501 Y106.008 E12.47641
G1 X82.496 Y105.934 E12.47986
G1 X82.451 Y105.236 E12.51243
G1 X82.453 Y104.46 E12.54857
G1 X82.494 Y103.863 E12.57643
G1 X82.502 Y103.758 E12.58133
G1 X82.631 Y102.273 E12.65074
G1 X82.639 Y102.186 E12.65481
G1 X82.706 Y101.529 E12.68556
G1 X82.851 Y100.701 E12.7247
G1 X83.059 Y99.871 E12.76455
G1 X83.083 Y99.779 E12.76897
G1 X83.446 Y98.425 E12.83425
G1 X83.466 Y98.353 E12.83773
G1 X83.645 Y97.718 E12.86845
G1 X83.935 Y96.917 E12.90812
G1 X84.279 Y96.148 E12.94734
G1 X84.317 Y96.066 E12.95155
G1 X84.907 Y94.8 E13.01659
G1 X84.94 Y94.731 E13.02015
G1 X85.21 Y94.171 E13.0491
G1 X85.646 Y93.415 E13.08974
G1 X86.284 Y92.48 E13.14244
G1 X86.355 Y92.379 E13.14819
G1 X87.113 Y91.317 E13.20895
G1 X87.157 Y91.256 E13.21245
G1 X87.564 Y90.701 E13.2445
G1 X88.116 Y90.053 E13.28414
G1 X88.366 Y89.8 E13.3007
G0 F1620 X88.704 Y89.457
G0 X88.767 Y89.394
M204 S3000
M205 X10 Y10
G0 F2666.7 X89.16 Y89.793
M204 S1800
M205 X8 Y8
G1 F1800 X90.15 Y88.82 E13.36533
G1 X90.203 Y88.769 E13.36876
G1 X90.7 Y88.294 E13.40077
G1 X91.284 Y87.811 E13.43606
G1 X91.962 Y87.328 E13.47482
G1 X92.035 Y87.277 E13.47897
G1 X93.199 Y86.477 E13.54474
G1 X93.259 Y86.436 E13.54812
G1 X93.809 Y86.069 E13.57891
G1 X94.471 Y85.693 E13.61436
G1 X95.278 Y85.309 E13.65597
G1 X95.361 Y85.271 E13.66022
G1 X96.581 Y84.716 E13.72263
G1 X96.647 Y84.686 E13.72601
G1 X97.279 Y84.409 E13.75814
G1 X97.992 Y84.156 E13.79337
G1 X98.824 Y83.926 E13.83356
G1 X98.911 Y83.903 E13.83775
G1 X100.224 Y83.564 E13.9009
G1 X100.284 Y83.548 E13.90379
G1 X100.976 Y83.378 E13.93697
G1 X101.692 Y83.254 E13.97081
G1 X102.32 Y83.189 E14.0002
G1 X102.404 Y83.181 E14.00413
G1 X103.845 Y83.055 E14.07149
G1 X103.929 Y83.048 E14.07541
G1 X104.602 Y83 E14.10683
G1 X105.351 Y83 E14.14171
G1 X106.183 Y83.059 E14.18055
G1 X106.268 Y83.066 E14.18452
G1 X107.715 Y83.192 E14.25215
G1 X107.789 Y83.199 E14.25561
G1 X108.411 Y83.262 E14.28472
G1 X109.164 Y83.394 E14.32032
G1 X109.973 Y83.597 E14.35916
G1 X110.057 Y83.618 E14.36319
G1 X111.432 Y83.987 E14.42948
G1 X111.493 Y84.004 E14.43243
G1 X112.129 Y84.183 E14.4632
G1 X112.857 Y84.447 E14.49925
G1 X113.625 Y84.791 E14.53844
G1 X113.697 Y84.824 E14.54213
G1 X114.963 Y85.414 E14.60717
G1 X115.026 Y85.444 E14.61041
G1 X115.586 Y85.714 E14.63936
G1 X116.269 Y86.109 E14.6761
G1 X117.204 Y86.747 E14.72881
G1 X117.295 Y86.81 E14.73396
G1 X118.357 Y87.568 E14.79472
G1 X118.412 Y87.608 E14.79789
G1 X118.967 Y88.015 E14.82993
G1 X119.553 Y88.514 E14.86577
G1 X120.149 Y89.102 E14.90476
G1 X120.207 Y89.16 E14.90858
G1 X121.18 Y90.15 E14.97321
G1 X121.231 Y90.203 E14.97664
G1 X121.706 Y90.7 E15.00865
G1 X122.189 Y91.284 E15.04394
G1 X122.672 Y91.962 E15.0827
G1 X122.723 Y92.034 E15.08681
G1 X123.52 Y93.193 E15.15231
G1 X123.932 Y93.811 E15.18689
G1 X124.307 Y94.471 E15.22224
G1 X124.691 Y95.278 E15.26385
G1 X124.729 Y95.361 E15.2681
G1 X125.284 Y96.581 E15.33051
G1 X125.314 Y96.647 E15.33389
G1 X125.591 Y97.279 E15.36602
G1 X125.844 Y97.992 E15.40125
G1 X126.074 Y98.824 E15.44144
G1 X126.097 Y98.911 E15.44563
G1 X126.436 Y100.224 E15.50878
G1 X126.452 Y100.284 E15.51167
G1 X126.622 Y100.976 E15.54485
G1 X126.746 Y101.692 E15.57868
G1 X126.811 Y102.319 E15.60804
G1 X126.819 Y102.403 E15.61197
G1 X126.945 Y103.845 E15.67937
G1 X126.952 Y103.928 E15.68325
G1 X127 Y104.599 E15.71457
G1 X127 Y105.349 E15.74949
G1 X126.941 Y106.183 E15.78843
