;FLAVOR:Marlin
;TIME:1851
;Filament used: 0.350046m
;Layer height: 0.1
;MINX:69.339
;MINY:82.21
;MINZ:0.3
;MAXX:141.562
;MAXY:128.686
;MAXZ:9
;Generated with Cura_SteamEngine 4.8.0
M140 S60
M105
M190 S60
M104 S200
M105
M109 S200
M82 ;absolute extrusion mode
140 S60
M105
M190 S60
M104 S200
M105
M109 S200
M82 ;absolute extrusion mode
G28
G29
M501
G92 E0 ;zero the extruded length
G1 F200 E3 ;extrude 3mm of feed stock
G92 E0 ;zero the extruded length again
G1 F100
M117 Printing...
G92 E0
G92 E0
;LAYER_COUNT:88
;LAYER:0
M107
G0 F3600 X74.967 Y86.215 Z0.3
;TYPE:SKIRT
G1 F1800 X75.387 Y85.862 E0.01032
G1 X75.857 Y85.495 E0.02154
G1 X76.283 Y85.185 E0.03145
G1 X76.779 Y84.849 E0.04272
G1 X77.253 Y84.552 E0.05324
G1 X77.769 Y84.254 E0.06445
G1 X78.26 Y83.994 E0.0749
G1 X78.797 Y83.733 E0.08613
G1 X79.265 Y83.524 E0.09577
G1 X79.82 Y83.298 E0.10704
G1 X80.354 Y83.103 E0.11774
G1 X80.921 Y82.919 E0.12895
G1 X81.446 Y82.769 E0.13922
G1 X82.025 Y82.625 E0.15044
G1 X82.537 Y82.515 E0.16029
G1 X83.125 Y82.41 E0.17153
G1 X83.688 Y82.331 E0.18222
G1 X84.283 Y82.269 E0.19348
G1 X84.816 Y82.232 E0.20353
G1 X85.411 Y82.211 E0.21473
G1 X85.948 Y82.21 E0.22483
G1 X86.544 Y82.23 E0.23605
G1 X87.09 Y82.268 E0.24634
G1 X87.685 Y82.33 E0.25759
G1 X88.233 Y82.407 E0.268
G1 X88.822 Y82.511 E0.27925
G1 X89.355 Y82.624 E0.2895
G1 X89.932 Y82.768 E0.30069
G1 X90.439 Y82.913 E0.31061
G1 X91.009 Y83.097 E0.32188
G1 X91.535 Y83.288 E0.3324
G1 X92.087 Y83.511 E0.3436
G1 X92.58 Y83.73 E0.35375
G1 X93.118 Y83.992 E0.365
G1 X93.598 Y84.247 E0.37523
G1 X94.115 Y84.545 E0.38645
G1 X94.577 Y84.833 E0.39669
G1 X95.073 Y85.167 E0.40794
G1 X95.508 Y85.483 E0.41806
G1 X95.978 Y85.849 E0.42926
G1 X96.394 Y86.196 E0.43945
G1 X96.84 Y86.596 E0.45072
G1 X97.238 Y86.98 E0.46112
G1 X97.653 Y87.409 E0.47235
G1 X98.019 Y87.814 E0.48262
G1 X98.403 Y88.271 E0.49385
G1 X98.735 Y88.695 E0.50398
G1 X99.087 Y89.178 E0.51522
G1 X99.137 Y89.252 E0.5169
G1 X99.514 Y89.114 E0.52445
G1 X100.11 Y88.921 E0.53624
G1 X100.624 Y88.774 E0.54629
G1 X101.233 Y88.622 E0.5581
G1 X101.757 Y88.51 E0.56818
G1 X102.376 Y88.4 E0.58
G1 X102.924 Y88.323 E0.59041
G1 X103.551 Y88.257 E0.60227
G1 X104.094 Y88.219 E0.61251
G1 X104.721 Y88.197 E0.62431
G1 X105.256 Y88.196 E0.63438
G1 X105.883 Y88.217 E0.64618
G1 X106.439 Y88.256 E0.65666
G1 X107.066 Y88.322 E0.66852
G1 X107.602 Y88.397 E0.6787
G1 X108.221 Y88.506 E0.69053
G1 X108.76 Y88.621 E0.70089
G1 X109.368 Y88.773 E0.71268
G1 X109.868 Y88.916 E0.72246
G1 X110.467 Y89.109 E0.7343
G1 X110.995 Y89.3 E0.74486
G1 X111.577 Y89.535 E0.75667
G1 X112.066 Y89.752 E0.76673
G1 X112.632 Y90.027 E0.77857
G1 X113.132 Y90.293 E0.78922
G1 X113.676 Y90.608 E0.80105
G1 X114.119 Y90.885 E0.81088
G1 X114.641 Y91.236 E0.82271
G1 X115.085 Y91.558 E0.83303
G1 X115.58 Y91.944 E0.84483
G1 X115.988 Y92.284 E0.85482
G1 X116.457 Y92.704 E0.86667
G1 X116.861 Y93.093 E0.87722
G1 X117.298 Y93.545 E0.88904
G1 X117.663 Y93.95 E0.8993
G1 X118.067 Y94.431 E0.91111
G1 X118.399 Y94.856 E0.92126
G1 X118.61 Y95.146 E0.92801
G1 X118.667 Y95.125 E0.92915
G1 X119.293 Y94.922 E0.94153
G1 X119.804 Y94.776 E0.95152
G1 X120.443 Y94.616 E0.96391
G1 X120.981 Y94.501 E0.97426
G1 X121.632 Y94.386 E0.9867
G1 X122.176 Y94.31 E0.99703
G1 X122.834 Y94.241 E1.00948
G1 X123.375 Y94.203 E1.01968
G1 X124.033 Y94.18 E1.03206
G1 X124.566 Y94.179 E1.04209
G1 X125.224 Y94.201 E1.05447
G1 X125.776 Y94.24 E1.06488
G1 X126.434 Y94.309 E1.07733
G1 X126.968 Y94.383 E1.08747
G1 X127.618 Y94.497 E1.09988
G1 X128.166 Y94.614 E1.11042
G1 X128.805 Y94.774 E1.12281
G1 X129.309 Y94.918 E1.13267
G1 X129.937 Y95.121 E1.14509
G1 X130.467 Y95.314 E1.1557
G1 X131.079 Y95.562 E1.16812
G1 X131.553 Y95.772 E1.17787
G1 X132.147 Y96.06 E1.19029
G1 X132.647 Y96.326 E1.20094
G1 X133.218 Y96.656 E1.21335
G1 X133.672 Y96.939 E1.22341
G1 X134.22 Y97.308 E1.23584
G1 X134.656 Y97.624 E1.24597
G1 X135.176 Y98.029 E1.25837
G1 X135.589 Y98.375 E1.2685
G1 X136.081 Y98.816 E1.28093
G1 X136.484 Y99.204 E1.29145
G1 X136.943 Y99.679 E1.30388
G1 X137.308 Y100.083 E1.31412
G1 X137.732 Y100.588 E1.32652
G1 X138.058 Y101.006 E1.33649
G1 X138.447 Y101.539 E1.34891
G1 X138.763 Y102.006 E1.35951
G1 X139.112 Y102.565 E1.37191
G1 X139.378 Y103.025 E1.3819
G1 X139.689 Y103.608 E1.39433
G1 X139.924 Y104.087 E1.40437
G1 X140.194 Y104.689 E1.41678
G1 X140.41 Y105.224 E1.42763
G1 X140.635 Y105.845 E1.44006
G1 X140.798 Y106.347 E1.44999
G1 X140.98 Y106.98 E1.46238
G1 X141.11 Y107.497 E1.4724
G1 X141.249 Y108.144 E1.48485
G1 X141.346 Y108.692 E1.49532
G1 X141.438 Y109.344 E1.50771
G1 X141.495 Y109.878 E1.51781
G1 X141.542 Y110.536 E1.53022
G1 X141.562 Y111.092 E1.54068
G1 X141.562 Y111.753 E1.55312
G1 X141.544 Y112.285 E1.56313
G1 X141.499 Y112.943 E1.57554
G1 X141.442 Y113.488 E1.58584
G1 X141.351 Y114.141 E1.59824
G1 X141.255 Y114.687 E1.60867
G1 X141.115 Y115.345 E1.62133
G1 X140.985 Y115.866 E1.63143
G1 X140.804 Y116.499 E1.64381
G1 X140.64 Y117.008 E1.65387
G1 X140.415 Y117.63 E1.66631
G1 X140.199 Y118.164 E1.67715
G1 X139.93 Y118.765 E1.68954
G1 X139.703 Y119.231 E1.69929
G1 X139.394 Y119.814 E1.7117
G1 X139.118 Y120.292 E1.72208
G1 X138.769 Y120.851 E1.73448
G1 X138.463 Y121.305 E1.74477
G1 X138.075 Y121.839 E1.75719
G1 X137.733 Y122.276 E1.76763
G1 X137.308 Y122.781 E1.78005
G1 X136.961 Y123.167 E1.78981
G1 X136.503 Y123.643 E1.80223
G1 X136.1 Y124.033 E1.81278
G1 X135.61 Y124.474 E1.82518
G1 X135.192 Y124.824 E1.83544
G1 X134.672 Y125.23 E1.84785
G1 X134.245 Y125.541 E1.85779
G1 X133.697 Y125.912 E1.87023
G1 X133.227 Y126.206 E1.88066
G1 X132.656 Y126.536 E1.89307
G1 X132.161 Y126.799 E1.90361
G1 X131.568 Y127.087 E1.91601
G1 X131.106 Y127.293 E1.92553
G1 X130.493 Y127.543 E1.93798
G1 X129.95 Y127.742 E1.94886
G1 X129.323 Y127.945 E1.96126
G1 X128.801 Y128.094 E1.97147
G1 X128.161 Y128.253 E1.98387
G1 X127.65 Y128.362 E1.9937
G1 X127 Y128.478 E2.00612
G1 X126.445 Y128.556 E2.01666
G1 X125.788 Y128.625 E2.02909
G1 X125.245 Y128.663 E2.03933
G1 X124.587 Y128.686 E2.05171
G1 X124.043 Y128.686 E2.06195
G1 X123.385 Y128.663 E2.07433
G1 X122.855 Y128.627 E2.08432
G1 X122.197 Y128.559 E2.09677
G1 X121.642 Y128.481 E2.10731
G1 X120.991 Y128.366 E2.11974
G1 X120.462 Y128.254 E2.12992
G1 X119.824 Y128.095 E2.14228
G1 X119.311 Y127.948 E2.15232
G1 X118.683 Y127.745 E2.16474
G1 X118.157 Y127.554 E2.17526
G1 X117.544 Y127.306 E2.1877
G1 X117.066 Y127.094 E2.19754
G1 X116.472 Y126.806 E2.20996
G1 X115.972 Y126.54 E2.22061
G1 X115.401 Y126.21 E2.23302
G1 X114.945 Y125.925 E2.24313
G1 X114.396 Y125.555 E2.25558
G1 X113.962 Y125.241 E2.26566
G1 X113.442 Y124.836 E2.27806
G1 X113.029 Y124.49 E2.28819
G1 X112.537 Y124.049 E2.30062
G1 X112.134 Y123.661 E2.31114
G1 X111.675 Y123.186 E2.32357
G1 X111.31 Y122.782 E2.33381
G1 X110.886 Y122.277 E2.34621
G1 X110.555 Y121.854 E2.35632
G1 X110.166 Y121.32 E2.36875
G1 X109.983 Y121.049 E2.3749
G1 X109.89 Y121.079 E2.37673
G1 X109.376 Y121.226 E2.38679
G1 X108.767 Y121.378 E2.3986
G1 X108.243 Y121.49 E2.40868
G1 X107.624 Y121.6 E2.4205
G1 X107.076 Y121.677 E2.43091
G1 X106.449 Y121.743 E2.44277
G1 X105.906 Y121.781 E2.45301
G1 X105.279 Y121.803 E2.46481
G1 X104.744 Y121.804 E2.47488
G1 X104.117 Y121.783 E2.48668
G1 X103.561 Y121.744 E2.49716
G1 X102.934 Y121.678 E2.50902
G1 X102.398 Y121.603 E2.5192
G1 X101.779 Y121.494 E2.53103
G1 X101.24 Y121.379 E2.54139
G1 X100.632 Y121.227 E2.55318
G1 X100.132 Y121.084 E2.56296
G1 X99.533 Y120.891 E2.5748
G1 X99.003 Y120.699 E2.5854
G1 X98.419 Y120.463 E2.59725
G1 X97.933 Y120.247 E2.60726
G1 X97.369 Y119.973 E2.61905
G1 X96.868 Y119.707 E2.62972
G1 X96.324 Y119.392 E2.64155
G1 X95.878 Y119.113 E2.65144
G1 X95.355 Y118.761 E2.6633
G1 X94.914 Y118.441 E2.67355
G1 X94.419 Y118.055 E2.68536
G1 X94.011 Y117.715 E2.69535
G1 X93.542 Y117.295 E2.70719
G1 X93.138 Y116.906 E2.71774
G1 X92.701 Y116.454 E2.72957
G1 X92.336 Y116.049 E2.73982
G1 X91.932 Y115.568 E2.75164
G1 X91.6 Y115.143 E2.76178
G1 X91.23 Y114.635 E2.7736
G1 X90.914 Y114.167 E2.78423
G1 X90.86 Y114.08 E2.78615
G1 X90.462 Y114.209 E2.79402
G1 X89.937 Y114.359 E2.80429
G1 X89.358 Y114.503 E2.81552
G1 X88.844 Y114.613 E2.8254
G1 X88.255 Y114.718 E2.83666
G1 X87.696 Y114.797 E2.84728
G1 X87.102 Y114.859 E2.85851
G1 X86.567 Y114.896 E2.8686
G1 X85.971 Y114.917 E2.87982
G1 X85.434 Y114.918 E2.88992
G1 X84.839 Y114.898 E2.90112
G1 X84.294 Y114.86 E2.91139
G1 X83.698 Y114.798 E2.92267
G1 X83.146 Y114.721 E2.93315
G1 X82.558 Y114.617 E2.94438
G1 X82.028 Y114.504 E2.95458
G1 X81.451 Y114.36 E2.96576
G1 X80.944 Y114.215 E2.97568
G1 X80.374 Y114.031 E2.98695
G1 X79.846 Y113.839 E2.99752
G1 X79.292 Y113.615 E3.00876
G1 X78.806 Y113.399 E3.01876
G1 X78.269 Y113.138 E3.02999
G1 X77.778 Y112.878 E3.04044
G1 X77.262 Y112.58 E3.05165
G1 X76.803 Y112.293 E3.06184
G1 X76.306 Y111.958 E3.07311
G1 X75.874 Y111.644 E3.08316
G1 X75.404 Y111.278 E3.09436
G1 X74.988 Y110.931 E3.10455
G1 X74.542 Y110.531 E3.11582
G1 X74.144 Y110.147 E3.12622
G1 X73.729 Y109.718 E3.13745
G1 X73.363 Y109.313 E3.14772
G1 X72.979 Y108.856 E3.15895
G1 X72.647 Y108.432 E3.16908
G1 X72.295 Y107.949 E3.18032
G1 X71.977 Y107.477 E3.19103
G1 X71.662 Y106.971 E3.20224
G1 X71.404 Y106.524 E3.21195
G1 X71.123 Y105.998 E3.22316
G1 X70.886 Y105.515 E3.23328
G1 X70.642 Y104.971 E3.2445
G1 X70.426 Y104.436 E3.25535
G1 X70.222 Y103.873 E3.26662
G1 X70.061 Y103.378 E3.27641
G1 X69.896 Y102.806 E3.28761
G1 X69.764 Y102.284 E3.29773
G1 X69.638 Y101.698 E3.30901
G1 X69.54 Y101.143 E3.31961
G1 X69.457 Y100.552 E3.33084
G1 X69.4 Y100.017 E3.34096
G1 X69.358 Y99.423 E3.35216
G1 X69.339 Y98.873 E3.36251
G1 X69.339 Y98.276 E3.37374
G1 X69.357 Y97.754 E3.38357
G1 X69.397 Y97.158 E3.3948
G1 X69.453 Y96.608 E3.4052
G1 X69.535 Y96.017 E3.41642
G1 X69.632 Y95.466 E3.42695
G1 X69.759 Y94.869 E3.43843
G1 X69.89 Y94.342 E3.44864
G1 X70.054 Y93.77 E3.45984
G1 X70.22 Y93.259 E3.46994
G1 X70.424 Y92.697 E3.48119
G1 X70.632 Y92.182 E3.49164
G1 X70.875 Y91.637 E3.50286
G1 X71.111 Y91.153 E3.51299
G1 X71.391 Y90.626 E3.52422
G1 X71.657 Y90.164 E3.53425
G1 X71.972 Y89.658 E3.54546
G1 X72.284 Y89.195 E3.55596
G1 X72.635 Y88.712 E3.56719
G1 X72.974 Y88.278 E3.57755
G1 X73.359 Y87.82 E3.5888
G1 X73.717 Y87.423 E3.59886
G1 X74.131 Y86.994 E3.61007
G1 X74.523 Y86.615 E3.62033
G1 X74.967 Y86.215 E3.63157
G0 F3600 X75.235 Y86.512
G1 F1800 X75.634 Y86.177 E3.64137
G1 X76.104 Y85.81 E3.65259
G1 X76.508 Y85.516 E3.66199
G1 X77.004 Y85.18 E3.67326
G1 X77.453 Y84.899 E3.68322
G1 X77.969 Y84.601 E3.69443
G1 X78.435 Y84.353 E3.70436
G1 X78.972 Y84.092 E3.71559
G1 X79.416 Y83.894 E3.72474
G1 X79.971 Y83.668 E3.73601
G1 X80.478 Y83.483 E3.74616
G1 X81.045 Y83.299 E3.75737
G1 X81.543 Y83.157 E3.76711
G1 X82.122 Y83.013 E3.77834
G1 X82.607 Y82.909 E3.78767
G1 X83.195 Y82.804 E3.7989
G1 X83.729 Y82.729 E3.80905
G1 X84.324 Y82.667 E3.8203
G1 X84.83 Y82.632 E3.82984
G1 X85.425 Y82.611 E3.84104
G1 X85.934 Y82.61 E3.85061
G1 X86.53 Y82.63 E3.86183
G1 X87.049 Y82.666 E3.87162
G1 X87.644 Y82.728 E3.88287
G1 X88.164 Y82.801 E3.89275
G1 X88.753 Y82.905 E3.904
G1 X89.258 Y83.012 E3.91371
G1 X89.835 Y83.156 E3.9249
G1 X90.316 Y83.294 E3.93431
G1 X90.886 Y83.478 E3.94558
G1 X91.385 Y83.659 E3.95556
G1 X91.937 Y83.882 E3.96676
G1 X92.405 Y84.09 E3.97639
G1 X92.943 Y84.352 E3.98765
G1 X93.398 Y84.594 E3.99734
G1 X93.915 Y84.892 E4.00857
G1 X94.353 Y85.165 E4.01828
G1 X94.849 Y85.499 E4.02952
G1 X95.263 Y85.798 E4.03913
G1 X95.733 Y86.164 E4.05034
G1 X96.127 Y86.494 E4.06
G1 X96.573 Y86.894 E4.07127
G1 X96.951 Y87.258 E4.08114
G1 X97.366 Y87.687 E4.09237
G1 X97.712 Y88.072 E4.10211
G1 X98.096 Y88.529 E4.11334
G1 X98.411 Y88.931 E4.12294
G1 X98.763 Y89.414 E4.13419
G1 X98.983 Y89.74 E4.14158
G1 X99.128 Y89.681 E4.14453
G1 X99.637 Y89.495 E4.15472
G1 X100.233 Y89.302 E4.16651
G1 X100.721 Y89.162 E4.17606
G1 X101.33 Y89.01 E4.18786
G1 X101.827 Y88.904 E4.19742
G1 X102.446 Y88.794 E4.20925
G1 X102.966 Y88.721 E4.21913
G1 X103.593 Y88.655 E4.23099
G1 X104.109 Y88.619 E4.24072
G1 X104.736 Y88.597 E4.25252
G1 X105.243 Y88.596 E4.26205
G1 X105.87 Y88.617 E4.27386
G1 X106.397 Y88.654 E4.28379
G1 X107.024 Y88.72 E4.29565
G1 X107.532 Y88.791 E4.3053
G1 X108.151 Y88.9 E4.31712
G1 X108.663 Y89.009 E4.32697
G1 X109.271 Y89.161 E4.33876
G1 X109.745 Y89.297 E4.34804
G1 X110.344 Y89.49 E4.35987
G1 X110.846 Y89.671 E4.36991
G1 X111.428 Y89.906 E4.38172
G1 X111.891 Y90.112 E4.39125
G1 X112.457 Y90.387 E4.40309
G1 X112.931 Y90.639 E4.41318
G1 X113.475 Y90.954 E4.42501
G1 X113.896 Y91.217 E4.43435
G1 X114.418 Y91.568 E4.44618
G1 X114.84 Y91.874 E4.45598
G1 X115.335 Y92.26 E4.46779
G1 X115.721 Y92.582 E4.47725
G1 X116.19 Y93.002 E4.48909
G1 X116.573 Y93.371 E4.49909
G1 X117.01 Y93.823 E4.51092
G1 X117.356 Y94.208 E4.52066
G1 X117.76 Y94.689 E4.53247
G1 X118.076 Y95.091 E4.54209
G1 X118.446 Y95.599 E4.55391
G1 X118.463 Y95.625 E4.5545
G1 X118.79 Y95.506 E4.56104
G1 X119.416 Y95.303 E4.57342
G1 X119.902 Y95.164 E4.58293
G1 X120.541 Y95.004 E4.59532
G1 X121.051 Y94.895 E4.60513
G1 X121.702 Y94.78 E4.61757
G1 X122.217 Y94.707 E4.62735
G1 X122.875 Y94.638 E4.6398
G1 X123.388 Y94.603 E4.64947
G1 X124.046 Y94.58 E4.66185
G1 X124.552 Y94.579 E4.67137
G1 X125.21 Y94.601 E4.68376
G1 X125.735 Y94.637 E4.69366
G1 X126.393 Y94.706 E4.7061
G1 X126.899 Y94.777 E4.71571
G1 X127.549 Y94.891 E4.72813
G1 X128.068 Y95.002 E4.73811
G1 X128.707 Y95.162 E4.7505
G1 X129.186 Y95.299 E4.75987
G1 X129.814 Y95.502 E4.77229
G1 X130.317 Y95.685 E4.78236
G1 X130.929 Y95.933 E4.79478
G1 X131.378 Y96.132 E4.80401
G1 X131.972 Y96.42 E4.81643
G1 X132.447 Y96.672 E4.82655
G1 X133.018 Y97.002 E4.83895
G1 X133.448 Y97.271 E4.84849
G1 X133.996 Y97.64 E4.86092
G1 X134.41 Y97.94 E4.87054
G1 X134.93 Y98.345 E4.88294
G1 X135.322 Y98.673 E4.89255
G1 X135.814 Y99.114 E4.90498
G1 X136.196 Y99.482 E4.91496
G1 X136.655 Y99.957 E4.92738
G1 X137.001 Y100.341 E4.9371
G1 X137.425 Y100.846 E4.94951
G1 X137.735 Y101.242 E4.95897
G1 X138.124 Y101.775 E4.97138
G1 X138.424 Y102.218 E4.98144
G1 X138.773 Y102.777 E4.99384
G1 X139.025 Y103.213 E5.00331
G1 X139.336 Y103.796 E5.01574
G1 X139.559 Y104.251 E5.02527
G1 X139.829 Y104.853 E5.03768
G1 X140.034 Y105.36 E5.04797
G1 X140.259 Y105.981 E5.0604
G1 X140.414 Y106.457 E5.06981
G1 X140.596 Y107.09 E5.0822
G1 X140.719 Y107.581 E5.09172
G1 X140.858 Y108.228 E5.10417
G1 X140.95 Y108.748 E5.11411
G1 X141.042 Y109.4 E5.12649
G1 X141.096 Y109.907 E5.13608
G1 X141.143 Y110.565 E5.14849
G1 X141.162 Y111.092 E5.15841
G1 X141.162 Y111.753 E5.17084
G1 X141.145 Y112.258 E5.18035
G1 X141.1 Y112.916 E5.19276
G1 X141.046 Y113.432 E5.20251
G1 X140.955 Y114.085 E5.21492
G1 X140.864 Y114.604 E5.22483
G1 X140.724 Y115.262 E5.23748
G1 X140.601 Y115.756 E5.24706
G1 X140.42 Y116.389 E5.25944
G1 X140.264 Y116.872 E5.26899
G1 X140.039 Y117.494 E5.28143
G1 X139.834 Y118 E5.2917
G1 X139.565 Y118.601 E5.30409
G1 X139.349 Y119.043 E5.31334
G1 X139.04 Y119.626 E5.32575
G1 X138.779 Y120.08 E5.3356
G1 X138.43 Y120.639 E5.348
G1 X138.14 Y121.07 E5.35777
G1 X137.752 Y121.604 E5.37019
G1 X137.427 Y122.019 E5.3801
G1 X137.002 Y122.524 E5.39252
G1 X136.672 Y122.89 E5.40179
G1 X136.214 Y123.366 E5.41422
G1 X135.832 Y123.735 E5.42421
G1 X135.342 Y124.176 E5.43661
G1 X134.946 Y124.509 E5.44634
G1 X134.426 Y124.915 E5.45875
G1 X134.021 Y125.21 E5.46817
G1 X133.473 Y125.581 E5.48062
G1 X133.027 Y125.86 E5.49052
G1 X132.456 Y126.19 E5.50292
G1 X131.986 Y126.439 E5.51293
G1 X131.393 Y126.727 E5.52533
G1 X130.954 Y126.923 E5.53437
G1 X130.341 Y127.173 E5.54683
G1 X129.826 Y127.361 E5.55714
G1 X129.199 Y127.564 E5.56954
G1 X128.704 Y127.706 E5.57922
G1 X128.064 Y127.865 E5.59163
G1 X127.58 Y127.968 E5.60094
G1 X126.93 Y128.084 E5.61336
G1 X126.403 Y128.159 E5.62337
G1 X125.746 Y128.228 E5.63579
G1 X125.232 Y128.263 E5.64549
G1 X124.574 Y128.286 E5.65787
G1 X124.056 Y128.286 E5.66761
G1 X123.398 Y128.263 E5.68
G1 X122.896 Y128.229 E5.68946
G1 X122.238 Y128.161 E5.70191
G1 X121.712 Y128.087 E5.7119
G1 X121.061 Y127.972 E5.72433
G1 X120.559 Y127.865 E5.73399
G1 X119.921 Y127.706 E5.74636
G1 X119.434 Y127.567 E5.75588
G1 X118.806 Y127.364 E5.7683
G1 X118.307 Y127.183 E5.77828
G1 X117.694 Y126.935 E5.79072
