;FLAVOR:Marlin
;TIME:7840
;Filament used: 6.91572m, 0m, 0m, 0m
;Layer height: 0.25
;MINX:17.109
;MINY:6.828
;MINZ:0.2
;MAXX:192.891
;MAXY:203.162
;MAXZ:2.025
;Generated with Cura_SteamEngine 4.3.0
T0
M140 S60
M105
M190 S60
M104 S215
M105
M109 S215
M82 ;absolute extrusion mode
G21 ;metric values
G90 ;absolute positioning
M82 ;set extruder to absolute mode
M107 ;start with the fan off
G28 X0 Y0 ;move X/Y to min endstops
G28 Z0 ;move Z to min endstops
G1 Z15.0 F100 ;move the platform down 15mm
G92 E0 ;zero the extruded length
G1 F200 E3 ;extrude 3mm of feed stock
G92 E0 ;zero the extruded length again
G1 F100
M117 Printing...
G5
G92 E0
G92 E0
G1 F2400 E-4
;LAYER_COUNT:8
;LAYER:0
M106 S255
M204 S3000
M205 X10 Y10
G1 F600 Z0.275
G0 F2666.7 X18.958 Y15.335 Z0.275
M204 S1800
M205 X8 Y8
;TYPE:SKIRT
G1 F600 Z0.2
G1 F2400 E0
G1 F1800 X19.291 Y14.924 E0.02463
G1 X19.44 Y14.755 E0.03512
G1 X19.775 Y14.403 E0.05775
G1 X20.164 Y14.024 E0.08304
G1 X20.703 Y13.554 E0.11634
G1 X21.188 Y13.212 E0.14397
G1 X21.42 Y13.064 E0.15679
G1 X21.668 Y12.914 E0.17028
G1 X22.142 Y12.641 E0.19575
G1 X22.781 Y12.319 E0.22907
G1 X23.694 Y12.001 E0.27409
G1 X24.406 Y11.812 E0.30839
G1 X25.106 Y11.668 E0.34167
G1 X25.553 Y11.617 E0.36262
G1 X26.036 Y11.58 E0.38517
G1 X28.723 Y11.336 E0.51081
G1 X31.354 Y11.023 E0.63418
G1 X33.946 Y10.641 E0.75618
G1 X36.807 Y10.132 E0.89149
G1 X37.416 Y10.053 E0.92009
G1 X38.052 Y10.002 E0.9498
G1 X40.696 Y9.759 E1.07343
G1 X43.325 Y9.442 E1.19673
G1 X45.948 Y9.05 E1.32023
G1 X47.306 Y8.803 E1.3845
G1 X47.385 Y8.789 E1.38824
G1 X48.784 Y8.553 E1.4543
G1 X49.26 Y8.491 E1.47665
G1 X50.072 Y8.416 E1.51462
G1 X50.161 Y8.409 E1.51878
G1 X51.315 Y8.319 E1.57268
G1 X53.969 Y8.035 E1.69697
G1 X56.595 Y7.679 E1.82036
G1 X59.187 Y7.253 E1.94267
G1 X59.572 Y7.179 E1.96093
G1 X59.667 Y7.162 E1.96542
G1 X60.662 Y6.986 E2.01247
G1 X61.56 Y6.892 E2.05452
G1 X61.796 Y6.884 E2.06551
G1 X62.102 Y6.881 E2.07976
G1 X62.603 Y6.888 E2.10309
G1 X63.137 Y6.917 E2.128
G1 X64.21 Y7.022 E2.1782
G1 X64.308 Y7.033 E2.18279
G1 X64.886 Y7.099 E2.20988
G1 X67.531 Y7.324 E2.33349
G1 X70.204 Y7.475 E2.45815
G1 X72.81 Y7.549 E2.57955
G1 X75.489 Y7.549 E2.70429
G1 X78.095 Y7.475 E2.82569
G1 X80.751 Y7.325 E2.94956
G1 X84.736 Y6.958 E3.1359
G1 X85.317 Y6.893 E3.16312
G1 X85.895 Y6.854 E3.1901
G1 X87.069 Y6.829 E3.24478
G1 X87.205 Y6.828 E3.25111
G1 X123.129 Y6.828 E4.92388
G1 X123.221 Y6.829 E4.92817
G1 X123.919 Y6.839 E4.96067
G1 X124.451 Y6.869 E4.98548
G1 X125.349 Y6.957 E5.0275
G1 X125.412 Y6.963 E5.03044
G1 X127.133 Y7.149 E5.11105
G1 X129.771 Y7.358 E5.23427
G1 X132.444 Y7.495 E5.3589
G1 X135.052 Y7.554 E5.48037
G1 X137.73 Y7.539 E5.60507
G1 X140.335 Y7.451 E5.72644
G1 X143.015 Y7.284 E5.85147
G1 X145.662 Y7.044 E5.97523
G1 X146.625 Y6.936 E6.02036
G1 X147.013 Y6.904 E6.03849
G1 X147.326 Y6.888 E6.05308
G1 X147.74 Y6.881 E6.07236
G1 X148.257 Y6.888 E6.09644
G1 X148.97 Y6.937 E6.12971
G1 X149.336 Y6.994 E6.14696
G1 X149.92 Y7.102 E6.17462
G1 X152.563 Y7.555 E6.29948
G1 X155.192 Y7.93 E6.42314
G1 X157.81 Y8.227 E6.54582
G1 X159.244 Y8.349 E6.61284
G1 X159.273 Y8.352 E6.6142
G1 X160.657 Y8.476 E6.6789
G1 X161.149 Y8.539 E6.70199
G1 X161.873 Y8.661 E6.73618
G1 X161.987 Y8.681 E6.74157
G1 X163.243 Y8.916 E6.80107
G1 X165.838 Y9.327 E6.92341
G1 X168.454 Y9.664 E7.04623
G1 X171.129 Y9.932 E7.17141
G1 X172.463 Y10.037 E7.23372
G1 X173.133 Y10.125 E7.26519
G1 X173.766 Y10.243 E7.29517
G1 X176.377 Y10.69 E7.41852
G1 X179.019 Y11.066 E7.54278
G1 X181.626 Y11.362 E7.66495
G1 X183 Y11.47 E7.72913
G1 X183.111 Y11.479 E7.73432
G1 X184.494 Y11.612 E7.79901
G1 X185.206 Y11.722 E7.83256
G1 X185.447 Y11.773 E7.84403
G1 X185.857 Y11.874 E7.86369
G1 X186.347 Y12.012 E7.88739
G1 X187.024 Y12.244 E7.92072
G1 X187.576 Y12.5 E7.94905
G1 X187.863 Y12.65 E7.96413
G1 X188.113 Y12.788 E7.97743
G1 X188.497 Y13.011 E7.9981
G1 X189.095 Y13.404 E8.03142
G1 X189.661 Y13.877 E8.06577
G1 X190.079 Y14.269 E8.09245
G1 X190.239 Y14.424 E8.10283
G1 X190.423 Y14.609 E8.11498
G1 X190.898 Y15.143 E8.14826
G1 X191.305 Y15.719 E8.1811
G1 X191.44 Y15.934 E8.19292
G1 X191.612 Y16.224 E8.20862
G1 X191.838 Y16.63 E8.23026
G1 X192.274 Y17.594 E8.27952
G1 X192.346 Y17.796 E8.28951
G1 X192.496 Y18.275 E8.31288
G1 X192.662 Y18.889 E8.3425
G1 X192.81 Y19.589 E8.37581
G1 X192.881 Y20.348 E8.41131
G1 X192.889 Y20.591 E8.42263
G1 X192.891 Y20.889 E8.43651
G1 X192.886 Y21.256 E8.4536
G1 X192.852 Y21.842 E8.48093
G1 X192.731 Y22.987 E8.53454
G1 X192.714 Y23.13 E8.54125
G1 X192.682 Y23.379 E8.55294
G1 X192.679 Y23.398 E8.55383
G1 X192.045 Y28.214 E8.78002
G1 X191.732 Y30.88 E8.90501
G1 X191.495 Y33.546 E9.02964
G1 X191.339 Y36.146 E9.15093
G1 X191.254 Y38.823 E9.27564
G1 X191.244 Y41.47 E9.3989
G1 X191.309 Y44.107 E9.52173
G1 X191.449 Y46.755 E9.6452
G1 X191.662 Y49.379 E9.76779
G1 X191.955 Y52.043 E9.89258
G1 X192.315 Y54.635 E10.01443
G1 X192.712 Y57.025 E10.12725
G1 X192.786 Y57.442 E10.14697
G1 X192.884 Y58.404 E10.192
G1 X192.89 Y58.638 E10.20289
G1 X192.891 Y58.888 E10.21454
G1 X192.886 Y59.26 E10.23186
G1 X192.851 Y59.85 E10.25938
G1 X192.73 Y60.99 E10.31276
G1 X192.714 Y61.13 E10.31932
G1 X192.682 Y61.379 E10.33101
G1 X192.679 Y61.398 E10.33191
G1 X192.045 Y66.214 E10.5581
G1 X191.732 Y68.88 E10.68309
G1 X191.495 Y71.546 E10.80772
G1 X191.339 Y74.146 E10.929
G1 X191.254 Y76.823 E11.05372
G1 X191.244 Y79.47 E11.17698
G1 X191.309 Y82.107 E11.2998
G1 X191.449 Y84.755 E11.42328
G1 X191.662 Y87.379 E11.54586
G1 X191.955 Y90.043 E11.67066
G1 X192.315 Y92.635 E11.79251
G1 X192.712 Y95.025 E11.90532
G1 X192.786 Y95.442 E11.92504
G1 X192.884 Y96.404 E11.97007
G1 X192.89 Y96.638 E11.98097
G1 X192.891 Y96.888 E11.99261
G1 X192.886 Y97.26 E12.00994
G1 X192.851 Y97.85 E12.03746
G1 X192.73 Y98.99 E12.09084
G1 X192.714 Y99.13 E12.0974
G1 X192.682 Y99.379 E12.10909
G1 X192.679 Y99.398 E12.10998
G1 X192.045 Y104.214 E12.33617
G1 X191.732 Y106.88 E12.46117
G1 X191.495 Y109.546 E12.5858
G1 X191.339 Y112.146 E12.70708
G1 X191.254 Y114.823 E12.8318
G1 X191.244 Y117.47 E12.95505
G1 X191.309 Y120.107 E13.07788
G1 X191.449 Y122.755 E13.20135
G1 X191.662 Y125.379 E13.32394
G1 X191.955 Y128.043 E13.44873
G1 X192.315 Y130.635 E13.57059
G1 X192.712 Y133.025 E13.6834
G1 X192.786 Y133.442 E13.70312
G1 X192.884 Y134.404 E13.74815
G1 X192.89 Y134.638 E13.75905
G1 X192.891 Y134.888 E13.77069
G1 X192.886 Y135.26 E13.78801
G1 X192.851 Y135.85 E13.81553
G1 X192.73 Y136.99 E13.86891
G1 X192.714 Y137.13 E13.87548
G1 X192.682 Y137.379 E13.88717
G1 X192.679 Y137.398 E13.88806
G1 X192.045 Y142.214 E14.11425
G1 X191.732 Y144.88 E14.23924
G1 X191.495 Y147.546 E14.36387
G1 X191.339 Y150.146 E14.48516
G1 X191.254 Y152.823 E14.60987
G1 X191.244 Y155.47 E14.73313
G1 X191.309 Y158.107 E14.85595
G1 X191.449 Y160.755 E14.97943
G1 X191.662 Y163.379 E15.10202
G1 X191.955 Y166.043 E15.22681
G1 X192.315 Y168.635 E15.34866
G1 X192.712 Y171.025 E15.46148
G1 X192.786 Y171.442 E15.4812
G1 X192.884 Y172.404 E15.52622
G1 X192.89 Y172.638 E15.53712
G1 X192.891 Y172.888 E15.54876
G1 X192.886 Y173.26 E15.56609
G1 X192.851 Y173.85 E15.59361
G1 X192.73 Y174.99 E15.64699
G1 X192.714 Y175.13 E15.65355
G1 X192.682 Y175.379 E15.66524
G1 X192.679 Y175.398 E15.66614
G1 X190.19 Y194.306 E16.55417
G1 X190.178 Y194.395 E16.55835
G1 X190.073 Y195.115 E16.59223
G1 X189.97 Y195.655 E16.61783
G1 X189.915 Y195.889 E16.62902
G1 X189.846 Y196.158 E16.64195
G1 X189.709 Y196.645 E16.66551
G1 X189.477 Y197.322 E16.69883
G1 X189.152 Y198.003 E16.73397
G1 X188.901 Y198.458 E16.75817
G1 X188.796 Y198.64 E16.76795
G1 X188.671 Y198.85 E16.77933
G1 X188.272 Y199.444 E16.81265
G1 X187.889 Y199.903 E16.84049
G1 X187.701 Y200.108 E16.85344
G1 X187.509 Y200.307 E16.86631
G1 X187.165 Y200.651 E16.88897
G1 X186.632 Y201.128 E16.92227
G1 X186.008 Y201.568 E16.95783
G1 X185.562 Y201.844 E16.98225
G1 X185.389 Y201.948 E16.99165
G1 X185.113 Y202.107 E17.00648
G1 X184.474 Y202.428 E17.03978
G1 X183.715 Y202.704 E17.07738
G1 X183.462 Y202.778 E17.08966
G1 X183.22 Y202.843 E17.10133
G1 X182.757 Y202.959 E17.12355
G1 X182.055 Y203.094 E17.15684
G1 X181.517 Y203.143 E17.18199
G1 X181.294 Y203.154 E17.19239
G1 X180.979 Y203.162 E17.20706
G1 X180.429 Y203.162 E17.23267
G1 X179.715 Y203.122 E17.26597
G1 X179.35 Y203.07 E17.28314
G1 X178.52 Y202.928 E17.32235
G1 X178.434 Y202.913 E17.32641
G1 X177.267 Y202.697 E17.38168
G1 X174.664 Y202.29 E17.50436
G1 X172.018 Y201.953 E17.62856
G1 X169.375 Y201.692 E17.75223
G1 X169.151 Y201.676 E17.76269
G1 X169.066 Y201.67 E17.76665
G1 X167.971 Y201.576 E17.81783
G1 X167.453 Y201.51 E17.84214
G1 X166.724 Y201.387 E17.87657
G1 X166.612 Y201.367 E17.88187
G1 X165.361 Y201.133 E17.94113
G1 X162.766 Y200.722 E18.06347
G1 X160.15 Y200.385 E18.18629
G1 X157.475 Y200.117 E18.31147
G1 X156.141 Y200.012 E18.37378
G1 X155.471 Y199.924 E18.40525
G1 X154.768 Y199.793 E18.43854
G1 X152.157 Y199.346 E18.56189
G1 X149.515 Y198.97 E18.68615
G1 X146.895 Y198.673 E18.80893
G1 X144.195 Y198.443 E18.93511
G1 X143.234 Y198.287 E18.98045
G1 X142.729 Y198.165 E19.00464
G1 X142.503 Y198.106 E19.01551
G1 X142.25 Y198.035 E19.02775
G1 X141.648 Y197.833 E19.05732
G1 X139.313 Y196.92 E19.17406
G1 X136.766 Y196.003 E19.30011
G1 X134.305 Y195.195 E19.42072
G1 X131.729 Y194.429 E19.54586
G1 X129.173 Y193.747 E19.66905
G1 X126.605 Y193.139 E19.79193
G1 X123.988 Y192.596 E19.91638
G1 X121.405 Y192.139 E20.03853
G1 X118.791 Y191.751 E20.16158
G1 X116.187 Y191.438 E20.2837
G1 X113.494 Y191.192 E20.40962
G1 X110.889 Y191.029 E20.53116
G1 X108.248 Y190.938 E20.65421
G1 X106.204 Y190.918 E20.74939
G1 X103.628 Y190.92 E20.86934
G1 X100.966 Y190.96 E20.99331
G1 X98.325 Y191.074 E21.1164
G1 X95.657 Y191.265 E21.24095
G1 X93.054 Y191.525 E21.36276
G1 X90.398 Y191.867 E21.48746
G1 X87.783 Y192.279 E21.61072
G1 X85.196 Y192.762 E21.73327
G1 X82.63 Y193.317 E21.85551
G1 X80.053 Y193.951 E21.97909
G1 X77.468 Y194.663 E22.10394
G1 X74.968 Y195.431 E22.22572
G1 X72.448 Y196.283 E22.34958
G1 X68.812 Y197.654 E22.53053
G1 X68.467 Y197.793 E22.54785
G1 X67.926 Y197.983 E22.57455
G1 X67.67 Y198.06 E22.587
G1 X67.388 Y198.138 E22.60062
G1 X66.911 Y198.258 E22.62352
G1 X66.209 Y198.393 E22.65681
G1 X65.85 Y198.431 E22.67362
G1 X65.355 Y198.47 E22.69674
G1 X62.635 Y198.717 E22.82392
G1 X59.98 Y199.035 E22.94843
G1 X57.373 Y199.421 E23.07114
G1 X54.618 Y199.91 E23.20143
G1 X54.06 Y199.984 E23.22764
G1 X53.469 Y200.036 E23.25527
G1 X50.749 Y200.285 E23.38245
G1 X48.114 Y200.602 E23.50603
G1 X45.505 Y200.991 E23.62886
G1 X44.024 Y201.255 E23.69891
G1 X43.998 Y201.259 E23.70014
G1 X42.606 Y201.501 E23.76593
G1 X42.1 Y201.569 E23.7897
G1 X41.312 Y201.642 E23.82655
G1 X41.221 Y201.65 E23.8308
G1 X39.98 Y201.747 E23.88877
G1 X37.359 Y202.027 E24.01151
G1 X34.733 Y202.383 E24.1349
G1 X32.076 Y202.82 E24.26028
G1 X30.815 Y203.045 E24.31993
G1 X29.886 Y203.142 E24.36342
G1 X29.334 Y203.159 E24.38914
G1 X29.137 Y203.162 E24.39831
G1 X28.901 Y203.162 E24.4093
G1 X28.187 Y203.122 E24.4426
G1 X27.439 Y202.993 E24.47794
G1 X26.872 Y202.86 E24.50506
G1 X26.69 Y202.814 E24.5138
G1 X26.438 Y202.747 E24.52595
G1 X25.758 Y202.525 E24.55925
G1 X25.069 Y202.208 E24.59457
G1 X24.891 Y202.113 E24.60396
G1 X24.632 Y201.968 E24.61779
G1 X24.173 Y201.695 E24.64265
G1 X23.58 Y201.295 E24.67596
G1 X23.1 Y200.893 E24.70512
G1 X22.834 Y200.647 E24.72199
G1 X22.633 Y200.453 E24.73499
G1 X22.308 Y200.125 E24.75649
G1 X21.834 Y199.589 E24.78981
G1 X21.425 Y199.01 E24.82282
G1 X21.302 Y198.813 E24.83364
G1 X21.144 Y198.544 E24.84816
G1 X20.896 Y198.1 E24.87184
G1 X20.582 Y197.457 E24.90516
G1 X20.369 Y196.871 E24.9342
G1 X20.291 Y196.619 E24.94648
G1 X20.223 Y196.383 E24.95792
G1 X20.092 Y195.894 E24.98149
G1 X19.942 Y195.171 E25.01587
G1 X19.826 Y194.384 E25.05291
G1 X19.813 Y194.288 E25.05742
G1 X17.249 Y174.849 E25.97043
G1 X17.238 Y174.762 E25.97451
G1 X17.158 Y174.084 E26.0063
G1 X17.117 Y173.518 E26.03272
G1 X17.111 Y173.309 E26.04246
G1 X17.109 Y173.038 E26.05508
G1 X17.116 Y172.521 E26.07915
G1 X17.185 Y171.663 E26.11924
G1 X17.215 Y171.462 E26.1287
G1 X17.237 Y171.325 E26.13516
G1 X17.642 Y168.967 E26.24657
G1 X18.012 Y166.363 E26.36904
G1 X18.307 Y163.754 E26.4913
G1 X18.533 Y161.098 E26.61542
G1 X18.681 Y158.467 E26.73812
G1 X18.756 Y155.79 E26.86282
G1 X18.756 Y153.145 E26.98599
G1 X18.681 Y150.536 E27.10752
G1 X18.53 Y147.871 E27.23181
G1 X18.306 Y145.247 E27.35444
G1 X17.949 Y142.164 E27.49896
G1 X17.258 Y136.927 E27.74493
G1 X17.247 Y136.838 E27.74911
G1 X17.158 Y136.082 E27.78455
G1 X17.117 Y135.518 E27.81088
G1 X17.111 Y135.309 E27.82062
G1 X17.109 Y135.038 E27.83324
G1 X17.116 Y134.521 E27.85731
G1 X17.185 Y133.663 E27.89739
G1 X17.215 Y133.462 E27.90686
G1 X17.237 Y133.325 E27.91332
G1 X17.642 Y130.967 E28.02473
G1 X18.012 Y128.363 E28.1472
G1 X18.307 Y125.754 E28.26946
G1 X18.533 Y123.098 E28.39358
G1 X18.681 Y120.467 E28.51628
G1 X18.756 Y117.79 E28.64098
G1 X18.756 Y115.145 E28.76415
G1 X18.681 Y112.536 E28.88568
G1 X18.53 Y109.871 E29.00997
G1 X18.306 Y107.247 E29.1326
G1 X17.949 Y104.164 E29.27712
G1 X17.258 Y98.927 E29.52309
G1 X17.247 Y98.838 E29.52727
G1 X17.158 Y98.082 E29.56271
G1 X17.117 Y97.518 E29.58904
G1 X17.111 Y97.309 E29.59878
G1 X17.109 Y97.038 E29.6114
G1 X17.116 Y96.521 E29.63547
G1 X17.185 Y95.663 E29.67555
G1 X17.215 Y95.462 E29.68502
G1 X17.237 Y95.325 E29.69148
G1 X17.642 Y92.967 E29.80288
G1 X18.012 Y90.363 E29.92536
G1 X18.307 Y87.754 E30.04762
G1 X18.533 Y85.098 E30.17174
G1 X18.681 Y82.467 E30.29444
G1 X18.756 Y79.79 E30.41914
G1 X18.756 Y77.145 E30.54231
G1 X18.681 Y74.536 E30.66384
G1 X18.53 Y71.871 E30.78813
G1 X18.306 Y69.247 E30.91076
G1 X17.949 Y66.164 E31.05528
G1 X17.258 Y60.927 E31.30125
G1 X17.247 Y60.838 E31.30543
G1 X17.158 Y60.082 E31.34087
G1 X17.117 Y59.518 E31.3672
G1 X17.111 Y59.309 E31.37694
G1 X17.109 Y59.038 E31.38956
G1 X17.116 Y58.521 E31.41363
G1 X17.185 Y57.663 E31.45371
G1 X17.215 Y57.462 E31.46318
G1 X17.237 Y57.325 E31.46964
G1 X17.642 Y54.967 E31.58104
G1 X18.012 Y52.363 E31.70352
G1 X18.307 Y49.754 E31.82578
G1 X18.533 Y47.098 E31.9499
G1 X18.681 Y44.467 E32.0726
G1 X18.756 Y41.79 E32.1973
G1 X18.756 Y39.145 E32.32046
G1 X18.681 Y36.536 E32.442
G1 X18.53 Y33.871 E32.56629
G1 X18.306 Y31.247 E32.68892
G1 X17.949 Y28.164 E32.83344
G1 X17.258 Y22.927 E33.07941
G1 X17.247 Y22.838 E33.08359
G1 X17.158 Y22.082 E33.11903
G1 X17.117 Y21.518 E33.14536
G1 X17.111 Y21.309 E33.1551
G1 X17.109 Y21.038 E33.16772
G1 X17.116 Y20.521 E33.19179
G1 X17.165 Y19.808 E33.22507
G1 X17.269 Y19.213 E33.2532
G1 X17.336 Y18.913 E33.26751
G1 X17.399 Y18.655 E33.27988
G1 X17.515 Y18.221 E33.3008
G1 X17.738 Y17.542 E33.33407
G1 X18.06 Y16.845 E33.36983
G1 X18.349 Y16.307 E33.39826
G1 X18.459 Y16.111 E33.40873
G1 X18.564 Y15.931 E33.41843
G1 X18.643 Y15.811 E33.42512
G0 F1620 X18.958 Y15.335
M204 S3000
M205 X10 Y10
G0 F2666.7 X19.426 Y15.644
M204 S1800
M205 X8 Y8
G1 F1800 X19.711 Y15.294 E33.44614
G1 X19.86 Y15.125 E33.45663
G1 X20.166 Y14.804 E33.47728
G1 X20.555 Y14.425 E33.50257
G1 X21.071 Y13.978 E33.53436
G1 X21.489 Y13.685 E33.55813
G1 X21.721 Y13.537 E33.57094
G1 X21.947 Y13.399 E33.58327
G1 X22.421 Y13.126 E33.60874
G1 X23.032 Y12.821 E33.64054
G1 X23.838 Y12.542 E33.68026
G1 X24.55 Y12.353 E33.71456
G1 X25.219 Y12.217 E33.74635
G1 X25.597 Y12.175 E33.76406
G1 X26.113 Y12.135 E33.78816
G1 X28.767 Y11.895 E33.91224
G1 X31.432 Y11.578 E34.03721
G1 X34.023 Y11.196 E34.15916
G1 X36.905 Y10.683 E34.29547
G1 X37.461 Y10.612 E34.32157
G1 X38.076 Y10.563 E34.3503
G1 X40.744 Y10.317 E34.47506
G1 X43.406 Y9.996 E34.59991
G1 X46.034 Y9.603 E34.72364
G1 X47.406 Y9.354 E34.78857
G1 X47.479 Y9.341 E34.79202
G1 X48.878 Y9.105 E34.85809
G1 X49.312 Y9.049 E34.87846
G1 X50.124 Y8.974 E34.91643
G1 X50.205 Y8.967 E34.92022
G1 X51.38 Y8.875 E34.9751
G1 X54.034 Y8.592 E35.09938
G1 X56.657 Y8.236 E35.22264
G1 X59.31 Y7.8 E35.34783
G1 X59.678 Y7.729 E35.36528
G1 X59.765 Y7.713 E35.3694
G1 X60.76 Y7.537 E35.41645
G1 X61.579 Y7.451 E35.4548
G1 X61.815 Y7.443 E35.46579
G1 X62.095 Y7.441 E35.47883
G1 X62.596 Y7.448 E35.50216
G1 X63.083 Y7.475 E35.52487
G1 X64.156 Y7.58 E35.57508
