;FLAVOR:Marlin
;TIME:8914
;Filament used: 14.3032m, 0m, 0m, 0m
;Layer height: 0.3
;MINX:56.551
;MINY:62.368
;MINZ:0.24
;MAXX:153.453
;MAXY:147.586
;MAXZ:45.74
;Generated with Cura_SteamEngine 4.6.1
T0
M140 S60
M105
M190 S60
M104 S215
M105
M109 S215
M82 ;absolute extrusion mode
G21 ;metric values
G90 ;absolute positioning
M82 ;set extruder to absolute mode
M107 ;start with the fan off
G28 X0 Y0 ;move X/Y to min endstops
G28 Z0 ;move Z to min endstops
G1 Z15.0 F100 ;move the platform down 15mm
G92 E0 ;zero the extruded length
G1 F200 E3 ;extrude 3mm of feed stock
G92 E0 ;zero the extruded length again
G1 F100
M117 Printing...
G5
G92 E0
G92 E0
G1 F2400 E-4
;LAYER_COUNT:150
;LAYER:-5
M107
M204 S3000
M205 X10 Y10
G0 F6000 X58.235 Y63.783 Z0.24
M204 S1800
M205 X8 Y8
;TYPE:SUPPORT-INTERFACE
G1 F2400 E0
G1 F1012.5 X58.471 Y63.581 E0.0248
G1 X58.693 Y63.415 E0.04692
G1 X58.94 Y63.253 E0.0705
G1 X59.211 Y63.099 E0.09538
G1 X59.446 Y62.984 E0.11627
G1 X59.726 Y62.869 E0.14043
G1 X59.992 Y62.779 E0.16285
G1 X60.28 Y62.701 E0.18666
G1 X60.574 Y62.641 E0.21062
G1 X60.878 Y62.599 E0.23511
G1 X61.119 Y62.578 E0.25442
G1 X61.406 Y62.569 E0.27735
G1 X148.541 Y62.57 E7.23284
G1 X148.625 Y62.572 E7.23955
G1 X149.023 Y62.591 E7.27135
G1 X149.325 Y62.625 E7.29561
G1 X149.598 Y62.673 E7.31774
G1 X149.897 Y62.746 E7.34231
G1 X150.157 Y62.828 E7.36407
G1 X150.448 Y62.938 E7.3889
G1 X150.704 Y63.055 E7.41137
G1 X150.952 Y63.189 E7.43387
G1 X151.203 Y63.344 E7.45742
G1 X151.43 Y63.505 E7.47963
G1 X151.672 Y63.7 E7.50444
G1 X151.874 Y63.886 E7.52636
G1 X152.082 Y64.104 E7.55041
G1 X152.27 Y64.328 E7.57376
G1 X152.44 Y64.557 E7.59652
G1 X152.596 Y64.8 E7.61957
G1 X152.738 Y65.054 E7.6428
G1 X152.863 Y65.313 E7.66576
G1 X152.967 Y65.571 E7.68796
G1 X153.071 Y65.883 E7.71422
G1 X153.137 Y66.137 E7.73516
G1 X153.194 Y66.428 E7.75883
G1 X153.231 Y66.7 E7.78075
G1 X153.252 Y67.008 E7.80539
G1 X153.253 Y67.307 E7.82926
G1 X153.238 Y67.564 E7.84981
G1 X153.198 Y67.888 E7.87587
G1 X153.152 Y68.135 E7.89592
G1 X153.068 Y68.461 E7.92279
G1 X152.993 Y68.699 E7.94271
G1 X152.865 Y69.022 E7.97045
G1 X152.775 Y69.221 E7.98788
G1 X152.609 Y69.532 E8.01602
G1 X109.019 Y145.035 E14.97531
G1 X108.932 Y145.175 E14.98847
G1 X108.706 Y145.505 E15.02039
G1 X108.53 Y145.732 E15.04332
G1 X108.348 Y145.938 E15.06526
G1 X108.137 Y146.148 E15.08903
G1 X107.911 Y146.345 E15.11296
G1 X107.682 Y146.522 E15.13606
G1 X107.439 Y146.685 E15.15942
G1 X107.198 Y146.827 E15.18175
G1 X106.926 Y146.963 E15.20602
G1 X106.664 Y147.075 E15.22877
G1 X106.403 Y147.166 E15.25083
G1 X106.101 Y147.252 E15.2759
G1 X105.824 Y147.311 E15.2985
G1 X105.541 Y147.355 E15.32137
G1 X105.268 Y147.379 E15.34324
G1 X104.96 Y147.386 E15.36783
G1 X104.661 Y147.373 E15.39172
G1 X104.392 Y147.345 E15.41331
G1 X104.085 Y147.295 E15.43814
G1 X103.824 Y147.233 E15.45956
G1 X103.532 Y147.145 E15.4839
G1 X103.259 Y147.044 E15.50714
G1 X103.007 Y146.931 E15.52918
G1 X102.738 Y146.79 E15.55343
G1 X102.483 Y146.636 E15.5772
G1 X102.261 Y146.48 E15.59886
G1 X102.025 Y146.292 E15.62295
G1 X101.806 Y146.094 E15.64652
G1 X101.645 Y145.929 E15.66492
G1 X101.405 Y145.64 E15.6949
G1 X101.065 Y145.158 E15.74199
G1 X100.951 Y144.983 E15.75866
G1 X57.411 Y69.567 E22.70994
G1 X57.342 Y69.439 E22.72154
G1 X57.164 Y69.083 E22.75332
G1 X57.057 Y68.832 E22.7751
G1 X56.958 Y68.55 E22.79895
G1 X56.883 Y68.285 E22.82094
G1 X56.82 Y67.992 E22.84486
G1 X56.778 Y67.712 E22.86746
G1 X56.751 Y67.401 E22.89238
G1 X56.746 Y67.137 E22.91346
G1 X56.759 Y66.831 E22.93791
G1 X56.79 Y66.529 E22.96214
G1 X56.837 Y66.256 E22.98425
G1 X56.897 Y65.999 E23.00532
G1 X56.986 Y65.705 E23.02984
G1 X57.094 Y65.415 E23.05454
G1 X57.211 Y65.156 E23.07723
G1 X57.338 Y64.913 E23.09911
G1 X57.498 Y64.65 E23.12369
G1 X57.658 Y64.419 E23.14612
G1 X57.842 Y64.191 E23.16951
G1 X58.038 Y63.975 E23.19279
G1 X58.235 Y63.783 E23.21475
M204 S3000
M205 X10 Y10
G0 F6000 X57.6 Y64.502
M204 S1800
M205 X8 Y8
G1 F1012.5 X57.6 Y69.894 E23.64516
M204 S3000
M205 X10 Y10
G0 F6000 X59.2 Y72.665
M204 S1800
M205 X8 Y8
G1 F1012.5 X59.2 Y63.105 E24.40828
M204 S3000
M205 X10 Y10
G0 F6000 X60.8 Y62.609
M204 S1800
M205 X8 Y8
G1 F1012.5 X60.8 Y75.437 E25.43227
M204 S3000
M205 X10 Y10
G0 F6000 X62.4 Y78.208
M204 S1800
M205 X8 Y8
G1 F1012.5 X62.4 Y62.57 E26.68056
M204 S3000
M205 X10 Y10
G0 F6000 X64 Y62.57
M204 S1800
M205 X8 Y8
G1 F1012.5 X64 Y80.979 E28.15004
M204 S3000
M205 X10 Y10
G0 F6000 X65.6 Y83.751
M204 S1800
M205 X8 Y8
G1 F1012.5 X65.6 Y62.57 E29.8408
M204 S3000
M205 X10 Y10
G0 F6000 X67.2 Y62.57
M204 S1800
M205 X8 Y8
G1 F1012.5 X67.2 Y86.522 E31.75276
M204 S3000
M205 X10 Y10
G0 F6000 X68.8 Y89.293
M204 S1800
M205 X8 Y8
G1 F1012.5 X68.8 Y62.57 E33.8859
M204 S3000
M205 X10 Y10
G0 F6000 X70.4 Y62.57
M204 S1800
M205 X8 Y8
G1 F1012.5 X70.4 Y92.065 E36.24032
M204 S3000
M205 X10 Y10
G0 F6000 X72 Y94.836
M204 S1800
M205 X8 Y8
G1 F1012.5 X72 Y62.57 E38.81593
M204 S3000
M205 X10 Y10
G0 F6000 X73.6 Y62.57
M204 S1800
M205 X8 Y8
G1 F1012.5 X73.6 Y97.608 E41.61282
M204 S3000
M205 X10 Y10
G0 F6000 X75.2 Y100.379
M204 S1800
M205 X8 Y8
G1 F1012.5 X75.2 Y62.57 E44.63089
M204 S3000
M205 X10 Y10
G0 F6000 X76.8 Y62.57
M204 S1800
M205 X8 Y8
G1 F1012.5 X76.8 Y103.15 E47.87017
M204 S3000
M205 X10 Y10
G0 F6000 X78.4 Y105.922
M204 S1800
M205 X8 Y8
G1 F1012.5 X78.4 Y62.57 E51.33071
M204 S3000
M205 X10 Y10
G0 F6000 X80 Y62.57
M204 S1800
M205 X8 Y8
G1 F1012.5 X80 Y108.693 E55.01245
M204 S3000
M205 X10 Y10
G0 F6000 X81.6 Y111.464
M204 S1800
M205 X8 Y8
G1 F1012.5 X81.6 Y62.57 E58.91538
M204 S3000
M205 X10 Y10
G0 F6000 X83.2 Y62.57
M204 S1800
M205 X8 Y8
G1 F1012.5 X83.2 Y114.236 E63.03958
M204 S3000
M205 X10 Y10
G0 F6000 X84.8 Y117.007
M204 S1800
M205 X8 Y8
G1 F1012.5 X84.8 Y62.57 E67.38498
M204 S3000
M205 X10 Y10
G0 F6000 X86.4 Y62.57
M204 S1800
M205 X8 Y8
G1 F1012.5 X86.4 Y119.779 E71.95165
M204 S3000
M205 X10 Y10
G0 F6000 X88 Y122.55
M204 S1800
M205 X8 Y8
G1 F1012.5 X88 Y62.57 E76.73951
M204 S3000
M205 X10 Y10
G0 F6000 X89.6 Y62.57
M204 S1800
M205 X8 Y8
G1 F1012.5 X89.6 Y125.321 E81.74857
M204 S3000
M205 X10 Y10
G0 F6000 X91.2 Y128.093
M204 S1800
M205 X8 Y8
G1 F1012.5 X91.2 Y62.57 E86.9789
M204 S3000
M205 X10 Y10
G0 F6000 X92.8 Y62.57
M204 S1800
M205 X8 Y8
G1 F1012.5 X92.8 Y130.864 E92.43042
M204 S3000
M205 X10 Y10
G0 F6000 X94.4 Y133.635
M204 S1800
M205 X8 Y8
G1 F1012.5 X94.4 Y62.57 E98.10313
M204 S3000
M205 X10 Y10
G0 F6000 X96 Y62.57
M204 S1800
M205 X8 Y8
G1 F1012.5 X96 Y136.407 E103.99712
M204 S3000
M205 X10 Y10
G0 F6000 X97.6 Y139.178
M204 S1800
M205 X8 Y8
G1 F1012.5 X97.6 Y62.57 E110.1123
M204 S3000
M205 X10 Y10
G0 F6000 X99.2 Y62.57
M204 S1800
M205 X8 Y8
G1 F1012.5 X99.2 Y141.95 E116.44876
M204 S3000
M205 X10 Y10
G0 F6000 X100.8 Y144.721
M204 S1800
M205 X8 Y8
G1 F1012.5 X100.8 Y62.57 E123.00641
M204 S3000
M205 X10 Y10
G0 F6000 X102.4 Y62.57
M204 S1800
M205 X8 Y8
G1 F1012.5 X102.4 Y146.577 E129.71221
M204 S3000
M205 X10 Y10
G0 F6000 X104 Y147.274
M204 S1800
M205 X8 Y8
G1 F1012.5 X104 Y62.57 E136.47365
M204 S3000
M205 X10 Y10
G0 F6000 X105.6 Y62.57
M204 S1800
M205 X8 Y8
G1 F1012.5 X105.6 Y147.346 E143.24084
M204 S3000
M205 X10 Y10
G0 F6000 X107.2 Y146.826
M204 S1800
M205 X8 Y8
G1 F1012.5 X107.2 Y62.57 E149.96651
M204 S3000
M205 X10 Y10
G0 F6000 X108.8 Y62.57
M204 S1800
M205 X8 Y8
G1 F1012.5 X108.8 Y145.368 E156.57581
M204 S3000
M205 X10 Y10
G0 F6000 X110.4 Y142.643
M204 S1800
M205 X8 Y8
G1 F1012.5 X110.4 Y62.57 E162.96758
M204 S3000
M205 X10 Y10
G0 F6000 X112 Y62.57
M204 S1800
M205 X8 Y8
G1 F1012.5 X112 Y139.872 E169.13816
M204 S3000
M205 X10 Y10
G0 F6000 X113.6 Y137.101
M204 S1800
M205 X8 Y8
G1 F1012.5 X113.6 Y62.57 E175.08755
M204 S3000
M205 X10 Y10
G0 F6000 X115.2 Y62.57
M204 S1800
M205 X8 Y8
G1 F1012.5 X115.2 Y134.329 E180.81566
M204 S3000
M205 X10 Y10
G0 F6000 X116.8 Y131.558
M204 S1800
M205 X8 Y8
G1 F1012.5 X116.8 Y62.57 E186.32258
M204 S3000
M205 X10 Y10
G0 F6000 X118.4 Y62.57
M204 S1800
M205 X8 Y8
G1 F1012.5 X118.4 Y128.787 E191.60831
M204 S3000
M205 X10 Y10
G0 F6000 X120 Y126.015
M204 S1800
M205 X8 Y8
G1 F1012.5 X120 Y62.57 E196.67276
M204 S3000
M205 X10 Y10
G0 F6000 X121.6 Y62.57
M204 S1800
M205 X8 Y8
G1 F1012.5 X121.6 Y123.244 E201.51602
M204 S3000
M205 X10 Y10
G0 F6000 X123.2 Y120.472
M204 S1800
M205 X8 Y8
G1 F1012.5 X123.2 Y62.57 E206.13801
M204 S3000
M205 X10 Y10
G0 F6000 X124.8 Y62.57
M204 S1800
M205 X8 Y8
G1 F1012.5 X124.8 Y117.701 E210.53881
M204 S3000
M205 X10 Y10
G0 F6000 X126.4 Y114.93
M204 S1800
M205 X8 Y8
G1 F1012.5 X126.4 Y62.57 E214.71841
M204 S3000
M205 X10 Y10
G0 F6000 X128 Y62.57
M204 S1800
M205 X8 Y8
G1 F1012.5 X128 Y112.158 E218.67674
M204 S3000
M205 X10 Y10
G0 F6000 X129.6 Y109.387
M204 S1800
M205 X8 Y8
G1 F1012.5 X129.6 Y62.57 E222.41387
M204 S3000
M205 X10 Y10
G0 F6000 X131.2 Y62.57
M204 S1800
M205 X8 Y8
G1 F1012.5 X131.2 Y106.615 E225.92974
M204 S3000
M205 X10 Y10
G0 F6000 X132.8 Y103.844
M204 S1800
M205 X8 Y8
G1 F1012.5 X132.8 Y62.57 E229.2244
M204 S3000
M205 X10 Y10
G0 F6000 X134.4 Y62.57
M204 S1800
M205 X8 Y8
G1 F1012.5 X134.4 Y101.073 E232.29788
M204 S3000
M205 X10 Y10
G0 F6000 X136 Y98.301
M204 S1800
M205 X8 Y8
G1 F1012.5 X136 Y62.57 E235.15008
M204 S3000
M205 X10 Y10
G0 F6000 X137.6 Y62.57
M204 S1800
M205 X8 Y8
G1 F1012.5 X137.6 Y95.53 E237.78109
M204 S3000
M205 X10 Y10
G0 F6000 X139.2 Y92.758
M204 S1800
M205 X8 Y8
G1 F1012.5 X139.2 Y62.57 E240.19083
M204 S3000
M205 X10 Y10
G0 F6000 X140.8 Y62.57
M204 S1800
M205 X8 Y8
G1 F1012.5 X140.8 Y89.987 E242.37937
M204 S3000
M205 X10 Y10
G0 F6000 X142.4 Y87.216
M204 S1800
M205 X8 Y8
G1 F1012.5 X142.4 Y62.57 E244.34672
M204 S3000
M205 X10 Y10
G0 F6000 X144 Y62.57
M204 S1800
M205 X8 Y8
G1 F1012.5 X144 Y84.444 E246.0928
M204 S3000
M205 X10 Y10
G0 F6000 X145.6 Y81.673
M204 S1800
M205 X8 Y8
G1 F1012.5 X145.6 Y62.57 E247.61768
M204 S3000
M205 X10 Y10
G0 F6000 X147.2 Y62.57
M204 S1800
M205 X8 Y8
G1 F1012.5 X147.2 Y78.902 E248.92138
M204 S3000
M205 X10 Y10
G0 F6000 X148.8 Y76.13
M204 S1800
M205 X8 Y8
G1 F1012.5 X148.8 Y62.581 E250.00292
M204 S3000
M205 X10 Y10
G0 F6000 X150.4 Y62.92
M204 S1800
M205 X8 Y8
G1 F1012.5 X150.4 Y73.359 E250.8362
M204 S3000
M205 X10 Y10
G0 F6000 X152 Y70.587
M204 S1800
M205 X8 Y8
G1 F1012.5 X152 Y64.019 E251.36049
M204 S3000
M205 X10 Y10
G0 F600 X152 Y64.019 Z0.69
G0 F6000 X152.737 Y65.054
;TIME_ELAPSED:193.012967
;LAYER:-4
M140 S60
M204 S1800
M205 X8 Y8
;TYPE:SUPPORT
G1 F1012.5 X152.595 Y64.799 E251.40417
G1 X152.439 Y64.557 E251.44727
G1 X152.269 Y64.327 E251.49007
G1 X152.08 Y64.104 E251.53382
G1 X151.873 Y63.886 E251.57882
G1 X151.671 Y63.7 E251.61992
G1 X151.429 Y63.504 E251.66653
G1 X151.202 Y63.344 E251.70809
G1 X150.951 Y63.189 E251.75225
G1 X150.774 Y63.093 E251.78238
G1 X152.738 Y65.057 E252.1981
G1 X152.862 Y65.312 E252.24054
G1 X152.966 Y65.57 E252.28217
G1 X153.07 Y65.882 E252.33139
G1 X153.136 Y66.137 E252.37082
G1 X153.193 Y66.428 E252.4152
G1 X153.23 Y66.699 E252.45613
G1 X153.249 Y66.982 E252.49859
G1 X148.85 Y62.583 E253.42971
G1 X148.623 Y62.571 E253.46373
G1 X148.54 Y62.57 E253.47615
G1 X147.423 Y62.57 E253.64334
G1 X153.118 Y68.265 E254.84877
G1 X153.067 Y68.46 E254.87894
G1 X152.991 Y68.698 E254.91634
G1 X152.863 Y69.022 E254.96848
G1 X152.773 Y69.22 E255.00103
G1 X152.734 Y69.295 E255.01368
G1 X146.009 Y62.57 E256.43714
G1 X144.594 Y62.57 E256.64892
G1 X152.223 Y70.199 E258.26372
G1 X151.706 Y71.096 E258.41868
G1 X143.18 Y62.57 E260.22334
G1 X141.766 Y62.57 E260.43498
G1 X151.188 Y71.992 E262.4293
G1 X150.671 Y72.889 E262.58426
G1 X140.352 Y62.57 E264.76844
G1 X138.937 Y62.57 E264.98022
G1 X150.153 Y73.785 E267.35417
G1 X149.635 Y74.682 E267.5092
G1 X137.523 Y62.57 E270.0729
G1 X136.109 Y62.57 E270.28453
G1 X149.118 Y75.579 E273.0381
G1 X148.6 Y76.475 E273.193
G1 X134.695 Y62.57 E276.13622
G1 X133.281 Y62.57 E276.34785
G1 X148.083 Y77.372 E279.48094
G1 X147.565 Y78.268 E279.63584
G1 X131.866 Y62.57 E282.95868
G1 X130.452 Y62.57 E283.17032
G1 X147.047 Y79.165 E286.68292
G1 X146.53 Y80.062 E286.83788
G1 X129.038 Y62.57 E290.54034
G1 X127.624 Y62.57 E290.75197
G1 X146.012 Y80.958 E294.64409
G1 X145.494 Y81.854 E294.799
G1 X126.21 Y62.57 E298.88077
G1 X124.795 Y62.57 E299.09255
G1 X144.976 Y82.751 E303.36419
G1 X144.459 Y83.647 E303.51901
G1 X123.381 Y62.57 E307.98041
G1 X121.967 Y62.57 E308.19204
G1 X143.941 Y84.544 E312.8432
G1 X143.423 Y85.441 E312.99823
G1 X120.553 Y62.57 E317.83914
G1 X119.138 Y62.569 E318.05092
G1 X142.906 Y86.337 E323.08181
G1 X142.388 Y87.234 E323.23684
G1 X117.724 Y62.569 E328.45748
G1 X116.309 Y62.569 E328.66926
G1 X141.871 Y88.13 E334.07977
G1 X141.353 Y89.027 E334.2348
G1 X114.895 Y62.569 E339.83507
G1 X113.481 Y62.569 E340.0467
G1 X140.835 Y89.924 E345.83672
G1 X140.318 Y90.82 E345.99155
G1 X112.067 Y62.569 E351.97133
G1 X110.653 Y62.569 E352.18297
G1 X139.8 Y91.717 E358.35251
G1 X139.283 Y92.614 E358.50747
G1 X109.238 Y62.569 E364.86698
G1 X107.824 Y62.569 E365.07861
G1 X138.765 Y93.51 E371.62778
G1 X138.247 Y94.407 E371.78281
G1 X106.41 Y62.569 E378.52173
G1 X104.996 Y62.569 E378.73337
G1 X137.73 Y95.303 E385.66205
G1 X137.212 Y96.2 E385.81708
G1 X103.581 Y62.569 E392.93563
G1 X102.167 Y62.569 E393.14726
G1 X136.695 Y97.097 E400.45567
G1 X136.177 Y97.993 E400.61057
G1 X100.753 Y62.569 E408.10864
G1 X99.339 Y62.569 E408.32027
G1 X135.659 Y98.89 E416.00809
G1 X135.142 Y99.786 E416.16292
G1 X97.925 Y62.569 E424.0405
G1 X96.51 Y62.569 E424.25229
G1 X134.624 Y100.683 E432.31973
G1 X134.107 Y101.58 E432.47469
G1 X95.096 Y62.569 E440.732
G1 X93.682 Y62.569 E440.94364
G1 X133.589 Y102.476 E449.3906
G1 X133.071 Y103.373 E449.54563
G1 X92.268 Y62.569 E458.18235
G1 X90.854 Y62.569 E458.39399
G1 X132.554 Y104.269 E467.22047
G1 X132.036 Y105.166 E467.3755
G1 X89.439 Y62.569 E476.39185
G1 X88.024 Y62.569 E476.60363
G1 X131.519 Y106.063 E485.80995
G1 X131.001 Y106.959 E485.96485
G1 X86.61 Y62.569 E495.36082
G1 X85.196 Y62.569 E495.57245
G1 X130.483 Y107.856 E505.15818
G1 X129.966 Y108.753 E505.31314
G1 X83.782 Y62.569 E515.08873
G1 X82.368 Y62.569 E515.30036
G1 X129.448 Y109.649 E525.26561
G1 X128.931 Y110.546 E525.42056
G1 X80.953 Y62.569 E535.57578
G1 X79.539 Y62.569 E535.78741
G1 X128.412 Y111.442 E546.13218
G1 X127.895 Y112.338 E546.287
G1 X78.125 Y62.569 E556.82153
G1 X76.711 Y62.569 E557.03316
G1 X127.377 Y113.235 E567.75744
G1 X126.859 Y114.131 E567.91234
G1 X75.296 Y62.569 E578.82638
G1 X73.882 Y62.569 E579.03802
G1 X126.342 Y115.028 E590.14192
G1 X125.824 Y115.925 E590.29695
G1 X72.468 Y62.569 E601.59061
G1 X71.054 Y62.569 E601.80225
G1 X125.307 Y116.821 E613.28567
G1 X124.789 Y117.718 E613.4407
G1 X69.64 Y62.569 E625.11388
G1 X68.225 Y62.569 E625.32566
G1 X124.271 Y118.615 E637.18871
G1 X123.754 Y119.511 E637.34354
G1 X66.811 Y62.569 E649.39634
G1 X65.397 Y62.569 E649.60797
G1 X123.236 Y120.408 E661.85053
G1 X122.719 Y121.304 E662.00536
G1 X63.983 Y62.569 E674.43768
G1 X62.569 Y62.569 E674.64932
G1 X122.201 Y122.201 E687.2714
G1 X121.683 Y123.098 E687.42643
G1 X61.161 Y62.576 E700.23689
G1 X61.118 Y62.576 E700.24333
G1 X60.878 Y62.598 E700.2794
G1 X60.574 Y62.64 E700.32533
G1 X60.28 Y62.699 E700.37021
G1 X59.992 Y62.778 E700.41491
G1 X59.961 Y62.789 E700.41983
G1 X121.166 Y123.994 E713.37486
G1 X120.648 Y124.891 E713.52989
G1 X58.984 Y63.227 E726.58208
G1 X58.94 Y63.252 E726.58965
G1 X58.693 Y63.414 E726.63386
G1 X58.47 Y63.58 E726.67547
G1 X58.234 Y63.782 E726.72197
G1 X58.18 Y63.836 E726.7334
G1 X120.131 Y125.787 E739.84633
G1 X119.613 Y126.684 E740.00136
G1 X57.53 Y64.601 E753.14223
G1 X57.497 Y64.649 E753.15095
G1 X57.337 Y64.912 E753.19703
G1 X57.211 Y65.154 E753.23786
G1 X57.093 Y65.413 E753.28046
G1 X57.048 Y65.533 E753.29964
G1 X119.095 Y127.581 E766.433
G1 X118.578 Y128.477 E766.58783
G1 X56.775 Y66.674 E779.66944
G1 X56.759 Y66.83 E779.69291
G1 X56.746 Y67.136 E779.73875
G1 X56.75 Y67.4 E779.77827
G1 X56.777 Y67.711 E779.82499
G1 X56.82 Y67.991 E779.86739
G1 X56.859 Y68.172 E779.8951
G1 X118.06 Y129.374 E792.84939
G1 X117.543 Y130.27 E793.00422
G1 X58.193 Y70.921 E805.5665
G1 X60.125 Y74.267 E806.14479
G1 X117.025 Y131.167 E818.18859
G1 X116.507 Y132.064 E818.34363
G1 X62.056 Y77.612 E829.86917
G1 X63.988 Y80.958 E830.44745
