;FLAVOR:Marlin
;TIME:4430
;Filament used: 5.68315m, 0m, 0m, 0m
;Layer height: 0.2
;MINX:63.799
;MINY:88.512
;MINZ:0.24
;MAXX:146.199
;MAXY:122.913
;MAXZ:10.96
;Generated with Cura_SteamEngine 4.6.1
T0
M140 S60
M105
M190 S60
M104 S185
M105
M109 S185
M82 ;absolute extrusion mode
G28
G29
M501
M420 S1
G92 E0 ;zero the extruded length
G1 F200 E3 ;extrude 3mm of feed stock
G92 E0 ;zero the extruded length again
G1 F200
M117 Printing...
G5
G92 E0
G92 E0
G1 F2400 E-4
;LAYER_COUNT:88
;LAYER:-6
M107
M204 S4000
M205 X30 Y30
G0 F12000 X66.149 Y89.662 Z0.24
M204 S3000
M205 X8 Y8
;TYPE:SUPPORT-INTERFACE
G1 F2400 E0
G1 F1800 X66.366 Y89.514 E0.03145
G1 X66.611 Y89.37 E0.06548
G1 X66.861 Y89.242 E0.09911
G1 X67.113 Y89.133 E0.13198
G1 X67.373 Y89.04 E0.16505
G1 X67.635 Y88.964 E0.19771
G1 X67.899 Y88.905 E0.2301
G1 X68.197 Y88.861 E0.26617
G1 X68.645 Y88.825 E0.31998
G1 X68.817 Y88.818 E0.3406
G1 X69.943 Y88.813 E0.47542
G1 X141.19 Y88.813 E9.00629
G1 X141.307 Y88.817 E9.0203
G1 X141.694 Y88.842 E9.06674
G1 X141.965 Y88.875 E9.09943
G1 X142.238 Y88.928 E9.13272
G1 X142.512 Y89 E9.16665
G1 X142.773 Y89.085 E9.19951
G1 X143.014 Y89.181 E9.23057
G1 X143.281 Y89.307 E9.26592
G1 X143.524 Y89.442 E9.29921
G1 X143.749 Y89.585 E9.33113
G1 X143.988 Y89.761 E9.36667
G1 X144.183 Y89.924 E9.3971
G1 X144.392 Y90.121 E9.43149
G1 X144.588 Y90.333 E9.46606
G1 X144.759 Y90.542 E9.49839
G1 X144.918 Y90.764 E9.53109
G1 X145.071 Y91.009 E9.56568
G1 X145.199 Y91.247 E9.59803
G1 X145.318 Y91.504 E9.63194
G1 X145.416 Y91.755 E9.66421
G1 X145.503 Y92.033 E9.69909
G1 X145.56 Y92.264 E9.72758
G1 X145.614 Y92.579 E9.76584
G1 X145.664 Y93.106 E9.82923
G1 X145.673 Y93.266 E9.84842
G1 X145.896 Y117.996 E12.80962
G1 X145.876 Y118.356 E12.85279
G1 X145.844 Y118.631 E12.88594
G1 X145.794 Y118.903 E12.91905
G1 X145.729 Y119.169 E12.95184
G1 X145.638 Y119.453 E12.98755
G1 X145.547 Y119.688 E13.01772
G1 X145.421 Y119.958 E13.0534
G1 X145.294 Y120.193 E13.08538
G1 X145.158 Y120.411 E13.11615
G1 X144.979 Y120.655 E13.15238
G1 X144.647 Y121.047 E13.21389
G1 X144.451 Y121.253 E13.24794
G1 X144.348 Y121.349 E13.2648
G1 X144.065 Y121.597 E13.30985
G1 X143.854 Y121.761 E13.34185
G1 X143.626 Y121.916 E13.37486
G1 X143.368 Y122.068 E13.41072
G1 X143.13 Y122.189 E13.44269
G1 X142.898 Y122.288 E13.47289
G1 X142.61 Y122.392 E13.50955
G1 X142.347 Y122.467 E13.5423
G1 X142.091 Y122.523 E13.57368
G1 X141.799 Y122.566 E13.60902
G1 X141.347 Y122.601 E13.6633
G1 X141.148 Y122.608 E13.68714
G1 X69.961 Y122.613 E22.21082
G1 X68.693 Y122.609 E22.36265
G1 X68.312 Y122.585 E22.40836
G1 X68.024 Y122.548 E22.44313
G1 X67.784 Y122.502 E22.47239
G1 X67.473 Y122.422 E22.51084
G1 X67.238 Y122.345 E22.54045
G1 X66.971 Y122.238 E22.57489
G1 X66.715 Y122.118 E22.60874
G1 X66.483 Y121.989 E22.64052
G1 X66.268 Y121.852 E22.67105
G1 X66.009 Y121.659 E22.70973
G1 X65.665 Y121.364 E22.76399
G1 X65.542 Y121.251 E22.78399
G1 X65.453 Y121.162 E22.79906
G1 X65.354 Y121.055 E22.81651
G1 X65.111 Y120.778 E22.86063
G1 X64.946 Y120.566 E22.8928
G1 X64.793 Y120.339 E22.92558
G1 X64.64 Y120.081 E22.96149
G1 X64.525 Y119.853 E22.99207
G1 X64.414 Y119.595 E23.0257
G1 X64.316 Y119.323 E23.06031
G1 X64.241 Y119.06 E23.09306
G1 X64.185 Y118.804 E23.12444
G1 X64.142 Y118.512 E23.15978
G1 X64.107 Y118.06 E23.21406
G1 X64.1 Y117.861 E23.2379
G1 X64.103 Y93.418 E26.16462
G1 X64.129 Y93.018 E26.21262
G1 X64.162 Y92.753 E26.24459
G1 X64.215 Y92.48 E26.27789
G1 X64.287 Y92.206 E26.31181
G1 X64.372 Y91.945 E26.34468
G1 X64.468 Y91.704 E26.37574
G1 X64.594 Y91.437 E26.41109
G1 X64.729 Y91.194 E26.44438
G1 X64.865 Y90.98 E26.47474
G1 X65.05 Y90.731 E26.51188
G1 X65.33 Y90.404 E26.56343
G1 X65.539 Y90.183 E26.59985
G1 X65.642 Y90.086 E26.61679
G1 X65.92 Y89.84 E26.66124
G1 X65.975 Y89.797 E26.66959
G0 F1620 X66.149 Y89.662
M204 S4000
M205 X30 Y30
G0 F12000 X67.2 Y89.101
M204 S3000
M205 X8 Y8
G1 F1800 X67.2 Y122.329 E30.6482
M204 S4000
M205 X30 Y30
G0 F12000 X69.6 Y122.611
M204 S3000
M205 X8 Y8
G1 F1800 X69.6 Y88.814 E34.69493
M204 S4000
M205 X30 Y30
G0 F12000 X72 Y88.813
M204 S3000
M205 X8 Y8
G1 F1800 X72 Y122.613 E38.74203
M204 S4000
M205 X30 Y30
G0 F12000 X74.4 Y122.613
M204 S3000
M205 X8 Y8
G1 F1800 X74.4 Y88.813 E42.78912
M204 S4000
M205 X30 Y30
G0 F12000 X76.8 Y88.813
M204 S3000
M205 X8 Y8
G1 F1800 X76.8 Y122.613 E46.83621
M204 S4000
M205 X30 Y30
G0 F12000 X79.2 Y122.613
M204 S3000
M205 X8 Y8
G1 F1800 X79.2 Y88.813 E50.88331
M204 S4000
M205 X30 Y30
G0 F12000 X81.6 Y88.813
M204 S3000
M205 X8 Y8
G1 F1800 X81.6 Y122.613 E54.9304
M204 S4000
M205 X30 Y30
G0 F12000 X84 Y122.613
M204 S3000
M205 X8 Y8
G1 F1800 X84 Y88.813 E58.97749
M204 S4000
M205 X30 Y30
G0 F12000 X86.4 Y88.813
M204 S3000
M205 X8 Y8
G1 F1800 X86.4 Y122.612 E63.02447
M204 S4000
M205 X30 Y30
G0 F12000 X88.8 Y122.612
M204 S3000
M205 X8 Y8
G1 F1800 X88.8 Y88.813 E67.07144
M204 S4000
M205 X30 Y30
G0 F12000 X91.2 Y88.813
M204 S3000
M205 X8 Y8
G1 F1800 X91.2 Y122.612 E71.11841
M204 S4000
M205 X30 Y30
G0 F12000 X93.6 Y122.612
M204 S3000
M205 X8 Y8
G1 F1800 X93.6 Y88.813 E75.16539
M204 S4000
M205 X30 Y30
G0 F12000 X96 Y88.813
M204 S3000
M205 X8 Y8
G1 F1800 X96 Y122.612 E79.21236
M204 S4000
M205 X30 Y30
G0 F12000 X98.4 Y122.612
M204 S3000
M205 X8 Y8
G1 F1800 X98.4 Y88.813 E83.25933
M204 S4000
M205 X30 Y30
G0 F12000 X100.8 Y88.813
M204 S3000
M205 X8 Y8
G1 F1800 X100.8 Y122.611 E87.30619
M204 S4000
M205 X30 Y30
G0 F12000 X103.2 Y122.611
M204 S3000
M205 X8 Y8
G1 F1800 X103.2 Y88.813 E91.35304
M204 S4000
M205 X30 Y30
G0 F12000 X105.6 Y88.813
M204 S3000
M205 X8 Y8
G1 F1800 X105.6 Y122.611 E95.39989
M204 S4000
M205 X30 Y30
G0 F12000 X108 Y122.611
M204 S3000
M205 X8 Y8
G1 F1800 X108 Y88.813 E99.44675
M204 S4000
M205 X30 Y30
G0 F12000 X110.4 Y88.813
M204 S3000
M205 X8 Y8
G1 F1800 X110.4 Y122.611 E103.4936
M204 S4000
M205 X30 Y30
G0 F12000 X112.8 Y122.61
M204 S3000
M205 X8 Y8
G1 F1800 X112.8 Y88.813 E107.54034
M204 S4000
M205 X30 Y30
G0 F12000 X115.2 Y88.813
M204 S3000
M205 X8 Y8
G1 F1800 X115.2 Y122.61 E111.58707
M204 S4000
M205 X30 Y30
G0 F12000 X117.6 Y122.61
M204 S3000
M205 X8 Y8
G1 F1800 X117.6 Y88.813 E115.6338
M204 S4000
M205 X30 Y30
G0 F12000 X120 Y88.813
M204 S3000
M205 X8 Y8
G1 F1800 X120 Y122.61 E119.68054
M204 S4000
M205 X30 Y30
G0 F12000 X122.4 Y122.61
M204 S3000
M205 X8 Y8
G1 F1800 X122.4 Y88.813 E123.72727
M204 S4000
M205 X30 Y30
G0 F12000 X124.8 Y88.813
M204 S3000
M205 X8 Y8
G1 F1800 X124.8 Y122.61 E127.77401
M204 S4000
M205 X30 Y30
G0 F12000 X127.2 Y122.609
M204 S3000
M205 X8 Y8
G1 F1800 X127.2 Y88.813 E131.82062
M204 S4000
M205 X30 Y30
G0 F12000 X129.6 Y88.813
M204 S3000
M205 X8 Y8
G1 F1800 X129.6 Y122.609 E135.86723
M204 S4000
M205 X30 Y30
G0 F12000 X132 Y122.609
M204 S3000
M205 X8 Y8
G1 F1800 X132 Y88.813 E139.91385
M204 S4000
M205 X30 Y30
G0 F12000 X134.4 Y88.813
M204 S3000
M205 X8 Y8
G1 F1800 X134.4 Y122.609 E143.96046
M204 S4000
M205 X30 Y30
G0 F12000 X136.8 Y122.609
M204 S3000
M205 X8 Y8
G1 F1800 X136.8 Y88.813 E148.00708
M204 S4000
M205 X30 Y30
G0 F12000 X139.2 Y88.813
M204 S3000
M205 X8 Y8
G1 F1800 X139.2 Y122.609 E152.05369
M204 S4000
M205 X30 Y30
G0 F12000 X141.6 Y122.582
M204 S3000
M205 X8 Y8
G1 F1800 X141.6 Y88.836 E156.09432
M204 S4000
M205 X30 Y30
G0 F12000 X144 Y89.772
M204 S3000
M205 X8 Y8
G1 F1800 X144 Y121.648 E159.91104
M204 S4000
M205 X30 Y30
G0 F12000 X64.8 Y120.349
M204 S3000
M205 X8 Y8
G1 F1800 X64.8 Y91.082 E163.41537
M204 S4000
M205 X30 Y30
G1 F2400 E159.41537
G0 F600 X64.8 Y91.082 Z0.54
G0 F12000 X64.64 Y120.08
;TIME_ELAPSED:50.950527
;LAYER:-5
M140 S60
M204 S3000
M205 X8 Y8
;TYPE:SUPPORT
G1 F2400 E163.41537
G1 F1800 X64.793 Y120.338 E163.46026
G1 X64.945 Y120.565 E163.50115
G1 X65.111 Y120.777 E163.54145
G1 X65.354 Y121.054 E163.5966
G1 X65.452 Y121.161 E163.61832
G1 X65.541 Y121.25 E163.63716
G1 X65.664 Y121.363 E163.66215
G1 X66.009 Y121.658 E163.73009
G1 X66.267 Y121.85 E163.77823
G1 X66.482 Y121.987 E163.81639
G1 X66.635 Y122.072 E163.84258
G1 X64.636 Y120.073 E164.2657
G1 X64.524 Y119.851 E164.30292
G1 X64.414 Y119.594 E164.34476
G1 X64.316 Y119.322 E164.38803
G1 X64.241 Y119.059 E164.42896
G1 X64.184 Y118.803 E164.46822
G1 X64.141 Y118.511 E164.51239
G1 X64.107 Y118.059 E164.58024
G1 X64.099 Y117.859 E164.61019
G1 X64.099 Y117.557 E164.65539
G1 X69.152 Y122.609 E165.72484
G1 X69.961 Y122.612 E165.84592
G1 X71.134 Y122.611 E166.02149
G1 X64.099 Y115.577 E167.51045
G1 X64.099 Y113.597 E167.8068
G1 X73.114 Y122.611 E169.71486
G1 X75.094 Y122.611 E170.01121
G1 X64.1 Y111.618 E172.33816
G1 X64.1 Y109.638 E172.63451
G1 X77.073 Y122.611 E175.38046
G1 X79.053 Y122.611 E175.67681
G1 X64.101 Y107.659 E178.84164
G1 X64.101 Y105.679 E179.13799
G1 X81.033 Y122.611 E182.72192
G1 X83.012 Y122.61 E183.01812
G1 X64.101 Y103.699 E187.02094
G1 X64.102 Y101.72 E187.31713
G1 X84.992 Y122.61 E191.73884
G1 X86.972 Y122.61 E192.03519
G1 X64.102 Y99.74 E196.876
G1 X64.102 Y97.761 E197.17219
G1 X88.952 Y122.61 E202.43199
G1 X90.932 Y122.61 E202.72834
G1 X64.102 Y95.781 E208.40724
G1 X64.102 Y93.801 E208.70359
G1 X92.912 Y122.61 E214.80158
G1 X94.891 Y122.61 E215.09778
G1 X64.335 Y92.053 E221.56556
G1 X64.371 Y91.944 E221.58274
G1 X64.468 Y91.703 E221.62162
G1 X64.594 Y91.435 E221.66595
G1 X64.729 Y91.193 E221.70742
G1 X64.865 Y90.979 E221.74537
G1 X65.024 Y90.763 E221.78552
G1 X96.871 Y122.61 E228.52645
G1 X98.851 Y122.61 E228.8228
G1 X66.01 Y89.769 E235.77413
G1 X66.149 Y89.661 E235.80047
G1 X66.365 Y89.513 E235.83966
G1 X66.61 Y89.369 E235.8822
G1 X66.861 Y89.241 E235.92437
G1 X67.112 Y89.132 E235.96532
G1 X67.29 Y89.069 E235.99359
G1 X100.831 Y122.61 E243.09308
G1 X102.811 Y122.61 E243.38943
G1 X69.017 Y88.816 E250.54248
G1 X69.942 Y88.812 E250.68092
G1 X70.993 Y88.812 E250.83823
G1 X104.791 Y122.61 E257.99212
G1 X106.77 Y122.609 E258.28832
G1 X72.973 Y88.812 E265.442
G1 X74.953 Y88.812 E265.73835
G1 X108.75 Y122.609 E272.89203
G1 X110.73 Y122.609 E273.18838
G1 X76.933 Y88.812 E280.34206
G1 X78.913 Y88.812 E280.63841
G1 X112.709 Y122.609 E287.79199
G1 X114.689 Y122.609 E288.08834
G1 X80.893 Y88.812 E295.24191
G1 X82.872 Y88.812 E295.53811
G1 X116.669 Y122.609 E302.69179
G1 X118.648 Y122.608 E302.98799
G1 X84.852 Y88.812 E310.14146
G1 X86.832 Y88.812 E310.43781
G1 X120.628 Y122.608 E317.59128
G1 X122.608 Y122.608 E317.88763
G1 X88.812 Y88.812 E325.0411
G1 X90.792 Y88.812 E325.33745
G1 X124.588 Y122.608 E332.49092
G1 X126.568 Y122.608 E332.78727
G1 X92.772 Y88.812 E339.94074
G1 X94.752 Y88.812 E340.23709
G1 X128.548 Y122.608 E347.39056
G1 X130.527 Y122.608 E347.68675
G1 X96.732 Y88.812 E354.84012
G1 X98.712 Y88.812 E355.13647
G1 X132.507 Y122.608 E362.28983
G1 X134.487 Y122.608 E362.58618
G1 X100.692 Y88.812 E369.73955
G1 X102.671 Y88.812 E370.03574
G1 X136.467 Y122.608 E377.18921
G1 X138.447 Y122.608 E377.48556
G1 X104.651 Y88.812 E384.63903
G1 X106.631 Y88.812 E384.93538
G1 X140.427 Y122.608 E392.08885
G1 X141.146 Y122.608 E392.19647
G1 X141.346 Y122.601 E392.22642
G1 X141.798 Y122.566 E392.29427
G1 X142.09 Y122.523 E392.33845
G1 X142.279 Y122.48 E392.36746
G1 X108.611 Y88.812 E399.49384
G1 X110.591 Y88.812 E399.79018
G1 X143.666 Y121.887 E406.79104
G1 X143.853 Y121.76 E406.82488
G1 X144.064 Y121.596 E406.86487
G1 X144.347 Y121.349 E406.92109
G1 X144.45 Y121.253 E406.94217
G1 X144.646 Y121.047 E406.98473
G1 X144.72 Y120.961 E407.00171
G1 X112.571 Y88.812 E413.80656
G1 X114.551 Y88.812 E414.10291
G1 X145.508 Y119.769 E420.65546
G1 X145.546 Y119.687 E420.66899
G1 X145.637 Y119.452 E420.70671
G1 X145.728 Y119.169 E420.7512
G1 X145.793 Y118.903 E420.79218
G1 X145.843 Y118.631 E420.83358
G1 X145.875 Y118.356 E420.87501
G1 X145.886 Y118.167 E420.90335
G1 X116.531 Y88.812 E427.11681
G1 X118.511 Y88.812 E427.41316
G1 X145.878 Y116.18 E433.20593
G1 X145.861 Y114.182 E433.50499
G1 X120.49 Y88.812 E438.87506
G1 X122.47 Y88.812 E439.17141
G1 X145.842 Y112.184 E444.11847
G1 X145.825 Y110.187 E444.41738
G1 X124.45 Y88.812 E448.94174
G1 X126.43 Y88.812 E449.23809
G1 X145.807 Y108.189 E453.33954
G1 X145.789 Y106.191 E453.6386
G1 X128.41 Y88.812 E457.31715
G1 X130.39 Y88.812 E457.61349
G1 X145.771 Y104.193 E460.86913
G1 X145.753 Y102.195 E461.16819
G1 X132.37 Y88.812 E464.00091
G1 X134.35 Y88.812 E464.29726
G1 X145.735 Y100.197 E466.70708
G1 X145.717 Y98.199 E467.00614
G1 X136.33 Y88.812 E468.99305
G1 X138.31 Y88.812 E469.28939
G1 X145.699 Y96.201 E470.8534
G1 X145.68 Y94.203 E471.15245
G1 X140.289 Y88.812 E472.29354
G1 X141.189 Y88.812 E472.42825
G1 X141.306 Y88.816 E472.44577
G1 X141.693 Y88.841 E472.50381
G1 X141.964 Y88.874 E472.54467
G1 X142.237 Y88.928 E472.58632
G1 X142.438 Y88.981 E472.61744
G1 X145.506 Y92.049 E473.26683
M204 S4000
M205 X30 Y30
G0 F12000 X145.502 Y92.033
M204 S3000
M205 X8 Y8
G1 F1800 X145.415 Y91.754 E473.31057
G1 X145.317 Y91.503 E473.3509
G1 X145.198 Y91.247 E473.39315
G1 X145.07 Y91.008 E473.43373
G1 X144.917 Y90.764 E473.47684
G1 X144.758 Y90.541 E473.51783
G1 X144.587 Y90.332 E473.55824
G1 X144.391 Y90.12 E473.60146
G1 X144.181 Y89.924 E473.64445
G1 X143.987 Y89.76 E473.68247
G1 X143.748 Y89.585 E473.72681
G1 X143.522 Y89.441 E473.76692
G1 X143.28 Y89.306 E473.80839
G1 X143.013 Y89.181 E473.85252
G1 X142.772 Y89.084 E473.8914
G1 X142.511 Y88.999 E473.93248
G1 X142.438 Y88.981 E473.94373
M204 S4000
M205 X30 Y30
G0 F600 X142.438 Y88.981 Z0.74
G0 F12000 X142.867 Y88.799
;TIME_ELAPSED:120.957074
;LAYER:-4
G1 F2400 E469.94373
M204 S3000
M205 X8 Y8
;TYPE:SUPPORT-INTERFACE
G1 F2400 E473.94373
G1 X142.311 Y88.636 E473.97264
G1 X141.702 Y88.54 E474.0034
G1 X141.199 Y88.512 E474.02853
G1 X69.941 Y88.513 E477.58361
G1 X68.826 Y88.518 E477.63924
G1 X68.173 Y88.562 E477.67189
G1 X67.832 Y88.613 E477.68909
G1 X67.282 Y88.754 E477.71742
G1 X67.165 Y88.8 E477.72369
G1 X142.87 Y88.8 E481.50063
G1 X143.421 Y89.04 E481.53061
G1 X143.913 Y89.333 E481.55918
G1 X144 Y89.4 E481.56466
G1 X66.016 Y89.4 E485.4553
G1 X65.721 Y89.614 E485.47348
G1 X65.302 Y90 E485.5019
G1 X144.681 Y90 E489.46214
G1 X144.812 Y90.133 E489.47145
G1 X145.161 Y90.587 E489.50002
G1 X145.169 Y90.6 E489.50078
G1 X64.774 Y90.6 E493.5117
G1 X64.614 Y90.815 E493.52507
G1 X64.386 Y91.2 E493.5474
G1 X145.505 Y91.2 E497.59444
G1 X145.702 Y91.665 E497.61964
G1 X145.741 Y91.8 E497.62665
G1 X64.109 Y91.8 E501.69928
G1 X64.086 Y91.851 E501.70207
G1 X63.926 Y92.4 E501.7306
G1 X145.888 Y92.4 E505.8197
G1 X145.911 Y92.538 E505.82668
G1 X145.955 Y93 E505.84984
G1 X63.83 Y93 E509.94707
G1 X63.827 Y93.016 E509.94788
G1 X63.799 Y93.518 E509.97297
G1 X63.799 Y93.6 E509.97706
G1 X145.968 Y93.6 E514.07649
G1 X145.974 Y94.2 E514.10642
G1 X63.799 Y94.2 E518.20615
G1 X63.799 Y94.8 E518.23608
G1 X145.98 Y94.8 E522.33611
G1 X145.986 Y95.4 E522.36605
G1 X63.799 Y95.4 E526.46637
G1 X63.799 Y96 E526.49631
G1 X145.991 Y96 E530.59688
G1 X145.997 Y96.6 E530.62682
G1 X63.799 Y96.6 E534.72769
G1 X63.799 Y97.2 E534.75763
G1 X146.003 Y97.2 E538.8588
G1 X146.008 Y97.8 E538.88873
G1 X63.799 Y97.8 E542.99016
G1 X63.799 Y98.4 E543.02009
G1 X146.014 Y98.4 E547.12182
G1 X146.02 Y99 E547.15175
G1 X63.799 Y99 E551.25377
G1 X63.799 Y99.6 E551.28371
G1 X146.026 Y99.6 E555.38603
G1 X146.031 Y100.2 E555.41596
G1 X63.799 Y100.2 E559.51854
G1 X63.799 Y100.8 E559.54847
G1 X146.037 Y100.8 E563.65134
G1 X146.043 Y101.4 E563.68128
G1 X63.799 Y101.4 E567.78445
G1 X63.799 Y102 E567.81438
G1 X146.048 Y102 E571.9178
G1 X146.054 Y102.6 E571.94773
G1 X63.799 Y102.6 E576.05145
G1 X63.799 Y103.2 E576.08139
G1 X146.06 Y103.2 E580.18541
G1 X146.066 Y103.8 E580.21534
G1 X63.799 Y103.8 E584.31966
G1 X63.799 Y104.4 E584.34959
G1 X146.071 Y104.4 E588.45416
G1 X146.077 Y105 E588.48409
G1 X63.799 Y105 E592.58896
G1 X63.799 Y105.6 E592.6189
G1 X146.083 Y105.6 E596.72406
G1 X146.088 Y106.2 E596.754
G1 X63.799 Y106.2 E600.85941
G1 X63.799 Y106.8 E600.88934
G1 X146.094 Y106.8 E604.99506
G1 X146.1 Y107.4 E605.02499
G1 X63.799 Y107.4 E609.13101
G1 X63.799 Y108 E609.16094
G1 X146.106 Y108 E613.26726
G1 X146.111 Y108.6 E613.29719
G1 X63.799 Y108.6 E617.40375
G1 X63.799 Y109.2 E617.43369
G1 X146.117 Y109.2 E621.54055
G1 X146.123 Y109.8 E621.57048
G1 X63.799 Y109.8 E625.67765
G1 X63.799 Y110.4 E625.70758
G1 X146.129 Y110.4 E629.81504
