;FLAVOR:Marlin
;TIME:3122
;Filament used: 2.05114m
;Layer height: 0.2
;MINX:87.569
;MINY:4.051
;MINZ:0.3
;MAXX:208.269
;MAXY:48.551
;MAXZ:1.5
;Generated with Cura_SteamEngine 4.8.0
M140 S60
M105
M190 S60
M104 S215
M105
M109 S215
M82 ;absolute extrusion mode
M140 S60
M105
M190 S60
M104 S200
M105
M109 S200
M82 ;absolute extrusion mode
G28
G29
M501
G92 E0 ;zero the extruded length
G1 F200 E3 ;extrude 3mm of feed stock
G92 E0 ;zero the extruded length again
G1 F100
M117 Printing...
G92 E0
G92 E0
;LAYER_COUNT:7
;LAYER:0
M107
G0 F5400 X87.827 Y14.33 Z0.3
;TYPE:SKIRT
G1 F1800 X87.968 Y13.678 E0.03328
G1 X88.21 Y12.854 E0.07613
G1 X88.436 Y12.202 E0.11055
G1 X88.742 Y11.49 E0.14922
G1 X89.069 Y10.816 E0.18659
G1 X89.513 Y10.053 E0.23063
G1 X89.867 Y9.51 E0.26297
G1 X90.41 Y8.793 E0.30784
G1 X90.83 Y8.294 E0.34038
G1 X91.424 Y7.681 E0.38297
G1 X91.913 Y7.223 E0.4164
G1 X92.509 Y6.739 E0.4547
G1 X93.131 Y6.279 E0.4933
G1 X93.763 Y5.881 E0.53056
G1 X94.201 Y5.623 E0.55592
G1 X94.451 Y5.491 E0.57002
G1 X95.241 Y5.119 E0.61359
G1 X95.858 Y4.867 E0.64684
G1 X96.688 Y4.594 E0.69043
G1 X97.311 Y4.423 E0.72266
G1 X98.049 Y4.273 E0.76023
G1 X98.563 Y4.185 E0.78625
G1 X98.844 Y4.15 E0.80038
G1 X99.681 Y4.085 E0.84226
G1 X100.122 Y4.066 E0.86428
G1 X101.068 Y4.051 E0.91148
G1 X194.884 Y4.051 E5.59198
G1 X195.585 Y4.063 E5.62696
G1 X196.42 Y4.101 E5.66866
G1 X197.147 Y4.169 E5.70509
G1 X197.994 Y4.31 E5.74793
G1 X198.644 Y4.451 E5.78111
G1 X199.471 Y4.693 E5.8241
G1 X200.116 Y4.918 E5.85818
G1 X200.82 Y5.22 E5.8964
G1 X201.517 Y5.557 E5.93503
G1 X202.171 Y5.937 E5.97276
G1 X202.809 Y6.347 E6.0106
G1 X203.43 Y6.816 E6.04942
G1 X204.03 Y7.315 E6.08836
G1 X204.54 Y7.807 E6.12371
G1 X204.906 Y8.181 E6.14982
G1 X205.094 Y8.392 E6.16392
G1 X205.659 Y9.088 E6.20864
G1 X206.045 Y9.616 E6.24127
G1 X206.498 Y10.338 E6.2838
G1 X206.828 Y10.928 E6.31752
G1 X207.15 Y11.611 E6.35519
G1 X207.451 Y12.333 E6.39422
G1 X207.694 Y13.067 E6.43279
G1 X207.897 Y13.793 E6.4704
G1 X208.047 Y14.531 E6.50797
G1 X208.135 Y15.04 E6.53375
G1 X208.17 Y15.324 E6.54802
G1 X208.228 Y16.062 E6.58495
G1 X208.254 Y16.602 E6.61193
G1 X208.269 Y17.55 E6.65923
G1 X208.269 Y35.166 E7.53809
G1 X208.26 Y35.773 E7.56838
G1 X208.225 Y36.6 E7.60968
G1 X208.184 Y37.162 E7.63779
G1 X208.151 Y37.434 E7.65146
G1 X208.033 Y38.155 E7.68791
G1 X207.87 Y38.925 E7.72718
G1 X207.627 Y39.751 E7.77013
G1 X207.402 Y40.401 E7.80445
G1 X207.058 Y41.198 E7.84776
G1 X206.771 Y41.783 E7.88026
G1 X206.324 Y42.55 E7.92455
G1 X205.967 Y43.099 E7.95723
G1 X205.496 Y43.723 E7.99623
G1 X205.019 Y44.297 E8.03346
G1 X204.472 Y44.864 E8.07277
G1 X203.925 Y45.381 E8.11032
G1 X203.333 Y45.862 E8.14838
G1 X202.709 Y46.323 E8.18708
G1 X202.07 Y46.726 E8.22477
G1 X201.387 Y47.113 E8.26394
G1 X200.623 Y47.471 E8.30603
G1 X199.995 Y47.73 E8.33992
G1 X199.126 Y48.016 E8.38556
G1 X198.519 Y48.181 E8.41695
G1 X197.673 Y48.352 E8.46001
G1 X197.019 Y48.449 E8.49299
G1 X196.112 Y48.519 E8.53838
G1 X195.709 Y48.536 E8.5585
G1 X194.783 Y48.551 E8.6047
G1 X100.954 Y48.551 E13.28585
G1 X100.247 Y48.539 E13.32113
G1 X99.524 Y48.507 E13.35724
G1 X98.995 Y48.469 E13.3837
G1 X98.71 Y48.436 E13.39801
G1 X97.807 Y48.286 E13.44368
G1 X97.175 Y48.148 E13.47595
G1 X96.393 Y47.917 E13.51663
G1 X95.719 Y47.683 E13.55223
G1 X94.923 Y47.34 E13.59547
G1 X94.334 Y47.051 E13.6282
G1 X93.653 Y46.655 E13.6675
G1 X93.017 Y46.245 E13.70525
G1 X92.414 Y45.79 E13.74294
G1 X91.83 Y45.306 E13.78078
G1 X91.249 Y44.746 E13.82104
G1 X90.726 Y44.19 E13.85912
G1 X90.212 Y43.557 E13.89981
G1 X89.804 Y43 E13.93425
G1 X89.4 Y42.36 E13.97201
G1 X89.138 Y41.915 E13.99777
G1 X89.008 Y41.668 E14.0117
G1 X88.637 Y40.879 E14.0552
G1 X88.386 Y40.267 E14.0882
G1 X88.144 Y39.536 E14.12661
G1 X87.94 Y38.806 E14.16443
G1 X87.768 Y37.949 E14.20804
G1 X87.67 Y37.295 E14.24103
G1 X87.602 Y36.419 E14.28487
G1 X87.584 Y36 E14.30579
G1 X87.569 Y35.052 E14.35309
G1 X87.569 Y17.436 E15.23196
G1 X87.578 Y16.829 E15.26224
G1 X87.613 Y16.002 E15.30354
G1 X87.653 Y15.451 E15.3311
G1 X87.687 Y15.173 E15.34507
G1 X87.827 Y14.33 E15.38771
;MESH:ReadingGuide.stl
G0 F5400 X96.286 Y23.375
;TYPE:WALL-INNER
G1 F1800 X95.839 Y23.574 E15.41212
G1 X95.46 Y23.881 E15.43645
G1 X95.172 Y24.275 E15.4608
G1 X94.999 Y24.724 E15.48481
G1 X94.945 Y25.132 E15.50534
G1 X94.945 Y27.476 E15.62228
G1 X95.019 Y27.96 E15.64671
G1 X95.218 Y28.407 E15.67112
G1 X95.525 Y28.786 E15.69545
G1 X95.919 Y29.074 E15.7198
G1 X96.368 Y29.247 E15.74381
G1 X96.776 Y29.301 E15.76434
G1 X199.069 Y29.301 E20.86776
G1 X199.551 Y29.227 E20.89209
G1 X200 Y29.028 E20.91659
G1 X200.379 Y28.721 E20.94092
G1 X200.667 Y28.326 E20.96531
G1 X200.839 Y27.879 E20.98921
G1 X200.894 Y27.471 E21.00975
G1 X200.894 Y25.124 E21.12684
G1 X200.819 Y24.642 E21.15118
G1 X200.621 Y24.196 E21.17552
G1 X200.314 Y23.816 E21.19989
G1 X199.92 Y23.528 E21.22424
G1 X199.47 Y23.355 E21.24829
G1 X199.063 Y23.301 E21.26878
G1 X96.77 Y23.301 E26.3722
G1 X96.286 Y23.375 E26.39662
G0 F5400 X196.622 Y7.918
G1 F1800 X197.678 Y8.111 E26.45018
G1 X198.71 Y8.433 E26.50411
G1 X199.694 Y8.875 E26.55793
G1 X200.612 Y9.429 E26.61142
G1 X201.457 Y10.093 E26.66504
G1 X202.228 Y10.863 E26.7194
G1 X202.891 Y11.708 E26.77299
G1 X203.445 Y12.626 E26.82648
G1 X203.887 Y13.61 E26.8803
G1 X204.209 Y14.642 E26.93423
G1 X204.402 Y15.698 E26.98779
G1 X204.469 Y16.788 E27.04227
G1 X204.469 Y35.814 E27.99148
G1 X204.402 Y36.904 E28.04597
G1 X204.209 Y37.961 E28.09957
G1 X203.887 Y38.993 E28.15351
G1 X203.445 Y39.977 E28.20732
G1 X202.891 Y40.894 E28.26077
G1 X202.224 Y41.744 E28.31468
G1 X201.462 Y42.506 E28.36844
G1 X200.612 Y43.173 E28.42235
G1 X199.694 Y43.727 E28.47584
G1 X198.71 Y44.169 E28.52966
G1 X197.677 Y44.491 E28.58364
G1 X196.622 Y44.685 E28.63715
G1 X195.525 Y44.751 E28.69198
G1 X100.313 Y44.751 E33.44213
G1 X99.216 Y44.685 E33.49696
G1 X98.161 Y44.491 E33.55047
G1 X97.128 Y44.169 E33.60446
G1 X96.144 Y43.727 E33.65827
G1 X95.233 Y43.176 E33.71139
G1 X94.375 Y42.504 E33.76576
G1 X93.611 Y41.739 E33.8197
G1 X92.947 Y40.894 E33.87332
G1 X92.393 Y39.977 E33.92677
G1 X91.951 Y38.993 E33.98059
G1 X91.629 Y37.961 E34.03452
G1 X91.436 Y36.904 E34.08813
G1 X91.369 Y35.814 E34.14261
G1 X91.369 Y16.788 E35.09182
G1 X91.436 Y15.698 E35.1463
G1 X91.629 Y14.642 E35.19986
G1 X91.951 Y13.61 E35.25379
G1 X92.393 Y12.626 E35.30761
G1 X92.947 Y11.708 E35.3611
G1 X93.615 Y10.858 E35.41504
G1 X94.376 Y10.097 E35.46873
G1 X95.227 Y9.429 E35.52271
G1 X96.144 Y8.875 E35.57616
G1 X97.128 Y8.433 E35.62997
G1 X98.16 Y8.111 E35.68391
G1 X99.216 Y7.918 E35.73747
G1 X100.314 Y7.851 E35.79235
G1 X195.524 Y7.851 E40.54239
G1 X196.622 Y7.918 E40.59727
G0 F5400 X196.669 Y7.52
;TYPE:WALL-OUTER
G1 F1800 X197.778 Y7.723 E40.65352
G1 X198.853 Y8.058 E40.7097
G1 X199.877 Y8.519 E40.76572
G1 X200.843 Y9.102 E40.82201
G1 X201.723 Y9.793 E40.87784
G1 X202.528 Y10.597 E40.9346
G1 X203.218 Y11.477 E40.99039
G1 X203.801 Y12.443 E41.04668
G1 X204.262 Y13.468 E41.10275
G1 X204.597 Y14.542 E41.15888
G1 X204.8 Y15.651 E41.21512
G1 X204.869 Y16.788 E41.27195
G1 X204.869 Y35.814 E42.22117
G1 X204.8 Y36.951 E42.27799
G1 X204.597 Y38.061 E42.33429
G1 X204.262 Y39.135 E42.39042
G1 X203.801 Y40.16 E42.44649
G1 X203.218 Y41.125 E42.50274
G1 X202.524 Y42.01 E42.55885
G1 X201.728 Y42.806 E42.61501
G1 X200.843 Y43.5 E42.67112
G1 X199.877 Y44.083 E42.72741
G1 X198.853 Y44.544 E42.78344
G1 X197.778 Y44.879 E42.83961
G1 X196.669 Y45.083 E42.89587
G1 X195.532 Y45.151 E42.9527
G1 X100.306 Y45.151 E47.70354
G1 X99.169 Y45.083 E47.76037
G1 X98.06 Y44.879 E47.81662
G1 X96.986 Y44.544 E47.87275
G1 X95.961 Y44.083 E47.92882
G1 X95.002 Y43.503 E47.98474
G1 X94.11 Y42.805 E48.04125
G1 X93.311 Y42.005 E48.09765
G1 X92.62 Y41.125 E48.15348
G1 X92.037 Y40.16 E48.20972
G1 X91.576 Y39.135 E48.26579
G1 X91.241 Y38.061 E48.32192
G1 X91.038 Y36.951 E48.37822
G1 X90.969 Y35.814 E48.43505
G1 X90.969 Y16.788 E49.38426
G1 X91.038 Y15.651 E49.44109
G1 X91.241 Y14.542 E49.49734
G1 X91.576 Y13.468 E49.55347
G1 X92.037 Y12.443 E49.60954
G1 X92.62 Y11.477 E49.66583
G1 X93.315 Y10.592 E49.72197
G1 X94.11 Y9.797 E49.77806
G1 X94.996 Y9.102 E49.83424
G1 X95.961 Y8.519 E49.89049
G1 X96.986 Y8.058 E49.94656
G1 X98.06 Y7.723 E50.00269
G1 X99.169 Y7.52 E50.05893
G1 X100.306 Y7.451 E50.11576
G1 X195.532 Y7.451 E54.86661
G1 X196.669 Y7.52 E54.92344
G0 F5400 X196.865 Y7.556
G0 X96.4 Y23.762
G1 F1800 X96.05 Y23.918 E54.94256
G1 X95.752 Y24.159 E54.96168
G1 X95.526 Y24.468 E54.98078
G1 X95.389 Y24.823 E54.99976
G1 X95.345 Y25.158 E55.01662
G1 X95.345 Y27.446 E55.13076
G1 X95.406 Y27.846 E55.15095
G1 X95.562 Y28.196 E55.17007
G1 X95.803 Y28.494 E55.18919
G1 X96.112 Y28.72 E55.20829
G1 X96.467 Y28.857 E55.22727
G1 X96.802 Y28.901 E55.24413
G1 X199.039 Y28.901 E60.34475
G1 X199.438 Y28.84 E60.36489
G1 X199.789 Y28.684 E60.38406
G1 X200.087 Y28.443 E60.40318
G1 X200.313 Y28.133 E60.42232
G1 X200.449 Y27.779 E60.44124
G1 X200.494 Y27.444 E60.4581
G1 X200.494 Y25.155 E60.5723
G1 X200.432 Y24.756 E60.59244
G1 X200.277 Y24.406 E60.61154
G1 X200.036 Y24.108 E60.63066
G1 X199.727 Y23.882 E60.64976
G1 X199.371 Y23.745 E60.66879
G1 X199.037 Y23.701 E60.6856
G1 X96.8 Y23.701 E65.78622
G1 X96.4 Y23.762 E65.80641
G0 F5400 X96.218 Y23.843
G0 X95.634 Y23.239
;TYPE:SKIN
G1 F1800 X95.175 Y23.61 E65.83585
G1 X94.827 Y24.086 E65.86527
G1 X94.619 Y24.627 E65.89419
G1 X94.555 Y25.106 E65.9183
G1 X94.555 Y27.505 E66.03798
G1 X94.641 Y28.071 E66.06655
G1 X94.883 Y28.612 E66.09611
G1 X95.254 Y29.071 E66.12556
G1 X95.73 Y29.419 E66.15498
G1 X96.271 Y29.627 E66.18389
G1 X96.75 Y29.691 E66.208
G1 X199.098 Y29.691 E71.31417
G1 X199.662 Y29.605 E71.34263
G1 X200.205 Y29.363 E71.37229
G1 X200.664 Y28.992 E71.40173
G1 X201.012 Y28.514 E71.43123
G1 X201.219 Y27.977 E71.45994
G1 X201.284 Y27.497 E71.48411
G1 X201.284 Y25.094 E71.60399
G1 X201.197 Y24.531 E71.63242
G1 X200.956 Y23.991 E71.66192
G1 X200.585 Y23.531 E71.6914
G1 X200.109 Y23.183 E71.72082
G1 X199.567 Y22.975 E71.74978
G1 X199.089 Y22.911 E71.77384
G1 X96.741 Y22.911 E76.88001
G1 X96.175 Y22.997 E76.90857
G1 X95.634 Y23.239 E76.93814
G0 F5400 X91.759 Y16.812
G1 F1800 X91.824 Y15.741 E76.99167
G1 X92.009 Y14.733 E77.0428
G1 X92.318 Y13.743 E77.09454
G1 X92.737 Y12.81 E77.14556
G1 X93.27 Y11.928 E77.19698
G1 X93.911 Y11.112 E77.24875
G1 X94.634 Y10.389 E77.29976
G1 X95.442 Y9.754 E77.35103
G1 X96.328 Y9.219 E77.40266
G1 X97.261 Y8.8 E77.45369
G1 X98.251 Y8.491 E77.50543
G1 X99.259 Y8.306 E77.55656
G1 X100.338 Y8.241 E77.61049
G1 X195.5 Y8.241 E82.35814
G1 X196.579 Y8.306 E82.41207
G1 X197.587 Y8.491 E82.4632
G1 X198.577 Y8.8 E82.51494
G1 X199.51 Y9.219 E82.56597
G1 X200.392 Y9.752 E82.61738
G1 X201.198 Y10.385 E82.66851
G1 X201.939 Y11.125 E82.72076
G1 X202.566 Y11.923 E82.77139
G1 X203.101 Y12.81 E82.82307
G1 X203.52 Y13.743 E82.87409
G1 X203.829 Y14.733 E82.92583
G1 X204.014 Y15.741 E82.97696
G1 X204.079 Y16.812 E83.03049
G1 X204.079 Y35.79 E83.97731
G1 X204.014 Y36.861 E84.03084
G1 X203.829 Y37.87 E84.08202
G1 X203.52 Y38.86 E84.13376
G1 X203.101 Y39.793 E84.18479
G1 X202.566 Y40.679 E84.23642
G1 X201.932 Y41.486 E84.28762
G1 X201.204 Y42.214 E84.33899
G1 X200.397 Y42.848 E84.39019
G1 X199.51 Y43.383 E84.44187
G1 X198.574 Y43.803 E84.49305
G1 X197.588 Y44.11 E84.54457
G1 X196.578 Y44.297 E84.59582
G1 X195.502 Y44.361 E84.64959
G1 X100.336 Y44.361 E89.39744
G1 X99.26 Y44.297 E89.45122
G1 X98.25 Y44.11 E89.50247
G1 X97.264 Y43.803 E89.55399
G1 X96.332 Y43.385 E89.60495
G1 X95.451 Y42.851 E89.65634
G1 X94.634 Y42.212 E89.70809
G1 X93.901 Y41.478 E89.75984
G1 X93.27 Y40.674 E89.81083
G1 X92.737 Y39.793 E89.8622
G1 X92.318 Y38.86 E89.91323
G1 X92.009 Y37.87 E89.96497
G1 X91.824 Y36.861 E90.01615
G1 X91.759 Y35.79 E90.06968
G1 X91.759 Y16.812 E91.0165
G0 F5400 X96.375 Y43.201
G1 F1800 X92.914 Y39.74 E91.26069
G1 X92.844 Y39.67
G0 F5400 X92.462 Y38.722
G1 F1800 X97.396 Y43.656 E91.60881
G1 X97.466 Y43.726
G0 F5400 X98.217 Y43.911
G1 F1800 X92.206 Y37.9 E92.03292
G0 F5400 X92.067 Y37.195
G1 F1800 X98.922 Y44.051 E92.51661
G0 F5400 X99.571 Y44.134
G1 F1800 X91.984 Y36.547 E93.05191
G0 F5400 X91.948 Y35.945
G1 F1800 X100.172 Y44.17 E93.6322
G0 F5400 X100.749 Y44.18
G1 F1800 X91.938 Y35.37 E94.25383
G0 F5400 X91.938 Y34.804
G1 F1800 X101.314 Y44.18 E94.91535
G0 F5400 X101.88 Y44.18
G1 F1800 X91.938 Y34.238 E95.61681
G0 F5400 X91.938 Y33.673
G1 F1800 X102.446 Y44.18 E96.35818
G0 F5400 X103.012 Y44.18
G1 F1800 X91.938 Y33.107 E97.13947
G0 F5400 X91.938 Y32.541
G1 F1800 X103.577 Y44.18 E97.96067
G0 F5400 X104.143 Y44.18
G1 F1800 X91.938 Y31.976 E98.82176
G0 F5400 X91.938 Y31.41
G1 F1800 X104.709 Y44.18 E99.72279
G0 F5400 X105.274 Y44.18
G1 F1800 X91.938 Y30.844 E100.66371
G0 F5400 X91.938 Y30.279
G1 F1800 X105.84 Y44.18 E101.64454
G0 F5400 X106.406 Y44.18
G1 F1800 X91.938 Y29.713 E102.6653
G0 F5400 X91.938 Y29.147
G1 F1800 X106.971 Y44.18 E103.72596
G0 F5400 X107.537 Y44.18
G1 F1800 X91.938 Y28.581 E104.82655
G0 F5400 X91.938 Y28.016
G1 F1800 X108.103 Y44.18 E105.96705
G0 F5400 X108.668 Y44.18
G1 F1800 X91.938 Y27.45 E107.14744
G0 F5400 X91.938 Y26.884
G1 F1800 X109.234 Y44.18 E108.36776
G0 F5400 X109.8 Y44.18
G1 F1800 X91.938 Y26.319 E109.62799
G0 F5400 X91.938 Y25.753
G1 F1800 X94.593 Y28.408 E109.81531
G0 F5400 X94.393 Y27.642
G1 F1800 X91.938 Y25.187 E109.98853
G0 F5400 X91.938 Y24.622
G1 F1800 X94.374 Y27.057 E110.16036
G0 F5400 X94.374 Y26.491
G1 F1800 X91.938 Y24.056 E110.3322
G0 F5400 X91.938 Y23.49
G1 F1800 X94.374 Y25.926 E110.50408
G0 F5400 X94.374 Y25.36
G1 F1800 X91.938 Y22.925 E110.67591
G0 F5400 X91.938 Y22.359
G1 F1800 X94.409 Y24.83 E110.85026
G0 F5400 X94.521 Y24.376
G1 F1800 X91.938 Y21.793 E111.0325
G0 F5400 X91.938 Y21.228
G1 F1800 X94.685 Y23.974 E111.22628
G0 F5400 X94.924 Y23.647
G1 F1800 X91.938 Y20.662 E111.43692
G0 F5400 X91.938 Y20.096
G1 F1800 X95.199 Y23.357 E111.667
G0 F5400 X95.513 Y23.105
G1 F1800 X91.938 Y19.53 E111.91924
G0 F5400 X91.938 Y18.965
G1 F1800 X95.896 Y22.922 E112.19846
G0 F5400 X96.329 Y22.79
G1 F1800 X91.938 Y18.399 E112.50827
G0 F5400 X91.938 Y17.833
G1 F1800 X96.835 Y22.73 E112.85378
G0 F5400 X97.401 Y22.73
G1 F1800 X91.938 Y17.268 E113.23919
G0 F5400 X91.945 Y16.708
G1 F1800 X97.966 Y22.73 E113.66404
G0 F5400 X98.532 Y22.73
G1 F1800 X91.976 Y16.175 E114.12657
G0 F5400 X92.022 Y15.654
G1 F1800 X99.098 Y22.73 E114.62582
G0 F5400 X99.663 Y22.73
G1 F1800 X92.109 Y15.176 E115.15879
G0 F5400 X92.205 Y14.706
G1 F1800 X100.229 Y22.73 E115.72493
G0 F5400 X100.795 Y22.73
G1 F1800 X92.339 Y14.275 E116.32151
G0 F5400 X92.474 Y13.843
G1 F1800 X101.36 Y22.73 E116.9485
G0 F5400 X101.926 Y22.73
G1 F1800 X92.645 Y13.449 E117.60332
G0 F5400 X92.82 Y13.058
G1 F1800 X102.492 Y22.73 E118.28574
G0 F5400 X103.057 Y22.73
G1 F1800 X93.017 Y12.69 E118.99411
G0 F5400 X93.231 Y12.338
G1 F1800 X103.623 Y22.73 E119.72732
G0 F5400 X104.189 Y22.73
G1 F1800 X93.449 Y11.991 E120.48505
G0 F5400 X93.698 Y11.674
G1 F1800 X104.755 Y22.73 E121.26515
G0 F5400 X105.32 Y22.73
G1 F1800 X93.946 Y11.356 E122.06765
G0 F5400 X94.216 Y11.06
G1 F1800 X105.886 Y22.73 E122.89103
G0 F5400 X106.452 Y22.73
G1 F1800 X94.499 Y10.777 E123.73438
G0 F5400 X94.786 Y10.499
G1 F1800 X107.017 Y22.73 E124.59734
G0 F5400 X107.583 Y22.73
G1 F1800 X95.103 Y10.25 E125.47787
G0 F5400 X95.419 Y10.001
G1 F1800 X108.149 Y22.73 E126.37601
G0 F5400 X108.714 Y22.73
G1 F1800 X95.757 Y9.773 E127.29019
G0 F5400 X96.109 Y9.56
G1 F1800 X109.28 Y22.73 E128.21944
G0 F5400 X109.846 Y22.73
G1 F1800 X96.468 Y9.352 E129.16333
G0 F5400 X96.858 Y9.177
G1 F1800 X110.411 Y22.73 E130.11957
G0 F5400 X110.977 Y22.73
G1 F1800 X97.249 Y9.002 E131.08815
G0 F5400 X97.673 Y8.86
G1 F1800 X111.543 Y22.73 E132.06676
G0 F5400 X112.108 Y22.73
G1 F1800 X98.104 Y8.726 E133.05482
G0 F5400 X98.561 Y8.617
G1 F1800 X112.674 Y22.73 E134.05056
G0 F5400 X113.24 Y22.73
G1 F1800 X99.039 Y8.529 E135.05252
G0 F5400 X99.545 Y8.469
G1 F1800 X113.806 Y22.73 E136.05871
G0 F5400 X114.371 Y22.73
G1 F1800 X100.078 Y8.437 E137.06716
G0 F5400 X100.628 Y8.421
G1 F1800 X114.937 Y22.73 E138.07674
G0 F5400 X115.503 Y22.73
G1 F1800 X101.194 Y8.421 E139.08632
G0 F5400 X101.759 Y8.421
