;FLAVOR:Marlin
;TIME:7425
;Filament used: 1.48234m, 0m, 0m, 0m
;Layer height: 0.2
;MINX:89.698
;MINY:75.217
;MINZ:0.3
;MAXX:120.302
;MAXY:134.896
;MAXZ:47.9
;Generated with Cura_SteamEngine 4.9.1
T0
M140 S60
M105
M190 S60
M104 S215
M105
M109 S215
M82 ;absolute extrusion mode
M82 ;absolute extrusion mode
G28
G29
M501
G92 E0 ;zero the extruded length
G1 F200 E3 ;extrude 3mm of feed stock
G92 E0 ;zero the extruded length again
G1 F100
G92 E0
G92 E0
G1 F1500 E-6.5
;LAYER_COUNT:239
;LAYER:0
M107
G0 F5400 X97.836 Y92.157 Z0.3
;TYPE:SKIRT
G1 F1500 E0
G1 F1800 X98.406 Y91.564 E0.01547
G1 X98.507 Y91.463 E0.01816
G1 X98.887 Y91.095 E0.02811
G1 X99.248 Y90.768 E0.03727
G1 X99.7 Y90.384 E0.04843
G1 X100.119 Y90.041 E0.05861
G1 X100.47 Y89.773 E0.06692
G1 X100.88 Y89.473 E0.07648
G1 X101.406 Y89.115 E0.08845
G1 X102.03 Y88.723 E0.10231
G1 X102.594 Y88.415 E0.1144
G1 X102.94 Y88.258 E0.12154
G1 X103.461 Y88.065 E0.13199
G1 X104.12 Y87.913 E0.14472
G1 X104.706 Y87.847 E0.15581
G1 X104.938 Y87.838 E0.16018
G1 X105.503 Y87.856 E0.17081
G1 X106.161 Y87.971 E0.18337
G1 X106.715 Y88.127 E0.1942
G1 X106.967 Y88.218 E0.19924
G1 X107.493 Y88.452 E0.21007
G1 X108.135 Y88.822 E0.22401
G1 X108.754 Y89.224 E0.23789
G1 X108.862 Y89.297 E0.24034
G1 X109.405 Y89.679 E0.25283
G1 X109.953 Y90.093 E0.26575
G1 X110.417 Y90.481 E0.27713
G1 X110.71 Y90.734 E0.28441
G1 X111.118 Y91.103 E0.29476
G1 X111.553 Y91.52 E0.30609
G1 X111.956 Y91.933 E0.31695
G1 X112.325 Y92.335 E0.32721
G1 X112.686 Y92.755 E0.33763
G1 X113.185 Y93.375 E0.3526
G1 X113.494 Y93.783 E0.36223
G1 X113.796 Y94.212 E0.3721
G1 X114.208 Y94.838 E0.38619
G1 X114.28 Y94.95 E0.3887
G1 X114.55 Y95.393 E0.39846
G1 X114.871 Y95.969 E0.41086
G1 X114.941 Y96.1 E0.41366
G1 X115.177 Y96.568 E0.42351
G1 X115.496 Y97.247 E0.43763
G1 X115.715 Y97.759 E0.4481
G1 X116.001 Y98.505 E0.46313
G1 X116.261 Y99.274 E0.4784
G1 X116.297 Y99.393 E0.48074
G1 X116.463 Y99.972 E0.49207
G1 X116.497 Y100.099 E0.49454
G1 X116.658 Y100.741 E0.50699
G1 X116.794 Y101.401 E0.51967
G1 X116.895 Y101.989 E0.53089
G1 X116.998 Y102.71 E0.54459
G1 X117.058 Y103.303 E0.5558
G1 X117.099 Y103.864 E0.56638
G1 X117.121 Y104.378 E0.57606
G1 X117.128 Y104.823 E0.58443
G1 X117.125 Y105.42 E0.59566
G1 X117.105 Y105.971 E0.60603
G1 X117.078 Y106.462 E0.61528
G1 X116.469 Y116.39 E0.80239
G1 X116.39 Y117.724 E0.82752
G1 X116.12 Y122.131 E0.91058
G1 X115.802 Y127.348 E1.00889
G1 X115.722 Y128.619 E1.03285
G1 X115.636 Y129.659 E1.05248
G1 X115.591 Y130.056 E1.05999
G1 X115.454 Y130.718 E1.07271
G1 X115.41 Y130.866 E1.07561
G1 X115.202 Y131.414 E1.08664
G1 X115.033 Y131.777 E1.09417
G1 X114.662 Y132.414 E1.10804
G1 X114.232 Y132.964 E1.12117
G1 X114.095 Y133.113 E1.12498
G1 X113.667 Y133.515 E1.13602
G1 X113.462 Y133.681 E1.14099
G1 X113.006 Y134 E1.15145
G1 X112.456 Y134.304 E1.16328
G1 X112.303 Y134.375 E1.16645
G1 X111.813 Y134.565 E1.17633
G1 X111.538 Y134.651 E1.18175
G1 X110.985 Y134.781 E1.19244
G1 X110.339 Y134.868 E1.2047
G1 X109.911 Y134.89 E1.21276
G1 X109.401 Y134.896 E1.22236
G1 X100.745 Y134.896 E1.38518
G1 X100.025 Y134.886 E1.39873
G1 X99.499 Y134.847 E1.40865
G1 X99.197 Y134.81 E1.41437
G1 X98.559 Y134.679 E1.42662
G1 X97.894 Y134.458 E1.4398
G1 X97.729 Y134.389 E1.44317
G1 X97.173 Y134.104 E1.45492
G1 X96.907 Y133.94 E1.4608
G1 X96.255 Y133.438 E1.47628
G1 X95.867 Y133.058 E1.48649
G1 X95.701 Y132.877 E1.49111
G1 X95.207 Y132.211 E1.50671
G1 X94.896 Y131.649 E1.51879
G1 X94.835 Y131.519 E1.52149
G1 X94.645 Y131.036 E1.53126
G1 X94.465 Y130.384 E1.54398
G1 X94.359 Y129.706 E1.55689
G1 X94.28 Y128.685 E1.57615
G1 X92.917 Y106.333 E1.99739
G1 X92.881 Y105.468 E2.01367
G1 X92.874 Y104.937 E2.02366
G1 X92.89 Y104.091 E2.03958
G1 X92.921 Y103.547 E2.04983
G1 X92.973 Y102.975 E2.06063
G1 X93.06 Y102.294 E2.07355
G1 X93.219 Y101.332 E2.09189
G1 X93.257 Y101.149 E2.0954
G1 X93.456 Y100.278 E2.11221
G1 X93.599 Y99.745 E2.12259
G1 X93.845 Y98.955 E2.13815
G1 X93.892 Y98.815 E2.14093
G1 X94.073 Y98.303 E2.15115
G1 X94.281 Y97.771 E2.16189
G1 X94.534 Y97.182 E2.17395
G1 X94.744 Y96.735 E2.18324
G1 X95.04 Y96.144 E2.19567
G1 X95.236 Y95.782 E2.20342
G1 X95.497 Y95.322 E2.21336
G1 X95.762 Y94.892 E2.22287
G1 X96.034 Y94.47 E2.23231
G1 X96.106 Y94.362 E2.23475
G1 X96.463 Y93.847 E2.24654
G1 X96.605 Y93.653 E2.25106
G1 X97.025 Y93.106 E2.26403
G1 X97.344 Y92.716 E2.27351
G1 X97.7 Y92.306 E2.28373
G1 X97.836 Y92.157 E2.28752
G0 F5400 X98.125 Y92.434
G1 F1800 X98.695 Y91.841 E2.30299
G1 X98.786 Y91.75 E2.30541
G1 X99.166 Y91.382 E2.31536
G1 X99.507 Y91.073 E2.32402
G1 X99.954 Y90.693 E2.33506
G1 X100.373 Y90.35 E2.34524
G1 X100.706 Y90.096 E2.35312
G1 X101.116 Y89.796 E2.36268
G1 X101.619 Y89.454 E2.37412
G1 X102.243 Y89.062 E2.38798
G1 X102.759 Y88.78 E2.39904
G1 X103.105 Y88.623 E2.40619
G1 X103.574 Y88.448 E2.4156
G1 X104.194 Y88.306 E2.42757
G1 X104.721 Y88.247 E2.43754
G1 X104.953 Y88.238 E2.44191
G1 X105.489 Y88.257 E2.452
G1 X106.08 Y88.363 E2.46329
G1 X106.579 Y88.503 E2.47304
G1 X106.831 Y88.594 E2.47808
G1 X107.305 Y88.805 E2.48784
G1 X107.926 Y89.163 E2.50133
G1 X108.535 Y89.559 E2.51499
G1 X108.633 Y89.625 E2.51721
G1 X109.09 Y89.945 E2.52771
G1 X109.558 Y90.292 E2.53867
G1 X110.159 Y90.787 E2.55331
G1 X110.442 Y91.031 E2.56034
G1 X110.926 Y91.471 E2.57265
G1 X111.582 Y92.12 E2.59
G1 X111.972 Y92.54 E2.60079
G1 X112.381 Y93.014 E2.61256
G1 X112.441 Y93.086 E2.61432
G1 X112.874 Y93.625 E2.62733
G1 X113.253 Y94.132 E2.63924
G1 X113.521 Y94.519 E2.64809
G1 X113.874 Y95.057 E2.6602
G1 X113.938 Y95.158 E2.66245
G1 X114.208 Y95.601 E2.6722
G1 X114.521 Y96.162 E2.68429
G1 X114.583 Y96.28 E2.6868
G1 X114.866 Y96.844 E2.69867
G1 X115.134 Y97.417 E2.71056
G1 X115.342 Y97.903 E2.72051
G1 X115.625 Y98.641 E2.73538
G1 X115.88 Y99.396 E2.75037
G1 X115.913 Y99.503 E2.75247
G1 X116.079 Y100.082 E2.7638
G1 X116.246 Y100.741 E2.77659
G1 X116.402 Y101.478 E2.79076
G1 X116.5 Y102.055 E2.80177
G1 X116.602 Y102.766 E2.81528
G1 X116.659 Y103.33 E2.82595
G1 X116.709 Y104.041 E2.83935
G1 X116.728 Y104.751 E2.85271
G1 X116.725 Y105.418 E2.86526
G1 X116.705 Y105.949 E2.87525
G1 X116.678 Y106.437 E2.88445
G1 X116.071 Y116.358 E3.07142
G1 X115.991 Y117.7 E3.09671
G1 X115.72 Y122.109 E3.1798
G1 X115.329 Y128.513 E3.30049
G1 X115.238 Y129.626 E3.32149
G1 X115.194 Y130.009 E3.32874
G1 X115.071 Y130.604 E3.34017
G1 X115.027 Y130.752 E3.34308
G1 X114.84 Y131.245 E3.35299
G1 X114.671 Y131.608 E3.36053
G1 X114.336 Y132.181 E3.37301
G1 X113.937 Y132.694 E3.38524
G1 X113.8 Y132.843 E3.38904
G1 X113.416 Y133.204 E3.39896
G1 X113.211 Y133.37 E3.40392
G1 X112.8 Y133.657 E3.41335
G1 X112.287 Y133.942 E3.42439
G1 X111.694 Y134.183 E3.43643
G1 X111.419 Y134.269 E3.44185
G1 X110.921 Y134.387 E3.45148
G1 X110.313 Y134.468 E3.46301
G1 X109.906 Y134.49 E3.47068
G1 X109.396 Y134.496 E3.48028
G1 X100.751 Y134.496 E3.64289
G1 X100.031 Y134.486 E3.65644
G1 X99.245 Y134.413 E3.67129
G1 X98.672 Y134.295 E3.68229
G1 X98.048 Y134.089 E3.69465
G1 X97.883 Y134.02 E3.69802
G1 X97.383 Y133.763 E3.70859
G1 X97.117 Y133.599 E3.71447
G1 X96.53 Y133.148 E3.72839
G1 X96.162 Y132.787 E3.73809
G1 X95.996 Y132.606 E3.74271
G1 X95.551 Y132.007 E3.75675
G1 X95.258 Y131.479 E3.76811
G1 X95.026 Y130.914 E3.77959
G1 X94.857 Y130.306 E3.79147
G1 X94.758 Y129.675 E3.80348
G1 X94.68 Y128.66 E3.82263
G1 X93.317 Y106.317 E4.24369
G1 X93.281 Y105.452 E4.25998
G1 X93.274 Y104.933 E4.26974
G1 X93.29 Y104.099 E4.28543
G1 X93.319 Y103.58 E4.29521
G1 X93.371 Y103.017 E4.30585
G1 X93.456 Y102.345 E4.31859
G1 X93.613 Y101.402 E4.33657
G1 X93.647 Y101.238 E4.33972
G1 X93.844 Y100.378 E4.35632
G1 X93.984 Y99.855 E4.3665
G1 X94.227 Y99.074 E4.38189
G1 X94.269 Y98.948 E4.38439
G1 X94.45 Y98.436 E4.3946
G1 X94.65 Y97.927 E4.40489
G1 X94.896 Y97.351 E4.41667
G1 X95.102 Y96.914 E4.42576
G1 X95.393 Y96.333 E4.43798
G1 X95.584 Y95.979 E4.44555
G1 X95.845 Y95.519 E4.4555
G1 X96.125 Y95.066 E4.46551
G1 X96.435 Y94.59 E4.4762
G1 X96.787 Y94.081 E4.48784
G1 X96.923 Y93.897 E4.49214
G1 X97.411 Y93.263 E4.50719
G1 X97.646 Y92.979 E4.51413
G1 X98.002 Y92.569 E4.52434
G1 X98.125 Y92.434 E4.52778
G0 F5400 X98.413 Y92.711
G1 F1800 X98.983 Y92.118 E4.54325
G1 X99.064 Y92.037 E4.5454
G1 X99.444 Y91.669 E4.55535
G1 X99.767 Y91.377 E4.56354
G1 X100.207 Y91.003 E4.57441
G1 X100.626 Y90.66 E4.58459
G1 X100.942 Y90.419 E4.59207
G1 X101.352 Y90.119 E4.60162
G1 X101.832 Y89.792 E4.61255
G1 X102.456 Y89.4 E4.62641
G1 X102.925 Y89.144 E4.63646
G1 X103.687 Y88.832 E4.65195
G1 X104.269 Y88.699 E4.66318
G1 X104.969 Y88.637 E4.6764
G1 X105.474 Y88.658 E4.68591
G1 X106 Y88.754 E4.69597
G1 X106.695 Y88.97 E4.70966
G1 X107.305 Y89.259 E4.72235
G1 X107.796 Y89.554 E4.73313
G1 X108.317 Y89.894 E4.74483
G1 X108.929 Y90.322 E4.75888
G1 X109.459 Y90.722 E4.77137
G1 X109.901 Y91.092 E4.78221
G1 X110.173 Y91.328 E4.78899
G1 X110.65 Y91.76 E4.80109
G1 X111.297 Y92.4 E4.81821
G1 X111.678 Y92.811 E4.82875
G1 X112.075 Y93.272 E4.8402
G1 X112.562 Y93.876 E4.85479
G1 X112.925 Y94.36 E4.86617
G1 X113.186 Y94.739 E4.87483
G1 X113.539 Y95.277 E4.88693
G1 X113.596 Y95.367 E4.88893
G1 X113.866 Y95.81 E4.89869
G1 X114.171 Y96.355 E4.91044
G1 X114.226 Y96.46 E4.91267
G1 X114.504 Y97.013 E4.92431
G1 X114.772 Y97.586 E4.93621
G1 X114.968 Y98.046 E4.94562
G1 X115.249 Y98.776 E4.96033
G1 X115.499 Y99.518 E4.97506
G1 X115.528 Y99.613 E4.97693
G1 X115.694 Y100.192 E4.98826
G1 X115.858 Y100.839 E5.00081
G1 X116.009 Y101.555 E5.01458
G1 X116.106 Y102.122 E5.0254
G1 X116.206 Y102.822 E5.0387
G1 X116.26 Y103.357 E5.04882
G1 X116.309 Y104.056 E5.062
G1 X116.328 Y104.757 E5.07519
G1 X116.325 Y105.416 E5.08758
G1 X116.306 Y105.927 E5.0972
G1 X116.279 Y106.413 E5.10636
G1 X115.671 Y116.341 E5.29346
G1 X115.592 Y117.675 E5.3186
G1 X115.321 Y122.084 E5.40169
G1 X114.93 Y128.488 E5.52238
G1 X114.839 Y129.593 E5.54323
G1 X114.797 Y129.961 E5.5502
G1 X114.687 Y130.49 E5.56036
G1 X114.477 Y131.077 E5.57209
G1 X114.308 Y131.44 E5.57962
G1 X114.011 Y131.949 E5.59071
G1 X113.643 Y132.423 E5.602
G1 X113.164 Y132.893 E5.61462
G1 X112.594 Y133.315 E5.62796
G1 X112.119 Y133.579 E5.63818
G1 X111.574 Y133.801 E5.64925
G1 X110.857 Y133.992 E5.66321
G1 X110.287 Y134.069 E5.67403
G1 X109.902 Y134.09 E5.68128
G1 X109.392 Y134.096 E5.69088
G1 X100.757 Y134.096 E5.8533
G1 X100.037 Y134.086 E5.86685
G1 X99.294 Y134.016 E5.88089
G1 X98.784 Y133.911 E5.89068
G1 X98.202 Y133.72 E5.9022
G1 X97.593 Y133.423 E5.91495
G1 X97.327 Y133.259 E5.92083
G1 X96.805 Y132.858 E5.93321
G1 X96.291 Y132.336 E5.94699
G1 X95.895 Y131.803 E5.95948
G1 X95.62 Y131.309 E5.97012
G1 X95.407 Y130.793 E5.98062
G1 X95.249 Y130.229 E5.99163
G1 X95.157 Y129.644 E6.00277
G1 X95.079 Y128.636 E6.02179
G1 X93.717 Y106.3 E6.44272
G1 X93.678 Y105.334 E6.46091
G1 X93.675 Y104.831 E6.47037
G1 X93.69 Y104.108 E6.48397
G1 X93.743 Y103.311 E6.499
G1 X93.777 Y102.988 E6.50511
G1 X93.864 Y102.316 E6.51786
G1 X94.007 Y101.473 E6.53394
G1 X94.037 Y101.326 E6.53676
G1 X94.231 Y100.477 E6.55314
G1 X94.369 Y99.964 E6.56314
G1 X94.609 Y99.193 E6.57833
G1 X94.646 Y99.081 E6.58054
G1 X94.827 Y98.569 E6.59076
G1 X95.018 Y98.082 E6.6006
G1 X95.258 Y97.521 E6.61208
G1 X95.46 Y97.092 E6.621
G1 X95.746 Y96.522 E6.63299
G1 X95.932 Y96.177 E6.64037
G1 X96.193 Y95.717 E6.65031
G1 X96.462 Y95.283 E6.65992
G1 X96.764 Y94.817 E6.67036
G1 X97.112 Y94.315 E6.68185
G1 X97.24 Y94.14 E6.68593
G1 X97.721 Y93.516 E6.70075
G1 X97.948 Y93.241 E6.70746
G1 X98.304 Y92.831 E6.71767
G1 X98.413 Y92.711 E6.72072
G1 F1500 E0.22072
;MESH:3DBenchy.stl
G0 F5400 X103.654 Y112.064
;TYPE:WALL-INNER
G1 F1500 E6.72072
G1 F1800 X103.665 Y111.828 E6.72517
G1 X103.747 Y111.378 E6.73377
G1 X103.814 Y111.275 E6.73608
G1 X104.164 Y111.084 E6.74358
G1 X104.602 Y110.996 E6.75199
G1 X105.139 Y110.986 E6.76209
G1 X105.641 Y111.061 E6.77164
G1 X105.922 Y111.169 E6.7773
G1 X106.106 Y111.308 E6.78164
G1 X106.204 Y111.479 E6.78535
G1 X106.264 Y112.056 E6.79626
G1 X106.287 Y112.277 E6.80044
G1 X106.065 Y112.277 E6.80307
G1 X106.064 Y112.276 E6.80309
G1 X105.852 Y112.274 E6.80708
G1 X103.854 Y112.272 E6.84466
G1 X103.853 Y112.272 E6.84468
G1 X103.646 Y112.272 E6.84858
G1 X103.653 Y112.065 E6.85108
G1 X103.654 Y112.064 E6.8511
G1 F1500 E0.3511
G0 F5400 X106.667 Y112.63
;TYPE:WALL-OUTER
G1 F1500 E6.8511
G1 F1800 X106.564 Y112.683 E6.85328
G1 X106.489 Y112.682 E6.85469
G1 X105.97 Y112.671 E6.86446
G1 X105.863 Y112.674 E6.86647
G1 X103.559 Y112.672 E6.90981
G1 X103.287 Y112.667 E6.91493
G1 X103.276 Y112.667 E6.91513
G1 X103.245 Y112.29 E6.92225
G1 X103.245 Y112.279 E6.92246
G1 X103.266 Y111.782 E6.93181
G1 X103.367 Y111.227 E6.94243
G1 X103.521 Y110.992 E6.94771
G1 X103.793 Y110.802 E6.95395
G1 X104.044 Y110.7 E6.95905
G1 X104.561 Y110.597 E6.96896
G1 X105.166 Y110.585 E6.98035
G1 X105.743 Y110.671 E6.99132
G1 X106.119 Y110.815 E6.99889
G1 X106.411 Y111.038 E7.00581
G1 X106.589 Y111.346 E7.0125
G1 X106.676 Y111.927 E7.02355
G1 X106.692 Y112.386 E7.03219
G1 X106.694 Y112.461 E7.0336
G1 X106.667 Y112.63 E7.03682
G0 F5400 X106.564 Y112.683
G0 X106.489 Y112.682
G0 X106.479 Y112.682
G1 F1500 E0.53682
G0 F5400 X105.854 Y111.884
;TYPE:SKIN
G1 F1500 E7.03682
G1 F1800 X104.053 Y111.882 E7.0707
G1 X104.111 Y111.558 E7.07689
G1 X104.302 Y111.454 E7.08098
G1 X104.642 Y111.386 E7.0875
G1 X105.112 Y111.376 E7.09634
G1 X105.542 Y111.441 E7.10452
G1 X105.808 Y111.572 E7.1101
G1 X105.854 Y111.884 E7.11603
G0 F5400 X105.479 Y111.702
G1 F1800 X105.375 Y111.597 E7.11881
G0 F5400 X104.913 Y111.701
G1 F1800 X104.774 Y111.563 E7.1225
G1 F1500 E0.6225
G0 F5400 X103.532 Y117.576
;TYPE:WALL-INNER
G1 F1500 E7.1225
G1 F1800 X103.453 Y117.414 E7.12589
G1 X103.39 Y117.285 E7.12859
G1 X103.498 Y117.392 E7.12888
G1 X103.532 Y117.576 E7.1292
G1 F1500 E0.6292
G0 F5400 X102.297 Y125.19
G1 F1500 E7.1292
G1 F1800 X102.404 Y125.188 E7.13121
G1 X102.315 Y125.228 E7.13125
G1 X102.228 Y125.268 E7.13294
G1 X102.056 Y125.428 E7.13735
G1 X101.876 Y125.596 E7.14199
G1 X101.547 Y126.09 E7.15315
G1 X101.336 Y126.702 E7.16533
G1 X101.271 Y127.353 E7.17763
G1 X101.325 Y128.031 E7.19043
G1 X101.512 Y128.657 E7.20272
G1 X101.856 Y129.256 E7.21571
G1 X102.244 Y129.679 E7.22651
G1 X102.58 Y129.913 E7.23421
G1 X102.823 Y130.082 E7.23978
G1 X103.333 Y130.296 E7.25018
G1 X102.823 Y130.296 E7.2526
G1 X102.527 Y130.296 E7.25693
G1 X100.129 Y130.296 E7.30204
G1 X99.774 Y130.251 E7.30877
G1 X99.45 Y130.119 E7.31535
G1 X99.219 Y129.933 E7.32093
G1 X99.05 Y129.688 E7.32653
G1 X98.92 Y129.193 E7.33615
G1 X97.477 Y105.538 E7.78195
G1 X97.467 Y104.659 E7.79848
G1 X97.49 Y104.081 E7.80936
G1 X97.541 Y103.477 E7.82076
G1 X97.619 Y102.844 E7.83276
G1 X97.737 Y102.164 E7.84574
G1 X97.915 Y101.381 E7.86085
G1 X98.094 Y100.746 E7.87326
G1 X98.3 Y100.122 E7.88562
G1 X98.471 Y99.666 E7.89478
G1 X98.733 Y99.048 E7.90741
G1 X98.98 Y98.529 E7.91822
G1 X99.277 Y97.966 E7.93019
G1 X99.544 Y97.507 E7.94018
G1 X99.998 Y96.803 E7.95594
G1 X100.384 Y96.268 E7.96835
G1 X100.903 Y95.625 E7.98389
G1 X101.465 Y95.005 E7.99963
G1 X101.709 Y94.758 E8.00616
G1 X102.259 Y94.239 E8.02039
G1 X102.758 Y93.813 E8.03273
G1 X103.153 Y93.503 E8.04217
G1 X103.54 Y93.222 E8.05117
G1 X103.968 Y92.931 E8.06091
G1 X104.393 Y92.664 E8.07035
G1 X104.755 Y92.47 E8.07807
G1 X104.992 Y92.425 E8.08261
G1 X105.17 Y92.446 E8.08598
G1 X105.45 Y92.571 E8.09175
G1 X106.013 Y92.916 E8.10417
G1 X106.807 Y93.473 E8.12242
G1 X107.047 Y93.66 E8.12814
G1 X107.203 Y93.781 E8.13185
G1 X107.285 Y93.85 E8.13387
G1 X107.335 Y93.893 E8.13511
G1 X107.239 Y93.905 E8.13559
G1 X107.069 Y94.006 E8.13827
G1 X106.817 Y94.155 E8.14378
G1 X106.565 Y94.618 E8.15369
G1 X106.518 Y94.973 E8.16043
G1 X106.482 Y95.248 E8.16565
G1 X106.471 Y95.318 E8.16698
G1 X106.446 Y95.3
G1 X106.219 Y95.14 E8.17032
G1 X105.083 Y94.341 E8.19644
G1 X104.59 Y94.053 E8.20718
G1 X104.21 Y93.95 E8.21459
G1 X103.762 Y93.959 E8.22302
G1 X103.374 Y94.094 E8.23074
G1 X103.045 Y94.396 E8.23914
G1 X102.897 Y94.809 E8.2474
G1 X102.886 Y95.519 E8.26075
G1 X102.881 Y97.126 E8.29098
G1 X102.975 Y97.718 E8.30226
G1 X103.257 Y98.129 E8.31163
G1 X103.354 Y98.176 E8.31366
G1 X103.471 Y98.233 E8.31611
G1 X103.354 Y98.299 E8.31677
G1 X103.273 Y98.345 E8.3174
