; generated by SuperSlicer 2.4 on 2023-02-16 at 20:12:59 UTC


;
;

;
;
; 

; external perimeters extrusion width = 0.60mm
; perimeters extrusion width = 0.50mm
; infill extrusion width = 0.50mm
; solid infill extrusion width = 0.50mm
; top infill extrusion width = 0.40mm
; first layer extrusion width = 0.42mm

; external perimeters extrusion width = 0.60mm
; perimeters extrusion width = 0.50mm
; infill extrusion width = 0.50mm
; solid infill extrusion width = 0.50mm
; top infill extrusion width = 0.40mm
; first layer extrusion width = 0.42mm

; object:{"name":"ChopstickTrainer","id":"ChopstickTrainer.stl id:0 copy 0","object_center":[92.000000,120.594467,0.000000],"boundingbox_center":[92.000000,120.594467,5.850000],"boundingbox_size":[35.035622,26.793079,11.700000]}
; object:{"name":"ChopstickTrainer","id":"ChopstickTrainer.stl id:0 copy 1","object_center":[92.000000,87.800131,0.000000],"boundingbox_center":[92.000000,87.800131,5.850000],"boundingbox_size":[35.035622,26.793079,11.700000]}
; object:{"name":"switch_lock2","id":"switch_lock2.stl id:1 copy 0","object_center":[125.588049,105.000000,0.000000],"boundingbox_center":[125.588049,105.000000,1.995000],"boundingbox_size":[20.000000,80.000000,3.990000]}
; Total objects to print: 3
M486 T3
; plater:{"center":[105.035119,105.000000,0.000000],"boundingbox_center":[105.035119,105.000000,5.850000],"boundingbox_size":[61.105860,80.000000,11.700000]}

M73 P0 R42
;TYPE:Custom
G90 ; use absolute coordinates
M83 ; extruder relative mode
M204 S1250 T1250
M104 S215 ; set extruder temp
M140 S65 ; set bed temp
G28 ; home all
G29 ; AutoBed Leveling I think
G1 Y1.0 Z0.3 F1000 ; move print head up
M190 S65 ; wait for bed temp
M109 S215 ; wait for extruder temp
G92 E0.0
; initial load
G1 X205.0 E19 F1000
M73 P0 R41
G1 Y1.6
M73 P1 R41
G1 X5.0 E19 F1000
G92 E0.0
; intro line
G1 Y2.0 Z0.2 F1000
G1 X65.0 E9.0 F1000
G1 X105.0 E12.5 F1000
G92 E0.0
M107
G21 ; set units to millimeters
G90 ; use absolute coordinates
M83 ; use relative distances for extrusion
; Filament gcode
;_TOOLCHANGE 0
M107
;LAYER_CHANGE
;Z:0.2
;HEIGHT:0.2
;BEFORE_LAYER_CHANGE
G92 E0.0
;0.2
G1 Z0.075 F10800
M73 P2 R41
G1 Z0.2
;AFTER_LAYER_CHANGE
;0.2
G1 Z0.275
M204 S800
G1 X73.936 Y79.169
G1 Z0.2
;TYPE:Skirt
;WIDTH:0.52
G1 F1200
G1 X73.468 Y80.407 E0.05249
G1 X72.244 Y100.506 E0.79881
G1 X72.244 Y133.3 E1.30093
G1 X72.761 Y134.731 E0.06035
G1 X73.869 Y135.453 E0.05249
G1 X114.975 Y147.153 E1.69541
G1 X115.588 Y147.239 E0.02454
G1 X135.588 Y147.239 E0.79339
G1 X136.399 Y147.086 E0.03273
G1 X137.436 Y146.264 E0.05249
G1 X137.827 Y145 E0.05249
G1 X137.827 Y65 E3.17355
G1 X137.675 Y64.189 E0.03273
G1 X136.852 Y63.153 E0.05249
G1 X135.588 Y62.761 E0.05249
G1 X115.588 Y62.761 E0.79339
G1 X114.799 Y62.905 E0.03183
G1 X88.296 Y72.894 E1.12354
G1 X74.845 Y78.476 E0.57772
G1 X73.936 Y79.169 E0.04534
M204 S1000
G1 Z0.275 F10800
; printing object ChopstickTrainer.stl id:0 copy 0
M486 S0
; acceleration to travel
M204 S1500
G1 X80.878 Y102.437
; decel to extrusion
M204 S800
G1 X84.581 Y114.846
; end travel
G1 Z0.2
;TYPE:Internal perimeter
;WIDTH:0.42
G1 F1200
G1 X85.071 Y114.876 E0.01541
G1 X86.035 Y113.009 E0.06587
G1 X86.293 Y113.12 E0.0088
G1 X86.046 Y113.839 E0.02383
G1 X84.876 Y132.97 E0.60097
G1 X75.503 Y132.397 E0.29442
G1 X76.606 Y114.359 E0.56663
G1 X84.581 Y114.846 E0.2505
M204 S1000
G1 Z0.275 F10800
; acceleration to travel
M204 S1500
G1 X86.249 Y112.254
; decel to extrusion
M204 S800
G1 X87.139 Y110.872
; end travel
G1 Z0.2
G1 F1200
G1 X87.679 Y109.826 E0.03692
G1 X89.516 Y108.667 E0.0681
G1 X92.004 Y108.18 E0.07951
G1 X94.369 Y108.621 E0.07542
G1 X96.347 Y109.823 E0.07256
G1 X97.748 Y111.575 E0.07036
G1 X98.802 Y114.884 E0.10889
G1 X107.394 Y114.359 E0.2699
G1 X108.497 Y132.397 E0.56663
G1 X99.124 Y132.97 E0.29442
G1 X97.955 Y113.843 E0.60083
G1 X97.283 Y111.834 E0.06643
G1 X95.973 Y110.205 E0.06553
G1 X94.227 Y109.136 E0.0642
G1 X92.004 Y108.709 E0.07096
G1 X89.867 Y109.1 E0.06812
G1 X88.071 Y110.168 E0.06553
G1 X87.365 Y111.021 E0.03473
G1 X87.139 Y110.872 E0.0085
M204 S1000
G1 Z0.275 F10800
; acceleration to travel
M204 S1500
G1 X85.485 Y113.218
; decel to extrusion
M204 S800
G1 X84.604 Y114.47
; end travel
G1 Z0.2
G1 F1200
G1 X84.849 Y114.485 E0.00771
G1 X87.391 Y109.562 E0.17373
G1 X89.374 Y108.311 E0.07352
G1 X92.003 Y107.796 E0.08398
G1 X94.506 Y108.263 E0.07984
G1 X96.599 Y109.535 E0.07681
G1 X98.086 Y111.394 E0.07464
G1 X99.072 Y114.49 E0.10187
G1 X107.747 Y113.959 E0.27251
G1 X108.896 Y132.75 E0.59027
G1 X98.771 Y133.369 E0.31807
M73 P2 R40
G1 X97.581 Y113.915 E0.6111
M73 P3 R40
G1 X96.947 Y112.017 E0.06275
G1 X95.72 Y110.493 E0.06135
G1 X94.088 Y109.494 E0.05999
G1 X92.003 Y109.093 E0.06659
G1 X90.002 Y109.459 E0.06378
G1 X88.319 Y110.458 E0.06135
G1 X87.1 Y111.933 E0.06
G1 X86.419 Y113.913 E0.06564
G1 X85.229 Y133.369 E0.61118
G1 X75.104 Y132.75 E0.31807
G1 X76.253 Y113.959 E0.59027
G1 X84.604 Y114.47 E0.26232
G1 X84.627 Y114.094 F10800
;TYPE:External perimeter
G1 F1200
G1 X87.103 Y109.297 E0.16924
G1 X89.233 Y107.954 E0.07895
G1 X92.001 Y107.412 E0.08845
G1 X94.643 Y107.905 E0.08427
G1 X96.852 Y109.247 E0.08106
G1 X98.424 Y111.213 E0.07892
G1 X99.342 Y114.095 E0.09485
G1 X108.101 Y113.56 E0.27512
G1 X109.295 Y133.104 E0.61392
G1 X98.417 Y133.769 E0.34171
G1 X97.208 Y113.988 E0.62137
G1 X96.611 Y112.201 E0.05907
G1 X95.467 Y110.78 E0.05718
G1 X93.95 Y109.851 E0.05579
G1 X92.001 Y109.476 E0.06223
G1 X90.136 Y109.818 E0.05944
G1 X88.568 Y110.749 E0.05718
G1 X87.434 Y112.121 E0.05579
G1 X86.792 Y113.987 E0.06189
G1 X85.583 Y133.769 E0.6214
G1 X74.705 Y133.104 E0.34171
G1 X75.899 Y113.56 E0.61392
G1 X84.627 Y114.094 E0.27414
;WIPE_START
M204 S1000
G1 X85.004 Y114.226 F10800
;WIPE_END
M204 S800
G1 X85.892 Y114.495
;TYPE:Solid infill
;WIDTH:0.420998
G1 F1200
G1 X85.685 Y114.288 E0.00922
G1 X85.503 Y114.64 E0.01244
G1 X85.708 Y114.845 E0.00912
G1 X85.678 Y115.347 E0.01582
G1 X85.322 Y114.991 E0.01583
G1 X85.233 Y115.162 E0.00603
G1 X84.941 Y115.144 E0.00921
G1 X85.647 Y115.85 E0.03138
G1 X85.616 Y116.353 E0.01582
G1 X84.373 Y115.109 E0.05526
G1 X83.805 Y115.075 E0.01788
G1 X85.585 Y116.855 E0.07914
G1 X85.555 Y117.358 E0.01582
G1 X83.237 Y115.04 E0.10302
G1 X82.669 Y115.005 E0.01788
G1 X85.524 Y117.86 E0.1269
G1 X85.493 Y118.363 E0.01582
G1 X82.101 Y114.97 E0.15078
G1 X81.533 Y114.936 E0.01788
G1 X85.463 Y118.865 E0.17466
G1 X85.432 Y119.368 E0.01582
G1 X80.965 Y114.901 E0.19854
G1 X80.397 Y114.866 E0.01788
G1 X85.401 Y119.87 E0.22242
G1 X85.37 Y120.373 E0.01582
G1 X79.829 Y114.832 E0.2463
G1 X79.261 Y114.797 E0.01788
G1 X85.34 Y120.875 E0.27018
G1 X85.309 Y121.378 E0.01582
G1 X78.693 Y114.762 E0.29406
G1 X78.125 Y114.727 E0.01788
G1 X85.278 Y121.881 E0.31794
G1 X85.247 Y122.383 E0.01582
G1 X77.557 Y114.693 E0.34182
G1 X76.989 Y114.658 E0.01788
G1 X85.217 Y122.886 E0.3657
G1 X85.186 Y123.388 E0.01582
G1 X76.84 Y115.042 E0.37095
G1 X76.809 Y115.545 E0.01582
G1 X85.155 Y123.891 E0.37095
G1 X85.125 Y124.393 E0.01582
G1 X76.779 Y116.047 E0.37095
G1 X76.748 Y116.55 E0.01582
G1 X85.094 Y124.896 E0.37095
G1 X85.063 Y125.398 E0.01582
G1 X76.717 Y117.053 E0.37095
G1 X76.687 Y117.555 E0.01582
G1 X85.032 Y125.901 E0.37095
G1 X85.002 Y126.404 E0.01582
G1 X76.656 Y118.058 E0.37095
G1 X76.625 Y118.56 E0.01582
G1 X84.971 Y126.906 E0.37095
G1 X84.94 Y127.409 E0.01582
G1 X76.594 Y119.063 E0.37095
G1 X76.564 Y119.565 E0.01582
G1 X84.91 Y127.911 E0.37095
G1 X84.879 Y128.414 E0.01582
G1 X76.533 Y120.068 E0.37095
G1 X76.502 Y120.57 E0.01582
G1 X84.848 Y128.916 E0.37095
G1 X84.817 Y129.419 E0.01582
M73 P4 R40
G1 X76.471 Y121.073 E0.37095
G1 X76.441 Y121.575 E0.01582
G1 X84.787 Y129.921 E0.37095
G1 X84.756 Y130.424 E0.01582
G1 X76.41 Y122.078 E0.37095
G1 X76.379 Y122.581 E0.01582
G1 X84.725 Y130.926 E0.37095
G1 X84.694 Y131.429 E0.01582
G1 X76.349 Y123.083 E0.37095
G1 X76.318 Y123.586 E0.01582
G1 X84.664 Y131.932 E0.37095
G1 X84.633 Y132.434 E0.01582
G1 X76.287 Y124.088 E0.37095
G1 X76.256 Y124.591 E0.01582
G1 X84.326 Y132.66 E0.35868
G1 X83.758 Y132.626 E0.01788
G1 X76.226 Y125.093 E0.3348
G1 X76.195 Y125.596 E0.01582
G1 X83.19 Y132.591 E0.31092
G1 X82.622 Y132.556 E0.01788
G1 X76.164 Y126.098 E0.28704
G1 X76.133 Y126.601 E0.01582
G1 X82.054 Y132.522 E0.26316
G1 X81.486 Y132.487 E0.01788
G1 X76.103 Y127.103 E0.23928
G1 X76.072 Y127.606 E0.01582
G1 X80.918 Y132.452 E0.2154
G1 X80.35 Y132.417 E0.01788
G1 X76.041 Y128.109 E0.19152
G1 X76.011 Y128.611 E0.01582
G1 X79.782 Y132.383 E0.16764
G1 X79.214 Y132.348 E0.01788
G1 X75.98 Y129.114 E0.14376
G1 X75.949 Y129.616 E0.01582
G1 X78.646 Y132.313 E0.11988
G1 X78.078 Y132.278 E0.01788
G1 X75.918 Y130.119 E0.096
G1 X75.888 Y130.621 E0.01582
G1 X77.51 Y132.244 E0.07211
G1 X76.942 Y132.209 E0.01788
G1 X75.857 Y131.124 E0.04823
G1 X75.826 Y131.626 E0.01582
G1 X76.374 Y132.174 E0.02435
G1 X75.806 Y132.14 E0.01788
G1 X75.642 Y131.976 E0.00728
M204 S1000
G1 Z0.275 F10800
; acceleration to travel
M204 S1500
G1 X82.549 Y119.538
; decel to extrusion
M204 S800
G1 X86.232 Y112.905
; end travel
G1 Z0.2
;TYPE:Gap fill
;WIDTH:0.706606
G1 F1200
G1 X86.293 Y112.763 E0.00851
;WIDTH:0.660085
G1 X86.353 Y112.621 E0.00792
G1 X86.426 Y112.451 E0.00952
;WIDTH:0.626436
G1 X86.499 Y112.28 E0.009
;WIDTH:0.592787
G1 X86.572 Y112.11 E0.00848
;WIDTH:0.559138
G1 X86.645 Y111.939 E0.00796
;WIDTH:0.525488
G1 X86.718 Y111.768 E0.00745
G1 X86.759 Y111.692 E0.00347
G1 X86.819 Y111.602 E0.00433
;WIDTH:0.559248
G1 X86.878 Y111.512 E0.00463
;WIDTH:0.589991
G1 X86.937 Y111.422 E0.0049
;WIDTH:0.620734
G1 X86.997 Y111.332 E0.00518
G1 X87.076 Y111.212 E0.00694
;WIDTH:0.678514
G1 X87.156 Y111.091 E0.00763
M204 S1000
G1 Z0.275 F10800
; acceleration to travel
M204 S1500
G1 X94.28 Y113.009
; decel to extrusion
M204 S800
G1 X98.079 Y114.032
; end travel
G1 Z0.2
;TYPE:Solid infill
;WIDTH:0.433929
G1 F1200
G1 X98.567 Y114.519 E0.02233
M204 S1000
G1 Z0.275 F10800
; acceleration to travel
M204 S1500
G1 X104.287 Y115.022
; decel to extrusion
M204 S800
G1 X107.337 Y115.291
; end travel
G1 Z0.2
G1 F1200
G1 X106.723 Y114.676 E0.02817
G1 X106.22 Y114.706 E0.01631
G1 X107.199 Y115.686 E0.04486
G1 X107.234 Y116.254 E0.01843
G1 X105.717 Y114.737 E0.06947
G1 X105.215 Y114.768 E0.01631
G1 X107.269 Y116.822 E0.09409
G1 X107.303 Y117.39 E0.01843
G1 X104.712 Y114.798 E0.1187
G1 X104.21 Y114.829 E0.01631
G1 X107.338 Y117.958 E0.14331
G1 X107.373 Y118.526 E0.01843
G1 X103.707 Y114.86 E0.16793
G1 X103.205 Y114.891 E0.01631
G1 X107.408 Y119.093 E0.19254
G1 X107.442 Y119.661 E0.01843
G1 X102.702 Y114.921 E0.21716
G1 X102.2 Y114.952 E0.01631
G1 X107.477 Y120.229 E0.24177
G1 X107.512 Y120.797 E0.01843
G1 X101.697 Y114.983 E0.26638
G1 X101.195 Y115.014 E0.01631
G1 X107.546 Y121.365 E0.291
G1 X107.581 Y121.933 E0.01843
G1 X100.692 Y115.044 E0.31561
G1 X100.189 Y115.075 E0.01631
G1 X107.616 Y122.501 E0.34022
G1 X107.651 Y123.069 E0.01843
G1 X99.687 Y115.106 E0.36484
G1 X99.184 Y115.136 E0.01631
G1 X107.685 Y123.637 E0.38945
G1 X107.72 Y124.205 E0.01843
G1 X98.287 Y114.773 E0.43214
G1 X98.322 Y115.341 E0.01843
G1 X107.755 Y124.773 E0.43214
G1 X107.79 Y125.341 E0.01843
G1 X98.357 Y115.909 E0.43214
G1 X98.391 Y116.477 E0.01843
G1 X107.824 Y125.909 E0.43214
G1 X107.859 Y126.477 E0.01843
G1 X98.426 Y117.045 E0.43214
G1 X98.461 Y117.613 E0.01843
G1 X107.894 Y127.045 E0.43214
G1 X107.928 Y127.613 E0.01843
G1 X98.496 Y118.181 E0.43214
G1 X98.53 Y118.749 E0.01843
G1 X107.963 Y128.181 E0.43214
G1 X107.998 Y128.749 E0.01843
G1 X98.565 Y119.317 E0.43214
G1 X98.6 Y119.885 E0.01843
G1 X108.033 Y129.317 E0.43214
G1 X108.067 Y129.885 E0.01843
G1 X98.634 Y120.453 E0.43214
G1 X98.669 Y121.021 E0.01843
G1 X108.102 Y130.453 E0.43214
G1 X108.137 Y131.021 E0.01843
G1 X98.704 Y121.589 E0.43214
G1 X98.739 Y122.157 E0.01843
M73 P5 R40
G1 X108.172 Y131.589 E0.43214
G1 X108.205 Y132.139 E0.01783
G1 X108.189 Y132.14 E0.00053
G1 X98.773 Y122.725 E0.43134
G1 X98.808 Y123.293 E0.01843
G1 X107.686 Y132.171 E0.40672
G1 X107.184 Y132.201 E0.01631
G1 X98.843 Y123.861 E0.38211
G1 X98.878 Y124.429 E0.01843
G1 X106.681 Y132.232 E0.3575
G1 X106.179 Y132.263 E0.01631
G1 X98.912 Y124.997 E0.33288
G1 X98.947 Y125.565 E0.01843
G1 X105.676 Y132.293 E0.30827
G1 X105.173 Y132.324 E0.01631
G1 X98.982 Y126.133 E0.28366
G1 X99.016 Y126.701 E0.01843
G1 X104.671 Y132.355 E0.25904
G1 X104.168 Y132.386 E0.01631
G1 X99.051 Y127.269 E0.23443
G1 X99.086 Y127.837 E0.01843
G1 X103.666 Y132.416 E0.20981
G1 X103.163 Y132.447 E0.01631
G1 X99.121 Y128.405 E0.1852
G1 X99.155 Y128.973 E0.01843
G1 X102.661 Y132.478 E0.16059
G1 X102.158 Y132.509 E0.01631
G1 X99.19 Y129.54 E0.13597
G1 X99.225 Y130.108 E0.01843
G1 X101.656 Y132.539 E0.11136
G1 X101.153 Y132.57 E0.01631
G1 X99.26 Y130.676 E0.08675
G1 X99.294 Y131.244 E0.01843
G1 X100.651 Y132.601 E0.06213
G1 X100.148 Y132.631 E0.01631
G1 X99.329 Y131.812 E0.03752
G1 X99.364 Y132.38 E0.01843
G1 X99.799 Y132.815 E0.01992
M204 S1000
G1 Z0.275 F10800
; stop printing object ChopstickTrainer.stl id:0 copy 0
M486 S-1
; printing object ChopstickTrainer.stl id:0 copy 1
M486 S1
; acceleration to travel
M204 S1500
G1 X90.068 Y111.51
; decel to extrusion
M204 S800
G1 X84.878 Y100.146
; end travel
G1 Z0.2
;TYPE:Internal perimeter
;WIDTH:0.42
G1 F1200
G1 X84.876 Y100.175 E0.00091
G1 X75.503 Y99.602 E0.29442
G1 X76.606 Y81.564 E0.56663
M73 P5 R39
G1 X85.071 Y82.082 E0.26591
G1 X86.035 Y80.215 E0.06587
G1 X86.293 Y80.325 E0.0088
G1 X86.046 Y81.044 E0.02383
G1 X84.878 Y100.146 E0.60006
M204 S1000
G1 Z0.275 F10800
; acceleration to travel
M204 S1500
G1 X94.169 Y100.165
; decel to extrusion
M204 S800
G1 X99.124 Y100.175
; end travel
G1 Z0.2
G1 F1200
G1 X97.955 Y81.049 E0.60083
G1 X97.283 Y79.039 E0.06643
G1 X95.973 Y77.411 E0.06553
G1 X94.227 Y76.342 E0.0642
G1 X92.004 Y75.915 E0.07096
G1 X89.867 Y76.306 E0.06812
G1 X88.071 Y77.373 E0.06553
G1 X87.365 Y78.227 E0.03473
G1 X87.139 Y78.078 E0.0085
G1 X87.679 Y77.031 E0.03692
G1 X89.516 Y75.873 E0.0681
G1 X92.004 Y75.385 E0.07951
G1 X94.369 Y75.826 E0.07542
G1 X96.347 Y77.028 E0.07256
G1 X97.748 Y78.781 E0.07036
G1 X98.802 Y82.09 E0.10889
G1 X107.394 Y81.564 E0.2699
G1 X108.497 Y99.602 E0.56663
G1 X99.124 Y100.175 E0.29442
G1 X98.771 Y100.575 F10800
G1 F1200
G1 X97.581 Y81.121 E0.6111
G1 X96.947 Y79.223 E0.06275
G1 X95.72 Y77.698 E0.06135
G1 X94.088 Y76.699 E0.05999
G1 X92.003 Y76.298 E0.06659
G1 X90.002 Y76.665 E0.06378
G1 X88.319 Y77.664 E0.06135
G1 X87.1 Y79.139 E0.06
G1 X86.419 Y81.118 E0.06564
G1 X85.229 Y100.575 E0.61118
G1 X75.104 Y99.956 E0.31807
G1 X76.253 Y81.165 E0.59027
G1 X84.849 Y81.691 E0.27003
G1 X87.391 Y76.767 E0.17373
G1 X89.374 Y75.516 E0.07352
G1 X92.003 Y75.001 E0.08398
G1 X94.506 Y75.468 E0.07984
G1 X96.599 Y76.741 E0.07681
G1 X98.086 Y78.6 E0.07464
G1 X99.072 Y81.695 E0.10187
G1 X107.747 Y81.165 E0.27251
G1 X108.896 Y99.956 E0.59027
G1 X98.771 Y100.575 E0.31807
G1 X98.417 Y100.974 F10800
;TYPE:External perimeter
G1 F1200
G1 X97.208 Y81.194 E0.62137
G1 X96.611 Y79.407 E0.05907
G1 X95.467 Y77.986 E0.05718
G1 X93.95 Y77.057 E0.05579
G1 X92.001 Y76.682 E0.06223
G1 X90.136 Y77.023 E0.05944
G1 X88.568 Y77.955 E0.05718
G1 X87.434 Y79.326 E0.05579
G1 X86.792 Y81.193 E0.06189
G1 X85.583 Y100.974 E0.6214
M73 P6 R39
G1 X74.705 Y100.309 E0.34171
G1 X75.899 Y80.766 E0.61392
G1 X84.627 Y81.299 E0.27414
G1 X87.103 Y76.503 E0.16924
G1 X89.233 Y75.16 E0.07895
G1 X92.001 Y74.617 E0.08845
G1 X94.643 Y75.11 E0.08427
G1 X96.852 Y76.453 E0.08106
G1 X98.424 Y78.419 E0.07892
G1 X99.342 Y81.301 E0.09485
G1 X108.101 Y80.766 E0.27512
G1 X109.295 Y100.309 E0.61392
G1 X98.417 Y100.974 E0.34171
;WIPE_START
M204 S1000
G1 X98.596 Y100.616 F10800
;WIPE_END
M204 S800
G1 X99.799 Y100.021
;TYPE:Solid infill
;WIDTH:0.433929
G1 F1200
G1 X99.364 Y99.586 E0.01992
G1 X99.329 Y99.018 E0.01843
G1 X100.148 Y99.837 E0.03752
G1 X100.651 Y99.806 E0.01631
G1 X99.294 Y98.45 E0.06213
G1 X99.26 Y97.882 E0.01843
G1 X101.153 Y99.776 E0.08675
G1 X101.656 Y99.745 E0.01631
G1 X99.225 Y97.314 E0.11136
G1 X99.19 Y96.746 E0.01843
G1 X102.158 Y99.714 E0.13597
G1 X102.661 Y99.684 E0.01631
G1 X99.155 Y96.178 E0.16059
G1 X99.121 Y95.61 E0.01843
