; generated by SuperSlicer 2.4 on 2023-02-16 at 21:43:19 UTC


;
;

;
;
; 

; external perimeters extrusion width = 0.60mm
; perimeters extrusion width = 0.50mm
; infill extrusion width = 0.50mm
; solid infill extrusion width = 0.50mm
; top infill extrusion width = 0.40mm
; support material extrusion width = 0.38mm
; first layer extrusion width = 0.42mm

; object:{"name":"ChopstickTrainerv2","id":"ChopstickTrainerv2.stl id:0 copy 0","object_center":[105.000000,88.603460,0.000000],"boundingbox_center":[105.000000,88.603460,5.850014],"boundingbox_size":[36.796333,26.793079,11.700027]}
; object:{"name":"ChopstickTrainerv2","id":"ChopstickTrainerv2.stl id:0 copy 1","object_center":[105.000000,121.397796,0.000000],"boundingbox_center":[105.000000,121.397796,5.850014],"boundingbox_size":[36.796333,26.793079,11.700027]}
; Total objects to print: 2
M486 T2
; plater:{"center":[105.000000,105.000628,0.000000],"boundingbox_center":[105.000000,105.000628,5.850014],"boundingbox_size":[36.796333,59.587415,11.700027]}

M73 P0 R28
;TYPE:Custom
G90 ; use absolute coordinates
M83 ; extruder relative mode
M204 S1250 T1250
M104 S215 ; set extruder temp
M140 S65 ; set bed temp
G28 ; home all
G29 ; AutoBed Leveling I think
G1 Y1.0 Z0.3 F1000 ; move print head up
M190 S65 ; wait for bed temp
M109 S215 ; wait for extruder temp
G92 E0.0
; initial load
G1 X205.0 E19 F1000
M73 P1 R27
G1 Y1.6
G1 X5.0 E19 F1000
G92 E0.0
; intro line
G1 Y2.0 Z0.2 F1000
M73 P2 R27
G1 X65.0 E9.0 F1000
G1 X105.0 E12.5 F1000
G92 E0.0
M107
G21 ; set units to millimeters
G90 ; use absolute coordinates
M83 ; use relative distances for extrusion
; Filament gcode
;_TOOLCHANGE 0
M107
;LAYER_CHANGE
;Z:0.2
;HEIGHT:0.2
;BEFORE_LAYER_CHANGE
G92 E0.0
;0.2
G1 Z0.075 F10800
G1 Z0.2
;AFTER_LAYER_CHANGE
;0.2
G1 Z0.275
M204 S800
G1 X86.055 Y79.918
M73 P3 R27
G1 Z0.2
;TYPE:Skirt
;WIDTH:0.52
G1 F1200
G1 X85.588 Y81.156 E0.05249
G1 X84.363 Y101.255 E0.79881
G1 X84.363 Y134.05 E1.30093
G1 X84.47 Y134.732 E0.02739
G1 X85.227 Y135.817 E0.05249
G1 X86.465 Y136.284 E0.05249
G1 X98.78 Y137.033 E0.4894
G1 X111.22 Y137.033 E0.49352
G1 X123.535 Y136.284 E0.4894
G1 X124.209 Y136.136 E0.02739
G1 X125.246 Y135.314 E0.05249
G1 X125.637 Y134.05 E0.05249
G1 X125.637 Y101.255 E1.30093
G1 X124.412 Y81.156 E0.79881
G1 X124.022 Y80.024 E0.0475
G1 X122.984 Y79.204 E0.05249
G1 X108.13 Y73.514 E0.631
G1 X105.41 Y73.006 E0.10973
G1 X104.57 Y73.01 E0.03336
G1 X101.348 Y73.676 E0.13049
G1 X87.017 Y79.204 E0.60935
G1 X86.055 Y79.918 E0.0475
M204 S1000
G1 Z0.275 F10800
; printing object ChopstickTrainerv2.stl id:0 copy 0
M486 S0
; acceleration to travel
M204 S1500
G1 X87.797 Y81.481
; decel to extrusion
M204 S800
G1 X88.726 Y82.314
; end travel
G1 Z0.2
;TYPE:Internal perimeter
;WIDTH:0.42
G1 F1200
G1 X98.071 Y82.885 E0.29356
G1 X99.035 Y81.018 E0.06587
G1 X99.293 Y81.129 E0.0088
G1 X99.046 Y81.848 E0.02383
G1 X97.876 Y100.979 E0.60097
G1 X87.623 Y100.352 E0.32208
G1 X88.726 Y82.314 E0.56663
M204 S1000
G1 Z0.275 F10800
; acceleration to travel
M204 S1500
G1 X96.169 Y80.075
; decel to extrusion
M204 S800
G1 X100.139 Y78.881
; end travel
G1 Z0.2
G1 F1200
G1 X100.679 Y77.835 E0.03692
G1 X102.516 Y76.676 E0.0681
G1 X105.004 Y76.189 E0.07951
G1 X107.369 Y76.63 E0.07542
G1 X109.347 Y77.832 E0.07256
G1 X110.748 Y79.584 E0.07036
G1 X111.802 Y82.893 E0.10889
G1 X121.274 Y82.314 E0.29755
G1 X122.377 Y100.352 E0.56663
G1 X112.124 Y100.979 E0.32208
G1 X110.955 Y81.852 E0.60083
G1 X110.283 Y79.843 E0.06643
M73 P4 R27
G1 X108.973 Y78.214 E0.06553
G1 X107.227 Y77.145 E0.0642
G1 X105.004 Y76.718 E0.07096
G1 X102.867 Y77.109 E0.06812
G1 X101.071 Y78.177 E0.06553
G1 X100.365 Y79.03 E0.03473
G1 X100.139 Y78.881 E0.0085
M204 S1000
G1 Z0.275 F10800
; acceleration to travel
M204 S1500
G1 X92.465 Y80.859
; decel to extrusion
M204 S800
G1 X88.372 Y81.915
; end travel
G1 Z0.2
G1 F1200
G1 X97.849 Y82.494 E0.29768
G1 X100.391 Y77.571 E0.17373
G1 X102.374 Y76.32 E0.07352
G1 X105.003 Y75.805 E0.08398
G1 X107.506 Y76.272 E0.07984
G1 X109.599 Y77.544 E0.07681
G1 X111.086 Y79.403 E0.07464
G1 X112.072 Y82.499 E0.10187
G1 X121.628 Y81.915 E0.30017
G1 X122.776 Y100.705 E0.59027
G1 X111.771 Y101.378 E0.34572
G1 X110.581 Y81.924 E0.6111
G1 X109.947 Y80.026 E0.06275
G1 X108.72 Y78.502 E0.06135
G1 X107.088 Y77.503 E0.05999
G1 X105.003 Y77.102 E0.06659
G1 X103.002 Y77.468 E0.06378
G1 X101.319 Y78.467 E0.06135
G1 X100.1 Y79.942 E0.06
G1 X99.419 Y81.922 E0.06564
G1 X98.229 Y101.378 E0.61118
G1 X87.224 Y100.705 E0.34572
G1 X88.372 Y81.915 E0.59027
G1 X88.019 Y81.515 F10800
;TYPE:External perimeter
M73 P4 R26
G1 F1200
G1 X97.627 Y82.103 E0.3018
G1 X100.103 Y77.306 E0.16924
G1 X102.233 Y75.963 E0.07895
G1 X105.001 Y75.421 E0.08845
G1 X107.643 Y75.914 E0.08427
G1 X109.852 Y77.256 E0.08106
G1 X111.424 Y79.222 E0.07892
G1 X112.342 Y82.104 E0.09485
G1 X121.981 Y81.515 E0.30278
G1 X123.176 Y101.059 E0.61392
G1 X111.417 Y101.778 E0.36937
G1 X110.208 Y81.997 E0.62137
G1 X109.611 Y80.21 E0.05907
G1 X108.467 Y78.789 E0.05718
G1 X106.95 Y77.86 E0.05579
G1 X105.001 Y77.485 E0.06223
G1 X103.136 Y77.827 E0.05944
G1 X101.568 Y78.758 E0.05718
G1 X100.434 Y80.13 E0.05579
G1 X99.792 Y81.996 E0.06189
G1 X98.583 Y101.778 E0.6214
G1 X86.824 Y101.059 E0.36937
G1 X88.019 Y81.515 E0.61392
;WIPE_START
M204 S1000
G1 X88.353 Y81.736 F10800
;WIPE_END
M73 P5 R26
G1 Z0.275
; acceleration to travel
M204 S1500
G1 X95.226 Y82.237
; decel to extrusion
M204 S800
G1 X98.892 Y82.504
; end travel
G1 Z0.2
;TYPE:Solid infill
;WIDTH:0.421123
G1 F1200
G1 X98.685 Y82.297 E0.00922
G1 X98.503 Y82.649 E0.01244
G1 X98.708 Y82.854 E0.00913
G1 X98.678 Y83.356 E0.01583
G1 X98.322 Y83 E0.01583
G1 X98.233 Y83.171 E0.00604
G1 X97.941 Y83.153 E0.00921
G1 X98.647 Y83.859 E0.03139
G1 X98.616 Y84.362 E0.01583
G1 X97.373 Y83.118 E0.05527
G1 X96.805 Y83.084 E0.01789
G1 X98.585 Y84.864 E0.07916
G1 X98.555 Y85.367 E0.01583
G1 X96.237 Y83.049 E0.10305
G1 X95.669 Y83.014 E0.01789
G1 X98.524 Y85.869 E0.12693
G1 X98.493 Y86.372 E0.01583
G1 X95.101 Y82.979 E0.15082
G1 X94.533 Y82.945 E0.01789
G1 X98.463 Y86.874 E0.17471
G1 X98.432 Y87.377 E0.01583
G1 X93.965 Y82.91 E0.1986
G1 X93.397 Y82.875 E0.01789
G1 X98.401 Y87.879 E0.22248
G1 X98.37 Y88.382 E0.01583
G1 X92.829 Y82.841 E0.24637
G1 X92.261 Y82.806 E0.01789
G1 X98.34 Y88.884 E0.27026
G1 X98.309 Y89.387 E0.01583
G1 X91.693 Y82.771 E0.29415
G1 X91.125 Y82.736 E0.01789
G1 X98.278 Y89.89 E0.31803
G1 X98.247 Y90.392 E0.01583
G1 X90.557 Y82.702 E0.34192
G1 X89.989 Y82.667 E0.01789
G1 X98.217 Y90.895 E0.36581
G1 X98.186 Y91.397 E0.01583
G1 X89.421 Y82.632 E0.38969
G1 X88.984 Y82.605 E0.01377
G1 X88.977 Y82.721 E0.00364
G1 X98.155 Y91.9 E0.40808
G1 X98.125 Y92.402 E0.01583
G1 X88.946 Y83.224 E0.40808
G1 X88.915 Y83.726 E0.01583
G1 X98.094 Y92.905 E0.40808
G1 X98.063 Y93.407 E0.01583
G1 X88.885 Y84.229 E0.40808
G1 X88.854 Y84.731 E0.01583
G1 X98.032 Y93.91 E0.40808
G1 X98.002 Y94.412 E0.01583
G1 X88.823 Y85.234 E0.40808
G1 X88.792 Y85.736 E0.01583
G1 X97.971 Y94.915 E0.40808
G1 X97.94 Y95.418 E0.01583
G1 X88.762 Y86.239 E0.40808
G1 X88.731 Y86.741 E0.01583
G1 X97.91 Y95.92 E0.40808
G1 X97.879 Y96.423 E0.01583
G1 X88.7 Y87.244 E0.40808
G1 X88.669 Y87.747 E0.01583
G1 X97.848 Y96.925 E0.40808
G1 X97.817 Y97.428 E0.01583
G1 X88.639 Y88.249 E0.40808
G1 X88.608 Y88.752 E0.01583
G1 X97.787 Y97.93 E0.40808
G1 X97.756 Y98.433 E0.01583
G1 X88.577 Y89.254 E0.40808
G1 X88.547 Y89.757 E0.01583
G1 X97.725 Y98.935 E0.40808
G1 X97.694 Y99.438 E0.01583
M73 P6 R26
G1 X88.516 Y90.259 E0.40808
G1 X88.485 Y90.762 E0.01583
G1 X97.664 Y99.941 E0.40808
G1 X97.633 Y100.443 E0.01583
G1 X88.454 Y91.264 E0.40808
G1 X88.424 Y91.767 E0.01583
G1 X97.326 Y100.669 E0.39581
G1 X96.758 Y100.635 E0.01789
G1 X88.393 Y92.269 E0.37192
G1 X88.362 Y92.772 E0.01583
G1 X96.19 Y100.6 E0.34803
G1 X95.622 Y100.565 E0.01789
G1 X88.331 Y93.275 E0.32414
G1 X88.301 Y93.777 E0.01583
G1 X95.054 Y100.531 E0.30026
G1 X94.486 Y100.496 E0.01789
G1 X88.27 Y94.28 E0.27637
G1 X88.239 Y94.782 E0.01583
G1 X93.918 Y100.461 E0.25248
G1 X93.35 Y100.426 E0.01789
G1 X88.209 Y95.285 E0.2286
G1 X88.178 Y95.787 E0.01583
G1 X92.782 Y100.392 E0.20471
G1 X92.214 Y100.357 E0.01789
G1 X88.147 Y96.29 E0.18082
G1 X88.116 Y96.792 E0.01583
G1 X91.646 Y100.322 E0.15693
G1 X91.078 Y100.287 E0.01789
G1 X88.086 Y97.295 E0.13305
G1 X88.055 Y97.798 E0.01583
G1 X90.51 Y100.253 E0.10916
G1 X89.942 Y100.218 E0.01789
G1 X88.024 Y98.3 E0.08527
G1 X87.994 Y98.803 E0.01583
G1 X89.374 Y100.183 E0.06139
G1 X88.806 Y100.149 E0.01789
G1 X87.963 Y99.305 E0.0375
G1 X87.932 Y99.808 E0.01583
G1 X88.411 Y100.287 E0.0213
M204 S1000
G1 Z0.275 F10800
; acceleration to travel
M204 S1500
G1 X95.468 Y87.652
; decel to extrusion
M204 S800
G1 X99.232 Y80.914
; end travel
G1 Z0.2
;TYPE:Gap fill
;WIDTH:0.706606
G1 F1200
G1 X99.293 Y80.772 E0.00851
;WIDTH:0.660085
G1 X99.353 Y80.63 E0.00792
G1 X99.426 Y80.46 E0.00952
;WIDTH:0.626436
G1 X99.499 Y80.289 E0.009
;WIDTH:0.592787
G1 X99.572 Y80.119 E0.00848
;WIDTH:0.559138
G1 X99.645 Y79.948 E0.00796
;WIDTH:0.525488
G1 X99.718 Y79.777 E0.00745
G1 X99.759 Y79.701 E0.00347
G1 X99.819 Y79.611 E0.00433
;WIDTH:0.559248
G1 X99.878 Y79.521 E0.00463
;WIDTH:0.589991
G1 X99.937 Y79.431 E0.0049
;WIDTH:0.620734
G1 X99.997 Y79.341 E0.00518
G1 X100.076 Y79.221 E0.00694
;WIDTH:0.678514
G1 X100.156 Y79.1 E0.00763
M204 S1000
G1 Z0.275 F10800
; acceleration to travel
M204 S1500
G1 X113.391 Y81.303
; decel to extrusion
M204 S800
G1 X120.45 Y82.478
; end travel
G1 Z0.2
;TYPE:Solid infill
;WIDTH:0.432219
G1 F1200
G1 X121.045 Y83.073 E0.02715
G1 X121.08 Y83.641 E0.01836
G1 X120.1 Y82.661 E0.04468
G1 X119.598 Y82.692 E0.01625
G1 X121.114 Y84.209 E0.0692
G1 X121.149 Y84.777 E0.01836
G1 X119.095 Y82.723 E0.09372
G1 X118.593 Y82.754 E0.01625
G1 X121.184 Y85.345 E0.11823
G1 X121.218 Y85.913 E0.01836
G1 X118.09 Y82.784 E0.14275
G1 X117.588 Y82.815 E0.01625
G1 X121.253 Y86.481 E0.16727
G1 X121.288 Y87.049 E0.01836
G1 X117.085 Y82.846 E0.19178
G1 X116.583 Y82.877 E0.01625
G1 X121.323 Y87.617 E0.2163
G1 X121.357 Y88.185 E0.01836
G1 X116.08 Y82.907 E0.24082
G1 X115.577 Y82.938 E0.01625
G1 X121.392 Y88.753 E0.26533
G1 X121.427 Y89.321 E0.01836
G1 X115.075 Y82.969 E0.28985
G1 X114.572 Y82.999 E0.01625
G1 X121.462 Y89.889 E0.31437
G1 X121.496 Y90.457 E0.01836
G1 X114.07 Y83.03 E0.33888
G1 X113.567 Y83.061 E0.01625
G1 X121.531 Y91.025 E0.3634
G1 X121.566 Y91.593 E0.01836
G1 X113.065 Y83.092 E0.38792
G1 X112.562 Y83.122 E0.01625
G1 X121.6 Y92.161 E0.41243
G1 X121.635 Y92.729 E0.01836
G1 X112.06 Y83.153 E0.43695
G1 X111.605 Y83.181 E0.0147
G1 X111.379 Y82.473 E0.02398
G1 X111.261 Y82.355 E0.00539
G1 X111.296 Y82.923 E0.01836
G1 X121.67 Y93.297 E0.47338
G1 X121.705 Y93.865 E0.01836
M73 P7 R26
G1 X111.331 Y83.491 E0.47338
G1 X111.365 Y84.059 E0.01836
G1 X121.739 Y94.433 E0.47338
G1 X121.774 Y95.001 E0.01836
G1 X111.4 Y84.627 E0.47338
G1 X111.435 Y85.195 E0.01836
G1 X121.809 Y95.569 E0.47338
G1 X121.844 Y96.137 E0.01836
G1 X111.469 Y85.763 E0.47338
G1 X111.504 Y86.331 E0.01836
G1 X121.878 Y96.705 E0.47338
G1 X121.913 Y97.273 E0.01836
G1 X111.539 Y86.899 E0.47338
G1 X111.574 Y87.467 E0.01836
G1 X121.948 Y97.841 E0.47338
G1 X121.982 Y98.409 E0.01836
G1 X111.608 Y88.035 E0.47338
G1 X111.643 Y88.603 E0.01836
G1 X122.017 Y98.977 E0.47338
G1 X122.052 Y99.545 E0.01836
G1 X111.678 Y89.171 E0.47338
G1 X111.713 Y89.739 E0.01836
G1 X122.069 Y100.095 E0.47259
G1 X121.567 Y100.126 E0.01625
G1 X111.747 Y90.307 E0.44807
G1 X111.782 Y90.875 E0.01836
G1 X121.064 Y100.156 E0.42355
G1 X120.561 Y100.187 E0.01625
G1 X111.817 Y91.443 E0.39904
G1 X111.851 Y92.011 E0.01836
G1 X120.059 Y100.218 E0.37452
G1 X119.556 Y100.249 E0.01625
G1 X111.886 Y92.579 E0.35
G1 X111.921 Y93.147 E0.01836
G1 X119.054 Y100.279 E0.32549
G1 X118.551 Y100.31 E0.01625
G1 X111.956 Y93.714 E0.30097
G1 X111.99 Y94.282 E0.01836
G1 X118.049 Y100.341 E0.27645
G1 X117.546 Y100.372 E0.01625
G1 X112.025 Y94.85 E0.25194
G1 X112.06 Y95.418 E0.01836
G1 X117.044 Y100.402 E0.22742
G1 X116.541 Y100.433 E0.01625
G1 X112.095 Y95.986 E0.2029
G1 X112.129 Y96.554 E0.01836
G1 X116.039 Y100.464 E0.17839
G1 X115.536 Y100.494 E0.01625
G1 X112.164 Y97.122 E0.15387
G1 X112.199 Y97.69 E0.01836
G1 X115.033 Y100.525 E0.12935
G1 X114.531 Y100.556 E0.01625
G1 X112.233 Y98.258 E0.10484
G1 X112.268 Y98.826 E0.01836
G1 X114.028 Y100.587 E0.08032
G1 X113.526 Y100.617 E0.01625
G1 X112.303 Y99.394 E0.0558
G1 X112.338 Y99.962 E0.01836
G1 X113.023 Y100.648 E0.03129
G1 X112.521 Y100.679 E0.01625
G1 X112.199 Y100.357 E0.01467
M204 S1000
G1 Z0.275 F10800
; stop printing object ChopstickTrainerv2.stl id:0 copy 0
M486 S-1
; printing object ChopstickTrainerv2.stl id:0 copy 1
M486 S1
; acceleration to travel
M204 S1500
G1 X103.782 Y109.205
; decel to extrusion
M204 S800
G1 X99.293 Y113.923
; end travel
G1 Z0.2
;TYPE:Internal perimeter
;WIDTH:0.42
G1 F1200
M73 P8 R26
G1 X99.046 Y114.642 E0.02383
G1 X97.876 Y133.773 E0.60097
G1 X87.623 Y133.146 E0.32208
G1 X88.726 Y115.108 E0.56663
G1 X98.071 Y115.68 E0.29356
M73 P8 R25
G1 X99.035 Y113.813 E0.06587
G1 X99.293 Y113.923 E0.0088
M204 S1000
G1 Z0.275 F10800
; acceleration to travel
M204 S1500
G1 X107.335 Y114.709
; decel to extrusion
M204 S800
G1 X111.624 Y115.128
; end travel
G1 Z0.2
G1 F1200
G1 X111.802 Y115.687 E0.01842
G1 X121.274 Y115.108 E0.29755
G1 X122.377 Y133.146 E0.56663
G1 X112.124 Y133.773 E0.32208
G1 X110.955 Y114.646 E0.60083
G1 X110.283 Y112.637 E0.06643
G1 X108.973 Y111.009 E0.06553
G1 X107.227 Y109.94 E0.0642
G1 X105.004 Y109.512 E0.07096
G1 X102.867 Y109.903 E0.06812
G1 X101.071 Y110.971 E0.06553
G1 X100.365 Y111.825 E0.03473
G1 X100.139 Y111.675 E0.0085
G1 X100.679 Y110.629 E0.03692
G1 X102.516 Y109.47 E0.0681
G1 X105.004 Y108.983 E0.07951
G1 X107.369 Y109.424 E0.07542
G1 X109.347 Y110.626 E0.07256
G1 X110.748 Y112.378 E0.07036
G1 X111.624 Y115.128 E0.09047
G1 X111.983 Y115.013 F10800
G1 F1200
G1 X112.072 Y115.293 E0.00921
G1 X121.628 Y114.709 E0.30017
G1 X122.776 Y133.5 E0.59027
G1 X111.771 Y134.173 E0.34572
G1 X110.581 Y114.719 E0.6111
G1 X109.947 Y112.821 E0.06275
G1 X108.72 Y111.296 E0.06135
G1 X107.088 Y110.297 E0.05999
G1 X105.003 Y109.896 E0.06659
G1 X103.002 Y110.262 E0.06378
G1 X101.319 Y111.262 E0.06135
G1 X100.1 Y112.736 E0.06
G1 X99.419 Y114.716 E0.06564
G1 X98.229 Y134.173 E0.61118
G1 X87.224 Y133.5 E0.34572
G1 X88.372 Y114.709 E0.59027
G1 X97.849 Y115.288 E0.29768
G1 X100.391 Y110.365 E0.17373
G1 X102.374 Y109.114 E0.07352
G1 X105.003 Y108.599 E0.08398
G1 X107.506 Y109.066 E0.07984
G1 X109.599 Y110.338 E0.07681
G1 X111.086 Y112.197 E0.07464
G1 X111.983 Y115.013 E0.09266
G1 X112.342 Y114.899 F10800
;TYPE:External perimeter
G1 F1200
G1 X121.981 Y114.31 E0.30278
G1 X123.176 Y133.853 E0.61392
G1 X111.417 Y134.572 E0.36937
M73 P9 R25
G1 X110.208 Y114.791 E0.62137
G1 X109.611 Y113.004 E0.05907
G1 X108.467 Y111.584 E0.05718
G1 X106.95 Y110.654 E0.05579
G1 X105.001 Y110.28 E0.06223
G1 X103.136 Y110.621 E0.05944
G1 X101.568 Y111.553 E0.05718
G1 X100.434 Y112.924 E0.05579
G1 X99.792 Y114.79 E0.06189
G1 X98.583 Y134.572 E0.6214
G1 X86.824 Y133.853 E0.36937
G1 X88.019 Y114.31 E0.61392
G1 X97.627 Y114.897 E0.3018
G1 X100.103 Y110.101 E0.16924
G1 X102.233 Y108.757 E0.07895
G1 X105.001 Y108.215 E0.08845
G1 X107.643 Y108.708 E0.08427
G1 X109.852 Y110.051 E0.08106
G1 X111.424 Y112.016 E0.07892
G1 X112.342 Y114.899 E0.09485
;WIPE_START
M204 S1000
G1 X112.399 Y115.295 F10800
;WIPE_END
G1 Z0.275
; acceleration to travel
M204 S1500
G1 X117.65 Y115.28
; decel to extrusion
M204 S800
G1 X120.45 Y115.272
; end travel
G1 Z0.2
;TYPE:Solid infill
;WIDTH:0.432219
G1 F1200
G1 X121.045 Y115.867 E0.02715
G1 X121.08 Y116.435 E0.01836
G1 X120.1 Y115.456 E0.04468
G1 X119.598 Y115.487 E0.01625
G1 X121.114 Y117.003 E0.0692
G1 X121.149 Y117.571 E0.01836
G1 X119.095 Y115.517 E0.09372
G1 X118.593 Y115.548 E0.01625
G1 X121.184 Y118.139 E0.11823
G1 X121.218 Y118.707 E0.01836
G1 X118.09 Y115.579 E0.14275
G1 X117.588 Y115.609 E0.01625
G1 X121.253 Y119.275 E0.16727
G1 X121.288 Y119.843 E0.01836
G1 X117.085 Y115.64 E0.19178
G1 X116.583 Y115.671 E0.01625
G1 X121.323 Y120.411 E0.2163
G1 X121.357 Y120.979 E0.01836
