; generated by SuperSlicer 2.4 on 2023-07-10 at 16:53:31 UTC


;
;

;
;
; 

; external perimeters extrusion width = 0.40mm
; perimeters extrusion width = 0.40mm
; infill extrusion width = 0.50mm
; solid infill extrusion width = 0.50mm
; top infill extrusion width = 0.40mm
; first layer extrusion width = 0.42mm

; object:{"name":"cube","id":"cube.stl id:0 copy 0","object_center":[105.000000,105.000000,0.000000],"boundingbox_center":[105.000000,105.000000,13.617149],"boundingbox_size":[29.997192,29.997192,27.234299]}
; Total objects to print: 1
M486 T1
; plater:{"center":[105.000000,105.000000,0.000000],"boundingbox_center":[105.000000,105.000000,13.617149],"boundingbox_size":[29.997192,29.997192,27.234299]}

M73 P0 R18
;TYPE:Custom
G90 ; use absolute coordinates
M83 ; extruder relative mode
M204 S1250 T1250
M104 S215 ; set extruder temp
M140 S65 ; set bed temp
G28 ; home all
G29 ; AutoBed Leveling I think
G1 Y1.0 Z0.3 F1000 ; move print head up
M190 S65 ; wait for bed temp
M109 S215 ; wait for extruder temp
G92 E0.0
; initial load
G1 X205.0 E19 F1000
M73 P1 R17
G1 Y1.6
M73 P2 R17
G1 X5.0 E19 F1000
G92 E0.0
; intro line
G1 Y2.0 Z0.2 F1000
M73 P4 R17
G1 X65.0 E9.0 F1000
G1 X105.0 E12.5 F1000
G92 E0.0
M107
G21 ; set units to millimeters
G90 ; use absolute coordinates
M83 ; use relative distances for extrusion
; Filament gcode
;_TOOLCHANGE 0
M107
;LAYER_CHANGE
;Z:0.2
;HEIGHT:0.2
;BEFORE_LAYER_CHANGE
G92 E0.0
;0.2
G1 Z0.2 F10800
;AFTER_LAYER_CHANGE
;0.2
G1 E-6 F1800
G1 Z0.275 F10800
M204 S800
G1 X88.154 Y88.737
G1 Z0.2
G1 E6 F1800
;TYPE:Skirt
;WIDTH:0.52
G1 F1200
G1 X89.19 Y87.915 E0.05249
G1 X90.001 Y87.763 E0.03273
G1 X119.999 Y87.763 E1.18997
G1 X121.263 Y88.154 E0.05249
G1 X122.085 Y89.19 E0.05249
G1 X122.237 Y90.001 E0.03273
G1 X122.237 Y119.999 E1.18997
G1 X121.846 Y121.263 E0.05249
M73 P5 R17
G1 X120.81 Y122.085 E0.05249
G1 X119.999 Y122.237 E0.03273
G1 X90.001 Y122.237 E1.18997
G1 X88.737 Y121.846 E0.05249
G1 X87.915 Y120.81 E0.05249
G1 X87.763 Y119.999 E0.03273
G1 X87.763 Y90.001 E1.18997
G1 X88.154 Y88.737 E0.05249
G1 E-3.6 F1800
;WIPE_START
G1 F8640
M204 S1000
G1 X89.19 Y87.915 E-0.26188
G1 X90.001 Y87.763 E-0.16329
G1 X99.373 Y87.763 E-1.85483
;WIPE_END
G1 E-0.12 F1800
G1 Z0.275 F10800
; printing object cube.stl id:0 copy 0
M486 S0
; acceleration to travel
M204 S1500
G1 X91.703 Y89.813
; decel to extrusion
M204 S800
G1 X90.211 Y90.211
; end travel
G1 Z0.2
G1 E6 F1800
;TYPE:External perimeter
;WIDTH:0.42
G1 F1200
G1 X119.789 Y90.211 E0.92737
G1 X119.789 Y119.789 E0.92737
G1 X90.211 Y119.789 E0.92737
G1 X90.211 Y90.211 E0.92737
;WIPE_START
M204 S1000
G1 X90.558 Y90.411 F10800
;WIPE_END
G1 E-3.6 F1800
;WIPE_START
G1 F8640
G1 X102.078 Y90.411 E-2.28
;WIPE_END
G1 E-0.12 F1800
G1 Z0.275 F10800
; acceleration to travel
M204 S1500
G1 X92.237 Y114.622
; decel to extrusion
M204 S800
M73 P6 R17
G1 X90.325 Y119.329
; end travel
G1 Z0.2
G1 E6 F1800
;TYPE:Solid infill
;WIDTH:0.420379
G1 F1200
G1 X90.509 Y119.513 E0.00818
G1 X91.042 Y119.513 E0.01674
G1 X90.487 Y118.958 E0.02465
G1 X90.487 Y118.425 E0.01674
G1 X91.575 Y119.513 E0.04832
G1 X92.109 Y119.513 E0.01674
G1 X90.487 Y117.891 E0.07199
G1 X90.487 Y117.358 E0.01674
G1 X92.642 Y119.513 E0.09566
G1 X93.175 Y119.513 E0.01674
G1 X90.487 Y116.825 E0.11932
G1 X90.487 Y116.291 E0.01674
G1 X93.709 Y119.513 E0.14299
G1 X94.242 Y119.513 E0.01674
G1 X90.487 Y115.758 E0.16666
G1 X90.487 Y115.225 E0.01674
G1 X94.775 Y119.513 E0.19033
G1 X95.308 Y119.513 E0.01674
G1 X90.487 Y114.692 E0.21399
G1 X90.487 Y114.158 E0.01674
G1 X95.842 Y119.513 E0.23766
G1 X96.375 Y119.513 E0.01674
G1 X90.487 Y113.625 E0.26133
G1 X90.487 Y113.092 E0.01674
G1 X96.908 Y119.513 E0.285
G1 X97.441 Y119.513 E0.01674
G1 X90.487 Y112.559 E0.30866
G1 X90.487 Y112.025 E0.01674
G1 X97.975 Y119.513 E0.33233
G1 X98.508 Y119.513 E0.01674
G1 X90.487 Y111.492 E0.356
G1 X90.487 Y110.959 E0.01674
G1 X99.041 Y119.513 E0.37967
G1 X99.574 Y119.513 E0.01674
G1 X90.487 Y110.426 E0.40333
G1 X90.487 Y109.892 E0.01674
G1 X100.108 Y119.513 E0.427
G1 X100.641 Y119.513 E0.01674
G1 X90.487 Y109.359 E0.45067
G1 X90.487 Y108.826 E0.01674
G1 X101.174 Y119.513 E0.47434
G1 X101.708 Y119.513 E0.01674
G1 X90.487 Y108.292 E0.498
G1 X90.487 Y107.759 E0.01674
G1 X102.241 Y119.513 E0.52167
G1 X102.774 Y119.513 E0.01674
M73 P7 R17
G1 X90.487 Y107.226 E0.54534
G1 X90.487 Y106.693 E0.01674
G1 X103.307 Y119.513 E0.569
G1 X103.841 Y119.513 E0.01674
M73 P7 R16
G1 X90.487 Y106.159 E0.59267
G1 X90.487 Y105.626 E0.01674
G1 X104.374 Y119.513 E0.61634
G1 X104.907 Y119.513 E0.01674
G1 X90.487 Y105.093 E0.64001
G1 X90.487 Y104.56 E0.01674
G1 X105.44 Y119.513 E0.66367
G1 X105.974 Y119.513 E0.01674
G1 X90.487 Y104.026 E0.68734
G1 X90.487 Y103.493 E0.01674
G1 X106.507 Y119.513 E0.71101
G1 X107.04 Y119.513 E0.01674
G1 X90.487 Y102.96 E0.73468
G1 X90.487 Y102.426 E0.01674
G1 X107.574 Y119.513 E0.75834
G1 X108.107 Y119.513 E0.01674
G1 X90.487 Y101.893 E0.78201
G1 X90.487 Y101.36 E0.01674
M73 P8 R16
G1 X108.64 Y119.513 E0.80568
G1 X109.173 Y119.513 E0.01674
G1 X90.487 Y100.827 E0.82935
G1 X90.487 Y100.293 E0.01674
G1 X109.707 Y119.513 E0.85301
G1 X110.24 Y119.513 E0.01674
G1 X90.487 Y99.76 E0.87668
G1 X90.487 Y99.227 E0.01674
G1 X110.773 Y119.513 E0.90035
G1 X111.306 Y119.513 E0.01674
G1 X90.487 Y98.694 E0.92402
G1 X90.487 Y98.16 E0.01674
G1 X111.84 Y119.513 E0.94768
G1 X112.373 Y119.513 E0.01674
M73 P9 R16
G1 X90.487 Y97.627 E0.97135
G1 X90.487 Y97.094 E0.01674
G1 X112.906 Y119.513 E0.99502
G1 X113.44 Y119.513 E0.01674
G1 X90.487 Y96.56 E1.01869
G1 X90.487 Y96.027 E0.01674
G1 X113.973 Y119.513 E1.04235
G1 X114.506 Y119.513 E0.01674
G1 X90.487 Y95.494 E1.06602
G1 X90.487 Y94.961 E0.01674
G1 X115.039 Y119.513 E1.08969
G1 X115.573 Y119.513 E0.01674
G1 X90.487 Y94.427 E1.11336
G1 X90.487 Y93.894 E0.01674
M73 P10 R16
G1 X116.106 Y119.513 E1.13702
G1 X116.639 Y119.513 E0.01674
G1 X90.487 Y93.361 E1.16069
G1 X90.487 Y92.828 E0.01674
G1 X117.172 Y119.513 E1.18436
G1 X117.706 Y119.513 E0.01674
G1 X90.487 Y92.294 E1.20803
G1 X90.487 Y91.761 E0.01674
G1 X118.239 Y119.513 E1.23169
G1 X118.772 Y119.513 E0.01674
G1 X90.487 Y91.228 E1.25536
G1 X90.487 Y90.695 E0.01674
M73 P11 R16
G1 X119.305 Y119.513 E1.27903
G1 X119.513 Y119.513 E0.00652
G1 X119.513 Y119.188 E0.01021
G1 X90.812 Y90.487 E1.27381
G1 X91.345 Y90.487 E0.01674
G1 X119.513 Y118.655 E1.25014
G1 X119.513 Y118.121 E0.01674
G1 X91.879 Y90.487 E1.22648
G1 X92.412 Y90.487 E0.01674
G1 X119.513 Y117.588 E1.20281
G1 X119.513 Y117.055 E0.01674
M73 P12 R16
G1 X92.945 Y90.487 E1.17914
G1 X93.478 Y90.487 E0.01674
G1 X119.513 Y116.522 E1.15547
G1 X119.513 Y115.988 E0.01674
G1 X94.012 Y90.487 E1.13181
G1 X94.545 Y90.487 E0.01674
M73 P12 R15
G1 X119.513 Y115.455 E1.10814
G1 X119.513 Y114.922 E0.01674
G1 X95.078 Y90.487 E1.08447
G1 X95.611 Y90.487 E0.01674
G1 X119.513 Y114.389 E1.06081
G1 X119.513 Y113.855 E0.01674
M73 P13 R15
G1 X96.145 Y90.487 E1.03714
G1 X96.678 Y90.487 E0.01674
G1 X119.513 Y113.322 E1.01347
G1 X119.513 Y112.789 E0.01674
G1 X97.211 Y90.487 E0.9898
G1 X97.745 Y90.487 E0.01674
G1 X119.513 Y112.255 E0.96614
G1 X119.513 Y111.722 E0.01674
G1 X98.278 Y90.487 E0.94247
G1 X98.811 Y90.487 E0.01674
G1 X119.513 Y111.189 E0.9188
G1 X119.513 Y110.656 E0.01674
G1 X99.344 Y90.487 E0.89513
G1 X99.878 Y90.487 E0.01674
M73 P14 R15
G1 X119.513 Y110.122 E0.87147
G1 X119.513 Y109.589 E0.01674
G1 X100.411 Y90.487 E0.8478
G1 X100.944 Y90.487 E0.01674
G1 X119.513 Y109.056 E0.82413
G1 X119.513 Y108.523 E0.01674
G1 X101.477 Y90.487 E0.80046
G1 X102.011 Y90.487 E0.01674
G1 X119.513 Y107.989 E0.7768
G1 X119.513 Y107.456 E0.01674
G1 X102.544 Y90.487 E0.75313
G1 X103.077 Y90.487 E0.01674
G1 X119.513 Y106.923 E0.72946
G1 X119.513 Y106.389 E0.01674
G1 X103.611 Y90.487 E0.70579
G1 X104.144 Y90.487 E0.01674
M73 P15 R15
G1 X119.513 Y105.856 E0.68213
G1 X119.513 Y105.323 E0.01674
G1 X104.677 Y90.487 E0.65846
G1 X105.21 Y90.487 E0.01674
G1 X119.513 Y104.79 E0.63479
G1 X119.513 Y104.256 E0.01674
G1 X105.744 Y90.487 E0.61112
G1 X106.277 Y90.487 E0.01674
G1 X119.513 Y103.723 E0.58746
G1 X119.513 Y103.19 E0.01674
G1 X106.81 Y90.487 E0.56379
G1 X107.343 Y90.487 E0.01674
G1 X119.513 Y102.657 E0.54012
G1 X119.513 Y102.123 E0.01674
G1 X107.877 Y90.487 E0.51645
G1 X108.41 Y90.487 E0.01674
G1 X119.513 Y101.59 E0.49279
G1 X119.513 Y101.057 E0.01674
G1 X108.943 Y90.487 E0.46912
G1 X109.477 Y90.487 E0.01674
G1 X119.513 Y100.523 E0.44545
G1 X119.513 Y99.99 E0.01674
G1 X110.01 Y90.487 E0.42178
G1 X110.543 Y90.487 E0.01674
M73 P16 R15
G1 X119.513 Y99.457 E0.39812
G1 X119.513 Y98.924 E0.01674
G1 X111.076 Y90.487 E0.37445
G1 X111.61 Y90.487 E0.01674
G1 X119.513 Y98.39 E0.35078
G1 X119.513 Y97.857 E0.01674
G1 X112.143 Y90.487 E0.32711
G1 X112.676 Y90.487 E0.01674
G1 X119.513 Y97.324 E0.30345
G1 X119.513 Y96.791 E0.01674
G1 X113.209 Y90.487 E0.27978
G1 X113.743 Y90.487 E0.01674
G1 X119.513 Y96.257 E0.25611
G1 X119.513 Y95.724 E0.01674
G1 X114.276 Y90.487 E0.23245
G1 X114.809 Y90.487 E0.01674
G1 X119.513 Y95.191 E0.20878
G1 X119.513 Y94.658 E0.01674
G1 X115.342 Y90.487 E0.18511
G1 X115.876 Y90.487 E0.01674
G1 X119.513 Y94.124 E0.16144
G1 X119.513 Y93.591 E0.01674
G1 X116.409 Y90.487 E0.13778
G1 X116.942 Y90.487 E0.01674
G1 X119.513 Y93.058 E0.11411
G1 X119.513 Y92.524 E0.01674
G1 X117.476 Y90.487 E0.09044
G1 X118.009 Y90.487 E0.01674
G1 X119.513 Y91.991 E0.06677
G1 X119.513 Y91.458 E0.01674
G1 X118.542 Y90.487 E0.04311
G1 X119.075 Y90.487 E0.01674
G1 X119.675 Y91.087 E0.02663
M106 S84.15
;LAYER_CHANGE
;Z:0.5
;HEIGHT:0.3
;BEFORE_LAYER_CHANGE
G92 E0.0
;0.5
; stop printing object cube.stl id:0 copy 0
M486 S-1
M204 S1000
G1 Z0.5 F10800
;AFTER_LAYER_CHANGE
;0.5
M104 S210 ; set temperature
M140 S60 ; set bed temperature
G1 E-6 F1800
G1 Z0.575 F10800
; acceleration to travel
M204 S1500
G1 X121.203 Y91.087
; decel to extrusion
M204 S1000
G1 X122.237 Y91.087
; end travel
G1 Z0.5
G1 E6 F1800
;TYPE:Skirt
;WIDTH:0.52
G1 X122.237 Y119.999 E1.64298
G1 X121.846 Y121.263 E0.07519
G1 X120.81 Y122.085 E0.07519
G1 X119.999 Y122.237 E0.04688
G1 X90.001 Y122.237 E1.70466
G1 X88.737 Y121.846 E0.07519
G1 X87.915 Y120.81 E0.07519
G1 X87.763 Y119.999 E0.04688
G1 X87.763 Y90.001 E1.70466
G1 X88.154 Y88.737 E0.07519
G1 X89.19 Y87.915 E0.07519
G1 X90.001 Y87.763 E0.04688
G1 X119.999 Y87.763 E1.70466
G1 X121.263 Y88.154 E0.07519
M73 P17 R15
G1 X122.085 Y89.19 E0.07519
G1 X122.237 Y90.001 E0.04688
G1 X122.237 Y91.087 E0.06168
G1 E-3.6
;WIPE_START
G1 F8640
G1 X122.237 Y102.607 E-2.28
;WIPE_END
G1 E-0.12 F1800
G1 Z0.575 F10800
; printing object cube.stl id:0 copy 0
M486 S0
; acceleration to travel
M204 S1500
G1 X95.531 Y92.273
; decel to extrusion
M204 S800
G1 X90.201 Y90.211
; end travel
G1 Z0.5
G1 E6 F1800
;TYPE:External perimeter
;WIDTH:0.4
G1 F2100
G1 X90.201 Y90.201 E0.00042
G1 X119.799 Y90.201 E1.23895
G1 X119.799 Y119.799 E1.23895
G1 X90.201 Y119.799 E1.23895
G1 X90.201 Y90.211 E1.23853
;WIPE_START
M204 S1000
G1 X90.548 Y90.011 F10800
;WIPE_END
G1 X90.295 Y90.942
;TYPE:Solid infill
;WIDTH:0.500296
G1 F3000
G1 X90.755 Y90.482 E0.0354
G1 X91.371 Y90.482 E0.03349
G1 X90.482 Y91.371 E0.06836
G1 X90.482 Y91.987 E0.03349
G1 X91.987 Y90.482 E0.11572
G1 X92.603 Y90.482 E0.03349
G1 X90.482 Y92.603 E0.16309
G1 X90.482 Y93.219 E0.03349
G1 X93.219 Y90.482 E0.21045
G1 X93.835 Y90.482 E0.03349
G1 X90.482 Y93.835 E0.25782
G1 X90.482 Y94.451 E0.03349
G1 X94.451 Y90.482 E0.30518
G1 X95.067 Y90.482 E0.03349
G1 X90.482 Y95.067 E0.35255
G1 X90.482 Y95.683 E0.03349
G1 X95.683 Y90.482 E0.39991
G1 X96.299 Y90.482 E0.03349
G1 X90.482 Y96.299 E0.44728
G1 X90.482 Y96.916 E0.03349
G1 X96.916 Y90.482 E0.49464
G1 X97.532 Y90.482 E0.03349
G1 X90.482 Y97.532 E0.54201
G1 X90.482 Y98.148 E0.03349
G1 X98.148 Y90.482 E0.58937
G1 X98.764 Y90.482 E0.03349
G1 X90.482 Y98.764 E0.63674
G1 X90.482 Y99.38 E0.03349
G1 X99.38 Y90.482 E0.6841
G1 X99.996 Y90.482 E0.03349
G1 X90.482 Y99.996 E0.73147
G1 X90.482 Y100.612 E0.03349
G1 X100.612 Y90.482 E0.77883
G1 X101.228 Y90.482 E0.03349
G1 X90.482 Y101.228 E0.8262
G1 X90.482 Y101.844 E0.03349
G1 X101.844 Y90.482 E0.87356
G1 X102.46 Y90.482 E0.03349
G1 X90.482 Y102.46 E0.92093
G1 X90.482 Y103.076 E0.03349
G1 X103.076 Y90.482 E0.96829
G1 X103.692 Y90.482 E0.03349
G1 X90.482 Y103.692 E1.01566
G1 X90.482 Y104.308 E0.03349
G1 X104.308 Y90.482 E1.06302
G1 X104.924 Y90.482 E0.03349
M73 P18 R15
G1 X90.482 Y104.924 E1.11039
G1 X90.482 Y105.54 E0.03349
M73 P18 R14
G1 X105.54 Y90.482 E1.15775
G1 X106.156 Y90.482 E0.03349
G1 X90.482 Y106.156 E1.20512
G1 X90.482 Y106.772 E0.03349
G1 X106.772 Y90.482 E1.25248
G1 X107.389 Y90.482 E0.03349
G1 X90.482 Y107.389 E1.29985
G1 X90.482 Y108.005 E0.03349
G1 X108.005 Y90.482 E1.34721
G1 X108.621 Y90.482 E0.03349
G1 X90.482 Y108.621 E1.39457
G1 X90.482 Y109.237 E0.03349
G1 X109.237 Y90.482 E1.44194
G1 X109.853 Y90.482 E0.03349
G1 X90.482 Y109.853 E1.4893
G1 X90.482 Y110.469 E0.03349
G1 X110.469 Y90.482 E1.53667
G1 X111.085 Y90.482 E0.03349
G1 X90.482 Y111.085 E1.58403
G1 X90.482 Y111.701 E0.03349
G1 X111.701 Y90.482 E1.6314
G1 X112.317 Y90.482 E0.03349
G1 X90.482 Y112.317 E1.67876
G1 X90.482 Y112.933 E0.03349
G1 X112.933 Y90.482 E1.72613
G1 X113.549 Y90.482 E0.03349
G1 X90.482 Y113.549 E1.77349
G1 X90.482 Y114.165 E0.03349
G1 X114.165 Y90.482 E1.82086
G1 X114.781 Y90.482 E0.03349
G1 X90.482 Y114.781 E1.86822
G1 X90.482 Y115.397 E0.03349
G1 X115.397 Y90.482 E1.91559
G1 X116.013 Y90.482 E0.03349
M73 P19 R14
G1 X90.482 Y116.013 E1.96295
G1 X90.482 Y116.629 E0.03349
G1 X116.629 Y90.482 E2.01032
G1 X117.245 Y90.482 E0.03349
G1 X90.482 Y117.245 E2.05768
G1 X90.482 Y117.862 E0.03349
G1 X117.862 Y90.482 E2.10505
G1 X118.478 Y90.482 E0.03349
G1 X90.482 Y118.478 E2.15241
G1 X90.482 Y119.094 E0.03349
G1 X119.094 Y90.482 E2.19978
G1 X119.518 Y90.482 E0.02308
G1 X119.518 Y90.673 E0.01042
G1 X90.673 Y119.518 E2.21768
G1 X91.29 Y119.518 E0.03349
G1 X119.518 Y91.29 E2.17032
G1 X119.518 Y91.906 E0.03349
G1 X91.906 Y119.518 E2.12295
G1 X92.522 Y119.518 E0.03349
G1 X119.518 Y92.522 E2.07559
G1 X119.518 Y93.138 E0.03349
G1 X93.138 Y119.518 E2.02822
G1 X93.754 Y119.518 E0.03349
G1 X119.518 Y93.754 E1.98086
G1 X119.518 Y94.37 E0.03349
G1 X94.37 Y119.518 E1.93349
G1 X94.986 Y119.518 E0.03349
M73 P20 R14
G1 X119.518 Y94.986 E1.88613
G1 X119.518 Y95.602 E0.03349
G1 X95.602 Y119.518 E1.83876
G1 X96.218 Y119.518 E0.03349
G1 X119.518 Y96.218 E1.7914
G1 X119.518 Y96.834 E0.03349
G1 X96.834 Y119.518 E1.74403
G1 X97.45 Y119.518 E0.03349
G1 X119.518 Y97.45 E1.69667
G1 X119.518 Y98.066 E0.03349
G1 X98.066 Y119.518 E1.6493
G1 X98.682 Y119.518 E0.03349
G1 X119.518 Y98.682 E1.60194
G1 X119.518 Y99.298 E0.03349
G1 X99.298 Y119.518 E1.55457
G1 X99.914 Y119.518 E0.03349
G1 X119.518 Y99.914 E1.50721
G1 X119.518 Y100.53 E0.03349
G1 X100.53 Y119.518 E1.45985
G1 X101.146 Y119.518 E0.03349
G1 X119.518 Y101.146 E1.41248
G1 X119.518 Y101.763 E0.03349
G1 X101.763 Y119.518 E1.36512
G1 X102.379 Y119.518 E0.03349
G1 X119.518 Y102.379 E1.31775
G1 X119.518 Y102.995 E0.03349
G1 X102.995 Y119.518 E1.27039
G1 X103.611 Y119.518 E0.03349
G1 X119.518 Y103.611 E1.22302
G1 X119.518 Y104.227 E0.03349
G1 X104.227 Y119.518 E1.17566
G1 X104.843 Y119.518 E0.03349
G1 X119.518 Y104.843 E1.12829
G1 X119.518 Y105.459 E0.03349
G1 X105.459 Y119.518 E1.08093
G1 X106.075 Y119.518 E0.03349
G1 X119.518 Y106.075 E1.03356
M73 P21 R14
G1 X119.518 Y106.691 E0.03349
G1 X106.691 Y119.518 E0.9862
G1 X107.307 Y119.518 E0.03349
G1 X119.518 Y107.307 E0.93883
G1 X119.518 Y107.923 E0.03349
G1 X107.923 Y119.518 E0.89147
G1 X108.539 Y119.518 E0.03349
G1 X119.518 Y108.539 E0.8441
G1 X119.518 Y109.155 E0.03349
G1 X109.155 Y119.518 E0.79674
G1 X109.771 Y119.518 E0.03349
G1 X119.518 Y109.771 E0.74937
G1 X119.518 Y110.387 E0.03349
G1 X110.387 Y119.518 E0.70201
G1 X111.003 Y119.518 E0.03349
G1 X119.518 Y111.003 E0.65464
G1 X119.518 Y111.619 E0.03349
G1 X111.619 Y119.518 E0.60728
G1 X112.236 Y119.518 E0.03349
G1 X119.518 Y112.236 E0.55991
G1 X119.518 Y112.852 E0.03349
G1 X112.852 Y119.518 E0.51255
G1 X113.468 Y119.518 E0.03349
G1 X119.518 Y113.468 E0.46518
G1 X119.518 Y114.084 E0.03349
G1 X114.084 Y119.518 E0.41782
