; generated by PrusaSlicer 2.6.1+win64 on 2023-09-21 at 19:21:27 UTC


;
;
; 

; external perimeters extrusion width = 0.45mm
; perimeters extrusion width = 0.45mm
; infill extrusion width = 0.45mm
; solid infill extrusion width = 0.45mm
; top infill extrusion width = 0.40mm
; first layer extrusion width = 0.42mm

; external perimeters extrusion width = 0.45mm
; perimeters extrusion width = 0.45mm
; infill extrusion width = 0.45mm
; solid infill extrusion width = 0.45mm
; top infill extrusion width = 0.40mm
; first layer extrusion width = 0.42mm

; external perimeters extrusion width = 0.45mm
; perimeters extrusion width = 0.45mm
; infill extrusion width = 0.45mm
; solid infill extrusion width = 0.45mm
; top infill extrusion width = 0.40mm
; first layer extrusion width = 0.42mm

M73 P0 R74
M73 Q0 S75
M201 X1000 Y1000 Z200 E5000 ; sets maximum accelerations, mm/sec^2
M203 X200 Y200 Z12 E120 ; sets maximum feedrates, mm / sec
M204 S1250 T1250 ; sets acceleration (S) and retract acceleration (R), mm/sec^2
M205 X8.00 Y8.00 Z0.40 E4.50 ; sets the jerk limits, mm/sec
M205 S0 T0 ; sets the minimum extruding and travel feed rate, mm/sec
;TYPE:Custom
M862.3 P "MK3S" ; printer model check
M862.1 P0.4 ; nozzle diameter check
M115 U3.12.2 ; tell printer latest fw version
G90 ; use absolute coordinates
M83 ; extruder relative mode
M104 S215 ; set extruder temp
M140 S60 ; set bed temp
M190 S60 ; wait for bed temp
M109 S215 ; wait for extruder temp
G28 W ; home all without mesh bed level
G80 ; mesh bed leveling

G1 Z0.2 F720
G1 Y-3 F1000 ; go outside print area
G92 E0
G1 X60 E9 F1000 ; intro line
G1 X100 E12.5 F1000 ; intro line

G92 E0
M221 S95

; Don't change E values below. Excessive value can damage the printer.
M907 E430 ; set extruder motor current
G21 ; set units to millimeters
G90 ; use absolute coordinates
M83 ; use relative distances for extrusion
M900 K0.05 ; Filament gcode LA 1.5
M900 K30 ; Filament gcode LA 1.0
M107
;LAYER_CHANGE
;Z:0.2
;HEIGHT:0.2
;BEFORE_LAYER_CHANGE
G92 E0.0
;0.2


G1 E-.8 F2100
G1 Z.4 F720
;AFTER_LAYER_CHANGE
;0.2
G1 X80.835 Y78.224 F10800
G1 Z.2 F720
G1 E.8 F2100
M204 S800
;TYPE:Skirt/Brim
;WIDTH:0.42
G1 F1200
G1 X99.848 Y59.211 E.84307
G1 X100.847 Y58.355 E.04125
G1 X101.824 Y57.727 E.03642
G1 X102.586 Y57.351 E.02664
G1 X103.679 Y56.959 E.03641
G1 X104.813 Y56.712 E.03639
G1 X105.97 Y56.616 E.0364
G1 X125.138 Y56.611 E.601
G1 X145.089 Y57.671 E.62643
G1 X146.532 Y57.958 E.04613
G1 X147.624 Y58.351 E.03639
G1 X148.387 Y58.727 E.02667
G1 X149.363 Y59.354 E.03637
G1 X150.362 Y60.211 E.04127
G1 X169.375 Y79.224 E.84307
G1 X170.231 Y80.223 E.04125
G1 X170.704 Y80.93 E.02667
G1 X171.235 Y81.962 E.03639
G1 X171.708 Y83.355 E.04613
G1 X171.915 Y84.497 E.03639
G1 X171.975 Y85.447 E.02985
G1 X172.838 Y123.416 E1.1908
G1 X172.834 Y142.638 E.60269
M73 Q0 S74
G1 X172.737 Y143.795 E.0364
G1 X172.491 Y144.929 E.03638
G1 X172.099 Y146.021 E.03638
G1 X171.723 Y146.784 E.02667
G1 X171.095 Y147.76 E.03639
G1 X170.345 Y148.646 E.0364
G1 X169.486 Y149.427 E.0364
G1 X168.532 Y150.088 E.03639
G1 X167.5 Y150.62 E.0364
G1 X166.408 Y151.012 E.03638
G1 X165.056 Y151.291 E.04328
G1 X144.559 Y153.387 E.64602
G1 X104.554 Y153.387 E1.25433
G1 X103.336 Y153.305 E.03828
G1 X101.961 Y153.021 E.04402
G1 X100.643 Y152.536 E.04403
G1 X99.413 Y151.858 E.04404
G1 X98.298 Y151.005 E.04402
G1 X97.323 Y149.994 E.04404
G1 X79.919 Y129.839 E.83495
G1 X79.164 Y128.759 E.04132
G1 X78.531 Y127.505 E.04404
G1 X78.092 Y126.171 E.04403
G1 X77.833 Y124.51 E.05271
G1 X77.165 Y103.309 E.66507
G1 X78.296 Y83.497 E.6222
G1 X78.676 Y81.781 E.05511
G1 X78.975 Y80.962 E.02734
G1 X79.507 Y79.931 E.03638
G1 X80.168 Y78.977 E.03639
G1 X80.795 Y78.269 E.02965
M204 S1000
; printing object small_washer.stl id:1 copy 12
;WIPE_START
G1 F8640
G1 X83.245 Y75.819 E-.8
;WIPE_END
G1 Z.6 F720
G1 X111.023 Y62.6 F10800
G1 Z.2 F720
G1 E.8 F2100
M204 S800
;TYPE:Perimeter
;WIDTH:0.419999
G1 F1200
G1 X111.183 Y62.859 E.00955
G1 X111.41 Y63.328 E.01634
G1 X111.647 Y64.036 E.02341
G1 X111.789 Y64.769 E.02341
G1 X111.835 Y65.514 E.0234
G1 X111.787 Y66.234 E.02263
G1 X111.642 Y66.966 E.0234
G1 X111.402 Y67.674 E.02344
G1 X111.071 Y68.344 E.02343
G1 X110.656 Y68.965 E.02342
G1 X110.163 Y69.527 E.02344
G1 X109.602 Y70.019 E.0234
G1 X108.981 Y70.434 E.02342
G1 X108.311 Y70.765 E.02343
G1 X107.603 Y71.005 E.02344
G1 X106.871 Y71.151 E.0234
G1 X106.125 Y71.2 E.02344
G1 X105.38 Y71.151 E.02341
G1 X104.647 Y71.005 E.02343
G1 X103.939 Y70.765 E.02344
G1 X103.269 Y70.434 E.02343
G1 X102.648 Y70.019 E.02342
G1 X102.087 Y69.527 E.0234
G1 X101.594 Y68.965 E.02344
G1 X101.179 Y68.344 E.02342
G1 X100.849 Y67.674 E.02342
G1 X100.608 Y66.966 E.02345
G1 X100.463 Y66.234 E.0234
G1 X100.414 Y65.491 E.02335
G1 X100.473 Y64.691 E.02515
G1 X100.608 Y64.01 E.02177
G1 X100.849 Y63.303 E.02342
G1 X101.179 Y62.633 E.02342
G1 X101.594 Y62.011 E.02344
G1 X102.087 Y61.45 E.02342
G1 X102.648 Y60.957 E.02342
G1 X103.269 Y60.542 E.02342
G1 X103.939 Y60.212 E.02342
G1 X104.647 Y59.972 E.02344
G1 X105.35 Y59.832 E.02247
G1 X106.202 Y59.782 E.02676
G1 X106.897 Y59.831 E.02185
G1 X107.628 Y59.98 E.02339
G1 X108.506 Y60.31 E.02941
G1 X109.18 Y60.675 E.02403
G1 X109.622 Y60.975 E.01675
G1 X110.181 Y61.47 E.02341
G1 X110.695 Y62.069 E.02475
G1 X110.991 Y62.549 E.01768
M204 S1000
G1 X111.365 Y62.393 F10800
M204 S800
;TYPE:External perimeter
G1 F1200
G1 X111.521 Y62.692 E.01057
G1 X111.847 Y63.443 E.02567
G1 X112.017 Y63.963 E.01715
G1 X112.165 Y64.745 E.02495
G1 X112.211 Y65.539 E.02494
G1 X112.162 Y66.283 E.02338
G1 X112.007 Y67.064 E.02497
G1 X111.751 Y67.818 E.02497
G1 X111.398 Y68.533 E.025
G1 X110.956 Y69.195 E.02496
G1 X110.431 Y69.794 E.02497
G1 X109.832 Y70.319 E.02497
G1 X109.17 Y70.762 E.02498
G1 X108.455 Y71.114 E.02499
G1 X107.701 Y71.37 E.02497
G1 X106.92 Y71.525 E.02497
G1 X106.125 Y71.577 E.02498
G1 X105.33 Y71.525 E.02498
G1 X104.549 Y71.37 E.02497
G1 X103.795 Y71.114 E.02497
G1 X103.08 Y70.762 E.02499
G1 X102.418 Y70.319 E.02498
G1 X101.819 Y69.794 E.02497
G1 X101.294 Y69.195 E.02497
G1 X100.852 Y68.533 E.02496
G1 X100.499 Y67.818 E.025
G1 X100.243 Y67.064 E.02497
G1 X100.088 Y66.283 E.02497
G1 X100.036 Y65.489 E.02495
G1 X100.099 Y64.64 E.02669
G1 X100.243 Y63.912 E.02327
G1 X100.499 Y63.158 E.02497
G1 X100.852 Y62.444 E.02497
G1 X101.294 Y61.781 E.02498
G1 X101.819 Y61.183 E.02495
G1 X102.418 Y60.657 E.02499
G1 X103.08 Y60.215 E.02496
G1 X103.795 Y59.863 E.02499
G1 X104.549 Y59.607 E.02497
G1 X105.329 Y59.451 E.02494
G1 X106.179 Y59.403 E.02669
G1 X106.92 Y59.451 E.02328
G1 X107.701 Y59.607 E.02497
G1 X108.454 Y59.862 E.02493
G1 X109.215 Y60.245 E.02671
G1 X109.832 Y60.657 E.02326
G1 X110.431 Y61.183 E.02499
G1 X110.956 Y61.781 E.02495
G1 X111.331 Y62.343 E.02118
M204 S1000
G1 X111.201 Y62.688 F10800
;WIPE_START
G1 F8640
G1 X111.521 Y62.692 E-.09175
G1 X111.847 Y63.443 E-.18904
G1 X112.017 Y63.963 E-.12632
G1 X112.165 Y64.745 E-.18377
G1 X112.211 Y65.539 E-.18364
G1 X112.204 Y65.649 E-.02548
;WIPE_END
G1 Z.6 F720
G1 X102.248 Y68.496 F10800
G1 Z.2 F720
G1 E.8 F2100
M204 S800
;TYPE:Perimeter
G1 F1200
G1 X101.865 Y67.922 E.02164
G1 X101.465 Y67.039 E.03039
G1 X101.289 Y66.343 E.02251
G1 X101.22 Y65.606 E.02321
G1 X101.27 Y64.772 E.0262
G1 X101.495 Y63.85 E.02976
G1 X101.784 Y63.192 E.02253
G1 X102.221 Y62.509 E.02542
G1 X102.67 Y62.01 E.02105
G1 X103.145 Y61.601 E.01965
G1 X103.665 Y61.25 E.01967
G1 X104.11 Y61.01 E.01585
G1 X104.874 Y60.739 E.02542
G1 X105.495 Y60.628 E.01978
G1 X106.176 Y60.59 E.02139
G1 X106.751 Y60.627 E.01807
G1 X107.298 Y60.725 E.01742
G1 X108.047 Y60.969 E.0247
G1 X108.629 Y61.274 E.0206
G1 X109.105 Y61.601 E.01811
G1 X109.58 Y62.01 E.01965
G1 X109.972 Y62.435 E.01813
G1 X110.385 Y63.054 E.02333
G1 X110.785 Y63.938 E.03042
G1 X110.961 Y64.634 E.02251
G1 X111.036 Y65.442 E.02544
G1 X110.985 Y66.148 E.02219
G1 X110.855 Y66.762 E.01968
G1 X110.755 Y67.127 E.01187
G1 X110.495 Y67.719 E.02027
G1 X110.034 Y68.461 E.02739
G1 X109.58 Y68.967 E.02132
G1 X109.105 Y69.376 E.01965
G1 X108.585 Y69.726 E.01965
G1 X108.141 Y69.967 E.01584
G1 X107.376 Y70.237 E.02544
G1 X106.751 Y70.35 E.01991
G1 X106.125 Y70.386 E.01966
G1 X105.499 Y70.35 E.01966
G1 X104.952 Y70.252 E.01742
G1 X104.203 Y70.007 E.02471
G1 X103.665 Y69.726 E.01903
G1 X103.145 Y69.376 E.01965
G1 X102.67 Y68.967 E.01965
G1 X102.282 Y68.546 E.01795
M204 S1000
G1 X102.562 Y68.293 F10800
M204 S800
;TYPE:External perimeter
G1 F1200
G1 X102.18 Y67.716 E.0217
G1 X101.941 Y67.204 E.01772
G1 X101.76 Y66.669 E.01771
G1 X101.641 Y66.117 E.01771
G1 X101.596 Y65.572 E.01715
G1 X101.646 Y64.798 E.02432
G1 X101.76 Y64.308 E.01577
G1 X101.941 Y63.773 E.01771
G1 X102.18 Y63.26 E.01774
G1 X102.538 Y62.713 E.0205
G1 X102.947 Y62.265 E.01902
G1 X103.377 Y61.898 E.01773
G1 X103.845 Y61.582 E.01771
G1 X104.289 Y61.341 E.01584
G1 X104.997 Y61.096 E.02349
G1 X105.557 Y61 E.01781
G1 X106.176 Y60.967 E.01944
G1 X106.689 Y60.999 E.01612
G1 X107.255 Y61.108 E.01807
G1 X107.93 Y61.328 E.02226
G1 X108.45 Y61.606 E.01849
G1 X108.873 Y61.898 E.01612
G1 X109.303 Y62.265 E.01773
G1 X109.694 Y62.69 E.01811
G1 X110.07 Y63.26 E.02141
G1 X110.309 Y63.773 E.01774
G1 X110.49 Y64.308 E.01771
G1 X110.609 Y64.86 E.01771
G1 X110.66 Y65.476 E.01938
G1 X110.609 Y66.117 E.02016
G1 X110.49 Y66.669 E.01771
G1 X110.309 Y67.204 E.01771
G1 X110.055 Y67.721 E.01806
G1 X109.715 Y68.259 E.01995
G1 X109.303 Y68.712 E.0192
G1 X108.873 Y69.078 E.0177
G1 X108.405 Y69.395 E.01772
G1 X107.961 Y69.635 E.01582
G1 X107.253 Y69.881 E.0235
G1 X106.689 Y69.978 E.01794
G1 X106.125 Y70.009 E.01771
G1 X105.561 Y69.978 E.01771
G1 X104.995 Y69.869 E.01807
G1 X104.32 Y69.649 E.02226
G1 X103.845 Y69.395 E.01689
G1 X103.377 Y69.078 E.01772
G1 X102.947 Y68.712 E.0177
G1 X102.603 Y68.338 E.01593
M204 S1000
G1 X102.166 Y68.347 F10800
;WIPE_START
G1 F8640
G1 X102.18 Y67.716 E-.17369
G1 X101.941 Y67.204 E-.13047
G1 X101.76 Y66.669 E-.13041
G1 X101.641 Y66.117 E-.13039
G1 X101.596 Y65.572 E-.12627
G1 X101.626 Y65.102 E-.10877
;WIPE_END
G1 Z.6 F720
G1 X110.878 Y62.65 F10800
G1 Z.2 F720
G1 E.8 F2100
M204 S800
;TYPE:Solid infill
;WIDTH:0.426373
G1 F1200
G1 X109.89 Y61.662 E.04455
G1 X109.395 Y61.227 E.02101
G1 X108.853 Y60.865 E.02078
G1 X108.246 Y60.56 E.02166
G1 X108.531 Y60.845 E.01285
G1 X109.004 Y61.095 E.01706
G1 X109.669 Y61.612 E.02686
G1 X110.288 Y62.286 E.02918
G1 X110.803 Y63.116 E.03114
G1 X111.342 Y63.656 E.02433
M204 S1000
G1 X110.882 Y63.738 F10800
M204 S800
G1 F1200
G1 X111.331 Y64.187 E.02025
G1 X111.45 Y64.787 E.0195
G1 X111.455 Y64.853 E.00211
G1 X111.312 Y64.71 E.00645
G1 X111.365 Y65.305 E.01905
G1 X111.493 Y65.433 E.00577
G1 X111.466 Y65.949 E.01647
G1 X111.344 Y65.827 E.0055
G1 X111.305 Y66.33 E.01609
G1 X111.403 Y66.428 E.00442
G1 X111.313 Y66.88 E.01469
G1 X111.202 Y66.769 E.00501
G1 X111.09 Y67.2 E.0142
G1 X111.175 Y67.285 E.00383
G1 X111.087 Y67.544 E.00872
G1 X111.023 Y67.675 E.00465
G1 X110.926 Y67.578 E.00437
G1 X110.754 Y67.948 E.01301
G1 X110.844 Y68.038 E.00406
G1 X110.641 Y68.377 E.0126
G1 X110.542 Y68.278 E.00446
G1 X110.329 Y68.608 E.01252
G1 X110.424 Y68.702 E.00426
G1 X110.394 Y68.747 E.00172
G1 X110.176 Y68.997 E.01058
G1 X110.09 Y68.911 E.00388
G1 X109.827 Y69.19 E.01223
G1 X109.923 Y69.286 E.00433
G1 X109.634 Y69.54 E.01227
G1 X109.552 Y69.458 E.0037
G1 X109.246 Y69.694 E.01232
G1 X109.339 Y69.787 E.00419
G1 X109.014 Y70.004 E.01246
G1 X108.931 Y69.921 E.00374
G1 X108.581 Y70.113 E.01273
G1 X108.675 Y70.207 E.00424
G1 X108.311 Y70.386 E.01293
G1 X108.221 Y70.296 E.00406
G1 X107.818 Y70.435 E.01359
G1 X107.921 Y70.538 E.00464
G1 X107.517 Y70.676 E.01361
G1 X107.416 Y70.575 E.00455
G1 X106.956 Y70.657 E.0149
G1 X107.064 Y70.766 E.00489
G1 X106.826 Y70.813 E.00774
G1 X106.585 Y70.829 E.0077
G1 X106.48 Y70.723 E.00476
G1 X105.932 Y70.718 E.01747
G1 X106.07 Y70.856 E.00622
G1 X105.489 Y70.818 E.01856
G1 X105.338 Y70.667 E.00681
G1 X104.945 Y70.601 E.01271
G1 X104.629 Y70.5 E.01058
G1 X105.039 Y70.91 E.01849
M204 S1000
;WIPE_START
G1 F8640
G1 X104.629 Y70.5 E-.13388
G1 X104.945 Y70.601 E-.0766
G1 X105.338 Y70.667 E-.09202
G1 X105.489 Y70.818 E-.04931
G1 X106.07 Y70.856 E-.13444
G1 X105.932 Y70.718 E-.04506
G1 X106.48 Y70.723 E-.12654
G1 X106.585 Y70.829 E-.03445
G1 X106.826 Y70.813 E-.05577
G1 X107.047 Y70.769 E-.05193
;WIPE_END
G1 Z.6 F720
G1 X107.883 Y60.739 F10800
G1 Z.2 F720
G1 E.8 F2100
M204 S800
G1 F1200
G1 X107.427 Y60.283 E.02056
G1 X106.826 Y60.163 E.01954
G1 X106.761 Y60.159 E.00208
G1 X106.912 Y60.31 E.00681
G1 X106.622 Y60.261 E.00938
G1 X106.317 Y60.258 E.00973
G1 X106.181 Y60.122 E.00613
G1 X105.667 Y60.15 E.01641
G1 X105.768 Y60.251 E.00455
G1 X105.297 Y60.322 E.01519
G1 X105.186 Y60.211 E.00501
G1 X104.735 Y60.3 E.01466
G1 X104.834 Y60.401 E.00451
G1 X104.432 Y60.541 E.01357
G1 X104.329 Y60.438 E.00464
G1 X103.939 Y60.591 E.01336
G1 X104.029 Y60.681 E.00406
G1 X103.671 Y60.865 E.01283
G1 X103.576 Y60.77 E.00428
G1 X103.439 Y60.837 E.00486
G1 X103.236 Y60.973 E.00779
G1 X103.323 Y61.059 E.0039
G1 X103.201 Y61.128 E.00447
G1 X103.003 Y61.282 E.008
G1 X102.911 Y61.19 E.00415
G1 X102.855 Y61.227 E.00214
G1 X102.616 Y61.437 E.01014
G1 X102.699 Y61.52 E.00374
G1 X102.581 Y61.611 E.00475
G1 X102.421 Y61.784 E.00751
G1 X102.327 Y61.69 E.00424
G1 X102.076 Y61.981 E.01225
G1 X102.159 Y62.065 E.00377
G1 X102.021 Y62.214 E.00648
G1 X101.919 Y62.367 E.00586
G1 X101.827 Y62.274 E.00417
G1 X101.609 Y62.599 E.01248
G1 X101.704 Y62.694 E.00428
G1 X101.489 Y63.021 E.01248
G1 X101.406 Y62.939 E.00372
G1 X101.227 Y63.302 E.0129
G1 X101.324 Y63.399 E.00437
G1 X101.16 Y63.777 E.01314
G1 X101.075 Y63.692 E.00383
G1 X100.937 Y64.097 E.01364
G1 X101.048 Y64.208 E.00501
G1 X100.945 Y64.646 E.01435
G1 X100.847 Y64.549 E.0044
G1 X100.81 Y64.737 E.00611
G1 X100.788 Y65.032 E.00943
G1 X100.912 Y65.155 E.00557
G1 X100.885 Y65.671 E.01647
G1 X100.758 Y65.544 E.00573
G1 X100.796 Y66.124 E.01853
G1 X100.938 Y66.267 E.00643
G1 X100.948 Y66.376 E.00349
G1 X101.097 Y66.968 E.01946
G1 X100.919 Y66.79 E.00803
G1 X100.937 Y66.878 E.00286
G1 X101.194 Y67.607 E.02465
G1 X101.447 Y67.86 E.01141
G1 X101.962 Y68.691 E.03117
G1 X102.581 Y69.365 E.02918
G1 X103.246 Y69.882 E.02686
G1 X103.719 Y70.132 E.01706
G1 X104.006 Y70.419 E.01294
G1 X103.439 Y70.14 E.02015
G1 X102.855 Y69.749 E.02241
G1 X102.359 Y69.314 E.02103
G1 X101.372 Y68.327 E.0445
M204 S1000
; stop printing object small_washer.stl id:1 copy 12
; printing object small_washer.stl id:1 copy 2
;WIPE_START
G1 F8640
G1 X102.359 Y69.314 E-.3223
G1 X102.855 Y69.749 E-.15233
G1 X103.439 Y70.14 E-.16228
G1 X104.006 Y70.419 E-.14591
G1 X103.953 Y70.366 E-.01718
;WIPE_END
G1 Z.6 F720
G1 X111.023 Y81.613 F10800
G1 Z.2 F720
G1 E.8 F2100
M204 S800
;TYPE:Perimeter
;WIDTH:0.419999
G1 F1200
G1 X111.183 Y81.871 E.00952
G1 X111.41 Y82.341 E.01637
G1 X111.647 Y83.049 E.02341
G1 X111.789 Y83.782 E.02341
G1 X111.835 Y84.527 E.0234
G1 X111.787 Y85.247 E.02263
G1 X111.642 Y85.979 E.0234
G1 X111.402 Y86.687 E.02344
G1 X111.071 Y87.357 E.02343
G1 X110.656 Y87.978 E.02342
G1 X110.164 Y88.54 E.02342
G1 X109.602 Y89.032 E.02342
G1 X108.981 Y89.447 E.02342
G1 X108.311 Y89.778 E.02343
G1 X107.603 Y90.018 E.02344
G1 X106.871 Y90.164 E.0234
G1 X106.125 Y90.212 E.02344
G1 X105.38 Y90.164 E.02341
G1 X104.647 Y90.018 E.02343
G1 X103.939 Y89.778 E.02344
G1 X103.269 Y89.447 E.02343
G1 X102.648 Y89.032 E.02342
G1 X102.087 Y88.54 E.0234
G1 X101.594 Y87.978 E.02344
G1 X101.179 Y87.357 E.02342
G1 X100.849 Y86.687 E.02342
G1 X100.608 Y85.979 E.02345
G1 X100.463 Y85.247 E.0234
G1 X100.414 Y84.504 E.02335
G1 X100.473 Y83.704 E.02515
G1 X100.608 Y83.023 E.02177
G1 X100.849 Y82.316 E.02342
G1 X101.179 Y81.646 E.02342
G1 X101.594 Y81.024 E.02344
G1 X102.087 Y80.463 E.02342
G1 X102.648 Y79.97 E.02342
G1 X103.269 Y79.555 E.02342
G1 X103.939 Y79.225 E.02342
G1 X104.647 Y78.985 E.02344
G1 X105.35 Y78.845 E.02247
G1 X106.202 Y78.795 E.02676
G1 X106.897 Y78.844 E.02185
G1 X107.628 Y78.993 E.02339
G1 X108.506 Y79.323 E.02941
G1 X109.18 Y79.688 E.02403
G1 X109.622 Y79.988 E.01675
G1 X110.181 Y80.483 E.02341
G1 X110.695 Y81.082 E.02475
G1 X110.991 Y81.562 E.01768
