; generated by PrusaSlicer 2.6.0+win64 on 2023-08-07 at 18:51:21 UTC


;
;
; 

; external perimeters extrusion width = 0.60mm
; perimeters extrusion width = 0.50mm
; infill extrusion width = 0.50mm
; solid infill extrusion width = 0.50mm
; top infill extrusion width = 0.45mm
; first layer extrusion width = 0.42mm

M73 P0 R294
M73 Q0 S296
M201 X1000 Y1000 Z200 E5000 ; sets maximum accelerations, mm/sec^2
M203 X200 Y200 Z12 E120 ; sets maximum feedrates, mm / sec
M204 S1250 T1250 ; sets acceleration (S) and retract acceleration (R), mm/sec^2
M205 X8.00 Y8.00 Z0.40 E4.50 ; sets the jerk limits, mm/sec
M205 S0 T0 ; sets the minimum extruding and travel feed rate, mm/sec
;TYPE:Custom
M862.3 P "MK3S" ; printer model check
M862.1 P0.4 ; nozzle diameter check
M115 U3.12.2 ; tell printer latest fw version
G90 ; use absolute coordinates
M83 ; extruder relative mode
M104 S215 ; set extruder temp
M140 S60 ; set bed temp
M190 S60 ; wait for bed temp
M109 S215 ; wait for extruder temp
G28 W ; home all without mesh bed level
G80 ; mesh bed leveling

G1 Z0.2 F720
G1 Y-3 F1000 ; go outside print area
G92 E0
G1 X60 E9 F1000 ; intro line
G1 X100 E12.5 F1000 ; intro line

G92 E0
M221 S95

; Don't change E values below. Excessive value can damage the printer.

M907 E538 ; set extruder motor current
G21 ; set units to millimeters
G90 ; use absolute coordinates
M83 ; use relative distances for extrusion
M900 K0.05 ; Filament gcode LA 1.5
M900 K30 ; Filament gcode LA 1.0
M107
;LAYER_CHANGE
;Z:0.2
;HEIGHT:0.2
;BEFORE_LAYER_CHANGE
G92 E0.0
;0.2


G1 E-.8 F2100
G1 Z.4 F720
;AFTER_LAYER_CHANGE
;0.2
G1 X95.071 Y40.017 F10800
G1 Z.2 F720
G1 E.8 F2100
M204 S800
;TYPE:Skirt/Brim
;WIDTH:0.42
G1 F1200
G1 X95.516 Y39.165 E.03014
G1 X96.403 Y38.282 E.03924
G1 X97.242 Y37.846 E.02965
G1 X97.841 Y37.686 E.01944
G1 X98.467 Y37.624 E.01972
G1 X151.835 Y37.643 E1.67332
G1 X153.06 Y37.971 E.03976
G1 X153.597 Y38.282 E.01946
G1 X154.295 Y38.919 E.02963
G1 X154.929 Y40.017 E.03975
G1 X155.089 Y40.616 E.01944
G1 X155.151 Y41.24 E.01966
G1 X155.152 Y168.75 E3.99799
G1 X155.089 Y169.384 E.01998
G1 X154.929 Y169.983 E.01944
G1 X154.493 Y170.822 E.02965
G1 X153.597 Y171.718 E.03973
G1 X152.758 Y172.154 E.02965
G1 X152.159 Y172.314 E.01944
G1 X151.525 Y172.377 E.01998
G1 X98.475 Y172.377 E1.66335
G1 X97.841 Y172.314 E.01998
G1 X97.242 Y172.154 E.01944
G1 X96.403 Y171.718 E.02965
G1 X95.507 Y170.822 E.03973
G1 X95.071 Y169.983 E.02965
G1 X94.911 Y169.384 E.01944
G1 X94.849 Y168.755 E.01982
G1 X94.848 Y41.25 E3.99783
G1 X94.911 Y40.616 E.01998
G1 X95.056 Y40.075 E.01756
M204 S1000
; printing object Deej Raiser.stl id:0 copy 0
;WIPE_START
G1 F8640
G1 X95.516 Y39.165 E-.23544
G1 X96.403 Y38.282 E-.28899
G1 X97.242 Y37.846 E-.21832
G1 X97.482 Y37.782 E-.05725
;WIPE_END
G1 Z.6 F720
G1 X151.92 Y168.978 F10800
G1 Z.2 F720
G1 E.8 F2100
M204 S800
;TYPE:Perimeter
;WIDTH:0.419999
G1 F1200
G1 X151.753 Y169.145 E.00741
G1 X151.473 Y169.213 E.00903
G1 X98.563 Y169.213 E1.65895
G1 X98.247 Y169.145 E.01013
M73 P0 R293
G1 X98.08 Y168.978 E.00741
G1 X98.012 Y168.698 E.00903
G1 X98.012 Y41.338 E3.99328
G1 X98.08 Y41.022 E.01013
G1 X98.247 Y40.855 E.00741
G1 X98.527 Y40.787 E.00903
G1 X151.437 Y40.787 E1.65895
G1 X151.753 Y40.855 E.01013
G1 X151.92 Y41.022 E.00741
G1 X151.988 Y41.338 E.01013
G1 X151.988 Y168.662 E3.99215
G1 X151.933 Y168.919 E.00824
M204 S1000
G1 X152.291 Y169.067 F10800
M204 S800
;TYPE:External perimeter
G1 F1200
G1 X152.116 Y169.341 E.01019
G1 X151.842 Y169.516 E.01019
G1 X151.498 Y169.59 E.01103
G1 X98.502 Y169.59 E1.66165
G1 X98.158 Y169.516 E.01103
G1 X97.884 Y169.341 E.01019
G1 X97.709 Y169.067 E.01019
G1 X97.635 Y168.723 E.01103
G1 X97.635 Y41.277 E3.99597
G1 X97.709 Y40.933 E.01103
M73 Q0 S295
G1 X97.884 Y40.659 E.01019
G1 X98.158 Y40.484 E.01019
G1 X98.502 Y40.41 E.01103
G1 X151.437 Y40.41 E1.65974
G1 X151.633 Y40.428 E.00617
G1 X151.943 Y40.526 E.01019
G1 X152.183 Y40.745 E.01019
G1 X152.333 Y41.034 E.01021
G1 X152.365 Y41.338 E.00958
G1 X152.365 Y168.723 E3.99406
G1 X152.304 Y169.009 E.00917
M204 S1000
G1 X151.97 Y169.114 F10800
;WIPE_START
G1 F8640
G1 X152.116 Y169.341 E-.0881
G1 X151.842 Y169.516 E-.07507
G1 X151.498 Y169.59 E-.08125
G1 X149.092 Y169.59 E-.55558
;WIPE_END
G1 Z.6 F720
G1 X150.863 Y40.957 F10800
G1 Z.2 F720
G1 E.8 F2100
M204 S800
;TYPE:Solid infill
;WIDTH:0.420178
G1 F1200
G1 X151.649 Y41.743 E.03487
G1 X151.649 Y42.276 E.01672
G1 X150.499 Y41.126 E.05102
G1 X149.965 Y41.126 E.01675
G1 X151.649 Y42.81 E.07471
G1 X151.649 Y43.343 E.01672
G1 X149.432 Y41.126 E.09835
G1 X148.898 Y41.126 E.01675
G1 X151.649 Y43.877 E.12204
G1 X151.649 Y44.41 E.01672
G1 X148.365 Y41.126 E.14569
G1 X147.831 Y41.126 E.01675
G1 X151.649 Y44.944 E.16938
G1 X151.649 Y45.477 E.01672
G1 X147.298 Y41.126 E.19302
G1 X146.764 Y41.126 E.01675
G1 X151.649 Y46.011 E.21671
G1 X151.649 Y46.544 E.01672
G1 X146.231 Y41.126 E.24036
G1 X145.697 Y41.126 E.01675
G1 X151.649 Y47.078 E.26405
G1 X151.649 Y47.611 E.01672
G1 X145.164 Y41.126 E.28769
G1 X144.63 Y41.126 E.01675
G1 X151.649 Y48.145 E.31138
G1 X151.649 Y48.678 E.01672
G1 X144.097 Y41.126 E.33503
G1 X143.563 Y41.126 E.01675
G1 X151.649 Y49.212 E.35872
G1 X151.649 Y49.745 E.01672
G1 X143.03 Y41.126 E.38236
G1 X142.496 Y41.126 E.01675
G1 X151.649 Y50.279 E.40605
G1 X151.649 Y50.812 E.01672
G1 X141.963 Y41.126 E.4297
G1 X141.429 Y41.126 E.01675
G1 X151.649 Y51.346 E.45339
G1 X151.649 Y51.88 E.01675
G1 X140.895 Y41.126 E.47708
G1 X140.362 Y41.126 E.01672
G1 X151.649 Y52.413 E.50072
G1 X151.649 Y52.947 E.01675
G1 X139.828 Y41.126 E.52441
G1 X139.295 Y41.126 E.01672
G1 X151.649 Y53.48 E.54806
G1 X151.649 Y54.014 E.01675
G1 X138.761 Y41.126 E.57175
G1 X138.228 Y41.126 E.01672
G1 X151.649 Y54.547 E.59539
G1 X151.649 Y55.081 E.01675
G1 X137.694 Y41.126 E.61908
G1 X137.161 Y41.126 E.01672
G1 X151.649 Y55.614 E.64273
G1 X151.649 Y56.148 E.01675
G1 X136.627 Y41.126 E.66642
G1 X136.094 Y41.126 E.01672
G1 X151.649 Y56.681 E.69006
G1 X151.649 Y57.215 E.01675
G1 X135.56 Y41.126 E.71375
G1 X135.027 Y41.126 E.01672
G1 X151.649 Y57.748 E.7374
G1 X151.649 Y58.282 E.01675
G1 X134.493 Y41.126 E.76109
G1 X133.96 Y41.126 E.01672
G1 X151.649 Y58.815 E.78473
G1 X151.649 Y59.349 E.01675
G1 X133.426 Y41.126 E.80842
G1 X132.893 Y41.126 E.01672
M73 P0 R292
G1 X151.649 Y59.882 E.83207
G1 X151.649 Y60.416 E.01675
G1 X132.359 Y41.126 E.85576
G1 X131.826 Y41.126 E.01672
G1 X151.649 Y60.949 E.8794
G1 X151.649 Y61.483 E.01675
G1 X131.292 Y41.126 E.90309
G1 X130.759 Y41.126 E.01672
G1 X151.649 Y62.016 E.92674
G1 X151.649 Y62.55 E.01675
G1 X130.225 Y41.126 E.95043
G1 X129.691 Y41.126 E.01675
G1 X151.649 Y63.084 E.97412
G1 X151.649 Y63.617 E.01672
G1 X129.158 Y41.126 E.99776
G1 X128.624 Y41.126 E.01675
G1 X151.649 Y64.151 E1.02145
G1 X151.649 Y64.684 E.01672
G1 X128.091 Y41.126 E1.0451
G1 X127.557 Y41.126 E.01675
G1 X151.649 Y65.218 E1.06879
G1 X151.649 Y65.751 E.01672
G1 X127.024 Y41.126 E1.09243
G1 X126.49 Y41.126 E.01675
G1 X151.649 Y66.285 E1.11612
G1 X151.649 Y66.818 E.01672
G1 X125.957 Y41.126 E1.13977
G1 X125.423 Y41.126 E.01675
M73 Q0 S294
G1 X151.649 Y67.352 E1.16345
G1 X151.649 Y67.885 E.01672
G1 X124.89 Y41.126 E1.1871
G1 X124.356 Y41.126 E.01675
G1 X151.649 Y68.419 E1.21079
G1 X151.649 Y68.952 E.01672
G1 X123.823 Y41.126 E1.23444
G1 X123.289 Y41.126 E.01675
G1 X151.649 Y69.486 E1.25812
G1 X151.649 Y70.019 E.01672
G1 X122.756 Y41.126 E1.28177
G1 X122.222 Y41.126 E.01675
G1 X151.649 Y70.553 E1.30546
G1 X151.649 Y71.086 E.01672
G1 X121.689 Y41.126 E1.32911
G1 X121.155 Y41.126 E.01675
G1 X151.649 Y71.62 E1.35279
G1 X151.649 Y72.153 E.01672
G1 X120.622 Y41.126 E1.37644
G1 X120.088 Y41.126 E.01675
G1 X151.649 Y72.687 E1.40013
G1 X151.649 Y73.22 E.01672
G1 X119.555 Y41.126 E1.42377
G1 X119.021 Y41.126 E.01675
G1 X151.649 Y73.754 E1.44746
G1 X151.649 Y74.288 E.01675
G1 X118.488 Y41.126 E1.47113
G1 X117.954 Y41.126 E.01675
G1 X151.649 Y74.821 E1.4948
G1 X151.649 Y75.355 E.01675
G1 X117.42 Y41.126 E1.51849
G1 X116.887 Y41.126 E.01672
G1 X151.649 Y75.888 E1.54213
G1 X151.649 Y76.422 E.01675
M73 P0 R291
G1 X116.353 Y41.126 E1.56582
G1 X115.82 Y41.126 E.01672
G1 X151.649 Y76.955 E1.58947
G1 X151.649 Y77.489 E.01675
G1 X115.286 Y41.126 E1.61316
G1 X114.753 Y41.126 E.01672
G1 X151.649 Y78.022 E1.6368
G1 X151.649 Y78.556 E.01675
G1 X114.219 Y41.126 E1.66049
G1 X113.686 Y41.126 E.01672
G1 X151.649 Y79.089 E1.68414
G1 X151.649 Y79.623 E.01675
G1 X113.152 Y41.126 E1.70783
G1 X112.619 Y41.126 E.01672
G1 X151.649 Y80.156 E1.73147
G1 X151.649 Y80.69 E.01675
G1 X112.085 Y41.126 E1.75516
G1 X111.552 Y41.126 E.01672
M73 Q0 S293
G1 X151.649 Y81.223 E1.77881
G1 X151.649 Y81.757 E.01675
G1 X111.018 Y41.126 E1.8025
G1 X110.485 Y41.126 E.01672
M73 P1 R291
M73 Q1 S293
G1 X151.649 Y82.29 E1.82614
G1 X151.649 Y82.824 E.01675
G1 X109.951 Y41.126 E1.84983
G1 X109.418 Y41.126 E.01672
G1 X151.649 Y83.357 E1.87348
G1 X151.649 Y83.891 E.01675
G1 X108.884 Y41.126 E1.89717
G1 X108.351 Y41.126 E.01672
G1 X151.649 Y84.424 E1.92081
G1 X151.649 Y84.958 E.01675
G1 X107.817 Y41.126 E1.9445
G1 X107.284 Y41.126 E.01672
G1 X151.649 Y85.491 E1.96815
G1 X151.649 Y86.025 E.01675
G1 X106.75 Y41.126 E1.99184
G1 X106.216 Y41.126 E.01675
G1 X151.649 Y86.559 E2.01553
G1 X151.649 Y87.092 E.01672
G1 X105.683 Y41.126 E2.03917
G1 X105.149 Y41.126 E.01675
M73 P1 R290
G1 X151.649 Y87.626 E2.06286
G1 X151.649 Y88.159 E.01672
G1 X104.616 Y41.126 E2.08651
G1 X104.082 Y41.126 E.01675
G1 X151.649 Y88.693 E2.1102
G1 X151.649 Y89.226 E.01672
G1 X103.549 Y41.126 E2.13384
G1 X103.015 Y41.126 E.01675
G1 X151.649 Y89.76 E2.15753
G1 X151.649 Y90.293 E.01672
G1 X102.482 Y41.126 E2.18118
G1 X101.948 Y41.126 E.01675
G1 X151.649 Y90.827 E2.20487
G1 X151.649 Y91.36 E.01672
M73 Q1 S292
G1 X101.415 Y41.126 E2.22851
G1 X100.881 Y41.126 E.01675
G1 X151.649 Y91.894 E2.2522
G1 X151.649 Y92.427 E.01672
G1 X100.348 Y41.126 E2.27585
G1 X99.814 Y41.126 E.01675
G1 X151.649 Y92.961 E2.29954
G1 X151.649 Y93.494 E.01672
G1 X99.281 Y41.126 E2.32318
G1 X98.747 Y41.126 E.01675
G1 X151.649 Y94.028 E2.34687
G1 X151.649 Y94.561 E.01672
G1 X98.364 Y41.276 E2.36386
G1 X98.351 Y41.798 E.01638
G1 X151.649 Y95.095 E2.36442
G1 X151.649 Y95.628 E.01672
G1 X98.351 Y42.331 E2.36442
G1 X98.351 Y42.865 E.01675
G1 X151.649 Y96.162 E2.36442
G1 X151.649 Y96.695 E.01672
M73 P1 R289
G1 X98.351 Y43.398 E2.36442
G1 X98.351 Y43.932 E.01675
G1 X151.649 Y97.229 E2.36442
G1 X151.649 Y97.763 E.01675
G1 X98.351 Y44.465 E2.36444
G1 X98.351 Y44.999 E.01675
G1 X151.649 Y98.296 E2.36442
G1 X151.649 Y98.83 E.01675
G1 X98.351 Y45.532 E2.36444
G1 X98.351 Y46.066 E.01675
G1 X151.649 Y99.363 E2.36442
G1 X151.649 Y99.897 E.01675
M73 Q1 S291
G1 X98.351 Y46.6 E2.36442
G1 X98.351 Y47.133 E.01672
G1 X151.649 Y100.43 E2.36442
G1 X151.649 Y100.964 E.01675
G1 X98.351 Y47.667 E2.36442
G1 X98.351 Y48.2 E.01672
G1 X151.649 Y101.497 E2.36442
G1 X151.649 Y102.031 E.01675
G1 X98.351 Y48.734 E2.36442
G1 X98.351 Y49.267 E.01672
G1 X151.649 Y102.564 E2.36442
G1 X151.649 Y103.098 E.01675
G1 X98.351 Y49.801 E2.36442
G1 X98.351 Y50.334 E.01672
G1 X151.649 Y103.631 E2.36442
G1 X151.649 Y104.165 E.01675
G1 X98.351 Y50.868 E2.36442
G1 X98.351 Y51.401 E.01672
M73 P1 R288
G1 X151.649 Y104.698 E2.36442
G1 X151.649 Y105.232 E.01675
G1 X98.351 Y51.935 E2.36442
G1 X98.351 Y52.468 E.01672
G1 X151.649 Y105.765 E2.36442
G1 X151.649 Y106.299 E.01675
G1 X98.351 Y53.002 E2.36442
G1 X98.351 Y53.535 E.01672
G1 X151.649 Y106.832 E2.36442
G1 X151.649 Y107.366 E.01675
G1 X98.351 Y54.069 E2.36442
G1 X98.351 Y54.602 E.01672
M73 Q1 S290
G1 X151.649 Y107.899 E2.36442
G1 X151.649 Y108.433 E.01675
M73 P2 R288
M73 Q2 S290
G1 X98.351 Y55.136 E2.36442
G1 X98.351 Y55.669 E.01672
G1 X151.649 Y108.967 E2.36444
G1 X151.649 Y109.5 E.01672
G1 X98.351 Y56.203 E2.36442
G1 X98.351 Y56.736 E.01672
G1 X151.649 Y110.034 E2.36444
G1 X151.649 Y110.567 E.01672
G1 X98.351 Y57.27 E2.36442
G1 X98.351 Y57.804 E.01675
G1 X151.649 Y111.101 E2.36442
G1 X151.649 Y111.634 E.01672
G1 X98.351 Y58.337 E2.36442
G1 X98.351 Y58.871 E.01675
G1 X151.649 Y112.168 E2.36442
G1 X151.649 Y112.701 E.01672
G1 X98.351 Y59.404 E2.36442
G1 X98.351 Y59.938 E.01675
M73 P2 R287
G1 X151.649 Y113.235 E2.36442
G1 X151.649 Y113.768 E.01672
G1 X98.351 Y60.471 E2.36442
G1 X98.351 Y61.005 E.01675
G1 X151.649 Y114.302 E2.36442
G1 X151.649 Y114.835 E.01672
G1 X98.351 Y61.538 E2.36442
G1 X98.351 Y62.072 E.01675
G1 X151.649 Y115.369 E2.36442
G1 X151.649 Y115.902 E.01672
G1 X98.351 Y62.605 E2.36442
G1 X98.351 Y63.139 E.01675
M73 Q2 S289
G1 X151.649 Y116.436 E2.36442
G1 X151.649 Y116.969 E.01672
G1 X98.351 Y63.672 E2.36442
G1 X98.351 Y64.206 E.01675
G1 X151.649 Y117.503 E2.36442
G1 X151.649 Y118.036 E.01672
G1 X98.351 Y64.739 E2.36442
G1 X98.351 Y65.273 E.01675
G1 X151.649 Y118.57 E2.36442
G1 X151.649 Y119.103 E.01672
G1 X98.351 Y65.806 E2.36442
G1 X98.351 Y66.34 E.01675
G1 X151.649 Y119.637 E2.36442
G1 X151.649 Y120.171 E.01675
G1 X98.351 Y66.873 E2.36444
G1 X98.351 Y67.407 E.01675
G1 X151.649 Y120.704 E2.36442
G1 X151.649 Y121.238 E.01675
G1 X98.351 Y67.94 E2.36444
G1 X98.351 Y68.474 E.01675
M73 P2 R286
G1 X151.649 Y121.771 E2.36442
G1 X151.649 Y122.305 E.01675
G1 X98.351 Y69.008 E2.36442
G1 X98.351 Y69.541 E.01672
G1 X151.649 Y122.838 E2.36442
G1 X151.649 Y123.372 E.01675
G1 X98.351 Y70.075 E2.36442
G1 X98.351 Y70.608 E.01672
G1 X151.649 Y123.905 E2.36442
G1 X151.649 Y124.439 E.01675
G1 X98.351 Y71.142 E2.36442
G1 X98.351 Y71.675 E.01672
M73 Q2 S288
G1 X151.649 Y124.972 E2.36442
G1 X151.649 Y125.506 E.01675
G1 X98.351 Y72.209 E2.36442
G1 X98.351 Y72.742 E.01672
G1 X151.649 Y126.039 E2.36442
G1 X151.649 Y126.573 E.01675
G1 X98.351 Y73.276 E2.36442
G1 X98.351 Y73.809 E.01672
G1 X151.649 Y127.106 E2.36442
G1 X151.649 Y127.64 E.01675
G1 X98.351 Y74.343 E2.36442
G1 X98.351 Y74.876 E.01672
G1 X151.649 Y128.173 E2.36442
G1 X151.649 Y128.707 E.01675
G1 X98.351 Y75.41 E2.36442
G1 X98.351 Y75.943 E.01672
G1 X151.649 Y129.24 E2.36442
G1 X151.649 Y129.774 E.01675
G1 X98.351 Y76.477 E2.36442
G1 X98.351 Y77.01 E.01672
M73 P2 R285
G1 X151.649 Y130.307 E2.36442
G1 X151.649 Y130.841 E.01675
G1 X98.351 Y77.544 E2.36442
G1 X98.351 Y78.077 E.01672
G1 X151.649 Y131.375 E2.36444
G1 X151.649 Y131.908 E.01672
G1 X98.351 Y78.611 E2.36442
G1 X98.351 Y79.144 E.01672
G1 X151.649 Y132.442 E2.36444
G1 X151.649 Y132.975 E.01672
M73 P3 R285
G1 X98.351 Y79.678 E2.36442
G1 X98.351 Y80.211 E.01672
M73 Q3 S287
G1 X151.649 Y133.509 E2.36444
G1 X151.649 Y134.042 E.01672
G1 X98.351 Y80.745 E2.36442
G1 X98.351 Y81.279 E.01675
G1 X151.649 Y134.576 E2.36442
G1 X151.649 Y135.109 E.01672
G1 X98.351 Y81.812 E2.36442
G1 X98.351 Y82.346 E.01675
G1 X151.649 Y135.643 E2.36442
G1 X151.649 Y136.176 E.01672
G1 X98.351 Y82.879 E2.36442
G1 X98.351 Y83.413 E.01675
G1 X151.649 Y136.71 E2.36442
G1 X151.649 Y137.243 E.01672
G1 X98.351 Y83.946 E2.36442
G1 X98.351 Y84.48 E.01675
G1 X151.649 Y137.777 E2.36442
G1 X151.649 Y138.31 E.01672
M73 P3 R284
G1 X98.351 Y85.013 E2.36442
G1 X98.351 Y85.547 E.01675
G1 X151.649 Y138.844 E2.36442
G1 X151.649 Y139.377 E.01672
G1 X98.351 Y86.08 E2.36442
G1 X98.351 Y86.614 E.01675
G1 X151.649 Y139.911 E2.36442
G1 X151.649 Y140.444 E.01672
G1 X98.351 Y87.147 E2.36442
G1 X98.351 Y87.681 E.01675
G1 X151.649 Y140.978 E2.36442
G1 X151.649 Y141.511 E.01672
M73 Q3 S286
G1 X98.351 Y88.214 E2.36442
G1 X98.351 Y88.748 E.01675
G1 X151.649 Y142.045 E2.36442
G1 X151.649 Y142.578 E.01672
G1 X98.351 Y89.281 E2.36442
G1 X98.351 Y89.815 E.01675
G1 X151.649 Y143.112 E2.36442
G1 X151.649 Y143.646 E.01675
G1 X98.351 Y90.348 E2.36444
G1 X98.351 Y90.882 E.01675
G1 X151.649 Y144.179 E2.36442
G1 X151.649 Y144.713 E.01675
G1 X98.351 Y91.415 E2.36444
G1 X98.351 Y91.949 E.01675
G1 X151.649 Y145.246 E2.36442
G1 X151.649 Y145.78 E.01675
G1 X98.351 Y92.483 E2.36442
G1 X98.351 Y93.016 E.01672
G1 X151.649 Y146.313 E2.36442
G1 X151.649 Y146.847 E.01675
M73 P3 R283
G1 X98.351 Y93.55 E2.36442
G1 X98.351 Y94.083 E.01672
G1 X151.649 Y147.38 E2.36442
G1 X151.649 Y147.914 E.01675
G1 X98.351 Y94.617 E2.36442
G1 X98.351 Y95.15 E.01672
G1 X151.649 Y148.447 E2.36442
G1 X151.649 Y148.981 E.01675
G1 X98.351 Y95.684 E2.36442
