; generated by PrusaSlicer 2.6.0+win64 on 2023-08-07 at 03:04:48 UTC


;
;
; 

; external perimeters extrusion width = 0.45mm
; perimeters extrusion width = 0.45mm
; infill extrusion width = 0.45mm
; solid infill extrusion width = 0.45mm
; top infill extrusion width = 0.40mm
; first layer extrusion width = 0.42mm

; external perimeters extrusion width = 0.45mm
; perimeters extrusion width = 0.45mm
; infill extrusion width = 0.45mm
; solid infill extrusion width = 0.45mm
; top infill extrusion width = 0.40mm
; first layer extrusion width = 0.42mm

; external perimeters extrusion width = 0.45mm
; perimeters extrusion width = 0.45mm
; infill extrusion width = 0.45mm
; solid infill extrusion width = 0.45mm
; top infill extrusion width = 0.40mm
; first layer extrusion width = 0.42mm

; external perimeters extrusion width = 0.45mm
; perimeters extrusion width = 0.45mm
; infill extrusion width = 0.45mm
; solid infill extrusion width = 0.45mm
; top infill extrusion width = 0.40mm
; first layer extrusion width = 0.42mm

; external perimeters extrusion width = 0.45mm
; perimeters extrusion width = 0.45mm
; infill extrusion width = 0.45mm
; solid infill extrusion width = 0.45mm
; top infill extrusion width = 0.40mm
; first layer extrusion width = 0.42mm

M73 P0 R39
M73 Q0 S39
M201 X1000 Y1000 Z200 E5000 ; sets maximum accelerations, mm/sec^2
M203 X200 Y200 Z12 E120 ; sets maximum feedrates, mm / sec
M204 S1250 T1250 ; sets acceleration (S) and retract acceleration (R), mm/sec^2
M205 X8.00 Y8.00 Z0.40 E4.50 ; sets the jerk limits, mm/sec
M205 S0 T0 ; sets the minimum extruding and travel feed rate, mm/sec
;TYPE:Custom
M862.3 P "MK3S" ; printer model check
M862.1 P0.4 ; nozzle diameter check
M115 U3.12.2 ; tell printer latest fw version
G90 ; use absolute coordinates
M83 ; extruder relative mode
M104 S215 ; set extruder temp
M140 S60 ; set bed temp
M190 S60 ; wait for bed temp
M109 S215 ; wait for extruder temp
G28 W ; home all without mesh bed level
G80 ; mesh bed leveling

G1 Z0.2 F720
G1 Y-3 F1000 ; go outside print area
G92 E0
G1 X60 E9 F1000 ; intro line
G1 X100 E12.5 F1000 ; intro line

G92 E0
M221 S100

; Don't change E values below. Excessive value can damage the printer.
M907 E430 ; set extruder motor current
G21 ; set units to millimeters
G90 ; use absolute coordinates
M83 ; use relative distances for extrusion
M900 K0.05 ; Filament gcode LA 1.5
M900 K30 ; Filament gcode LA 1.0
M107
;LAYER_CHANGE
;Z:0.2
;HEIGHT:0.2
;BEFORE_LAYER_CHANGE
G92 E0.0
;0.2


G1 E-.8 F2100
G1 Z.4 F720
;AFTER_LAYER_CHANGE
;0.2
G1 X95.248 Y86.072 F10800
G1 Z.2 F720
G1 E.8 F2100
M204 S800
;TYPE:Skirt/Brim
;WIDTH:0.42
G1 F1200
G1 X95.867 Y85.504 E.02634
G1 X96.569 Y85.072 E.02584
G1 X97.484 Y84.743 E.03049
G1 X98.308 Y84.628 E.02609
G1 X130.575 Y84.624 E1.01171
G1 X131.508 Y84.741 E.02948
G1 X132.407 Y85.061 E.02992
G1 X153.542 Y95.629 E.7409
G1 X154.224 Y96.075 E.02555
G1 X154.818 Y96.646 E.02583
G1 X155.234 Y97.217 E.02215
G1 X155.537 Y97.811 E.02091
G1 X155.757 Y98.483 E.02217
G1 X155.862 Y99.142 E.02092
G1 X155.877 Y110.5 E.35612
G1 X155.814 Y111.236 E.02316
G1 X155.596 Y112.041 E.02615
G1 X155.239 Y112.775 E.02559
G1 X154.741 Y113.441 E.02607
G1 X154.132 Y113.996 E.02583
G1 X153.438 Y114.424 E.02557
G1 X132.415 Y124.936 E.73697
G1 X131.247 Y125.312 E.03847
M73 P0 R38
G1 X130.5 Y125.377 E.02351
G1 X98.425 Y125.376 E1.00569
G1 X97.753 Y125.312 E.02117
G1 X96.959 Y125.096 E.0258
G1 X96.218 Y124.735 E.02584
G1 X95.566 Y124.247 E.02553
G1 X95.004 Y123.632 E.02612
G1 X94.509 Y122.796 E.03046
G1 X94.218 Y121.902 E.02948
G1 X94.123 Y121 E.02844
G1 X94.128 Y88.8 E1.00961
G1 X94.216 Y88.107 E.0219
G1 X94.459 Y87.32 E.02583
G1 X94.765 Y86.718 E.02117
G1 X95.212 Y86.12 E.02341
M204 S1000
; printing object Deej_Spotify_Logo.stl id:0 copy 0
;WIPE_START
G1 F8640
G1 X95.868 Y85.504 E-.20779
G1 X96.569 Y85.072 E-.19013
G1 X97.484 Y84.743 E-.22452
G1 X98.246 Y84.637 E-.17756
;WIPE_END
G1 Z.6 F720
G1 X152.278 Y99.216 F10800
G1 Z.2 F720
G1 E.8 F2100
M204 S800
;TYPE:Perimeter
;WIDTH:0.419999
G1 F1200
G1 X152.332 Y99.529 E.00996
G1 X152.332 Y110.349 E.33925
G1 X152.266 Y110.803 E.01438
G1 X152.135 Y111.025 E.00808
G1 X151.85 Y111.243 E.01125
G1 X151.422 Y111.336 E.01373
G1 X140.651 Y111.332 E.33772
G1 X140.197 Y111.266 E.01438
G1 X139.975 Y111.135 E.00808
G1 X139.757 Y110.85 E.01125
G1 X139.664 Y110.422 E.01373
G1 X139.668 Y99.606 E.33913
G1 X139.74 Y99.187 E.01333
G1 X139.903 Y98.926 E.00965
G1 X140.134 Y98.755 E.00901
G1 X140.467 Y98.668 E.01079
G1 X151.506 Y98.668 E.34612
G1 X151.897 Y98.773 E.01269
G1 X152.114 Y98.945 E.00868
G1 X152.247 Y99.165 E.00806
M204 S1000
G1 X152.573 Y98.988 F10800
M204 S800
G1 F1200
G1 X152.672 Y99.199 E.00731
G1 X152.709 Y99.529 E.01041
G1 X152.709 Y110.405 E.34101
G1 X152.621 Y110.944 E.01712
G1 X152.429 Y111.269 E.01184
G1 X152.139 Y111.524 E.01211
G1 X151.882 Y111.645 E.00891
G1 X151.452 Y111.713 E.01365
G1 X140.594 Y111.709 E.34044
G1 X140.056 Y111.621 E.01709
G1 X139.732 Y111.429 E.01181
G1 X139.476 Y111.139 E.01213
G1 X139.355 Y110.882 E.00891
G1 X139.287 Y110.452 E.01365
G1 X139.291 Y99.456 E.34477
G1 X139.387 Y99.041 E.01336
G1 X139.61 Y98.684 E.0132
G1 X139.967 Y98.415 E.01402
G1 X140.436 Y98.291 E.01521
G1 X151.404 Y98.291 E.34389
G1 X151.782 Y98.343 E.01196
G1 X152.148 Y98.478 E.01223
G1 X152.479 Y98.788 E.01422
G1 X152.547 Y98.934 E.00505
M204 S1000
G1 X152.916 Y98.821 F10800
M204 S800
;TYPE:External perimeter
G1 F1200
G1 X153.039 Y99.105 E.0097
G1 X153.086 Y99.529 E.01338
G1 X153.086 Y110.59 E.34681
G1 X152.976 Y111.084 E.01587
G1 X152.723 Y111.512 E.01559
G1 X152.348 Y111.842 E.01566
G1 X151.994 Y112.009 E.01227
G1 X151.481 Y112.09 E.01628
G1 X140.409 Y112.086 E.34715
G1 X139.916 Y111.976 E.01584
M73 Q1 S39
G1 X139.488 Y111.723 E.01559
G1 X139.158 Y111.348 E.01566
G1 X138.991 Y110.994 E.01227
G1 X138.91 Y110.481 E.01628
G1 X138.914 Y99.413 E.34703
G1 X139.034 Y98.894 E.0167
M73 P1 R38
G1 X139.316 Y98.442 E.0167
G1 X139.533 Y98.24 E.0093
G1 X139.935 Y98.024 E.01431
G1 X140.406 Y97.914 E.01517
G1 X151.404 Y97.914 E.34483
G1 X151.864 Y97.975 E.01455
G1 X152.24 Y98.102 E.01244
G1 X152.587 Y98.341 E.01321
G1 X152.859 Y98.69 E.01387
G1 X152.892 Y98.766 E.0026
M204 S1000
G1 X152.748 Y99.081 F10800
;WIPE_START
G1 F8640
G1 X153.039 Y99.105 E-.08532
G1 X153.086 Y99.529 E-.0985
G1 X153.086 Y102.198 E-.61618
;WIPE_END
G1 Z.6 F720
G1 X151.525 Y98.846 F10800
G1 Z.2 F720
G1 E.8 F2100
M204 S800
;TYPE:Solid infill
;WIDTH:0.426933
G1 F1200
G1 X151.906 Y99.227 E.0172
G1 X151.94 Y99.284 E.00212
G1 X151.993 Y99.496 E.00698
G1 X151.993 Y99.857 E.01153
G1 X151.143 Y99.007 E.03838
G1 X150.6 Y99.007 E.01734
G1 X151.993 Y100.4 E.0629
G1 X151.993 Y100.943 E.01734
G1 X150.057 Y99.007 E.08742
G1 X149.514 Y99.007 E.01734
G1 X151.993 Y101.486 E.11194
G1 X151.993 Y102.029 E.01734
G1 X148.971 Y99.007 E.13646
G1 X148.427 Y99.007 E.01737
G1 X151.993 Y102.572 E.16101
G1 X151.993 Y103.116 E.01737
G1 X147.884 Y99.007 E.18555
G1 X147.341 Y99.007 E.01734
G1 X151.993 Y103.659 E.21007
G1 X151.993 Y104.202 E.01734
G1 X146.798 Y99.007 E.23459
G1 X146.255 Y99.007 E.01734
G1 X151.993 Y104.745 E.25911
G1 X151.993 Y105.288 E.01734
G1 X145.712 Y99.007 E.28363
G1 X145.169 Y99.007 E.01734
G1 X151.993 Y105.831 E.30815
G1 X151.993 Y106.374 E.01734
G1 X144.626 Y99.007 E.33267
G1 X144.083 Y99.007 E.01734
M73 Q1 S38
G1 X151.993 Y106.917 E.35719
G1 X151.993 Y107.46 E.01734
G1 X143.54 Y99.007 E.38171
G1 X142.997 Y99.007 E.01734
G1 X151.993 Y108.003 E.40623
G1 X151.993 Y108.546 E.01734
G1 X142.454 Y99.007 E.43075
G1 X141.911 Y99.007 E.01734
G1 X151.993 Y109.089 E.45527
G1 X151.993 Y109.632 E.01734
G1 X141.367 Y99.007 E.47982
G1 X140.824 Y99.007 E.01734
G1 X151.993 Y110.176 E.50436
G1 X151.993 Y110.47 E.00939
G1 X151.947 Y110.673 E.00665
G1 X140.327 Y99.053 E.52472
G1 X140.167 Y99.144 E.00588
G1 X140.056 Y99.325 E.00678
G1 X151.68 Y110.949 E.5249
G1 X151.396 Y110.996 E.00919
G1 X151.184 Y110.996 E.00677
G1 X140.007 Y99.819 E.50472
G1 X140.007 Y100.362 E.01734
G1 X150.641 Y110.996 E.4802
G1 X150.098 Y110.996 E.01734
G1 X140.007 Y100.905 E.45568
G1 X140.006 Y101.448 E.01734
G1 X149.555 Y110.996 E.43118
G1 X149.011 Y110.996 E.01737
G1 X140.006 Y101.991 E.40664
G1 X140.006 Y102.533 E.01731
G1 X148.468 Y110.995 E.38212
G1 X147.925 Y110.995 E.01734
G1 X140.006 Y103.076 E.3576
G1 X140.006 Y103.619 E.01734
G1 X147.382 Y110.995 E.33308
G1 X146.838 Y110.995 E.01737
G1 X140.006 Y104.162 E.30854
G1 X140.005 Y104.705 E.01734
G1 X146.295 Y110.995 E.28404
G1 X145.752 Y110.995 E.01734
G1 X140.005 Y105.248 E.25952
G1 X140.005 Y105.791 E.01734
G1 X145.209 Y110.994 E.23497
G1 X144.665 Y110.994 E.01737
G1 X140.005 Y106.334 E.21043
G1 X140.005 Y106.877 E.01734
G1 X144.122 Y110.994 E.18591
G1 X143.579 Y110.994 E.01734
G1 X140.005 Y107.42 E.16139
G1 X140.004 Y107.962 E.01731
G1 X143.036 Y110.994 E.13692
G1 X142.492 Y110.994 E.01737
G1 X140.004 Y108.505 E.11237
G1 X140.004 Y109.048 E.01734
G1 X141.949 Y110.993 E.08783
G1 X141.406 Y110.993 E.01734
G1 X140.004 Y109.591 E.06331
G1 X140.004 Y110.134 E.01734
G1 X140.863 Y110.993 E.03879
G1 X140.53 Y110.993 E.01063
G1 X140.323 Y110.947 E.00677
G1 X140.201 Y110.874 E.00454
G1 X139.852 Y110.526 E.01574
M204 S1000
; stop printing object Deej_Spotify_Logo.stl id:0 copy 0
; printing object Deej_Discord_Logo.stl id:3 copy 0
;WIPE_START
G1 F8640
G1 X140.201 Y110.874 E-.1138
G1 X140.323 Y110.947 E-.03283
G1 X140.53 Y110.993 E-.04896
G1 X140.863 Y110.993 E-.07689
G1 X140.004 Y110.134 E-.2805
G1 X140.004 Y109.591 E-.12538
G1 X140.377 Y109.964 E-.12164
;WIPE_END
G1 Z.6 F720
G1 X109.97 Y121.654 F10800
G1 Z.2 F720
G1 E.8 F2100
M204 S800
;TYPE:Perimeter
;WIDTH:0.419999
G1 F1200
G1 X109.755 Y121.783 E.00786
G1 X109.422 Y121.836 E.01057
G1 X98.651 Y121.832 E.33772
G1 X98.197 Y121.766 E.01438
M73 Q2 S38
G1 X97.901 Y121.563 E.01125
G1 X97.717 Y121.255 E.01125
G1 X97.664 Y120.922 E.01057
G1 X97.668 Y110.095 E.33947
G1 X97.734 Y109.696 E.01268
M73 P2 R38
G1 X97.881 Y109.449 E.00901
G1 X98.075 Y109.288 E.0079
G1 X98.448 Y109.168 E.01229
G1 X109.413 Y109.164 E.3438
G1 X109.806 Y109.227 E.01248
G1 X110.046 Y109.376 E.00886
G1 X110.26 Y109.671 E.01143
G1 X110.336 Y110.155 E.01536
G1 X110.332 Y120.849 E.3353
G1 X110.266 Y121.303 E.01438
G1 X110.063 Y121.599 E.01125
G1 X110.022 Y121.624 E.00151
M204 S1000
G1 X110.205 Y121.977 F10800
M204 S800
G1 F1200
G1 X109.873 Y122.147 E.01169
G1 X109.452 Y122.213 E.01336
G1 X98.594 Y122.209 E.34044
G1 X98.056 Y122.121 E.01709
G1 X97.723 Y121.924 E.01213
G1 X97.529 Y121.717 E.0089
G1 X97.353 Y121.373 E.01212
G1 X97.287 Y120.952 E.01336
G1 X97.291 Y110.095 E.34041
G1 X97.379 Y109.556 E.01712
G1 X97.58 Y109.216 E.01238
G1 X97.902 Y108.95 E.0131
G1 X98.424 Y108.791 E.01711
G1 X109.474 Y108.787 E.34646
G1 X109.946 Y108.875 E.01505
G1 X110.219 Y109.033 E.00989
G1 X110.509 Y109.358 E.01366
G1 X110.644 Y109.609 E.00894
G1 X110.713 Y110.155 E.01726
G1 X110.709 Y120.906 E.33709
G1 X110.621 Y121.444 E.01709
G1 X110.424 Y121.777 E.01213
G1 X110.251 Y121.939 E.00743
M204 S1000
G1 X110.376 Y122.313 F10800
M204 S800
;TYPE:External perimeter
G1 F1200
G1 X109.991 Y122.51 E.01356
G1 X109.481 Y122.59 E.01619
G1 X98.409 Y122.586 E.34715
G1 X97.915 Y122.476 E.01587
G1 X97.485 Y122.221 E.01567
G1 X97.217 Y121.936 E.01227
G1 X96.99 Y121.491 E.01566
G1 X96.91 Y120.981 E.01619
G1 X96.914 Y109.909 E.34715
G1 X97.024 Y109.415 E.01587
G1 X97.195 Y109.127 E.0105
G1 X97.398 Y108.864 E.01042
G1 X97.73 Y108.611 E.01309
G1 X97.969 Y108.525 E.00796
G1 X98.4 Y108.414 E.01395
G1 X109.345 Y108.41 E.34317
G1 X109.798 Y108.439 E.01423
G1 X110.209 Y108.586 E.01369
G1 X110.583 Y108.838 E.01414
G1 X110.895 Y109.24 E.01596
G1 X111.031 Y109.645 E.0134
G1 X111.09 Y110.156 E.01613
G1 X111.086 Y121.091 E.34286
G1 X110.976 Y121.585 E.01587
G1 X110.721 Y122.015 E.01567
G1 X110.43 Y122.286 E.01247
M204 S1000
G1 X110.014 Y122.143 F10800
;WIPE_START
G1 F8640
G1 X109.991 Y122.51 E-.1138
G1 X109.481 Y122.59 E-.1192
G1 X107.025 Y122.589 E-.567
;WIPE_END
G1 Z.6 F720
G1 X108.978 Y109.337 F10800
G1 Z.2 F720
G1 E.8 F2100
M204 S800
;TYPE:Solid infill
;WIDTH:0.427117
G1 F1200
G1 X109.996 Y110.356 E.04601
G1 X109.996 Y110.899 E.01735
G1 X108.604 Y109.507 E.06289
G1 X108.061 Y109.507 E.01735
G1 X109.996 Y111.442 E.08742
G1 X109.996 Y111.985 E.01735
G1 X107.517 Y109.507 E.11198
G1 X106.974 Y109.507 E.01735
G1 X109.996 Y112.528 E.13651
G1 X109.995 Y113.072 E.01738
G1 X106.431 Y109.507 E.16104
G1 X105.887 Y109.507 E.01738
G1 X109.995 Y113.615 E.18559
G1 X109.995 Y114.158 E.01735
G1 X105.344 Y109.507 E.21013
G1 X104.801 Y109.507 E.01735
G1 X109.995 Y114.701 E.23466
G1 X109.995 Y115.244 E.01735
G1 X104.258 Y109.507 E.25919
G1 X103.714 Y109.507 E.01738
G1 X109.995 Y115.787 E.28374
G1 X109.994 Y116.331 E.01738
G1 X103.171 Y109.507 E.30828
G1 X102.628 Y109.507 E.01735
G1 X109.994 Y116.874 E.33281
G1 X109.994 Y117.417 E.01735
G1 X102.084 Y109.507 E.35736
G1 X101.541 Y109.507 E.01735
G1 X109.994 Y117.96 E.38189
G1 X109.994 Y118.503 E.01735
G1 X100.998 Y109.507 E.40643
G1 X100.454 Y109.507 E.01738
G1 X109.993 Y119.046 E.43096
G1 X109.993 Y119.59 E.01738
G1 X99.911 Y109.507 E.45551
G1 X99.368 Y109.507 E.01735
G1 X109.993 Y120.133 E.48005
G1 X109.993 Y120.676 E.01735
G1 X98.824 Y109.507 E.5046
G1 X98.485 Y109.507 E.01083
G1 X98.332 Y109.559 E.00516
G1 X109.947 Y121.174 E.52475
G1 X109.859 Y121.324 E.00556
G1 X109.801 Y121.379 E.00255
G1 X109.674 Y121.444 E.00456
G1 X98.053 Y109.823 E.52502
G1 X98.007 Y110.03 E.00677
G1 X98.007 Y110.32 E.00926
G1 X109.183 Y121.496 E.50492
G1 X108.64 Y121.496 E.01735
G1 X98.007 Y110.863 E.48038
G1 X98.007 Y111.406 E.01735
G1 X108.096 Y121.496 E.45583
G1 X107.553 Y121.496 E.01735
G1 X98.007 Y111.949 E.4313
G1 X98.006 Y112.493 E.01738
G1 X107.009 Y121.496 E.40674
G1 X106.466 Y121.495 E.01735
G1 X98.006 Y113.036 E.38219
G1 X98.006 Y113.579 E.01735
G1 X105.922 Y121.495 E.35763
G1 X105.379 Y121.495 E.01735
M73 P3 R38
M73 Q3 S38
G1 X98.006 Y114.122 E.3331
G1 X98.006 Y114.665 E.01735
G1 X104.835 Y121.495 E.30855
G1 X104.292 Y121.495 E.01735
M73 P3 R37
G1 X98.005 Y115.208 E.28404
G1 X98.005 Y115.752 E.01738
G1 X103.748 Y121.495 E.25946
G1 X103.205 Y121.494 E.01735
G1 X98.005 Y116.295 E.23491
G1 X98.005 Y116.838 E.01735
G1 X102.661 Y121.494 E.21035
G1 X102.118 Y121.494 E.01735
G1 X98.005 Y117.381 E.18582
G1 X98.005 Y117.924 E.01735
G1 X101.574 Y121.494 E.16127
G1 X101.031 Y121.494 E.01735
G1 X98.004 Y118.467 E.13676
G1 X98.004 Y119.01 E.01735
G1 X100.487 Y121.494 E.1122
G1 X99.944 Y121.493 E.01735
G1 X98.004 Y119.554 E.08762
G1 X98.004 Y120.097 E.01735
G1 X99.4 Y121.493 E.06307
G1 X98.857 Y121.493 E.01735
G1 X98.004 Y120.64 E.03854
G1 X98.004 Y120.896 E.00818
G1 X98.043 Y121.149 E.00818
G1 X98.121 Y121.3 E.00543
G1 X98.475 Y121.654 E.01599
M204 S1000
; stop printing object Deej_Discord_Logo.stl id:3 copy 0
; printing object Deej_Master_Logo.stl id:4 copy 0
;WIPE_START
G1 F8640
G1 X98.121 Y121.3 E-.1156
G1 X98.043 Y121.149 E-.03924
G1 X98.004 Y120.896 E-.05911
G1 X98.004 Y120.64 E-.05911
G1 X98.857 Y121.493 E-.27854
G1 X99.4 Y121.493 E-.12538
G1 X99.023 Y121.116 E-.12302
;WIPE_END
G1 Z.6 F720
G1 X131.083 Y121.57 F10800
G1 Z.2 F720
G1 E.8 F2100
M204 S800
;TYPE:Perimeter
;WIDTH:0.419999
G1 F1200
G1 X131.063 Y121.599 E.0011
G1 X130.755 Y121.783 E.01125
G1 X130.422 Y121.836 E.01057
G1 X119.651 Y121.832 E.33772
G1 X119.197 Y121.766 E.01438
G1 X118.901 Y121.563 E.01125
G1 X118.717 Y121.255 E.01125
G1 X118.664 Y120.922 E.01057
G1 X118.668 Y110.095 E.33947
G1 X118.734 Y109.696 E.01268
G1 X118.881 Y109.449 E.00901
G1 X119.075 Y109.288 E.0079
G1 X119.448 Y109.168 E.01229
G1 X130.413 Y109.164 E.3438
G1 X130.806 Y109.227 E.01248
G1 X131.046 Y109.376 E.00886
G1 X131.26 Y109.671 E.01143
G1 X131.336 Y110.155 E.01536
G1 X131.332 Y120.849 E.3353
G1 X131.266 Y121.303 E.01438
G1 X131.117 Y121.52 E.00825
M204 S1000
G1 X131.424 Y121.777 F10800
M204 S800
G1 F1200
G1 X131.217 Y121.971 E.0089
G1 X130.873 Y122.147 E.01212
G1 X130.452 Y122.213 E.01336
G1 X119.594 Y122.209 E.34044
G1 X119.056 Y122.121 E.01709
G1 X118.723 Y121.924 E.01213
G1 X118.529 Y121.717 E.0089
G1 X118.353 Y121.373 E.01212
