; generated by PrusaSlicer 2.6.0+win64 on 2023-08-07 at 17:29:53 UTC


;
;
; 

; external perimeters extrusion width = 0.45mm
; perimeters extrusion width = 0.45mm
; infill extrusion width = 0.45mm
; solid infill extrusion width = 0.45mm
; top infill extrusion width = 0.40mm
; first layer extrusion width = 0.42mm

; external perimeters extrusion width = 0.45mm
; perimeters extrusion width = 0.45mm
; infill extrusion width = 0.45mm
; solid infill extrusion width = 0.45mm
; top infill extrusion width = 0.40mm
; first layer extrusion width = 0.42mm

; external perimeters extrusion width = 0.45mm
; perimeters extrusion width = 0.45mm
; infill extrusion width = 0.45mm
; solid infill extrusion width = 0.45mm
; top infill extrusion width = 0.40mm
; first layer extrusion width = 0.42mm

; external perimeters extrusion width = 0.45mm
; perimeters extrusion width = 0.45mm
; infill extrusion width = 0.45mm
; solid infill extrusion width = 0.45mm
; top infill extrusion width = 0.40mm
; first layer extrusion width = 0.42mm

; external perimeters extrusion width = 0.45mm
; perimeters extrusion width = 0.45mm
; infill extrusion width = 0.45mm
; solid infill extrusion width = 0.45mm
; top infill extrusion width = 0.40mm
; first layer extrusion width = 0.42mm

M73 P0 R40
M73 C14
M73 Q0 S40
M73 D14
M201 X1000 Y1000 Z200 E5000 ; sets maximum accelerations, mm/sec^2
M203 X200 Y200 Z12 E120 ; sets maximum feedrates, mm / sec
M204 S1250 T1250 ; sets acceleration (S) and retract acceleration (R), mm/sec^2
M205 X8.00 Y8.00 Z0.40 E4.50 ; sets the jerk limits, mm/sec
M205 S0 T0 ; sets the minimum extruding and travel feed rate, mm/sec
;TYPE:Custom
M862.3 P "MK3S" ; printer model check
M862.1 P0.4 ; nozzle diameter check
M115 U3.12.2 ; tell printer latest fw version
G90 ; use absolute coordinates
M83 ; extruder relative mode
M104 S230 ; set extruder temp
M140 S85 ; set bed temp
M190 S85 ; wait for bed temp
M109 S230 ; wait for extruder temp
G28 W ; home all without mesh bed level
G80 ; mesh bed leveling

G1 Z0.2 F720
G1 Y-3 F1000 ; go outside print area
G92 E0
G1 X60 E9 F1000 ; intro line
G1 X100 E12.5 F1000 ; intro line

G92 E0
M221 S100

; Don't change E values below. Excessive value can damage the printer.
M907 E430 ; set extruder motor current
G21 ; set units to millimeters
G90 ; use absolute coordinates
M83 ; use relative distances for extrusion
M900 K0.08 ; Filament gcode LA 1.5
M900 K45 ; Filament gcode LA 1.0
M107
;LAYER_CHANGE
;Z:0.2
;HEIGHT:0.2
;BEFORE_LAYER_CHANGE
G92 E0.0
;0.2


G1 E-1 F2100
G1 Z.2 F720
;AFTER_LAYER_CHANGE
;0.2
G1 Z.4
G1 X95.109 Y85.934 F10800
G1 Z.2 F720
G1 E1 F2100
M204 S800
;TYPE:Skirt/Brim
;WIDTH:0.42
G1 F1200
G1 X95.728 Y85.366 E.02634
G1 X96.442 Y84.926 E.0263
G1 X97.364 Y84.594 E.03073
G1 X98.195 Y84.478 E.02631
G1 X130.685 Y84.474 E1.0187
G1 X131.636 Y84.594 E.03005
G1 X132.542 Y84.918 E.03017
G1 X153.664 Y95.48 E.74045
G1 X154.367 Y95.939 E.02632
G1 X154.964 Y96.517 E.02605
G1 X155.378 Y97.085 E.02204
G1 X155.688 Y97.694 E.02143
G1 X155.906 Y98.363 E.02206
G1 X156.012 Y99.03 E.02118
G1 X156.027 Y110.61 E.36308
G1 X155.963 Y111.354 E.02341
G1 X155.744 Y112.165 E.02634
G1 X155.383 Y112.906 E.02584
G1 X154.88 Y113.578 E.02632
G1 X154.266 Y114.139 E.02608
G1 X153.558 Y114.574 E.02605
G1 X132.542 Y125.082 E.73672
G1 X131.364 Y125.462 E.03881
G1 X130.61 Y125.527 E.02373
G1 X98.315 Y125.526 E1.01259
G1 X97.636 Y125.462 E.02138
M73 P0 R39
G1 X96.834 Y125.243 E.02607
G1 X96.087 Y124.878 E.02607
G1 X95.434 Y124.391 E.02554
G1 X94.861 Y123.766 E.02659
G1 X94.363 Y122.923 E.0307
G1 X94.066 Y122.011 E.03007
G1 X93.973 Y121.11 E.0284
G1 X93.978 Y88.687 E1.0166
G1 X94.089 Y87.887 E.02532
G1 X94.312 Y87.195 E.0228
G1 X94.702 Y86.461 E.02606
G1 X95.072 Y85.982 E.01898
M204 S1000
; printing object Deej_Spotify_Logo.stl id:3 copy 0
;WIPE_START
G1 F8640
G1 X95.728 Y85.366 E-.20779
G1 X96.442 Y84.926 E-.19366
G1 X97.364 Y84.594 E-.22627
G1 X98.195 Y84.478 E-.19374
G1 X98.968 Y84.478 E-.17854
;WIPE_END
G1 Z.4 F720
G1 X152.425 Y99.093 F10800
G1 Z.2 F720
G1 E1 F2100
M204 S800
;TYPE:Perimeter
;WIDTH:0.419999
G1 F1200
G1 X152.482 Y99.42 E.01041
G1 X152.482 Y110.455 E.34599
G1 X152.413 Y110.928 E.01499
G1 X152.276 Y111.161 E.00847
G1 X151.977 Y111.389 E.01179
G1 X151.532 Y111.486 E.01428
G1 X140.544 Y111.482 E.34452
G1 X140.072 Y111.413 E.01496
G1 X139.839 Y111.276 E.00847
G1 X139.611 Y110.977 E.01179
G1 X139.514 Y110.532 E.01428
G1 X139.518 Y99.498 E.34596
G1 X139.602 Y99.023 E.01512
G1 X139.734 Y98.817 E.00767
G1 X140.006 Y98.609 E.01074
G1 X140.355 Y98.518 E.01131
G1 X151.619 Y98.518 E.35317
G1 X152.026 Y98.628 E.01322
G1 X152.254 Y98.808 E.00911
G1 X152.394 Y99.041 E.00852
M204 S1000
G1 X152.718 Y98.86 F10800
M204 S800
G1 F1200
G1 X152.821 Y99.079 E.00759
G1 X152.859 Y99.42 E.01076
G1 X152.859 Y110.513 E.34781
G1 X152.768 Y111.069 E.01766
G1 X152.57 Y111.404 E.0122
G1 X152.271 Y111.668 E.01251
G1 X152.004 Y111.793 E.00924
G1 X151.562 Y111.863 E.01403
G1 X140.486 Y111.859 E.34728
G1 X139.931 Y111.768 E.01763
G1 X139.596 Y111.57 E.0122
G1 X139.332 Y111.271 E.01251
G1 X139.207 Y111.004 E.00924
G1 X139.137 Y110.562 E.01403
G1 X139.141 Y99.343 E.35176
G1 X139.245 Y98.892 E.01451
G1 X139.452 Y98.564 E.01216
G1 X139.839 Y98.269 E.01526
G1 X140.324 Y98.141 E.01573
G1 X151.512 Y98.141 E.35079
G1 X151.907 Y98.196 E.0125
G1 X152.28 Y98.334 E.01247
G1 X152.621 Y98.655 E.01468
G1 X152.692 Y98.806 E.00523
M204 S1000
G1 X153.061 Y98.693 F10800
M204 S800
;TYPE:External perimeter
G1 F1200
G1 X153.188 Y98.985 E.00998
G1 X153.236 Y99.42 E.01372
G1 X153.236 Y110.703 E.35377
G1 X153.123 Y111.209 E.01626
G1 X152.864 Y111.647 E.01595
G1 X152.48 Y111.986 E.01606
G1 X152.116 Y112.157 E.01261
G1 X151.591 Y112.24 E.01667
G1 X140.297 Y112.236 E.35411
G1 X139.791 Y112.123 E.01626
G1 X139.353 Y111.864 E.01595
G1 X139.014 Y111.48 E.01606
G1 X138.843 Y111.116 E.01261
G1 X138.76 Y110.591 E.01667
G1 X138.764 Y99.3 E.35402
G1 X138.889 Y98.761 E.01735
M73 P1 R39
M73 Q1 S40
G1 X139.073 Y98.442 E.01155
G1 X139.399 Y98.098 E.01486
G1 X139.817 Y97.874 E.01487
G1 X140.293 Y97.764 E.01532
G1 X151.702 Y97.764 E.35772
G1 X151.989 Y97.828 E.00922
G1 X152.368 Y97.956 E.01254
G1 X152.725 Y98.202 E.01359
G1 X153.003 Y98.559 E.01419
G1 X153.037 Y98.638 E.0027
M204 S1000
G1 X152.888 Y98.961 F10800
;WIPE_START
G1 F8640
G1 X153.188 Y98.985 E-.08738
G1 X153.236 Y99.42 E-.10105
G1 X153.236 Y102.935 E-.81157
;WIPE_END
G1 Z.4 F720
G1 X151.654 Y98.7 F10800
G1 Z.2 F720
G1 E1 F2100
M204 S800
;TYPE:Solid infill
;WIDTH:0.427077
G1 F1200
G1 X152.049 Y99.094 E.01782
G1 X152.09 Y99.164 E.00259
G1 X152.143 Y99.377 E.00701
G1 X152.143 Y99.731 E.01131
G1 X151.269 Y98.857 E.03948
G1 X150.725 Y98.857 E.01738
G1 X152.143 Y100.275 E.06406
G1 X152.143 Y100.818 E.01734
G1 X150.182 Y98.857 E.08859
G1 X149.639 Y98.857 E.01734
G1 X152.143 Y101.361 E.11312
G1 X152.143 Y101.905 E.01738
G1 X149.095 Y98.857 E.13769
G1 X148.552 Y98.857 E.01734
G1 X152.143 Y102.448 E.16222
G1 X152.143 Y102.991 E.01734
G1 X148.009 Y98.857 E.18675
G1 X147.466 Y98.857 E.01734
G1 X152.143 Y103.534 E.21128
G1 X152.143 Y104.078 E.01738
G1 X146.922 Y98.857 E.23585
G1 X146.379 Y98.857 E.01734
G1 X152.143 Y104.621 E.26038
G1 X152.143 Y105.164 E.01734
G1 X145.836 Y98.857 E.28491
G1 X145.292 Y98.857 E.01738
G1 X152.143 Y105.708 E.30949
G1 X152.143 Y106.251 E.01734
G1 X144.749 Y98.857 E.33402
G1 X144.206 Y98.857 E.01734
G1 X152.143 Y106.794 E.35855
G1 X152.143 Y107.337 E.01734
G1 X143.663 Y98.857 E.38307
G1 X143.119 Y98.857 E.01738
G1 X152.143 Y107.881 E.40765
G1 X152.143 Y108.424 E.01734
G1 X142.576 Y98.857 E.43218
G1 X142.033 Y98.857 E.01734
M73 Q1 S39
G1 X152.143 Y108.967 E.45671
G1 X152.143 Y109.511 E.01738
G1 X141.489 Y98.857 E.48128
G1 X140.946 Y98.857 E.01734
G1 X152.143 Y110.054 E.50581
G1 X152.14 Y110.594 E.01725
G1 X140.403 Y98.857 E.53021
G1 X140.254 Y98.878 E.00481
G1 X140.157 Y98.915 E.00332
G1 X140.018 Y99.016 E.00549
G1 X151.975 Y110.973 E.54014
G1 X151.873 Y111.063 E.00435
G1 X151.792 Y111.101 E.00286
G1 X151.592 Y111.133 E.00647
G1 X139.862 Y99.403 E.52989
G1 X139.857 Y99.941 E.01719
G1 X151.062 Y111.146 E.50617
G1 X150.519 Y111.146 E.01734
G1 X139.857 Y100.484 E.48164
G1 X139.857 Y101.027 E.01734
G1 X149.975 Y111.146 E.45709
G1 X149.432 Y111.146 E.01734
G1 X139.856 Y101.57 E.43259
G1 X139.856 Y102.114 E.01738
G1 X148.888 Y111.146 E.40801
G1 X148.345 Y111.145 E.01734
G1 X139.856 Y102.657 E.38346
G1 X139.856 Y103.2 E.01734
G1 X147.801 Y111.145 E.35891
G1 X147.258 Y111.145 E.01734
G1 X139.856 Y103.743 E.33438
G1 X139.856 Y104.286 E.01734
G1 X146.714 Y111.145 E.30983
G1 X146.171 Y111.145 E.01734
G1 X139.855 Y104.829 E.28532
G1 X139.855 Y105.372 E.01734
G1 X145.628 Y111.145 E.26079
G1 X145.084 Y111.144 E.01738
G1 X139.855 Y105.915 E.23621
G1 X139.855 Y106.458 E.01734
G1 X144.541 Y111.144 E.21168
G1 X143.997 Y111.144 E.01738
G1 X139.855 Y107.001 E.18713
G1 X139.855 Y107.545 E.01738
G1 X143.454 Y111.144 E.16258
G1 X142.91 Y111.144 E.01738
G1 X139.854 Y108.088 E.13805
G1 X139.854 Y108.631 E.01734
G1 X142.367 Y111.143 E.1135
G1 X141.823 Y111.143 E.01738
G1 X139.854 Y109.174 E.08895
G1 X139.854 Y109.717 E.01734
G1 X141.28 Y111.143 E.06442
G1 X140.736 Y111.143 E.01738
G1 X139.854 Y110.26 E.03987
G1 X139.854 Y110.506 E.00786
G1 X139.899 Y110.792 E.00925
G1 X139.937 Y110.873 E.00286
G1 X140.352 Y111.302 E.01907
M204 S1000
; stop printing object Deej_Spotify_Logo.stl id:3 copy 0
; printing object Deej_Steam_Logo.stl id:4 copy 0
;WIPE_START
G1 F8640
G1 X139.937 Y110.873 E-.13782
G1 X139.899 Y110.792 E-.02066
G1 X139.854 Y110.506 E-.06685
G1 X139.854 Y110.26 E-.0568
G1 X140.736 Y111.143 E-.28818
G1 X141.28 Y111.143 E-.12561
G1 X140.349 Y110.212 E-.30408
;WIPE_END
G1 Z.4 F720
G1 X130.931 Y109.08 F10800
G1 Z.2 F720
G1 E1 F2100
M204 S800
;TYPE:Perimeter
;WIDTH:0.419999
G1 F1200
G1 X131.183 Y109.236 E.00929
G1 X131.406 Y109.545 E.01195
G1 X131.486 Y110.049 E.016
G1 X131.482 Y120.956 E.34198
G1 X131.413 Y121.428 E.01496
G1 X131.2 Y121.738 E.01179
G1 X130.877 Y121.931 E.0118
G1 X130.532 Y121.986 E.01095
G1 X119.544 Y121.982 E.34452
G1 X119.072 Y121.913 E.01496
M73 P2 R39
M73 Q2 S39
G1 X118.839 Y121.776 E.00847
G1 X118.611 Y121.477 E.01179
G1 X118.514 Y121.032 E.01428
G1 X118.518 Y109.987 E.34631
G1 X118.587 Y109.572 E.01319
G1 X118.74 Y109.313 E.00943
G1 X119.072 Y109.087 E.01259
G1 X119.38 Y109.018 E.0099
G1 X130.521 Y109.014 E.34932
G1 X130.872 Y109.07 E.01114
M204 S1000
G1 X131.084 Y108.736 F10800
M204 S800
G1 F1200
G1 X131.353 Y108.891 E.00973
G1 X131.652 Y109.225 E.01406
G1 X131.792 Y109.487 E.00931
G1 X131.863 Y110.049 E.01776
G1 X131.859 Y121.014 E.3438
G1 X131.768 Y121.569 E.01763
G1 X131.565 Y121.912 E.0125
G1 X131.351 Y122.114 E.00923
G1 X130.995 Y122.295 E.01252
G1 X130.562 Y122.363 E.01374
G1 X119.486 Y122.359 E.34728
G1 X118.931 Y122.268 E.01763
G1 X118.596 Y122.07 E.0122
G1 X118.332 Y121.771 E.01251
G1 X118.207 Y121.504 E.00924
G1 X118.137 Y121.062 E.01403
G1 X118.141 Y109.987 E.34725
G1 X118.232 Y109.431 E.01766
G1 X118.51 Y109.01 E.01582
G1 X118.931 Y108.732 E.01582
G1 X119.339 Y108.641 E.01311
G1 X130.584 Y108.637 E.35258
G1 X131.027 Y108.72 E.01413
M204 S1000
G1 X131.297 Y108.426 F10800
M204 S800
;TYPE:External perimeter
G1 F1200
G1 X131.72 Y108.699 E.01579
G1 X132.04 Y109.11 E.01633
G1 X132.18 Y109.527 E.01379
G1 X132.24 Y110.049 E.01647
G1 X132.236 Y121.203 E.34973
G1 X132.123 Y121.709 E.01626
M73 C13
G1 X131.862 Y122.15 E.01607
G1 X131.57 Y122.425 E.01258
G1 X131.113 Y122.658 E.01608
G1 X130.591 Y122.74 E.01657
G1 X119.297 Y122.736 E.35411
G1 X118.791 Y122.623 E.01626
G1 X118.353 Y122.364 E.01595
G1 X118.014 Y121.98 E.01606
G1 X117.843 Y121.616 E.01261
G1 X117.76 Y121.091 E.01667
G1 X117.764 Y109.797 E.35411
G1 X117.877 Y109.291 E.01626
G1 X118.064 Y108.974 E.01154
G1 X118.347 Y108.639 E.01375
G1 X118.791 Y108.377 E.01616
G1 X119.297 Y108.264 E.01626
G1 X130.451 Y108.26 E.34973
G1 X130.915 Y108.29 E.01458
G1 X131.241 Y108.406 E.01085
M204 S1000
G1 X131.328 Y108.825 F10800
;WIPE_START
G1 F8640
G1 X131.72 Y108.699 E-.12965
G1 X132.04 Y109.11 E-.12027
G1 X132.18 Y109.527 E-.10157
G1 X132.24 Y110.049 E-.12132
G1 X132.239 Y112.332 E-.52719
;WIPE_END
G1 Z.4 F720
M73 D13
G1 X130.104 Y109.187 F10800
G1 Z.2 F720
G1 E1 F2100
M204 S800
;TYPE:Solid infill
;WIDTH:0.427169
G1 F1200
G1 X131.146 Y110.229 E.04708
G1 X131.146 Y110.773 E.01738
G1 X129.731 Y109.357 E.06396
G1 X129.187 Y109.357 E.01738
G1 X131.146 Y111.316 E.08852
G1 X131.146 Y111.859 E.01735
G1 X128.644 Y109.357 E.11305
G1 X128.1 Y109.357 E.01738
G1 X131.146 Y112.402 E.13761
G1 X131.145 Y112.946 E.01738
G1 X127.557 Y109.357 E.16215
G1 X127.014 Y109.357 E.01735
G1 X131.145 Y113.489 E.18668
G1 X131.145 Y114.032 E.01735
G1 X126.47 Y109.357 E.21124
G1 X125.927 Y109.357 E.01735
G1 X131.145 Y114.575 E.23577
G1 X131.145 Y115.118 E.01735
G1 X125.383 Y109.357 E.26033
G1 X124.84 Y109.357 E.01735
G1 X131.145 Y115.662 E.28489
G1 X131.144 Y116.205 E.01735
G1 X124.297 Y109.357 E.3094
G1 X123.753 Y109.357 E.01738
G1 X131.144 Y116.748 E.33396
G1 X131.144 Y117.291 E.01735
G1 X123.21 Y109.357 E.3585
G1 X122.666 Y109.357 E.01738
G1 X131.144 Y117.835 E.38308
G1 X131.144 Y118.378 E.01735
G1 X122.123 Y109.357 E.40761
G1 X121.58 Y109.357 E.01735
G1 X131.143 Y118.921 E.43212
G1 X131.143 Y119.464 E.01735
G1 X121.036 Y109.357 E.45668
G1 X120.493 Y109.357 E.01735
G1 X131.143 Y120.008 E.48124
G1 X131.143 Y120.551 E.01735
G1 X119.949 Y109.357 E.5058
G1 X119.408 Y109.359 E.01729
G1 X131.141 Y121.092 E.53015
G1 X131.094 Y121.302 E.00688
G1 X131 Y121.46 E.00587
G1 X130.982 Y121.477 E.00079
G1 X119.026 Y109.521 E.54023
G1 X118.906 Y109.698 E.00683
G1 X118.861 Y109.899 E.00658
G1 X130.594 Y121.632 E.53015
G1 X130.065 Y121.646 E.01691
G1 X118.857 Y110.439 E.50641
G1 X118.857 Y110.982 E.01735
G1 X129.521 Y121.646 E.48185
G1 X128.978 Y121.646 E.01735
G1 X118.857 Y111.525 E.45731
G1 X118.857 Y112.068 E.01735
G1 X128.434 Y121.646 E.43276
G1 X127.89 Y121.646 E.01738
G1 X118.856 Y112.611 E.40822
G1 X118.856 Y113.155 E.01738
G1 X127.347 Y121.645 E.38364
G1 X126.803 Y121.645 E.01738
G1 X118.856 Y113.698 E.35908
G1 X118.856 Y114.241 E.01735
M73 P3 R39
M73 Q3 S39
G1 X126.26 Y121.645 E.33455
G1 X125.716 Y121.645 E.01738
M73 P3 R38
G1 X118.856 Y114.784 E.30999
G1 X118.855 Y115.328 E.01738
G1 X125.173 Y121.645 E.28545
G1 X124.629 Y121.645 E.01738
G1 X118.855 Y115.871 E.2609
G1 X118.855 Y116.414 E.01735
G1 X124.085 Y121.644 E.23632
G1 X123.542 Y121.644 E.01735
G1 X118.855 Y116.957 E.21178
G1 X118.855 Y117.501 E.01738
G1 X122.998 Y121.644 E.1872
G1 X122.455 Y121.644 E.01735
G1 X118.855 Y118.044 E.16267
G1 X118.854 Y118.587 E.01735
G1 X121.911 Y121.644 E.13813
G1 X121.367 Y121.643 E.01738
G1 X118.854 Y119.13 E.11355
G1 X118.854 Y119.673 E.01735
G1 X120.824 Y121.643 E.08901
G1 X120.28 Y121.643 E.01738
G1 X118.854 Y120.217 E.06443
G1 X118.854 Y120.76 E.01735
G1 X119.737 Y121.643 E.0399
G1 X119.418 Y121.643 E.01019
G1 X119.198 Y121.594 E.0072
G1 X119.065 Y121.515 E.00494
G1 X118.705 Y121.155 E.01627
M204 S1000
; stop printing object Deej_Steam_Logo.stl id:4 copy 0
; printing object Deej_Discord_Logo.stl id:1 copy 0
;WIPE_START
G1 F8640
G1 X119.065 Y121.515 E-.11756
G1 X119.198 Y121.594 E-.03572
G1 X119.418 Y121.643 E-.05204
G1 X119.737 Y121.643 E-.07366
G1 X118.854 Y120.76 E-.28834
G1 X118.854 Y120.217 E-.12538
G1 X119.795 Y121.158 E-.3073
;WIPE_END
G1 Z.4 F720
G1 X130.931 Y88.08 F10800
G1 Z.2 F720
G1 E1 F2100
M204 S800
;TYPE:Perimeter
;WIDTH:0.419999
G1 F1200
G1 X131.183 Y88.236 E.00929
G1 X131.406 Y88.545 E.01195
G1 X131.486 Y89.049 E.016
G1 X131.482 Y99.956 E.34198
G1 X131.413 Y100.428 E.01496
G1 X131.2 Y100.738 E.01179
G1 X130.877 Y100.931 E.0118
G1 X130.532 Y100.986 E.01095
G1 X119.544 Y100.982 E.34452
G1 X119.072 Y100.913 E.01496
G1 X118.839 Y100.776 E.00847
G1 X118.611 Y100.477 E.01179
G1 X118.514 Y100.032 E.01428
G1 X118.518 Y88.987 E.34631
G1 X118.587 Y88.572 E.01319
G1 X118.74 Y88.313 E.00943
G1 X119.072 Y88.087 E.01259
G1 X119.38 Y88.018 E.0099
G1 X130.521 Y88.014 E.34932
G1 X130.872 Y88.07 E.01114
M204 S1000
G1 X131.082 Y87.734 F10800
M204 S800
G1 F1200
G1 X131.353 Y87.891 E.00982
