; generated by PrusaSlicer 2.6.1+win64 on 2023-11-15 at 17:31:00 UTC


;
;
; 

; external perimeters extrusion width = 0.45mm
; perimeters extrusion width = 0.45mm
; infill extrusion width = 0.45mm
; solid infill extrusion width = 0.45mm
; top infill extrusion width = 0.40mm
; first layer extrusion width = 0.42mm

M73 P0 R15
M73 Q0 S15
M201 X1000 Y1000 Z200 E5000 ; sets maximum accelerations, mm/sec^2
M203 X200 Y200 Z12 E120 ; sets maximum feedrates, mm / sec
M204 S1250 T1250 ; sets acceleration (S) and retract acceleration (R), mm/sec^2
M205 X8.00 Y8.00 Z0.40 E4.50 ; sets the jerk limits, mm/sec
M205 S0 T0 ; sets the minimum extruding and travel feed rate, mm/sec
;TYPE:Custom
M862.3 P "MK3S" ; printer model check
M862.1 P0.4 ; nozzle diameter check
M115 U3.12.2 ; tell printer latest fw version
G90 ; use absolute coordinates
M83 ; extruder relative mode
M104 S215 ; set extruder temp
M140 S60 ; set bed temp
M190 S60 ; wait for bed temp
M109 S215 ; wait for extruder temp
G28 W ; home all without mesh bed level
G80 ; mesh bed leveling

G1 Z0.2 F720
G1 Y-3 F1000 ; go outside print area
G92 E0
G1 X60 E9 F1000 ; intro line
G1 X100 E12.5 F1000 ; intro line

G92 E0
M221 S95

; Don't change E values below. Excessive value can damage the printer.
M907 E430 ; set extruder motor current
G21 ; set units to millimeters
G90 ; use absolute coordinates
M83 ; use relative distances for extrusion
M900 K0.05 ; Filament gcode LA 1.5
M900 K30 ; Filament gcode LA 1.0
M107
;LAYER_CHANGE
;Z:0.2
;HEIGHT:0.2
;BEFORE_LAYER_CHANGE
G92 E0.0
;0.2


G1 E-.8 F2100
G1 Z.4 F720
;AFTER_LAYER_CHANGE
;0.2
G1 X109.172 Y91.505 F10800
G1 Z.2 F720
G1 E.8 F2100
M204 S800
;TYPE:Skirt/Brim
;WIDTH:0.42
G1 F1200
G1 X110.556 Y90.033 E.06335
G1 X112.136 Y88.656 E.06571
G1 X113.373 Y87.754 E.048
G1 X115.115 Y86.699 E.06386
G1 X117.062 Y85.775 E.06757
G1 X118.98 Y85.09 E.06386
G1 X121.014 Y84.585 E.06571
G1 X123.089 Y84.288 E.06572
G1 X125.183 Y84.201 E.06571
G1 X127.275 Y84.325 E.06571
G1 X129.344 Y84.659 E.06571
G1 X131.369 Y85.199 E.06571
G1 X133.329 Y85.94 E.0657
G1 X135.205 Y86.875 E.06572
G1 X136.949 Y87.975 E.06465
G1 X138.602 Y89.264 E.06572
G1 X140.088 Y90.683 E.06442
G1 X141.452 Y92.274 E.06571
G1 X142.343 Y93.518 E.04798
G1 X143.384 Y95.269 E.06387
G1 X144.291 Y97.223 E.06754
M73 Q1 S15
G1 X144.96 Y99.148 E.0639
G1 X145.447 Y101.186 E.0657
G1 X145.727 Y103.263 E.06571
M73 P1 R15
G1 X145.797 Y105.357 E.06569
G1 X145.655 Y107.448 E.06571
G1 X145.304 Y109.514 E.06571
G1 X144.747 Y111.535 E.06573
G1 X144.019 Y113.42 E.06336
G1 X143.055 Y115.327 E.067
G1 X141.948 Y117.058 E.06442
G1 X141.015 Y118.272 E.04801
G1 X139.598 Y119.816 E.06571
G1 X138.079 Y121.173 E.06386
G1 X136.385 Y122.407 E.06571
G1 X134.576 Y123.465 E.06571
G1 X132.669 Y124.335 E.06572
G1 X130.685 Y125.008 E.06569
G1 X128.642 Y125.479 E.06574
G1 X126.563 Y125.741 E.0657
G1 X124.523 Y125.794 E.06398
G1 X122.411 Y125.638 E.0664
G1 X120.388 Y125.282 E.0644
G1 X118.371 Y124.715 E.06569
G1 X116.938 Y124.174 E.04803
G1 X115.101 Y123.294 E.06387
G1 X113.311 Y122.205 E.06569
G1 X111.639 Y120.941 E.06572
G1 X110.102 Y119.516 E.06572
G1 X108.717 Y117.943 E.06571
G1 X107.498 Y116.239 E.06569
G1 X106.456 Y114.42 E.06573
G1 X105.629 Y112.576 E.06337
G1 X104.954 Y110.548 E.06702
G1 X104.504 Y108.544 E.0644
G1 X104.252 Y106.463 E.06572
G1 X104.2 Y104.933 E.048
G1 X104.306 Y102.899 E.06386
G1 X104.623 Y100.827 E.06572
G1 X105.146 Y98.798 E.0657
G1 X105.871 Y96.832 E.0657
G1 X106.79 Y94.948 E.06572
G1 X107.894 Y93.167 E.0657
G1 X109.135 Y91.553 E.06384
M204 S1000
; printing object DumbStuff.stl id:0 copy 0
;WIPE_START
G1 F8640
G1 X110.556 Y90.033 E-.48046
G1 X111.599 Y89.124 E-.31954
;WIPE_END
G1 Z.6 F720
G1 X134.732 Y90.355 F10800
G1 Z.2 F720
G1 E.8 F2100
M204 S800
;TYPE:Perimeter
;WIDTH:0.419999
G1 F1200
G1 X135.238 Y90.703 E.01926
G1 X135.851 Y91.165 E.02407
G1 X136.63 Y91.81 E.03171
G1 X137.06 Y92.202 E.01824
G1 X137.895 Y93.045 E.0372
G1 X138.669 Y93.938 E.03705
G1 X139.384 Y94.884 E.03718
G1 X139.71 Y95.365 E.01822
G1 X140.329 Y96.383 E.03736
G1 X140.607 Y96.898 E.01835
G1 X140.869 Y97.423 E.0184
G1 X141.343 Y98.51 E.03718
G1 X141.744 Y99.627 E.03721
G1 X141.913 Y100.186 E.01831
G1 X142.105 Y100.928 E.02403
G1 X142.312 Y101.916 E.03165
G1 X142.428 Y102.67 E.02392
G1 X142.551 Y103.958 E.04057
G1 X142.579 Y105.448 E.04673
G1 X142.555 Y106.028 E.0182
G1 X142.445 Y107.212 E.03728
G1 X142.331 Y107.966 E.02391
G1 X142.134 Y108.958 E.03171
G1 X141.993 Y109.523 E.01826
G1 X141.648 Y110.663 E.03734
G1 X141.451 Y111.212 E.01829
G1 X141.162 Y111.923 E.02406
G1 X140.739 Y112.842 E.03172
G1 X140.47 Y113.361 E.01833
G1 X140.089 Y114.026 E.02403
G1 X139.547 Y114.88 E.03171
G1 X139.212 Y115.356 E.01825
G1 X138.478 Y116.294 E.03734
G1 X138.098 Y116.733 E.0182
G1 X137.273 Y117.593 E.03737
G1 X136.85 Y117.992 E.01823
G1 X135.944 Y118.765 E.03734
G1 X135.483 Y119.118 E.01821
G1 X134.505 Y119.795 E.03729
G1 X133.854 Y120.191 E.02389
G1 X132.966 Y120.677 E.03174
G1 X132.444 Y120.932 E.01822
G1 X131.352 Y121.397 E.03721
G1 X130.232 Y121.788 E.0372
G1 X129.67 Y121.953 E.01836
G1 X129.103 Y122.099 E.01836
G1 X127.94 Y122.337 E.03722
G1 X126.765 Y122.496 E.03718
G1 X126.186 Y122.545 E.01822
G1 X124.995 Y122.585 E.03736
G1 X124.414 Y122.575 E.01822
G1 X123.226 Y122.495 E.03733
G1 X122.646 Y122.426 E.01831
G1 X121.889 Y122.305 E.02404
G1 X120.9 Y122.1 E.03167
G1 X120.163 Y121.904 E.02391
G1 X119.198 Y121.6 E.03172
G1 X118.652 Y121.399 E.01824
G1 X117.556 Y120.932 E.03735
G1 X117.034 Y120.677 E.01822
G1 X115.993 Y120.103 E.03727
G1 X115.348 Y119.697 E.0239
G1 X114.522 Y119.122 E.03156
G1 X113.593 Y118.383 E.03722
G1 X112.725 Y117.592 E.03682
G1 X112.189 Y117.043 E.02406
G1 X111.516 Y116.288 E.03171
G1 X111.147 Y115.831 E.01842
G1 X110.794 Y115.364 E.01835
G1 X110.125 Y114.378 E.03736
G1 X109.823 Y113.882 E.01821
G1 X109.257 Y112.834 E.03735
G1 X109.006 Y112.309 E.01825
G1 X108.55 Y111.214 E.03719
G1 X108.168 Y110.091 E.03719
G1 X108.009 Y109.532 E.01822
G1 X107.741 Y108.371 E.03736
G1 X107.639 Y107.797 E.01828
G1 X107.536 Y107.037 E.02405
G1 X107.445 Y106.029 E.03173
G1 X107.421 Y105.448 E.01823
G1 X107.431 Y104.262 E.03719
G1 X107.521 Y103.079 E.0372
G1 X107.594 Y102.502 E.01824
G1 X107.803 Y101.329 E.03736
G1 X107.933 Y100.763 E.01821
G1 X108.258 Y99.622 E.0372
G1 X108.658 Y98.506 E.03717
G1 X108.884 Y97.965 E.01838
G1 X109.127 Y97.432 E.01837
G1 X109.676 Y96.374 E.03737
G1 X109.969 Y95.873 E.0182
G1 X110.619 Y94.88 E.03721
G1 X111.334 Y93.934 E.03718
G1 X112.101 Y93.048 E.03674
M73 Q2 S15
G1 X112.94 Y92.202 E.03736
G1 X113.37 Y91.811 E.01822
G1 X114.289 Y91.054 E.03733
G1 X114.756 Y90.707 E.01824
G1 X115.747 Y90.047 E.03733
G1 X116.246 Y89.749 E.01822
G1 X117.299 Y89.191 E.03737
M73 P2 R15
G1 X117.825 Y88.946 E.01819
G1 X118.929 Y88.497 E.03737
G1 X119.477 Y88.305 E.01821
G1 X120.62 Y87.969 E.03735
G1 X121.185 Y87.834 E.01821
G1 X122.356 Y87.615 E.03735
G1 X122.932 Y87.537 E.01822
G1 X124.117 Y87.437 E.03729
G1 X124.702 Y87.418 E.01835
G1 X125.47 Y87.424 E.02408
G1 X126.479 Y87.478 E.03168
G1 X127.644 Y87.615 E.03678
G1 X128.815 Y87.834 E.03735
G1 X129.38 Y87.969 E.01821
G1 X130.523 Y88.305 E.03735
G1 X131.071 Y88.497 E.01821
G1 X132.175 Y88.946 E.03737
G1 X132.701 Y89.191 E.01819
G1 X133.75 Y89.747 E.03722
G1 X134.681 Y90.323 E.03433
M204 S1000
G1 X134.93 Y90.034 F10800
M204 S800
;TYPE:External perimeter
G1 F1200
G1 X135.459 Y90.397 E.02012
G1 X136.084 Y90.869 E.02456
G1 X136.877 Y91.526 E.03229
G1 X137.321 Y91.93 E.01882
G1 X138.172 Y92.788 E.03789
G1 X138.962 Y93.7 E.03783
G1 X139.69 Y94.665 E.0379
G1 X140.027 Y95.161 E.0188
G1 X140.656 Y96.195 E.03795
G1 X140.942 Y96.725 E.01888
G1 X141.21 Y97.263 E.01885
G1 X141.694 Y98.371 E.03791
G1 X142.102 Y99.509 E.03791
G1 X142.276 Y100.084 E.01884
G1 X142.472 Y100.842 E.02455
G1 X142.683 Y101.849 E.03226
G1 X142.802 Y102.621 E.02449
G1 X142.928 Y103.935 E.04139
G1 X142.956 Y105.454 E.04764
G1 X142.931 Y106.054 E.01883
G1 X142.819 Y107.258 E.03791
G1 X142.702 Y108.031 E.02451
G1 X142.502 Y109.04 E.03225
G1 X142.357 Y109.623 E.01884
G1 X142.006 Y110.781 E.03794
G1 X141.803 Y111.347 E.01885
G1 X141.509 Y112.073 E.02456
G1 X141.078 Y113.008 E.03228
G1 X140.801 Y113.541 E.01883
G1 X140.412 Y114.221 E.02456
G1 X139.86 Y115.09 E.03228
G1 X139.515 Y115.581 E.01882
G1 X138.769 Y116.534 E.03795
G1 X138.376 Y116.988 E.01883
G1 X137.539 Y117.861 E.03792
G1 X137.102 Y118.273 E.01883
G1 X136.181 Y119.058 E.03794
G1 X135.705 Y119.423 E.01881
G1 X134.71 Y120.111 E.03793
G1 X134.043 Y120.517 E.02448
G1 X133.14 Y121.012 E.03229
G1 X132.6 Y121.275 E.01883
G1 X131.489 Y121.749 E.03787
G1 X130.348 Y122.147 E.03789
G1 X129.77 Y122.317 E.01889
G1 X129.188 Y122.467 E.01884
G1 X128.003 Y122.709 E.03792
G1 X126.806 Y122.871 E.03787
G1 X126.208 Y122.921 E.01882
G1 X124.998 Y122.962 E.03796
G1 X124.398 Y122.952 E.01882
G1 X123.191 Y122.871 E.03793
G1 X122.594 Y122.8 E.01885
G1 X121.821 Y122.676 E.02455
G1 X120.814 Y122.467 E.03225
G1 X120.058 Y122.266 E.02453
G1 X119.076 Y121.957 E.03228
G1 X118.513 Y121.75 E.01881
G1 X117.4 Y121.275 E.03794
G1 X116.86 Y121.012 E.01883
G1 X115.801 Y120.428 E.03792
G1 X115.14 Y120.011 E.0245
G1 X114.297 Y119.424 E.03221
G1 X113.351 Y118.672 E.03789
G1 X112.461 Y117.861 E.03775
G1 X111.913 Y117.3 E.02459
G1 X111.229 Y116.532 E.03225
G1 X110.85 Y116.064 E.01888
G1 X110.487 Y115.584 E.01887
G1 X109.808 Y114.582 E.03795
G1 X109.496 Y114.069 E.01883
G1 X108.92 Y113.005 E.03794
G1 X108.662 Y112.463 E.01882
G1 X108.197 Y111.348 E.03788
G1 X107.808 Y110.203 E.03792
G1 X107.644 Y109.626 E.01881
G1 X107.372 Y108.447 E.03794
G1 X107.266 Y107.855 E.01886
G1 X107.161 Y107.079 E.02455
G1 X107.069 Y106.054 E.03227
G1 X107.044 Y105.454 E.01883
G1 X107.054 Y104.246 E.03788
G1 X107.145 Y103.041 E.03789
G1 X107.221 Y102.445 E.01884
G1 X107.433 Y101.254 E.03793
G1 X107.568 Y100.669 E.01882
G1 X107.899 Y99.507 E.03788
G1 X108.307 Y98.369 E.03791
G1 X108.538 Y97.814 E.01885
G1 X108.788 Y97.266 E.01889
G1 X109.346 Y96.192 E.03795
G1 X109.649 Y95.674 E.01882
G1 X110.311 Y94.663 E.03789
G1 X111.039 Y93.699 E.03788
G1 X111.827 Y92.789 E.03774
G1 X112.679 Y91.93 E.03793
G1 X113.123 Y91.526 E.01882
G1 X114.057 Y90.756 E.03795
G1 X114.539 Y90.399 E.01881
G1 X115.546 Y89.728 E.03794
G1 X116.061 Y89.42 E.01881
G1 X117.131 Y88.854 E.03795
G1 X117.674 Y88.6 E.0188
G1 X118.795 Y88.144 E.03794
G1 X119.362 Y87.946 E.01883
G1 X120.523 Y87.605 E.03794
G1 X121.107 Y87.465 E.01883
G1 X122.296 Y87.243 E.03792
G1 X122.891 Y87.162 E.01883
G1 X124.095 Y87.061 E.03788
G1 X124.697 Y87.041 E.01889
G1 X125.482 Y87.047 E.02461
G1 X126.508 Y87.102 E.03222
G1 X127.704 Y87.243 E.03776
G1 X128.893 Y87.465 E.03792
G1 X129.477 Y87.605 E.01883
G1 X130.638 Y87.946 E.03794
G1 X131.205 Y88.144 E.01883
G1 X132.326 Y88.6 E.03794
G1 X132.869 Y88.854 E.0188
G1 X133.937 Y89.419 E.03788
G1 X134.879 Y90.003 E.03475
M204 S1000
G1 X134.91 Y90.434 F10800
;WIPE_START
G1 F8640
G1 X135.459 Y90.397 E-.1619
G1 X136.084 Y90.869 E-.18084
G1 X136.877 Y91.526 E-.23778
G1 X137.321 Y91.93 E-.13861
G1 X137.568 Y92.179 E-.08087
;WIPE_END
G1 Z.6 F720
G1 X138.896 Y94.519 F10800
G1 Z.2 F720
G1 E.8 F2100
M204 S800
;TYPE:Solid infill
;WIDTH:0.421818
G1 F1200
G1 X136.81 Y92.434 E.09292
G1 X136.407 Y92.066 E.01719
G1 X135.64 Y91.431 E.03137
G1 X135.04 Y90.978 E.02369
G1 X134.371 Y90.531 E.02535
G1 X139.48 Y95.639 E.22761
G1 X140.034 Y96.552 E.03365
G1 X140.243 Y96.939 E.01386
G1 X133.081 Y89.777 E.31911
G1 X132.55 Y89.495 E.01894
G1 X132.016 Y89.247 E.01855
G1 X140.736 Y97.967 E.38852
G1 X141.028 Y98.636 E.023
G1 X141.117 Y98.884 E.0083
G1 X131.113 Y88.88 E.44573
M73 Q3 S15
G1 X130.286 Y88.589 E.02762
M73 P3 R15
G1 X141.416 Y99.719 E.4959
G1 X141.637 Y100.476 E.02485
G1 X129.528 Y88.367 E.53952
G1 X128.806 Y88.181 E.02349
G1 X141.812 Y101.187 E.57949
G1 X141.955 Y101.865 E.02183
G1 X128.143 Y88.054 E.61538
G1 X127.491 Y87.937 E.02087
G1 X142.059 Y102.505 E.64908
G1 X142.134 Y103.116 E.01939
G1 X126.877 Y87.859 E.67978
G1 X126.289 Y87.807 E.0186
G1 X142.197 Y103.715 E.70879
G1 X142.23 Y104.284 E.01796
G1 X125.723 Y87.777 E.73548
G1 X125.171 Y87.761 E.0174
G1 X142.234 Y104.824 E.76025
G1 X142.239 Y105.364 E.01701
M73 P4 R15
M73 Q4 S15
G1 X124.64 Y87.766 E.78411
G1 X124.117 Y87.778 E.01648
G1 X142.221 Y105.882 E.80663
G1 X142.181 Y106.379 E.01571
M73 P4 R14
G1 X123.622 Y87.82 E.82691
G1 X123.128 Y87.861 E.01562
M73 Q4 S14
G1 X142.136 Y106.869 E.84691
G1 X142.081 Y107.35 E.01525
G1 X122.649 Y87.918 E.8658
G1 X122.187 Y87.992 E.01474
G1 X142.01 Y107.815 E.88322
G1 X141.925 Y108.266 E.01446
G1 X121.736 Y88.076 E.89955
G1 X121.284 Y88.161 E.01449
M73 P5 R14
M73 Q5 S14
G1 X141.836 Y108.713 E.9157
G1 X141.736 Y109.149 E.01409
G1 X120.851 Y88.263 E.93056
G1 X120.431 Y88.379 E.01373
G1 X141.624 Y109.572 E.94426
G1 X141.499 Y109.983 E.01353
G1 X120.016 Y88.5 E.95719
G1 X119.602 Y88.622 E.0136
G1 X141.375 Y110.394 E.97008
G1 X141.24 Y110.795 E.01333
G1 X119.204 Y88.76 E.9818
G1 X118.817 Y88.908 E.01305
M73 P6 R14
M73 Q6 S14
G1 X141.095 Y111.187 E.99263
G1 X140.94 Y111.568 E.01296
G1 X118.436 Y89.063 E1.0027
G1 X118.055 Y89.218 E.01296
G1 X140.78 Y111.943 E1.01252
G1 X140.611 Y112.31 E.01273
G1 X117.686 Y89.385 E1.02143
G1 X117.326 Y89.561 E.01262
G1 X140.442 Y112.677 E1.02994
G1 X140.259 Y113.03 E.01253
G1 X116.976 Y89.746 E1.03741
G1 X116.626 Y89.932 E.01249
M73 P7 R14
M73 Q7 S14
G1 X140.07 Y113.376 E1.04456
G1 X139.875 Y113.717 E.01238
G1 X116.281 Y90.123 E1.05124
G1 X115.945 Y90.323 E.01232
G1 X139.672 Y114.05 E1.05717
G1 X139.464 Y114.378 E.01224
G1 X115.623 Y90.537 E1.06225
G1 X115.302 Y90.751 E.01215
G1 X139.255 Y114.705 E1.06726
G1 X139.034 Y115.019 E.0121
M73 P8 R14
M73 Q8 S14
G1 X114.98 Y90.966 E1.07172
G1 X114.671 Y91.193 E.01208
G1 X138.804 Y115.326 E1.07526
G1 X138.569 Y115.627 E.01203
G1 X114.37 Y91.427 E1.07822
G1 X114.076 Y91.669 E.012
G1 X138.334 Y115.927 E1.08083
G1 X138.092 Y116.221 E.012
G1 X113.782 Y91.911 E1.08314
G1 X113.493 Y92.158 E.01198
G1 X137.843 Y116.508 E1.08493
G1 X137.581 Y116.782 E.01194
M73 P9 R14
M73 Q9 S14
G1 X113.212 Y92.413 E1.08577
G1 X113.175 Y92.447 E.00158
G1 X112.944 Y92.68 E.01034
G1 X137.319 Y117.055 E1.08604
G1 X137.056 Y117.329 E.01197
G1 X112.677 Y92.95 E1.08622
G1 X112.41 Y93.219 E.01194
G1 X136.782 Y117.59 E1.08588
G1 X136.5 Y117.844 E.01196
G1 X112.157 Y93.502 E1.08459
G1 X111.909 Y93.789 E.01195
M73 P10 R14
M73 Q10 S14
G1 X136.211 Y118.091 E1.08279
G1 X135.922 Y118.337 E.01196
G1 X111.66 Y94.076 E1.08098
G1 X111.425 Y94.377 E.01203
G1 X135.628 Y118.579 E1.07835
G1 X135.325 Y118.812 E.01204
G1 X111.194 Y94.682 E1.07515
G1 X110.964 Y94.987 E.01204
M73 P10 R13
M73 Q10 S13
G1 X135.01 Y119.033 E1.07138
G1 X134.693 Y119.252 E.01214
M73 Q11 S13
G1 X110.746 Y95.306 E1.06695
M73 P11 R13
G1 X110.534 Y95.629 E.01217
G1 X134.376 Y119.471 E1.06229
G1 X134.046 Y119.677 E.01226
G1 X110.322 Y95.953 E1.05703
G1 X110.12 Y96.287 E.0123
G1 X133.713 Y119.879 E1.05118
G1 X133.368 Y120.07 E.01242
G1 X109.926 Y96.629 E1.04445
G1 X109.743 Y96.982 E.01253
G1 X133.021 Y120.26 E1.03716
G1 X132.67 Y120.444 E.01249
M73 P12 R13
M73 Q12 S13
G1 X109.56 Y97.334 E1.02968
G1 X109.383 Y97.693 E.01261
G1 X132.309 Y120.619 E1.02148
G1 X131.934 Y120.78 E.01286
G1 X109.22 Y98.066 E1.01203
G1 X109.058 Y98.439 E.01281
G1 X131.558 Y120.94 E1.00252
G1 X131.18 Y121.098 E.01291
G1 X108.905 Y98.823 E.99247
G1 X108.764 Y99.217 E.01318
G1 X130.783 Y121.236 E.98107
G1 X130.386 Y121.375 E.01325
M73 P13 R13
M73 Q13 S13
G1 X108.622 Y99.612 E.96968
G1 X108.497 Y100.022 E.0135
G1 X129.983 Y121.508 E.95732
G1 X129.568 Y121.629 E.01362
G1 X108.378 Y100.439 E.94413
G1 X108.26 Y100.857 E.01368
G1 X129.142 Y121.739 E.93041
G1 X128.702 Y121.835 E.01419
G1 X108.16 Y101.292 E.91528
G1 X108.074 Y101.742 E.01443
G1 X128.257 Y121.926 E.89929
G1 X127.808 Y122.012 E.0144
M73 P14 R13
M73 Q14 S13
G1 X107.993 Y102.197 E.88287
G1 X107.916 Y102.656 E.01466
G1 X127.336 Y122.076 E.86527
G1 X126.864 Y122.14 E.01501
G1 X107.857 Y103.133 E.84687
G1 X107.819 Y103.631 E.01574
G1 X126.376 Y122.188 E.82682
G1 X125.868 Y122.216 E.01603
G1 X107.781 Y104.129 E.80588
