; generated by PrusaSlicer 2.6.1+win64 on 2023-11-13 at 23:57:38 UTC


;
;
; 

; external perimeters extrusion width = 0.45mm
; perimeters extrusion width = 0.45mm
; infill extrusion width = 0.45mm
; solid infill extrusion width = 0.45mm
; top infill extrusion width = 0.40mm
; first layer extrusion width = 0.42mm

; external perimeters extrusion width = 0.45mm
; perimeters extrusion width = 0.45mm
; infill extrusion width = 0.45mm
; solid infill extrusion width = 0.45mm
; top infill extrusion width = 0.40mm
; first layer extrusion width = 0.42mm

M73 P0 R157
M73 Q0 S159
M201 X1000 Y1000 Z200 E5000 ; sets maximum accelerations, mm/sec^2
M203 X200 Y200 Z12 E120 ; sets maximum feedrates, mm / sec
M204 S1250 T1250 ; sets acceleration (S) and retract acceleration (R), mm/sec^2
M205 X8.00 Y8.00 Z0.40 E4.50 ; sets the jerk limits, mm/sec
M205 S0 T0 ; sets the minimum extruding and travel feed rate, mm/sec
;TYPE:Custom
M862.3 P "MK3S" ; printer model check
M862.1 P0.4 ; nozzle diameter check
M115 U3.12.2 ; tell printer latest fw version
G90 ; use absolute coordinates
M83 ; extruder relative mode
M104 S215 ; set extruder temp
M140 S60 ; set bed temp
M190 S60 ; wait for bed temp
M109 S215 ; wait for extruder temp
G28 W ; home all without mesh bed level
G80 ; mesh bed leveling

G1 Z0.2 F720
G1 Y-3 F1000 ; go outside print area
G92 E0
G1 X60 E9 F1000 ; intro line
G1 X100 E12.5 F1000 ; intro line

G92 E0
M221 S95

; Don't change E values below. Excessive value can damage the printer.
M907 E430 ; set extruder motor current
G21 ; set units to millimeters
G90 ; use absolute coordinates
M83 ; use relative distances for extrusion
M900 K0.05 ; Filament gcode LA 1.5
M900 K30 ; Filament gcode LA 1.0
M107
;LAYER_CHANGE
;Z:0.2
;HEIGHT:0.2
;BEFORE_LAYER_CHANGE
G92 E0.0
;0.2


G1 E-.8 F2100
G1 Z.4 F720
;AFTER_LAYER_CHANGE
;0.2
G1 X67.83 Y37.148 F10800
G1 Z.2 F720
G1 E.8 F2100
M204 S800
;TYPE:Skirt/Brim
;WIDTH:0.42
G1 F1200
G1 X68.876 Y36.272 E.04278
G1 X69.816 Y36.078 E.03009
G1 X180.184 Y36.078 E3.46051
G1 X181.491 Y36.47 E.04278
G1 X182.368 Y37.516 E.0428
G1 X182.562 Y38.455 E.03006
G1 X182.562 Y102.704 E2.01448
G1 X181.561 Y171.284 E2.15051
G1 X181.151 Y172.585 E.04277
G1 X180.092 Y173.446 E.04279
G1 X179.184 Y173.626 E.02902
G1 X70.816 Y173.626 E3.3978
G1 X69.509 Y173.234 E.04278
G1 X68.632 Y172.189 E.04277
G1 X68.439 Y171.284 E.02901
G1 X67.439 Y102.739 E2.14941
G1 X67.438 Y38.455 E2.01558
G1 X67.813 Y37.206 E.04089
M204 S1000
; printing object BTM27.stl id:0 copy 0
;WIPE_START
G1 F8640
G1 X68.876 Y36.272 E-.32674
G1 X69.816 Y36.078 E-.22162
G1 X70.906 Y36.078 E-.25164
;WIPE_END
G1 Z.6 F720
G1 X71.603 Y109.787 F10800
G1 Z.2 F720
G1 E.8 F2100
M204 S800
;TYPE:Perimeter
;WIDTH:0.419999
G1 F1200
G1 X178.397 Y109.787 E3.34845
G1 X178.397 Y170.462 E1.90242
M73 P0 R156
G1 X71.603 Y170.462 E3.34845
G1 X71.603 Y109.847 E1.90054
M204 S1000
G1 X71.226 Y109.41 F10800
M204 S800
;TYPE:External perimeter
M73 Q0 S158
G1 F1200
G1 X178.774 Y109.41 E3.37209
G1 X178.774 Y170.839 E1.92606
G1 X71.226 Y170.839 E3.37209
G1 X71.226 Y109.47 E1.92418
M204 S1000
G1 X71.62 Y109.479 F10800
;WIPE_START
G1 F8640
G1 X74.691 Y109.468 E-.8
;WIPE_END
G1 Z.6 F720
G1 X174.342 Y115.279 F10800
G1 Z.2 F720
G1 E.8 F2100
M204 S800
;TYPE:Perimeter
G1 F1200
G1 X174.467 Y115.742 E.01504
G1 X174.496 Y116.164 E.01326
G1 X174.45 Y116.584 E.01325
G1 X174.333 Y116.99 E.01325
G1 X174.146 Y117.37 E.01328
G1 X173.897 Y117.711 E.01324
G1 X173.591 Y118.004 E.01328
G1 X173.24 Y118.24 E.01326
G1 X172.853 Y118.411 E.01327
G1 X172.443 Y118.512 E.01324
G1 X172.021 Y118.54 E.01326
G1 X171.6 Y118.495 E.01328
G1 X171.194 Y118.377 E.01326
G1 X170.814 Y118.191 E.01327
G1 X170.53 Y117.991 E.01089
G1 X170.18 Y117.636 E.01563
G1 X169.945 Y117.285 E.01324
G1 X169.774 Y116.898 E.01327
G1 X169.673 Y116.487 E.01327
G1 X169.644 Y116.065 E.01326
G1 X169.69 Y115.645 E.01325
G1 X169.807 Y115.238 E.01328
G1 X169.994 Y114.859 E.01325
G1 X170.243 Y114.517 E.01326
G1 X170.549 Y114.224 E.01328
G1 X170.9 Y113.989 E.01324
G1 X171.287 Y113.818 E.01327
G1 X171.747 Y113.715 E.01478
G1 X172.393 Y113.715 E.02025
G1 X172.946 Y113.852 E.01786
G1 X173.326 Y114.038 E.01327
G1 X173.782 Y114.403 E.01831
G1 X174.146 Y114.859 E.01829
G1 X174.317 Y115.225 E.01267
M204 S1000
G1 X174.041 Y115.577 F10800
M204 S800
;TYPE:External perimeter
G1 F1200
G1 X174.092 Y115.775 E.00641
G1 X174.12 Y116.131 E.0112
G1 X174.086 Y116.487 E.01121
G1 X173.991 Y116.831 E.01119
G1 X173.837 Y117.154 E.01122
G1 X173.63 Y117.445 E.0112
G1 X173.375 Y117.695 E.0112
G1 X173.081 Y117.898 E.0112
G1 X172.756 Y118.047 E.01121
G1 X172.41 Y118.136 E.0112
G1 X172.054 Y118.165 E.0112
G1 X171.698 Y118.131 E.01121
G1 X171.353 Y118.035 E.01123
G1 X171.031 Y117.882 E.01118
G1 X170.759 Y117.691 E.01042
G1 X170.489 Y117.42 E.01199
G1 X170.286 Y117.125 E.01123
G1 X170.138 Y116.8 E.0112
G1 X170.048 Y116.454 E.01121
G1 X170.02 Y116.098 E.0112
G1 X170.054 Y115.742 E.01121
G1 X170.149 Y115.398 E.01119
G1 X170.303 Y115.075 E.01122
G1 X170.51 Y114.784 E.0112
G1 X170.765 Y114.533 E.01122
G1 X171.059 Y114.331 E.01118
G1 X171.384 Y114.182 E.01121
G1 X171.747 Y114.092 E.01173
G1 X172.393 Y114.092 E.02025
G1 X172.787 Y114.194 E.01276
G1 X173.109 Y114.347 E.01118
G1 X173.515 Y114.669 E.01625
G1 X173.837 Y115.075 E.01625
G1 X174.002 Y115.429 E.01225
G1 X174.026 Y115.519 E.00292
M204 S1000
G1 X174.24 Y115.623 F10800
;WIPE_START
G1 F8640
G1 X174.092 Y115.775 E-.06104
G1 X174.12 Y116.131 E-.08246
G1 X174.086 Y116.487 E-.08258
G1 X173.991 Y116.831 E-.0824
G1 X173.837 Y117.154 E-.08262
G1 X173.63 Y117.445 E-.08246
G1 X173.375 Y117.695 E-.08246
G1 X173.081 Y117.898 E-.0825
G1 X172.756 Y118.047 E-.08255
G1 X172.425 Y118.132 E-.07893
;WIPE_END
G1 Z.6 F720
G1 X171.234 Y161.862 F10800
G1 Z.2 F720
G1 E.8 F2100
M204 S800
;TYPE:Perimeter
G1 F1200
G1 X171.747 Y161.735 E.01657
G1 X172.393 Y161.735 E.02025
G1 X172.946 Y161.872 E.01786
G1 X173.326 Y162.058 E.01327
G1 X173.667 Y162.308 E.01326
G1 X173.96 Y162.613 E.01326
G1 X174.195 Y162.964 E.01324
G1 X174.366 Y163.351 E.01327
G1 X174.467 Y163.762 E.01327
G1 X174.496 Y164.184 E.01326
G1 X174.45 Y164.604 E.01325
G1 X174.333 Y165.01 E.01325
G1 X174.146 Y165.39 E.01328
G1 X173.782 Y165.846 E.01829
G1 X173.591 Y166.024 E.00819
G1 X173.24 Y166.26 E.01326
G1 X172.853 Y166.431 E.01327
G1 X172.443 Y166.532 E.01324
G1 X172.021 Y166.56 E.01326
G1 X171.6 Y166.515 E.01328
G1 X171.194 Y166.397 E.01326
G1 X170.814 Y166.211 E.01327
G1 X170.473 Y165.961 E.01326
G1 X170.18 Y165.656 E.01326
G1 X169.945 Y165.305 E.01324
G1 X169.774 Y164.918 E.01327
G1 X169.673 Y164.507 E.01327
G1 X169.644 Y164.085 E.01326
G1 X169.69 Y163.665 E.01325
G1 X169.807 Y163.258 E.01328
G1 X169.994 Y162.879 E.01325
G1 X170.358 Y162.423 E.01829
G1 X170.814 Y162.058 E.01831
G1 X171.18 Y161.888 E.01265
M204 S1000
G1 X171.353 Y162.217 F10800
M204 S800
;TYPE:External perimeter
G1 F1200
G1 X171.747 Y162.112 E.01278
G1 X172.393 Y162.112 E.02025
G1 X172.787 Y162.214 E.01276
G1 X173.109 Y162.367 E.01118
G1 X173.4 Y162.575 E.01122
G1 X173.651 Y162.829 E.0112
G1 X173.854 Y163.124 E.01123
G1 X174.002 Y163.449 E.0112
G1 X174.092 Y163.795 E.01121
G1 X174.12 Y164.151 E.0112
G1 X174.086 Y164.507 E.01121
G1 X173.991 Y164.851 E.01119
G1 X173.837 Y165.174 E.01122
G1 X173.515 Y165.58 E.01625
G1 X173.375 Y165.715 E.0061
G1 X173.081 Y165.918 E.0112
G1 X172.756 Y166.067 E.01121
G1 X172.41 Y166.156 E.0112
G1 X172.054 Y166.185 E.0112
G1 X171.698 Y166.151 E.01121
G1 X171.353 Y166.055 E.01123
G1 X171.031 Y165.902 E.01118
G1 X170.74 Y165.694 E.01122
G1 X170.489 Y165.44 E.0112
G1 X170.286 Y165.145 E.01123
G1 X170.138 Y164.82 E.0112
G1 X170.048 Y164.474 E.01121
G1 X170.02 Y164.118 E.0112
G1 X170.054 Y163.762 E.01121
G1 X170.149 Y163.418 E.01119
G1 X170.303 Y163.095 E.01122
G1 X170.625 Y162.689 E.01625
G1 X171.031 Y162.367 E.01625
G1 X171.299 Y162.242 E.00927
M204 S1000
G1 X171.416 Y161.822 F10800
;WIPE_START
G1 F8640
G1 X171.747 Y162.112 E-.10771
G1 X172.393 Y162.112 E-.14916
G1 X172.787 Y162.214 E-.09397
G1 X173.109 Y162.367 E-.08232
G1 X173.4 Y162.575 E-.08259
G1 X173.651 Y162.829 E-.08245
G1 X173.854 Y163.124 E-.08269
G1 X174.002 Y163.449 E-.08246
G1 X174.042 Y163.603 E-.03665
;WIPE_END
G1 Z.6 F720
G1 X97.933 Y164.133 F10800
G1 Z.2 F720
G1 E.8 F2100
M204 S800
;TYPE:Perimeter
G1 F1200
G1 X97.866 Y164.218 E.00339
G1 X97.624 Y164.323 E.00827
G1 X97.526 Y164.332 E.00309
G1 X95.584 Y164.332 E.06089
G1 X95.344 Y164.278 E.00771
G1 X95.164 Y164.145 E.00702
G1 X95.035 Y163.905 E.00854
G1 X95.018 Y163.102 E.02518
G1 X95.018 Y160.843 E.07083
G1 X95.104 Y160.543 E.00979
G1 X95.293 Y160.358 E.00829
G1 X95.564 Y160.278 E.00886
G1 X97.526 Y160.277 E.06152
G1 X97.801 Y160.348 E.00891
G1 X98.009 Y160.548 E.00905
G1 X98.092 Y160.843 E.00961
G1 X98.092 Y163.766 E.09165
G1 X98.049 Y163.983 E.00694
G1 X97.969 Y164.085 E.00406
M204 S1000
G1 X97.666 Y163.892 F10800
M204 S800
;TYPE:External perimeter
G1 F1200
G1 X97.526 Y163.954 E.0048
G1 X95.584 Y163.954 E.06089
G1 X95.444 Y163.892 E.0048
G1 X95.395 Y163.766 E.00424
G1 X95.395 Y160.843 E.09165
G1 X95.424 Y160.743 E.00326
G1 X95.557 Y160.656 E.00498
G1 X97.529 Y160.654 E.06183
G1 X97.673 Y160.724 E.00502
G1 X97.715 Y160.843 E.00396
G1 X97.715 Y163.766 E.09165
G1 X97.688 Y163.836 E.00235
M204 S1000
G1 X97.708 Y164.04 F10800
;WIPE_START
G1 F8640
G1 X97.526 Y163.954 E-.04628
G1 X95.584 Y163.954 E-.44841
G1 X95.444 Y163.892 E-.03535
G1 X95.395 Y163.766 E-.03122
G1 X95.395 Y162.732 E-.23874
;WIPE_END
G1 Z.6 F720
G1 X75.658 Y164.97 F10800
G1 Z.2 F720
G1 E.8 F2100
M204 S800
;TYPE:Perimeter
G1 F1200
G1 X75.533 Y164.507 E.01504
G1 X75.504 Y164.085 E.01326
G1 X75.55 Y163.665 E.01325
G1 X75.667 Y163.258 E.01328
G1 X75.854 Y162.879 E.01325
G1 X76.103 Y162.537 E.01326
G1 X76.409 Y162.244 E.01328
G1 X76.76 Y162.009 E.01324
G1 X77.147 Y161.838 E.01327
G1 X77.607 Y161.735 E.01478
G1 X78.253 Y161.735 E.02025
G1 X78.747 Y161.848 E.01589
G1 X79.186 Y162.058 E.01526
G1 X79.527 Y162.308 E.01326
G1 X79.846 Y162.655 E.01478
G1 X80.17 Y163.214 E.02026
G1 X80.321 Y163.712 E.01632
G1 X80.356 Y164.184 E.01484
G1 X80.31 Y164.604 E.01325
G1 X80.193 Y165.01 E.01325
G1 X80.006 Y165.39 E.01328
G1 X79.757 Y165.731 E.01324
G1 X79.451 Y166.024 E.01328
G1 X79.1 Y166.26 E.01326
G1 X78.806 Y166.397 E.01017
G1 X78.303 Y166.532 E.01633
G1 X77.881 Y166.56 E.01326
G1 X77.46 Y166.515 E.01328
G1 X77.054 Y166.397 E.01326
G1 X76.674 Y166.211 E.01327
G1 X76.218 Y165.846 E.01831
G1 X75.854 Y165.39 E.01829
G1 X75.683 Y165.024 E.01267
M204 S1000
G1 X75.967 Y164.7 F10800
M204 S800
;TYPE:External perimeter
G1 F1200
G1 X75.908 Y164.474 E.00732
G1 X75.88 Y164.118 E.0112
G1 X75.914 Y163.762 E.01121
G1 X76.009 Y163.418 E.01119
G1 X76.163 Y163.095 E.01122
G1 X76.37 Y162.804 E.0112
G1 X76.625 Y162.553 E.01122
G1 X76.919 Y162.351 E.01118
G1 X77.244 Y162.202 E.01121
G1 X77.607 Y162.112 E.01173
G1 X78.253 Y162.112 E.02025
G1 X78.647 Y162.214 E.01276
G1 X78.969 Y162.367 E.01118
G1 X79.26 Y162.575 E.01122
G1 X79.52 Y162.843 E.01171
G1 X79.843 Y163.403 E.02027
G1 X79.952 Y163.795 E.01276
G1 X79.98 Y164.151 E.0112
G1 X79.946 Y164.507 E.01121
G1 X79.851 Y164.851 E.01119
G1 X79.697 Y165.174 E.01122
G1 X79.49 Y165.465 E.0112
G1 X79.235 Y165.715 E.0112
G1 X78.941 Y165.918 E.0112
G1 X78.647 Y166.055 E.01017
G1 X78.27 Y166.156 E.01224
G1 X77.914 Y166.185 E.0112
G1 X77.558 Y166.151 E.01121
G1 X77.213 Y166.055 E.01123
G1 X76.891 Y165.902 E.01118
G1 X76.485 Y165.58 E.01625
G1 X76.163 Y165.174 E.01625
G1 X75.982 Y164.758 E.01422
M204 S1000
G1 X75.737 Y164.659 F10800
;WIPE_START
G1 F8640
G1 X75.908 Y164.474 E-.06777
G1 X75.88 Y164.118 E-.08246
G1 X75.914 Y163.762 E-.08258
G1 X76.009 Y163.418 E-.0824
G1 X76.163 Y163.095 E-.08262
G1 X76.37 Y162.804 E-.08246
G1 X76.625 Y162.553 E-.08262
G1 X76.919 Y162.351 E-.08236
G1 X77.244 Y162.202 E-.08255
G1 X77.547 Y162.127 E-.07218
;WIPE_END
G1 Z.6 F720
G1 X77.094 Y113.842 F10800
G1 Z.2 F720
G1 E.8 F2100
M204 S800
;TYPE:Perimeter
G1 F1200
G1 X77.607 Y113.715 E.01657
G1 X78.253 Y113.715 E.02025
G1 X78.806 Y113.852 E.01786
G1 X79.186 Y114.038 E.01327
G1 X79.527 Y114.288 E.01326
G1 X79.82 Y114.593 E.01326
G1 X80.055 Y114.944 E.01324
G1 X80.226 Y115.331 E.01327
G1 X80.327 Y115.742 E.01327
G1 X80.356 Y116.164 E.01326
G1 X80.31 Y116.584 E.01325
G1 X80.193 Y116.99 E.01325
G1 X80.006 Y117.37 E.01328
G1 X79.757 Y117.711 E.01324
G1 X79.451 Y118.004 E.01328
G1 X79.1 Y118.24 E.01326
G1 X78.713 Y118.411 E.01327
G1 X78.303 Y118.512 E.01324
G1 X77.881 Y118.54 E.01326
G1 X77.46 Y118.495 E.01328
G1 X77.054 Y118.377 E.01326
G1 X76.674 Y118.191 E.01327
G1 X76.333 Y117.941 E.01326
G1 X76.014 Y117.594 E.01478
G1 X75.69 Y117.034 E.02029
G1 X75.539 Y116.536 E.01632
G1 X75.504 Y116.164 E.01172
G1 X75.55 Y115.645 E.01634
G1 X75.667 Y115.238 E.01328
G1 X75.854 Y114.859 E.01325
G1 X76.218 Y114.403 E.01829
G1 X76.674 Y114.038 E.01831
G1 X77.04 Y113.868 E.01265
M204 S1000
G1 X77.214 Y114.197 F10800
M204 S800
;TYPE:External perimeter
G1 F1200
G1 X77.607 Y114.092 E.01275
G1 X78.253 Y114.092 E.02025
G1 X78.647 Y114.194 E.01276
G1 X78.969 Y114.347 E.01118
G1 X79.26 Y114.555 E.01122
G1 X79.511 Y114.809 E.0112
G1 X79.714 Y115.104 E.01123
G1 X79.862 Y115.429 E.0112
G1 X79.952 Y115.775 E.01121
G1 X79.98 Y116.131 E.0112
G1 X79.946 Y116.487 E.01121
G1 X79.851 Y116.831 E.01119
G1 X79.697 Y117.154 E.01122
G1 X79.49 Y117.445 E.0112
G1 X79.235 Y117.695 E.0112
G1 X78.941 Y117.898 E.0112
G1 X78.616 Y118.047 E.01121
G1 X78.27 Y118.136 E.0112
G1 X77.914 Y118.165 E.0112
G1 X77.558 Y118.131 E.01121
G1 X77.213 Y118.035 E.01123
G1 X76.891 Y117.882 E.01118
G1 X76.6 Y117.674 E.01122
G1 X76.34 Y117.406 E.01171
G1 X76.017 Y116.846 E.02027
G1 X75.908 Y116.454 E.01276
G1 X75.88 Y116.131 E.01017
G1 X75.914 Y115.742 E.01224
G1 X76.009 Y115.398 E.01119
G1 X76.163 Y115.075 E.01122
G1 X76.485 Y114.669 E.01625
G1 X76.891 Y114.347 E.01625
G1 X77.159 Y114.222 E.00927
M204 S1000
G1 X77.277 Y113.802 F10800
;WIPE_START
G1 F8640
G1 X77.607 Y114.092 E-.10771
G1 X78.253 Y114.092 E-.14916
G1 X78.647 Y114.194 E-.09397
G1 X78.969 Y114.347 E-.08232
G1 X79.26 Y114.555 E-.08259
G1 X79.511 Y114.809 E-.08245
G1 X79.714 Y115.104 E-.08269
G1 X79.862 Y115.429 E-.08246
G1 X79.902 Y115.583 E-.03665
;WIPE_END
G1 Z.6 F720
G1 X177.463 Y109.957 F10800
G1 Z.2 F720
G1 E.8 F2100
M204 S800
;TYPE:Solid infill
;WIDTH:0.421099
G1 F1200
G1 X178.058 Y110.552 E.02646
G1 X178.058 Y111.087 E.01682
G1 X177.098 Y110.126 E.04271
G1 X176.563 Y110.126 E.01682
G1 X178.058 Y111.621 E.06648
G1 X178.058 Y112.156 E.01682
G1 X176.028 Y110.126 E.09028
G1 X175.493 Y110.126 E.01682
G1 X178.058 Y112.691 E.11407
G1 X178.058 Y113.226 E.01682
G1 X174.959 Y110.126 E.13784
G1 X174.424 Y110.126 E.01682
G1 X178.058 Y113.761 E.16163
G1 X178.058 Y114.295 E.01679
G1 X173.889 Y110.126 E.1854
G1 X173.354 Y110.126 E.01682
G1 X178.058 Y114.83 E.20919
G1 X178.058 Y115.365 E.01682
G1 X172.819 Y110.126 E.23298
G1 X172.284 Y110.126 E.01682
G1 X178.058 Y115.9 E.25678
G1 X178.058 Y116.435 E.01682
G1 X171.75 Y110.126 E.28055
G1 X171.215 Y110.126 E.01682
G1 X178.058 Y116.97 E.30434
G1 X178.058 Y117.504 E.01679
G1 X170.68 Y110.126 E.32811
G1 X170.145 Y110.126 E.01682
G1 X178.058 Y118.039 E.3519
G1 X178.058 Y118.574 E.01682
G1 X174.668 Y115.184 E.15076
G1 X174.498 Y114.791 E.01346
G1 X174.233 Y114.39 E.01511
G1 X173.899 Y114.04 E.01521
G1 X173.394 Y113.686 E.01939
G1 X172.996 Y113.513 E.01365
G1 X169.61 Y110.126 E.1506
G1 X169.076 Y110.126 E.01679
G1 X172.325 Y113.376 E.14451
G1 X171.798 Y113.384 E.01657
G1 X168.541 Y110.126 E.14486
G1 X168.006 Y110.126 E.01682
G1 X171.334 Y113.455 E.14802
G1 X171.188 Y113.493 E.00474
G1 X170.944 Y113.6 E.00838
G1 X167.471 Y110.126 E.15447
G1 X166.936 Y110.126 E.01682
G1 X170.596 Y113.786 E.16276
G1 X170.285 Y114.01 E.01205
G1 X166.401 Y110.126 E.17273
G1 X165.867 Y110.126 E.01679
G1 X170.011 Y114.271 E.18431
G1 X169.781 Y114.576 E.01201
G1 X165.332 Y110.126 E.19787
G1 X164.797 Y110.126 E.01682
G1 X169.588 Y114.918 E.21308
G1 X169.495 Y115.105 E.00657
G1 X169.441 Y115.305 E.00651
G1 X164.262 Y110.126 E.23032
G1 X163.727 Y110.126 E.01682
G1 X169.333 Y115.732 E.2493
G1 X169.302 Y116.119 E.01221
