; generated by PrusaSlicer 2.6.1+win64 on 2023-11-14 at 15:36:32 UTC


;
;
; 

; external perimeters extrusion width = 0.45mm
; perimeters extrusion width = 0.45mm
; infill extrusion width = 0.45mm
; solid infill extrusion width = 0.45mm
; top infill extrusion width = 0.40mm
; first layer extrusion width = 0.42mm

; external perimeters extrusion width = 0.45mm
; perimeters extrusion width = 0.45mm
; infill extrusion width = 0.45mm
; solid infill extrusion width = 0.45mm
; top infill extrusion width = 0.40mm
; first layer extrusion width = 0.42mm

M73 P0 R151
M73 Q0 S153
M201 X1000 Y1000 Z200 E5000 ; sets maximum accelerations, mm/sec^2
M203 X200 Y200 Z12 E120 ; sets maximum feedrates, mm / sec
M204 S1250 T1250 ; sets acceleration (S) and retract acceleration (R), mm/sec^2
M205 X8.00 Y8.00 Z0.40 E4.50 ; sets the jerk limits, mm/sec
M205 S0 T0 ; sets the minimum extruding and travel feed rate, mm/sec
;TYPE:Custom
M862.3 P "MK3S" ; printer model check
M862.1 P0.4 ; nozzle diameter check
M115 U3.12.2 ; tell printer latest fw version
G90 ; use absolute coordinates
M83 ; extruder relative mode
M104 S215 ; set extruder temp
M140 S60 ; set bed temp
M190 S60 ; wait for bed temp
M109 S215 ; wait for extruder temp
G28 W ; home all without mesh bed level
G80 ; mesh bed leveling

G1 Z0.2 F720
G1 Y-3 F1000 ; go outside print area
G92 E0
G1 X60 E9 F1000 ; intro line
G1 X100 E12.5 F1000 ; intro line

G92 E0
M221 S95

; Don't change E values below. Excessive value can damage the printer.
M907 E430 ; set extruder motor current
G21 ; set units to millimeters
G90 ; use absolute coordinates
M83 ; use relative distances for extrusion
M900 K0.05 ; Filament gcode LA 1.5
M900 K30 ; Filament gcode LA 1.0
M107
;LAYER_CHANGE
;Z:0.2
;HEIGHT:0.2
;BEFORE_LAYER_CHANGE
G92 E0.0
;0.2


M73 P0 R150
G1 E-.8 F2100
G1 Z.4 F720
;AFTER_LAYER_CHANGE
;0.2
G1 X67.956 Y37.618 F10800
G1 Z.2 F720
G1 E.8 F2100
M204 S800
;TYPE:Skirt/Brim
;WIDTH:0.42
G1 F1200
G1 X68.094 Y37.368 E.00895
G1 X68.596 Y36.837 E.02291
G1 X69.182 Y36.452 E.02198
G1 X69.887 Y36.2 E.02347
G1 X70.566 Y36.122 E.02143
G1 X179.705 Y36.137 E3.42198
G1 X180.328 Y36.258 E.0199
G1 X180.802 Y36.444 E.01597
G1 X181.654 Y37.068 E.03311
G1 X182.244 Y37.941 E.03304
G1 X182.415 Y38.431 E.01627
G1 X182.518 Y39.202 E.02439
G1 X182.518 Y101.989 E1.96864
G1 X181.517 Y171.239 E2.17151
G1 X181.107 Y172.541 E.0428
M73 Q0 S152
G1 X180.049 Y173.402 E.04277
G1 X179.141 Y173.582 E.02902
G1 X70.859 Y173.582 E3.39511
G1 X69.552 Y173.19 E.04278
G1 X68.676 Y172.144 E.04278
G1 X68.483 Y171.239 E.02901
G1 X67.482 Y101.992 E2.17142
G1 X67.482 Y39.205 E1.96864
G1 X67.688 Y38.102 E.03518
G1 X67.927 Y37.671 E.01545
M204 S1000
; printing object Top28.stl id:0 copy 0
;WIPE_START
G1 F8640
G1 X68.094 Y37.368 E-.07989
G1 X68.596 Y36.837 E-.16873
G1 X69.182 Y36.452 E-.1619
G1 X69.887 Y36.2 E-.17287
G1 X70.566 Y36.122 E-.15781
G1 X70.821 Y36.122 E-.0588
;WIPE_END
G1 Z.6 F720
G1 X179.021 Y39.619 F10800
G1 Z.2 F720
G1 E.8 F2100
M204 S800
;TYPE:Perimeter
;WIDTH:0.419999
G1 F1200
G1 X179.021 Y101.541 E1.94152
G1 X70.979 Y101.541 E3.38758
G1 X70.979 Y39.62 E1.94149
G1 X178.961 Y39.619 E3.38569
M204 S1000
G1 X179.398 Y39.273 F10800
M204 S800
;TYPE:External perimeter
G1 F1200
G1 X179.398 Y101.889 E1.96328
G1 X179.38 Y101.918 E.00107
G1 X70.634 Y101.918 E3.40965
G1 X70.602 Y101.893 E.00127
G1 X70.602 Y39.262 E1.96375
G1 X71.067 Y39.241 E.01459
G1 X179.352 Y39.241 E3.39519
M204 S1000
G1 X179.198 Y39.62 F10800
;WIPE_START
M73 P0 R149
G1 F8640
G1 X179.355 Y42.706 E-.8
;WIPE_END
G1 Z.6 F720
G1 X82.193 Y42.834 F10800
G1 Z.2 F720
G1 E.8 F2100
M204 S800
;TYPE:Perimeter
G1 F1200
G1 X82.193 Y42.708 E.00395
G1 X82.26 Y42.442 E.0086
G1 X82.369 Y42.299 E.00564
G1 X82.661 Y42.151 E.01026
G1 X82.759 Y42.143 E.00308
G1 X167.011 Y42.143 E2.64166
G1 X167.229 Y42.186 E.00697
G1 X167.402 Y42.299 E.00648
G1 X167.563 Y42.584 E.01026
G1 X167.577 Y42.708 E.00391
G1 X167.577 Y98.451 E1.74778
G1 X167.511 Y98.717 E.00859
G1 X167.402 Y98.861 E.00566
G1 X167.109 Y99.008 E.01028
G1 X167.011 Y99.017 E.00309
G1 X82.759 Y99.017 E2.64166
G1 X82.541 Y98.973 E.00697
M73 Q0 S151
G1 X82.369 Y98.861 E.00644
G1 X82.207 Y98.575 E.01031
G1 X82.193 Y98.451 E.00391
G1 X82.193 Y42.894 E1.74195
M204 S1000
G1 X82.592 Y42.62 F10800
M204 S800
;TYPE:External perimeter
G1 F1200
G1 X82.726 Y42.523 E.00519
G1 X82.759 Y42.52 E.00104
G1 X167.011 Y42.52 E2.64166
G1 X167.141 Y42.572 E.00439
G1 X167.2 Y42.708 E.00465
G1 X167.2 Y98.451 E1.74778
G1 X167.141 Y98.588 E.00468
G1 X167.011 Y98.64 E.00439
G1 X82.759 Y98.64 E2.64166
G1 X82.629 Y98.588 E.00439
M73 P1 R149
M73 Q1 S151
G1 X82.57 Y98.451 E.00468
G1 X82.578 Y42.678 E1.74872
M204 S1000
G1 X82.525 Y42.469 F10800
;WIPE_START
G1 F8640
G1 X82.726 Y42.523 E-.04948
G1 X82.759 Y42.52 E-.00765
G1 X85.976 Y42.52 E-.74287
;WIPE_END
G1 Z.6 F720
G1 X79.845 Y53.262 F10800
G1 Z.2 F720
G1 E.8 F2100
M204 S800
;TYPE:Perimeter
G1 F1200
G1 X79.867 Y53.348 E.00278
G1 X79.867 Y57.791 E.13931
G1 X79.801 Y58.057 E.00859
G1 X79.641 Y58.244 E.00772
G1 X79.46 Y58.334 E.00634
G1 X79.301 Y58.357 E.00504
G1 X76.559 Y58.357 E.08597
G1 X76.311 Y58.3 E.00798
G1 X76.132 Y58.163 E.00707
G1 X76.001 Y57.889 E.00952
G1 X75.993 Y57.791 E.00308
G1 X75.993 Y53.348 E.13931
G1 X76.059 Y53.082 E.00859
G1 X76.219 Y52.896 E.00769
G1 X76.483 Y52.788 E.00894
G1 X79.301 Y52.783 E.08836
G1 X79.46 Y52.805 E.00503
G1 X79.641 Y52.896 E.00635
G1 X79.801 Y53.082 E.00769
G1 X79.831 Y53.204 E.00394
M204 S1000
G1 X79.49 Y53.348 F10800
M204 S800
;TYPE:External perimeter
G1 F1200
G1 X79.49 Y57.791 E.13931
G1 X79.415 Y57.942 E.00529
G1 X79.301 Y57.98 E.00377
G1 X76.559 Y57.98 E.08597
G1 X76.416 Y57.915 E.00493
G1 X76.37 Y57.791 E.00415
G1 X76.37 Y53.348 E.13931
G1 X76.392 Y53.26 E.00284
G1 X76.506 Y53.167 E.00461
G1 X76.586 Y53.16 E.00252
G1 X79.301 Y53.16 E.08513
G1 X79.415 Y53.198 E.00377
G1 X79.463 Y53.295 E.00339
M204 S1000
G1 X79.876 Y53.452 F10800
;WIPE_START
G1 F8640
G1 X79.484 Y56.76 E-.8
;WIPE_END
G1 Z.6 F720
G1 X74.853 Y83.648 F10800
G1 Z.2 F720
G1 E.8 F2100
M204 S800
;TYPE:Perimeter
G1 F1200
G1 X74.873 Y83.525 E.00391
G1 X74.956 Y83.369 E.00554
G1 X75.191 Y83.186 E.00934
G1 X75.409 Y83.143 E.00697
G1 X80.851 Y83.143 E.17063
G1 X81.191 Y83.256 E.01123
G1 X81.417 Y83.708 E.01584
G1 X81.417 Y89.151 E.17066
G1 X81.409 Y89.249 E.00308
G1 X81.191 Y89.604 E.01306
G1 X80.851 Y89.717 E.01123
G1 X75.409 Y89.717 E.17063
G1 X75.191 Y89.673 E.00697
G1 X74.956 Y89.491 E.00932
G1 X74.851 Y89.249 E.00827
G1 X74.843 Y89.151 E.00308
G1 X74.843 Y83.707 E.17069
M204 S1000
G1 X75.22 Y83.708 F10800
M204 S800
;TYPE:External perimeter
G1 F1200
G1 X75.258 Y83.595 E.00374
G1 X75.409 Y83.52 E.00529
G1 X80.851 Y83.52 E.17063
G1 X80.965 Y83.558 E.00377
G1 X81.04 Y83.708 E.00526
G1 X81.04 Y89.151 E.17066
G1 X80.965 Y89.302 E.00529
G1 X80.851 Y89.34 E.00377
G1 X75.409 Y89.34 E.17063
G1 X75.258 Y89.264 E.0053
G1 X75.22 Y89.151 E.00374
G1 X75.22 Y83.768 E.16878
M204 S1000
G1 X75.132 Y83.628 F10800
;WIPE_START
G1 F8640
G1 X75.258 Y83.595 E-.0409
G1 X75.409 Y83.52 E-.03893
G1 X78.528 Y83.52 E-.72017
;WIPE_END
G1 Z.6 F720
G1 X178.852 Y40.552 F10800
G1 Z.2 F720
G1 E.8 F2100
M204 S800
;TYPE:Solid infill
;WIDTH:0.420702
G1 F1200
G1 X178.258 Y39.958 E.02639
G1 X177.723 Y39.958 E.01681
G1 X178.682 Y40.917 E.0426
G1 X178.682 Y41.451 E.01677
G1 X177.189 Y39.958 E.06633
G1 X176.655 Y39.958 E.01677
G1 X178.682 Y41.985 E.09005
G1 X178.682 Y42.519 E.01677
G1 X176.12 Y39.958 E.11379
G1 X175.586 Y39.958 E.01677
G1 X178.682 Y43.054 E.13754
G1 X178.682 Y43.588 E.01677
G1 X175.052 Y39.958 E.16126
G1 X174.518 Y39.958 E.01677
G1 X178.682 Y44.122 E.18498
G1 X178.682 Y44.656 E.01677
G1 X173.983 Y39.958 E.20873
G1 X173.449 Y39.958 E.01677
G1 X178.682 Y45.191 E.23247
G1 X178.682 Y45.725 E.01677
G1 X172.915 Y39.958 E.25619
G1 X172.381 Y39.958 E.01677
G1 X178.682 Y46.259 E.27992
G1 X178.682 Y46.793 E.01677
G1 X171.846 Y39.958 E.30366
G1 X171.312 Y39.958 E.01677
G1 X178.682 Y47.328 E.32741
G1 X178.682 Y47.862 E.01677
G1 X170.778 Y39.958 E.35113
G1 X170.244 Y39.958 E.01677
G1 X178.682 Y48.396 E.37485
G1 X178.682 Y48.931 E.01681
G1 X169.709 Y39.958 E.39862
G1 X169.175 Y39.958 E.01677
G1 X178.682 Y49.465 E.42234
G1 X178.682 Y49.999 E.01677
G1 X168.641 Y39.958 E.44606
G1 X168.106 Y39.958 E.01681
G1 X178.682 Y50.533 E.46981
G1 X178.682 Y51.068 E.01681
G1 X167.572 Y39.958 E.49355
G1 X167.038 Y39.958 E.01677
G1 X178.682 Y51.602 E.51728
G1 X178.682 Y52.136 E.01677
G1 X166.504 Y39.958 E.541
G1 X165.969 Y39.958 E.01681
G1 X178.682 Y52.67 E.56474
G1 X178.682 Y53.205 E.01681
G1 X165.435 Y39.958 E.58849
G1 X164.901 Y39.958 E.01677
G1 X166.746 Y41.803 E.08196
G1 X166.212 Y41.803 E.01677
G1 X164.367 Y39.958 E.08196
G1 X163.832 Y39.958 E.01681
G1 X165.678 Y41.803 E.08198
G1 X165.144 Y41.803 E.01677
G1 X163.298 Y39.958 E.08198
G1 X162.764 Y39.958 E.01677
G1 X164.609 Y41.803 E.08196
G1 X164.075 Y41.803 E.01677
G1 X162.23 Y39.958 E.08196
G1 X161.695 Y39.958 E.01681
G1 X163.541 Y41.803 E.08198
G1 X163.007 Y41.803 E.01677
G1 X161.161 Y39.958 E.08198
G1 X160.627 Y39.958 E.01677
G1 X162.472 Y41.803 E.08196
G1 X161.938 Y41.803 E.01677
G1 X160.093 Y39.958 E.08196
G1 X159.558 Y39.958 E.01681
G1 X161.404 Y41.803 E.08198
G1 X160.869 Y41.803 E.01681
G1 X159.024 Y39.958 E.08196
G1 X158.49 Y39.958 E.01677
G1 X160.335 Y41.803 E.08196
G1 X159.801 Y41.803 E.01677
G1 X157.955 Y39.958 E.08198
G1 X157.421 Y39.958 E.01677
G1 X159.267 Y41.803 E.08198
G1 X158.732 Y41.803 E.01681
G1 X156.887 Y39.958 E.08196
G1 X156.353 Y39.958 E.01677
G1 X158.198 Y41.803 E.08196
G1 X157.664 Y41.803 E.01677
G1 X155.818 Y39.958 E.08198
G1 X155.284 Y39.958 E.01677
G1 X157.13 Y41.803 E.08198
G1 X156.595 Y41.803 E.01681
G1 X154.75 Y39.958 E.08196
G1 X154.216 Y39.958 E.01677
G1 X156.061 Y41.803 E.08196
G1 X155.527 Y41.803 E.01677
G1 X153.681 Y39.958 E.08198
G1 X153.147 Y39.958 E.01677
G1 X154.993 Y41.803 E.08198
G1 X154.458 Y41.803 E.01681
G1 X152.613 Y39.958 E.08196
G1 X152.079 Y39.958 E.01677
G1 X153.924 Y41.803 E.08196
G1 X153.39 Y41.803 E.01677
G1 X151.544 Y39.958 E.08198
G1 X151.01 Y39.958 E.01677
G1 X152.855 Y41.803 E.08196
G1 X152.321 Y41.803 E.01677
G1 X150.476 Y39.958 E.08196
G1 X149.941 Y39.958 E.01681
G1 X151.787 Y41.803 E.08198
G1 X151.253 Y41.803 E.01677
G1 X149.407 Y39.958 E.08198
G1 X148.873 Y39.958 E.01677
G1 X150.718 Y41.803 E.08196
G1 X150.184 Y41.803 E.01677
G1 X148.339 Y39.958 E.08196
G1 X147.804 Y39.958 E.01681
G1 X149.65 Y41.803 E.08198
G1 X149.116 Y41.803 E.01677
G1 X147.27 Y39.958 E.08198
G1 X146.736 Y39.958 E.01677
G1 X148.581 Y41.803 E.08196
G1 X148.047 Y41.803 E.01677
G1 X146.202 Y39.958 E.08196
G1 X145.667 Y39.958 E.01681
G1 X147.513 Y41.803 E.08198
G1 X146.979 Y41.803 E.01677
G1 X145.133 Y39.958 E.08198
G1 X144.599 Y39.958 E.01677
G1 X146.444 Y41.803 E.08196
G1 X145.91 Y41.803 E.01677
M73 P1 R148
G1 X144.065 Y39.958 E.08196
G1 X143.53 Y39.958 E.01681
G1 X145.376 Y41.803 E.08198
G1 X144.842 Y41.803 E.01677
G1 X142.996 Y39.958 E.08198
G1 X142.462 Y39.958 E.01677
G1 X144.307 Y41.803 E.08196
G1 X143.773 Y41.803 E.01677
G1 X141.928 Y39.958 E.08196
G1 X141.393 Y39.958 E.01681
G1 X143.239 Y41.803 E.08198
G1 X142.704 Y41.803 E.01681
G1 X140.859 Y39.958 E.08196
G1 X140.325 Y39.958 E.01677
G1 X142.17 Y41.803 E.08196
G1 X141.636 Y41.803 E.01677
G1 X139.79 Y39.958 E.08198
G1 X139.256 Y39.958 E.01677
G1 X141.102 Y41.803 E.08198
G1 X140.567 Y41.803 E.01681
G1 X138.722 Y39.958 E.08196
G1 X138.188 Y39.958 E.01677
G1 X140.033 Y41.803 E.08196
G1 X139.499 Y41.803 E.01677
G1 X137.653 Y39.958 E.08198
G1 X137.119 Y39.958 E.01677
G1 X138.965 Y41.803 E.08198
G1 X138.43 Y41.803 E.01681
G1 X136.585 Y39.958 E.08196
G1 X136.051 Y39.958 E.01677
G1 X137.896 Y41.803 E.08196
G1 X137.362 Y41.803 E.01677
G1 X135.516 Y39.958 E.08198
G1 X134.982 Y39.958 E.01677
G1 X136.828 Y41.803 E.08198
G1 X136.293 Y41.803 E.01681
G1 X134.448 Y39.958 E.08196
G1 X133.914 Y39.958 E.01677
G1 X135.759 Y41.803 E.08196
G1 X135.225 Y41.803 E.01677
G1 X133.379 Y39.958 E.08198
G1 X132.845 Y39.958 E.01677
G1 X134.691 Y41.803 E.08198
G1 X134.156 Y41.803 E.01681
G1 X132.311 Y39.958 E.08196
G1 X131.776 Y39.958 E.01681
G1 X133.622 Y41.803 E.08198
G1 X133.088 Y41.803 E.01677
G1 X131.242 Y39.958 E.08198
G1 X130.708 Y39.958 E.01677
G1 X132.553 Y41.803 E.08196
G1 X132.019 Y41.803 E.01677
G1 X130.174 Y39.958 E.08196
G1 X129.639 Y39.958 E.01681
G1 X131.485 Y41.803 E.08198
G1 X130.951 Y41.803 E.01677
G1 X129.105 Y39.958 E.08198
G1 X128.571 Y39.958 E.01677
G1 X130.416 Y41.803 E.08196
G1 X129.882 Y41.803 E.01677
G1 X128.037 Y39.958 E.08196
G1 X127.502 Y39.958 E.01681
G1 X129.348 Y41.803 E.08198
G1 X128.814 Y41.803 E.01677
G1 X126.968 Y39.958 E.08198
G1 X126.434 Y39.958 E.01677
G1 X128.279 Y41.803 E.08196
G1 X127.745 Y41.803 E.01677
G1 X125.9 Y39.958 E.08196
G1 X125.365 Y39.958 E.01681
G1 X127.211 Y41.803 E.08198
G1 X126.677 Y41.803 E.01677
G1 X124.831 Y39.958 E.08198
G1 X124.297 Y39.958 E.01677
G1 X126.142 Y41.803 E.08196
G1 X125.608 Y41.803 E.01677
G1 X123.763 Y39.958 E.08196
G1 X123.228 Y39.958 E.01681
G1 X125.074 Y41.803 E.08198
G1 X124.539 Y41.803 E.01681
G1 X122.694 Y39.958 E.08196
G1 X122.16 Y39.958 E.01677
G1 X124.005 Y41.803 E.08196
G1 X123.471 Y41.803 E.01677
G1 X121.625 Y39.958 E.08198
G1 X121.091 Y39.958 E.01677
G1 X122.937 Y41.803 E.08198
G1 X122.402 Y41.803 E.01681
G1 X120.557 Y39.958 E.08196
G1 X120.023 Y39.958 E.01677
G1 X121.868 Y41.803 E.08196
G1 X121.334 Y41.803 E.01677
G1 X119.488 Y39.958 E.08198
G1 X118.954 Y39.958 E.01677
G1 X120.8 Y41.803 E.08198
G1 X120.265 Y41.803 E.01681
G1 X118.42 Y39.958 E.08196
G1 X117.886 Y39.958 E.01677
G1 X119.731 Y41.803 E.08196
G1 X119.197 Y41.803 E.01677
G1 X117.351 Y39.958 E.08198
G1 X116.817 Y39.958 E.01677
G1 X118.663 Y41.803 E.08198
G1 X118.128 Y41.803 E.01681
G1 X116.283 Y39.958 E.08196
G1 X115.749 Y39.958 E.01677
G1 X117.594 Y41.803 E.08196
G1 X117.06 Y41.803 E.01677
G1 X115.214 Y39.958 E.08198
G1 X114.68 Y39.958 E.01677
G1 X116.526 Y41.803 E.08198
G1 X115.991 Y41.803 E.01681
G1 X114.146 Y39.958 E.08196
G1 X113.611 Y39.958 E.01681
G1 X115.457 Y41.803 E.08198
G1 X114.923 Y41.803 E.01677
G1 X113.077 Y39.958 E.08198
G1 X112.543 Y39.958 E.01677
G1 X114.388 Y41.803 E.08196
G1 X113.854 Y41.803 E.01677
G1 X112.009 Y39.958 E.08196
G1 X111.474 Y39.958 E.01681
G1 X113.32 Y41.803 E.08198
G1 X112.786 Y41.803 E.01677
G1 X110.94 Y39.958 E.08198
G1 X110.406 Y39.958 E.01677
G1 X112.251 Y41.803 E.08196
G1 X111.717 Y41.803 E.01677
G1 X109.872 Y39.958 E.08196
G1 X109.337 Y39.958 E.01681
G1 X111.183 Y41.803 E.08198
G1 X110.649 Y41.803 E.01677
G1 X108.803 Y39.958 E.08198
G1 X108.269 Y39.958 E.01677
G1 X110.114 Y41.803 E.08196
G1 X109.58 Y41.803 E.01677
G1 X107.735 Y39.958 E.08196
G1 X107.2 Y39.958 E.01681
G1 X109.046 Y41.803 E.08198
G1 X108.512 Y41.803 E.01677
G1 X106.666 Y39.958 E.08198
G1 X106.132 Y39.958 E.01677
G1 X107.977 Y41.803 E.08196
G1 X107.443 Y41.803 E.01677
G1 X105.598 Y39.958 E.08196
G1 X105.063 Y39.958 E.01681
G1 X106.909 Y41.803 E.08198
G1 X106.374 Y41.803 E.01681
G1 X104.529 Y39.958 E.08196
G1 X103.995 Y39.958 E.01677
G1 X105.84 Y41.803 E.08196
G1 X105.306 Y41.803 E.01677
G1 X103.46 Y39.958 E.08198
G1 X102.926 Y39.958 E.01677
G1 X104.772 Y41.803 E.08198
G1 X104.237 Y41.803 E.01681
G1 X102.392 Y39.958 E.08196
G1 X101.858 Y39.958 E.01677
G1 X103.703 Y41.803 E.08196
G1 X103.169 Y41.803 E.01677
G1 X101.323 Y39.958 E.08198
G1 X100.789 Y39.958 E.01677
G1 X102.635 Y41.803 E.08198
G1 X102.1 Y41.803 E.01681
G1 X100.255 Y39.958 E.08196
G1 X99.721 Y39.958 E.01677
G1 X101.566 Y41.803 E.08196
G1 X101.032 Y41.803 E.01677
G1 X99.186 Y39.958 E.08198
G1 X98.652 Y39.958 E.01677
G1 X100.498 Y41.803 E.08198
G1 X99.963 Y41.803 E.01681
G1 X98.118 Y39.958 E.08196
G1 X97.584 Y39.958 E.01677
M73 Q1 S150
G1 X99.429 Y41.803 E.08196
G1 X98.895 Y41.803 E.01677
G1 X97.049 Y39.958 E.08198
G1 X96.515 Y39.958 E.01677
G1 X98.361 Y41.803 E.08198
G1 X97.826 Y41.803 E.01681
G1 X95.981 Y39.958 E.08196
G1 X95.447 Y39.958 E.01677
G1 X97.292 Y41.803 E.08196
G1 X96.758 Y41.803 E.01677
G1 X94.912 Y39.958 E.08198
G1 X94.378 Y39.958 E.01677
G1 X96.223 Y41.803 E.08196
G1 X95.689 Y41.803 E.01677
G1 X93.844 Y39.958 E.08196
