; generated by PrusaSlicer 2.6.1+win64 on 2023-11-05 at 03:43:18 UTC


;
;
; 

; external perimeters extrusion width = 0.45mm
; perimeters extrusion width = 0.45mm
; infill extrusion width = 0.45mm
; solid infill extrusion width = 0.45mm
; top infill extrusion width = 0.40mm
; first layer extrusion width = 0.42mm

; external perimeters extrusion width = 0.45mm
; perimeters extrusion width = 0.45mm
; infill extrusion width = 0.45mm
; solid infill extrusion width = 0.45mm
; top infill extrusion width = 0.40mm
; first layer extrusion width = 0.42mm

M73 P0 R136
M73 Q0 S139
M201 X1000 Y1000 Z200 E5000 ; sets maximum accelerations, mm/sec^2
M203 X200 Y200 Z12 E120 ; sets maximum feedrates, mm / sec
M204 S1250 T1250 ; sets acceleration (S) and retract acceleration (R), mm/sec^2
M205 X8.00 Y8.00 Z0.40 E4.50 ; sets the jerk limits, mm/sec
M205 S0 T0 ; sets the minimum extruding and travel feed rate, mm/sec
;TYPE:Custom
M862.3 P "MK3S" ; printer model check
M862.1 P0.4 ; nozzle diameter check
M115 U3.12.2 ; tell printer latest fw version
G90 ; use absolute coordinates
M83 ; extruder relative mode
M104 S215 ; set extruder temp
M140 S60 ; set bed temp
M190 S60 ; wait for bed temp
M109 S215 ; wait for extruder temp
G28 W ; home all without mesh bed level
G80 ; mesh bed leveling

G1 Z0.2 F720
G1 Y-3 F1000 ; go outside print area
G92 E0
G1 X60 E9 F1000 ; intro line
G1 X100 E12.5 F1000 ; intro line

G92 E0
M221 S95

; Don't change E values below. Excessive value can damage the printer.

M907 E538 ; set extruder motor current
G21 ; set units to millimeters
G90 ; use absolute coordinates
M83 ; use relative distances for extrusion
M900 K0.05 ; Filament gcode LA 1.5
M900 K30 ; Filament gcode LA 1.0
M107
;LAYER_CHANGE
;Z:0.2
;HEIGHT:0.2
;BEFORE_LAYER_CHANGE
G92 E0.0
;0.2


G1 E-.8 F2100
G1 Z.4 F720
;AFTER_LAYER_CHANGE
;0.2
G1 X67.927 Y37.194 F10800
G1 Z.2 F720
M73 P0 R135
G1 E.8 F2100
M204 S800
;TYPE:Skirt/Brim
;WIDTH:0.42
G1 F1200
G1 X68.224 Y36.845 E.01437
G1 X68.936 Y36.347 E.02724
G1 X69.407 Y36.175 E.01572
G1 X70.064 Y36.091 E.02077
G1 X180.142 Y36.1 E3.45142
G1 X181.025 Y36.328 E.02859
M73 Q0 S138
G1 X181.807 Y36.876 E.02994
G1 X182.324 Y37.628 E.02861
G1 X182.477 Y38.059 E.01434
G1 X182.562 Y38.718 E.02083
G1 X182.561 Y102.501 E1.99987
G1 X181.561 Y171.283 E2.15684
G1 X181.151 Y172.585 E.0428
G1 X180.092 Y173.446 E.04279
G1 X179.184 Y173.626 E.02902
G1 X70.816 Y173.626 E3.3978
G1 X69.509 Y173.234 E.04278
G1 X68.632 Y172.189 E.04277
G1 X68.439 Y171.283 E.02904
G1 X67.439 Y102.501 E2.15684
G1 X67.438 Y38.718 E1.99987
G1 X67.535 Y38.017 E.02219
G1 X67.901 Y37.248 E.0267
M204 S1000
; printing object ESP32_S3_BTM_Clip.stl id:0 copy 0
;WIPE_START
G1 F8640
G1 X68.224 Y36.845 E-.11925
G1 X68.936 Y36.347 E-.20063
G1 X69.407 Y36.175 E-.11578
G1 X70.064 Y36.091 E-.15294
G1 X70.98 Y36.091 E-.2114
;WIPE_END
G1 Z.6 F720
G1 X71.603 Y109.787 F10800
G1 Z.2 F720
G1 E.8 F2100
M204 S800
;TYPE:Perimeter
;WIDTH:0.419999
G1 F1200
G1 X178.397 Y109.787 E3.34845
G1 X178.397 Y170.462 E1.90242
G1 X71.603 Y170.462 E3.34845
G1 X71.603 Y109.847 E1.90054
M204 S1000
G1 X71.226 Y109.41 F10800
M204 S800
;TYPE:External perimeter
G1 F1200
G1 X178.774 Y109.41 E3.37209
G1 X178.774 Y170.839 E1.92606
G1 X71.226 Y170.839 E3.37209
G1 X71.226 Y109.47 E1.92418
M204 S1000
G1 X71.62 Y109.479 F10800
;WIPE_START
M73 P0 R134
G1 F8640
G1 X74.691 Y109.468 E-.8
;WIPE_END
G1 Z.6 F720
G1 X172.646 Y113.716 F10800
G1 Z.2 F720
G1 E.8 F2100
M204 S800
;TYPE:Perimeter
G1 F1200
G1 X172.717 Y113.727 E.00225
G1 X173.259 Y113.945 E.01832
G1 X173.858 Y114.405 E.02368
G1 X174.29 Y115.024 E.02367
G1 X174.516 Y115.745 E.02369
G1 X174.513 Y116.5 E.02367
G1 X174.283 Y117.219 E.02367
G1 X173.846 Y117.836 E.02371
G1 X173.244 Y118.292 E.02368
G1 X172.533 Y118.544 E.02365
G1 X171.778 Y118.571 E.02369
G1 X171.05 Y118.368 E.0237
G1 X170.419 Y117.956 E.02363
G1 X169.94 Y117.371 E.02371
G1 X169.66 Y116.67 E.02367
G1 X169.604 Y115.917 E.02367
G1 X169.779 Y115.182 E.02369
G1 X170.167 Y114.534 E.02368
G1 X170.732 Y114.034 E.02366
G1 X171.422 Y113.727 E.02368
G1 X172.173 Y113.643 E.02369
G1 X172.586 Y113.707 E.0131
M204 S1000
G1 X172.777 Y114.158 F10800
M204 S800
;TYPE:External perimeter
G1 F1200
G1 X173.118 Y114.295 E.01152
G1 X173.618 Y114.696 E.0201
G1 X173.974 Y115.229 E.0201
G1 X174.152 Y115.845 E.0201
G1 X174.137 Y116.486 E.0201
G1 X173.928 Y117.092 E.0201
G1 X173.547 Y117.607 E.02009
G1 X173.027 Y117.983 E.02012
G1 X172.419 Y118.185 E.02009
G1 X171.778 Y118.194 E.0201
G1 X171.164 Y118.009 E.02011
G1 X170.635 Y117.648 E.02008
G1 X170.239 Y117.143 E.02012
G1 X170.014 Y116.542 E.02012
G1 X169.981 Y115.902 E.02009
G1 X170.142 Y115.282 E.02008
G1 X170.484 Y114.739 E.02012
G1 X170.972 Y114.325 E.02007
G1 X171.563 Y114.077 E.0201
G1 X172.202 Y114.019 E.02012
G1 X172.576 Y114.077 E.01187
G1 X172.721 Y114.135 E.0049
M204 S1000
G1 X173.055 Y113.917 F10800
;WIPE_START
G1 F8640
G1 X173.118 Y114.295 E-.09883
G1 X173.618 Y114.696 E-.14799
G1 X173.974 Y115.229 E-.148
G1 X174.152 Y115.845 E-.14806
G1 X174.137 Y116.486 E-.14805
G1 X173.983 Y116.933 E-.10907
;WIPE_END
G1 Z.6 F720
G1 X172.646 Y161.736 F10800
G1 Z.2 F720
M73 Q0 S137
G1 E.8 F2100
M204 S800
;TYPE:Perimeter
G1 F1200
G1 X172.717 Y161.747 E.00225
G1 X173.259 Y161.965 E.01832
G1 X173.858 Y162.425 E.02368
G1 X174.29 Y163.044 E.02367
G1 X174.516 Y163.765 E.02369
G1 X174.513 Y164.52 E.02367
G1 X174.283 Y165.239 E.02367
G1 X173.846 Y165.856 E.02371
G1 X173.244 Y166.312 E.02368
G1 X172.533 Y166.564 E.02365
G1 X171.778 Y166.591 E.02369
G1 X171.05 Y166.388 E.0237
G1 X170.419 Y165.976 E.02363
G1 X169.94 Y165.391 E.02371
G1 X169.66 Y164.69 E.02367
G1 X169.604 Y163.937 E.02367
G1 X169.624 Y163.766 E.0054
G1 X169.779 Y163.202 E.01834
G1 X170.167 Y162.554 E.02368
G1 X170.732 Y162.054 E.02366
G1 X171.422 Y161.747 E.02368
G1 X172.173 Y161.663 E.02369
G1 X172.586 Y161.727 E.0131
M204 S1000
G1 X172.776 Y162.177 F10800
M204 S800
;TYPE:External perimeter
G1 F1200
G1 X173.118 Y162.315 E.01156
G1 X173.618 Y162.716 E.0201
G1 X173.974 Y163.249 E.0201
G1 X174.152 Y163.865 E.0201
G1 X174.137 Y164.506 E.0201
G1 X173.928 Y165.112 E.0201
G1 X173.547 Y165.627 E.02009
G1 X173.027 Y166.003 E.02012
G1 X172.419 Y166.205 E.02009
G1 X171.778 Y166.214 E.0201
G1 X171.164 Y166.029 E.02011
G1 X170.635 Y165.668 E.02008
G1 X170.239 Y165.163 E.02012
G1 X170.014 Y164.562 E.02012
G1 X169.981 Y163.923 E.02006
G1 X170.142 Y163.302 E.02011
G1 X170.484 Y162.759 E.02012
G1 X170.972 Y162.345 E.02007
G1 X171.563 Y162.097 E.0201
G1 X172.202 Y162.039 E.02012
G1 X172.576 Y162.097 E.01187
G1 X172.72 Y162.155 E.00487
M204 S1000
G1 X173.055 Y161.936 F10800
;WIPE_START
G1 F8640
G1 X173.118 Y162.315 E-.09905
G1 X173.618 Y162.716 E-.14799
G1 X173.974 Y163.249 E-.148
G1 X174.152 Y163.865 E-.14806
G1 X174.137 Y164.506 E-.14805
G1 X173.983 Y164.952 E-.10885
;WIPE_END
G1 Z.6 F720
G1 X75.483 Y163.858 F10800
G1 Z.2 F720
G1 E.8 F2100
M204 S800
;TYPE:Perimeter
G1 F1200
G1 X75.639 Y163.202 E.02114
G1 X76.027 Y162.554 E.02368
G1 X76.593 Y162.054 E.02368
G1 X77.283 Y161.747 E.02368
G1 X78.033 Y161.663 E.02366
G1 X78.541 Y161.734 E.01608
G1 X79.119 Y161.965 E.01952
G1 X79.718 Y162.425 E.02368
G1 X80.15 Y163.044 E.02367
G1 X80.376 Y163.765 E.02369
G1 X80.373 Y164.52 E.02367
G1 X80.143 Y165.24 E.0237
G1 X79.706 Y165.856 E.02368
G1 X79.104 Y166.312 E.02368
G1 X78.393 Y166.564 E.02365
G1 X77.638 Y166.591 E.02369
G1 X76.91 Y166.388 E.0237
G1 X76.279 Y165.976 E.02363
G1 X75.8 Y165.391 E.02371
G1 X75.52 Y164.69 E.02367
G1 X75.469 Y163.916 E.02432
M204 S1000
G1 X75.9 Y163.696 F10800
M204 S800
;TYPE:External perimeter
G1 F1200
G1 X76.002 Y163.302 E.01276
G1 X76.344 Y162.759 E.02012
G1 X76.832 Y162.345 E.02007
G1 X77.424 Y162.097 E.02012
G1 X78.062 Y162.039 E.02009
G1 X78.436 Y162.097 E.01187
G1 X78.978 Y162.315 E.01832
G1 X79.478 Y162.716 E.0201
G1 X79.834 Y163.249 E.0201
G1 X80.012 Y163.865 E.0201
G1 X79.997 Y164.506 E.0201
G1 X79.788 Y165.112 E.0201
G1 X79.407 Y165.627 E.02009
G1 X78.887 Y166.003 E.02012
G1 X78.279 Y166.205 E.02009
G1 X77.638 Y166.214 E.0201
G1 X77.024 Y166.029 E.02011
G1 X76.495 Y165.668 E.02008
G1 X76.099 Y165.163 E.02012
G1 X75.874 Y164.562 E.02012
G1 X75.841 Y163.923 E.02006
G1 X75.885 Y163.754 E.00548
M204 S1000
G1 X75.595 Y163.438 F10800
;WIPE_START
G1 F8640
G1 X76.002 Y163.302 E-.10781
G1 X76.344 Y162.759 E-.14818
G1 X76.832 Y162.345 E-.14777
G1 X77.424 Y162.097 E-.1482
G1 X78.062 Y162.039 E-.14792
G1 X78.436 Y162.097 E-.08739
G1 X78.487 Y162.118 E-.01273
;WIPE_END
G1 Z.6 F720
G1 X78.844 Y113.828 F10800
G1 Z.2 F720
G1 E.8 F2100
M204 S800
;TYPE:Perimeter
G1 F1200
G1 X79.436 Y114.152 E.02116
G1 X79.833 Y114.534 E.01727
G1 X80.15 Y115.024 E.0183
G1 X80.376 Y115.745 E.02369
G1 X80.373 Y116.5 E.02367
G1 X80.245 Y116.997 E.01609
G1 X79.948 Y117.544 E.01952
G1 X79.423 Y118.087 E.02368
G1 X78.758 Y118.445 E.02368
G1 X78.016 Y118.587 E.02369
G1 X77.266 Y118.497 E.02368
G1 X76.578 Y118.186 E.02367
G1 X76.016 Y117.682 E.02367
G1 X75.633 Y117.031 E.02368
G1 X75.463 Y116.295 E.02368
G1 X75.523 Y115.543 E.02365
G1 X75.808 Y114.844 E.02367
G1 X76.116 Y114.428 E.01623
G1 X76.593 Y114.034 E.0194
G1 X77.283 Y113.727 E.02368
G1 X78.033 Y113.643 E.02366
G1 X78.792 Y113.799 E.0243
M204 S1000
G1 X78.581 Y114.133 F10800
M204 S800
;TYPE:External perimeter
G1 F1200
G1 X78.688 Y114.156 E.00343
G1 X79.243 Y114.476 E.02009
G1 X79.516 Y114.739 E.01189
G1 X79.834 Y115.229 E.01832
G1 X80.012 Y115.845 E.0201
G1 X79.997 Y116.485 E.02007
G1 X79.896 Y116.851 E.0119
G1 X79.617 Y117.364 E.01831
G1 X79.161 Y117.815 E.02011
G1 X78.591 Y118.107 E.02008
G1 X77.959 Y118.214 E.0201
G1 X77.324 Y118.125 E.0201
G1 X76.746 Y117.848 E.0201
G1 X76.278 Y117.41 E.0201
G1 X75.964 Y116.851 E.0201
G1 X75.833 Y116.224 E.02008
G1 X75.898 Y115.586 E.02011
G1 X76.152 Y114.998 E.02008
G1 X76.382 Y114.696 E.0119
G1 X76.832 Y114.325 E.01829
G1 X77.424 Y114.077 E.02012
G1 X78.062 Y114.019 E.02009
G1 X78.523 Y114.12 E.0148
M204 S1000
G1 X78.65 Y114.048 F10800
;WIPE_START
G1 F8640
G1 X78.688 Y114.156 E-.039
G1 X79.243 Y114.476 E-.14793
G1 X79.516 Y114.739 E-.08753
G1 X79.834 Y115.229 E-.13488
G1 X80.012 Y115.845 E-.14806
G1 X79.997 Y116.485 E-.14782
G1 X79.896 Y116.851 E-.08767
G1 X79.881 Y116.878 E-.00711
;WIPE_END
G1 Z.6 F720
G1 X178.228 Y110.721 F10800
G1 Z.2 F720
G1 E.8 F2100
M204 S800
;TYPE:Solid infill
;WIDTH:0.421099
G1 F1200
G1 X177.633 Y110.126 E.02646
G1 X177.098 Y110.126 E.01682
G1 X178.058 Y111.087 E.04271
G1 X178.058 Y111.621 E.01679
G1 X176.563 Y110.126 E.06648
G1 X176.028 Y110.126 E.01682
G1 X178.058 Y112.156 E.09028
G1 X178.058 Y112.691 E.01682
G1 X175.493 Y110.126 E.11407
G1 X174.959 Y110.126 E.01679
G1 X178.058 Y113.226 E.13784
G1 X178.058 Y113.761 E.01682
G1 X174.424 Y110.126 E.16163
G1 X173.889 Y110.126 E.01682
G1 X178.058 Y114.295 E.1854
G1 X178.058 Y114.83 E.01682
G1 X173.354 Y110.126 E.20919
G1 X172.819 Y110.126 E.01682
G1 X178.058 Y115.365 E.23298
G1 X178.058 Y115.9 E.01682
G1 X172.284 Y110.126 E.25678
G1 X171.75 Y110.126 E.01679
G1 X178.058 Y116.435 E.28055
G1 X178.058 Y116.97 E.01682
G1 X171.215 Y110.126 E.30434
G1 X170.68 Y110.126 E.01682
G1 X178.058 Y117.504 E.32811
G1 X178.058 Y118.039 E.01682
G1 X170.145 Y110.126 E.3519
G1 X169.61 Y110.126 E.01682
M73 P1 R134
M73 Q1 S137
G1 X172.931 Y113.447 E.14769
G1 X173.397 Y113.635 E.0158
G1 X173.614 Y113.764 E.00794
G1 X174.083 Y114.151 E.01912
G1 X174.252 Y114.34 E.00797
G1 X174.582 Y114.85 E.0191
G1 X174.685 Y115.081 E.00795
G1 X174.731 Y115.247 E.00542
G1 X178.058 Y118.574 E.14795
G1 X178.058 Y119.109 E.01682
G1 X174.874 Y115.925 E.1416
G1 X174.855 Y116.441 E.01624
G1 X178.058 Y119.644 E.14244
G1 X178.058 Y120.179 E.01682
G1 X174.764 Y116.885 E.14649
G1 X174.623 Y117.278 E.01313
G1 X178.058 Y120.713 E.15276
G1 X178.058 Y121.248 E.01682
G1 X174.434 Y117.624 E.16116
G1 X174.203 Y117.928 E.01201
G1 X178.058 Y121.783 E.17144
G1 X178.058 Y122.318 E.01682
G1 X173.947 Y118.207 E.18282
G1 X173.633 Y118.427 E.01206
G1 X178.058 Y122.853 E.19681
G1 X178.058 Y123.387 E.01679
G1 X173.315 Y118.644 E.21093
G1 X172.912 Y118.777 E.01334
G1 X178.058 Y123.922 E.22883
G1 X178.058 Y124.457 E.01682
G1 X172.493 Y118.892 E.24748
G1 X172.373 Y118.91 E.00382
G1 X171.973 Y118.907 E.01258
G1 X178.058 Y124.992 E.27061
G1 X178.058 Y125.527 E.01682
G1 X171.087 Y118.556 E.31001
M204 S1000
;WIPE_START
G1 F8640
G1 X173.537 Y121.006 E-.8
;WIPE_END
G1 Z.6 F720
G1 X172.456 Y113.507 F10800
G1 Z.2 F720
G1 E.8 F2100
M204 S800
G1 F1200
G1 X169.076 Y110.126 E.15033
G1 X168.541 Y110.126 E.01682
G1 X171.749 Y113.335 E.14269
G1 X171.553 Y113.35 E.00618
G1 X171.293 Y113.413 E.00841
G1 X168.006 Y110.126 E.14618
G1 X167.471 Y110.126 E.01682
G1 X170.912 Y113.567 E.15302
G1 X170.743 Y113.635 E.00573
G1 X170.556 Y113.746 E.00684
G1 X166.936 Y110.126 E.16098
G1 X166.401 Y110.126 E.01682
G1 X170.259 Y113.984 E.17157
G1 X169.979 Y114.239 E.01191
G1 X165.867 Y110.126 E.18289
G1 X165.332 Y110.126 E.01682
G1 X169.756 Y114.551 E.19676
G1 X169.55 Y114.879 E.01218
G1 X164.797 Y110.126 E.21137
G1 X164.262 Y110.126 E.01682
G1 X169.41 Y115.275 E.22896
G1 X169.296 Y115.695 E.01369
G1 X163.727 Y110.126 E.24766
G1 X163.192 Y110.126 E.01682
G1 X169.279 Y116.213 E.27069
G1 X169.288 Y116.524 E.00978
G1 X169.355 Y116.824 E.00967
G1 X162.658 Y110.126 E.29784
G1 X162.123 Y110.126 E.01682
G1 X178.058 Y126.062 E.70867
G1 X178.058 Y126.596 E.01679
G1 X161.588 Y110.126 E.73244
G1 X161.053 Y110.126 E.01682
G1 X178.058 Y127.131 E.75623
G1 X178.058 Y127.666 E.01682
G1 X160.518 Y110.126 E.78002
G1 X159.983 Y110.126 E.01682
G1 X178.058 Y128.201 E.80381
G1 X178.058 Y128.736 E.01682
G1 X159.449 Y110.126 E.82758
G1 X158.914 Y110.126 E.01682
G1 X178.058 Y129.271 E.85137
G1 X178.058 Y129.805 E.01679
G1 X158.379 Y110.126 E.87514
G1 X157.844 Y110.126 E.01682
G1 X178.058 Y130.34 E.89894
G1 X178.058 Y130.875 E.01682
G1 X157.309 Y110.126 E.92273
G1 X156.775 Y110.126 E.01679
G1 X178.058 Y131.41 E.9465
G1 X178.058 Y131.945 E.01682
G1 X156.24 Y110.126 E.97029
G1 X155.705 Y110.126 E.01682
G1 X178.058 Y132.48 E.99408
G1 X178.058 Y133.014 E.01679
G1 X155.17 Y110.126 E1.01785
G1 X154.635 Y110.126 E.01682
G1 X178.058 Y133.549 E1.04164
G1 X178.058 Y134.084 E.01682
G1 X154.1 Y110.126 E1.06544
G1 X153.566 Y110.126 E.01679
G1 X178.058 Y134.619 E1.0892
G1 X178.058 Y135.154 E.01682
G1 X153.031 Y110.126 E1.113
G1 X152.496 Y110.126 E.01682
G1 X178.058 Y135.688 E1.13677
G1 X178.058 Y136.223 E.01682
G1 X151.961 Y110.126 E1.16056
G1 X151.426 Y110.126 E.01682
G1 X178.058 Y136.758 E1.18435
G1 X178.058 Y137.293 E.01682
G1 X150.891 Y110.126 E1.20814
G1 X150.357 Y110.126 E.01679
M73 P1 R133
G1 X178.058 Y137.828 E1.23191
G1 X178.058 Y138.363 E.01682
M73 Q1 S136
G1 X149.822 Y110.126 E1.2557
G1 X149.287 Y110.126 E.01682
G1 X178.058 Y138.897 E1.27947
G1 X178.058 Y139.432 E.01682
G1 X148.752 Y110.126 E1.30327
G1 X148.217 Y110.126 E.01682
G1 X178.058 Y139.967 E1.32706
G1 X178.058 Y140.502 E.01682
G1 X147.682 Y110.126 E1.35085
G1 X147.148 Y110.126 E.01679
G1 X178.058 Y141.037 E1.37462
G1 X178.058 Y141.572 E.01682
G1 X146.613 Y110.126 E1.39841
G1 X146.078 Y110.126 E.01682
G1 X178.058 Y142.106 E1.42218
G1 X178.058 Y142.641 E.01682
G1 X145.543 Y110.126 E1.44597
G1 X145.008 Y110.126 E.01682
G1 X178.058 Y143.176 E1.46977
G1 X178.058 Y143.711 E.01682
G1 X144.474 Y110.126 E1.49353
G1 X143.939 Y110.126 E.01682
G1 X178.058 Y144.246 E1.51733
G1 X178.058 Y144.781 E.01682
G1 X143.404 Y110.126 E1.54112
G1 X142.869 Y110.126 E.01682
G1 X178.058 Y145.315 E1.56489
G1 X178.058 Y145.85 E.01682
G1 X142.334 Y110.126 E1.58868
G1 X141.799 Y110.126 E.01682
G1 X178.058 Y146.385 E1.61247
G1 X178.058 Y146.92 E.01682
M73 P2 R133
M73 Q2 S136
G1 X141.265 Y110.126 E1.63624
G1 X140.73 Y110.126 E.01682
G1 X178.058 Y147.455 E1.66003
G1 X178.058 Y147.989 E.01679
G1 X140.195 Y110.126 E1.6838
G1 X139.66 Y110.126 E.01682
G1 X178.058 Y148.524 E1.7076
G1 X178.058 Y149.059 E.01682
G1 X139.125 Y110.126 E1.73139
G1 X138.59 Y110.126 E.01682
G1 X178.058 Y149.594 E1.75518
G1 X178.058 Y150.129 E.01682
G1 X138.056 Y110.126 E1.77895
G1 X137.521 Y110.126 E.01682
G1 X178.058 Y150.664 E1.80274
G1 X178.058 Y151.198 E.01679
M73 P2 R132
