; generated by PrusaSlicer 2.6.1+win64 on 2023-11-04 at 21:39:18 UTC


;
;
; 

; external perimeters extrusion width = 0.45mm
; perimeters extrusion width = 0.45mm
; infill extrusion width = 0.45mm
; solid infill extrusion width = 0.45mm
; top infill extrusion width = 0.40mm
; first layer extrusion width = 0.42mm

; external perimeters extrusion width = 0.45mm
; perimeters extrusion width = 0.45mm
; infill extrusion width = 0.45mm
; solid infill extrusion width = 0.45mm
; top infill extrusion width = 0.40mm
; first layer extrusion width = 0.42mm

M73 P0 R95
M73 Q0 S97
M201 X1000 Y1000 Z200 E5000 ; sets maximum accelerations, mm/sec^2
M203 X200 Y200 Z12 E120 ; sets maximum feedrates, mm / sec
M204 S1250 T1250 ; sets acceleration (S) and retract acceleration (R), mm/sec^2
M205 X8.00 Y8.00 Z0.40 E4.50 ; sets the jerk limits, mm/sec
M205 S0 T0 ; sets the minimum extruding and travel feed rate, mm/sec
;TYPE:Custom
M862.3 P "MK3S" ; printer model check
M862.1 P0.4 ; nozzle diameter check
M115 U3.12.2 ; tell printer latest fw version
G90 ; use absolute coordinates
M83 ; extruder relative mode
M104 S215 ; set extruder temp
M140 S60 ; set bed temp
M190 S60 ; wait for bed temp
M109 S215 ; wait for extruder temp
G28 W ; home all without mesh bed level
G80 ; mesh bed leveling

G1 Z0.2 F720
G1 Y-3 F1000 ; go outside print area
G92 E0
G1 X60 E9 F1000 ; intro line
G1 X100 E12.5 F1000 ; intro line

G92 E0
M221 S95

; Don't change E values below. Excessive value can damage the printer.

M907 E538 ; set extruder motor current
G21 ; set units to millimeters
G90 ; use absolute coordinates
M83 ; use relative distances for extrusion
M900 K0.05 ; Filament gcode LA 1.5
M900 K30 ; Filament gcode LA 1.0
M107
;LAYER_CHANGE
;Z:0.2
;HEIGHT:0.2
;BEFORE_LAYER_CHANGE
G92 E0.0
;0.2


G1 E-.8 F2100
M73 P0 R94
G1 Z.4 F720
;AFTER_LAYER_CHANGE
;0.2
G1 X68.83 Y38.444 F10800
G1 Z.2 F720
G1 E.8 F2100
M204 S800
;TYPE:Skirt/Brim
;WIDTH:0.42
G1 F1200
G1 X69.876 Y37.568 E.04278
G1 X70.816 Y37.374 E.03009
G1 X179.184 Y37.374 E3.3978
G1 X180.491 Y37.766 E.04278
G1 X181.368 Y38.811 E.04277
G1 X181.562 Y39.751 E.03009
G1 X181.562 Y170.249 E4.09167
G1 X181.17 Y171.556 E.04278
G1 X180.124 Y172.432 E.04278
G1 X179.184 Y172.626 E.03009
G1 X70.816 Y172.626 E3.3978
G1 X69.509 Y172.234 E.04278
M73 Q0 S96
G1 X68.632 Y171.189 E.04277
G1 X68.439 Y170.249 E.03009
G1 X68.438 Y39.751 E4.09167
G1 X68.813 Y38.502 E.04089
M204 S1000
; printing object ESP_S3_Top.stl id:0 copy 0
;WIPE_START
G1 F8640
G1 X69.876 Y37.568 E-.32674
G1 X70.816 Y37.374 E-.22162
G1 X71.906 Y37.374 E-.25164
;WIPE_END
G1 Z.6 F720
G1 X178.397 Y108.787 F10800
G1 Z.2 F720
G1 E.8 F2100
M204 S800
;TYPE:Perimeter
;WIDTH:0.419999
G1 F1200
G1 X178.397 Y169.462 E1.90242
G1 X71.603 Y169.462 E3.34845
G1 X71.603 Y108.787 E1.90242
G1 X178.337 Y108.787 E3.34656
M204 S1000
G1 X178.774 Y108.41 F10800
M204 S800
;TYPE:External perimeter
G1 F1200
G1 X178.774 Y169.839 E1.92606
G1 X71.226 Y169.839 E3.37209
G1 X71.226 Y108.41 E1.92606
M73 P1 R94
G1 X178.714 Y108.41 E3.37021
M204 S1000
M73 Q1 S96
G1 X178.637 Y108.786 F10800
;WIPE_START
M73 P1 R93
G1 F8640
G1 X178.717 Y111.875 E-.8
;WIPE_END
G1 Z.6 F720
G1 X167.569 Y167.051 F10800
G1 Z.2 F720
G1 E.8 F2100
M204 S800
;TYPE:Perimeter
G1 F1200
G1 X167.554 Y167.154 E.00326
G1 X167.464 Y167.335 E.00634
G1 X167.278 Y167.495 E.00769
G1 X167.011 Y167.562 E.00863
G1 X82.759 Y167.562 E2.64166
G1 X82.492 Y167.495 E.00863
G1 X82.306 Y167.335 E.00769
G1 X82.216 Y167.154 E.00634
G1 X82.193 Y166.996 E.00501
G1 X82.193 Y111.253 E1.74778
G1 X82.216 Y111.095 E.00501
G1 X82.306 Y110.914 E.00634
G1 X82.492 Y110.754 E.00769
G1 X82.759 Y110.687 E.00863
G1 X167.011 Y110.687 E2.64166
G1 X167.278 Y110.754 E.00863
G1 X167.464 Y110.914 E.00769
G1 X167.554 Y111.095 E.00634
G1 X167.577 Y111.253 E.00501
G1 X167.577 Y166.991 E1.74762
M204 S1000
G1 X167.2 Y166.996 F10800
M204 S800
;TYPE:External perimeter
G1 F1200
G1 X167.162 Y167.109 E.00374
G1 X167.011 Y167.184 E.00529
G1 X82.759 Y167.184 E2.64166
G1 X82.608 Y167.109 E.00529
M73 Q1 S95
G1 X82.57 Y166.996 E.00374
G1 X82.57 Y111.253 E1.74778
G1 X82.608 Y111.14 E.00374
G1 X82.759 Y111.064 E.0053
G1 X167.011 Y111.064 E2.64166
G1 X167.162 Y111.14 E.0053
G1 X167.2 Y111.253 E.00374
G1 X167.2 Y166.936 E1.7459
M204 S1000
G1 X167.288 Y167.076 F10800
;WIPE_START
G1 F8640
G1 X167.162 Y167.109 E-.0409
G1 X167.011 Y167.184 E-.03893
G1 X163.892 Y167.184 E-.72017
;WIPE_END
G1 Z.6 F720
G1 X74.353 Y122.226 F10800
G1 Z.2 F720
G1 E.8 F2100
M204 S800
;TYPE:Perimeter
G1 F1200
G1 X74.353 Y121.893 E.01044
G1 X74.396 Y121.675 E.00697
G1 X74.509 Y121.503 E.00645
G1 X74.794 Y121.341 E.01028
G1 X74.919 Y121.327 E.00394
G1 X77.661 Y121.327 E.08597
G1 X77.879 Y121.371 E.00697
G1 X78.114 Y121.554 E.00934
G1 X78.197 Y121.71 E.00554
G1 X78.227 Y121.893 E.00581
G1 X78.227 Y126.336 E.13931
G1 X78.197 Y126.519 E.00581
G1 X78.001 Y126.788 E.01044
G1 X77.763 Y126.892 E.00814
G1 X74.919 Y126.902 E.08917
G1 X74.652 Y126.835 E.00863
G1 X74.509 Y126.726 E.00564
G1 X74.361 Y126.434 E.01026
G1 X74.353 Y126.336 E.00308
G1 X74.353 Y122.286 E.12698
M204 S1000
G1 X74.73 Y121.893 F10800
M204 S800
;TYPE:External perimeter
G1 F1200
G1 X74.782 Y121.763 E.00439
G1 X74.919 Y121.704 E.00468
G1 X77.661 Y121.704 E.08597
G1 X77.812 Y121.78 E.0053
G1 X77.85 Y121.893 E.00374
G1 X77.85 Y126.336 E.13931
G1 X77.775 Y126.487 E.00529
G1 X77.661 Y126.524 E.00376
G1 X74.919 Y126.524 E.08597
G1 X74.782 Y126.466 E.00466
G1 X74.73 Y126.336 E.00439
G1 X74.73 Y121.953 E.13743
M204 S1000
G1 X74.63 Y121.795 F10800
;WIPE_START
G1 F8640
G1 X74.782 Y121.763 E-.04548
G1 X74.919 Y121.704 E-.03444
G1 X77.661 Y121.704 E-.63314
G1 X77.812 Y121.78 E-.03903
G1 X77.85 Y121.893 E-.02753
G1 X77.85 Y121.981 E-.02038
;WIPE_END
G1 Z.6 F720
G1 X178.228 Y109.721 F10800
G1 Z.2 F720
G1 E.8 F2100
M204 S800
;TYPE:Solid infill
;WIDTH:0.421099
G1 F1200
G1 X177.633 Y109.126 E.02646
G1 X177.098 Y109.126 E.01682
G1 X178.058 Y110.087 E.04271
G1 X178.058 Y110.621 E.01679
G1 X176.563 Y109.126 E.06648
G1 X176.028 Y109.126 E.01682
G1 X178.058 Y111.156 E.09028
G1 X178.058 Y111.691 E.01682
G1 X175.493 Y109.126 E.11407
G1 X174.959 Y109.126 E.01679
G1 X178.058 Y112.226 E.13784
G1 X178.058 Y112.761 E.01682
G1 X174.424 Y109.126 E.16163
G1 X173.889 Y109.126 E.01682
G1 X178.058 Y113.295 E.1854
G1 X178.058 Y113.83 E.01682
G1 X173.354 Y109.126 E.20919
G1 X172.819 Y109.126 E.01682
G1 X178.058 Y114.365 E.23298
G1 X178.058 Y114.9 E.01682
G1 X172.284 Y109.126 E.25678
G1 X171.75 Y109.126 E.01679
G1 X178.058 Y115.435 E.28055
G1 X178.058 Y115.97 E.01682
G1 X171.215 Y109.126 E.30434
G1 X170.68 Y109.126 E.01682
G1 X178.058 Y116.504 E.32811
G1 X178.058 Y117.039 E.01682
G1 X170.145 Y109.126 E.3519
G1 X169.61 Y109.126 E.01682
G1 X178.058 Y117.574 E.37569
G1 X178.058 Y118.109 E.01682
G1 X169.076 Y109.126 E.39946
G1 X168.541 Y109.126 E.01682
G1 X178.058 Y118.644 E.42325
G1 X178.058 Y119.179 E.01682
G1 X168.006 Y109.126 E.44704
G1 X167.471 Y109.126 E.01682
G1 X178.058 Y119.713 E.47081
G1 X178.058 Y120.248 E.01682
G1 X166.936 Y109.126 E.49461
G1 X166.401 Y109.126 E.01682
G1 X178.058 Y120.783 E.5184
G1 X178.058 Y121.318 E.01682
G1 X167.905 Y111.165 E.45151
G1 X167.881 Y110.996 E.00537
G1 X167.736 Y110.706 E.0102
G1 X167.437 Y110.45 E.01238
G1 X167.107 Y110.367 E.0107
G1 X165.867 Y109.126 E.05517
G1 X165.332 Y109.126 E.01682
G1 X166.553 Y110.348 E.05432
G1 X166.018 Y110.348 E.01682
G1 X164.797 Y109.126 E.05432
G1 X164.262 Y109.126 E.01682
G1 X165.484 Y110.348 E.05434
G1 X164.949 Y110.348 E.01682
G1 X163.727 Y109.126 E.05434
G1 X163.192 Y109.126 E.01682
G1 X164.414 Y110.348 E.05434
G1 X163.879 Y110.348 E.01682
G1 X162.658 Y109.126 E.05432
G1 X162.123 Y109.126 E.01682
G1 X163.344 Y110.348 E.05432
G1 X162.81 Y110.348 E.01679
G1 X161.588 Y109.126 E.05434
G1 X161.053 Y109.126 E.01682
G1 X162.275 Y110.348 E.05434
G1 X161.74 Y110.348 E.01682
G1 X160.518 Y109.126 E.05434
G1 X159.983 Y109.126 E.01682
G1 X161.205 Y110.348 E.05434
G1 X160.67 Y110.348 E.01682
G1 X159.449 Y109.126 E.05432
G1 X158.914 Y109.126 E.01682
G1 X160.135 Y110.348 E.05432
G1 X159.601 Y110.348 E.01679
G1 X158.379 Y109.126 E.05434
G1 X157.844 Y109.126 E.01682
G1 X159.066 Y110.348 E.05434
G1 X158.531 Y110.348 E.01682
G1 X157.309 Y109.126 E.05434
G1 X156.775 Y109.126 E.01679
G1 X157.996 Y110.348 E.05432
G1 X157.461 Y110.348 E.01682
G1 X156.24 Y109.126 E.05432
G1 X155.705 Y109.126 E.01682
G1 X156.926 Y110.348 E.05432
G1 X156.392 Y110.348 E.01679
G1 X155.17 Y109.126 E.05434
G1 X154.635 Y109.126 E.01682
G1 X155.857 Y110.348 E.05434
G1 X155.322 Y110.348 E.01682
G1 X154.1 Y109.126 E.05434
G1 X153.566 Y109.126 E.01679
G1 X154.787 Y110.348 E.05432
G1 X154.252 Y110.348 E.01682
G1 X153.031 Y109.126 E.05432
G1 X152.496 Y109.126 E.01682
G1 X153.717 Y110.348 E.05432
G1 X153.183 Y110.348 E.01679
G1 X151.961 Y109.126 E.05434
G1 X151.426 Y109.126 E.01682
G1 X152.648 Y110.348 E.05434
G1 X152.113 Y110.348 E.01682
G1 X150.891 Y109.126 E.05434
G1 X150.357 Y109.126 E.01679
G1 X151.578 Y110.348 E.05432
G1 X151.043 Y110.348 E.01682
M73 P2 R93
G1 X149.822 Y109.126 E.05432
G1 X149.287 Y109.126 E.01682
G1 X150.509 Y110.348 E.05434
G1 X149.974 Y110.348 E.01682
G1 X148.752 Y109.126 E.05434
G1 X148.217 Y109.126 E.01682
G1 X149.439 Y110.348 E.05434
G1 X148.904 Y110.348 E.01682
G1 X147.683 Y109.126 E.05432
G1 X147.148 Y109.126 E.01682
G1 X148.369 Y110.348 E.05432
G1 X147.834 Y110.348 E.01682
G1 X146.613 Y109.126 E.05432
G1 X146.078 Y109.126 E.01682
G1 X147.3 Y110.348 E.05434
G1 X146.765 Y110.348 E.01682
G1 X145.543 Y109.126 E.05434
G1 X145.008 Y109.126 E.01682
G1 X146.23 Y110.348 E.05434
G1 X145.695 Y110.348 E.01682
G1 X144.474 Y109.126 E.05432
G1 X143.939 Y109.126 E.01682
G1 X145.16 Y110.348 E.05432
G1 X144.625 Y110.348 E.01682
M73 Q2 S95
G1 X143.404 Y109.126 E.05432
G1 X142.869 Y109.126 E.01682
G1 X144.091 Y110.348 E.05434
G1 X143.556 Y110.348 E.01682
G1 X142.334 Y109.126 E.05434
G1 X141.799 Y109.126 E.01682
G1 X143.021 Y110.348 E.05434
G1 X142.486 Y110.348 E.01682
G1 X141.265 Y109.126 E.05432
G1 X140.73 Y109.126 E.01682
G1 X141.951 Y110.348 E.05432
G1 X141.416 Y110.348 E.01682
G1 X140.195 Y109.126 E.05432
G1 X139.66 Y109.126 E.01682
G1 X140.882 Y110.348 E.05434
G1 X140.347 Y110.348 E.01682
G1 X139.125 Y109.126 E.05434
G1 X138.59 Y109.126 E.01682
G1 X139.812 Y110.348 E.05434
G1 X139.277 Y110.348 E.01682
G1 X138.056 Y109.126 E.05432
G1 X137.521 Y109.126 E.01682
G1 X138.742 Y110.348 E.05432
G1 X138.208 Y110.348 E.01679
G1 X136.986 Y109.126 E.05434
G1 X136.451 Y109.126 E.01682
G1 X137.673 Y110.348 E.05434
G1 X137.138 Y110.348 E.01682
G1 X135.916 Y109.126 E.05434
G1 X135.382 Y109.126 E.01679
G1 X136.603 Y110.348 E.05432
G1 X136.068 Y110.348 E.01682
G1 X134.847 Y109.126 E.05432
G1 X134.312 Y109.126 E.01682
G1 X135.533 Y110.348 E.05432
G1 X134.999 Y110.348 E.01679
G1 X133.777 Y109.126 E.05434
G1 X133.242 Y109.126 E.01682
G1 X134.464 Y110.348 E.05434
G1 X133.929 Y110.348 E.01682
G1 X132.707 Y109.126 E.05434
G1 X132.173 Y109.126 E.01679
G1 X133.394 Y110.348 E.05432
G1 X132.859 Y110.348 E.01682
G1 X131.638 Y109.126 E.05432
G1 X131.103 Y109.126 E.01682
G1 X132.324 Y110.348 E.05432
G1 X131.79 Y110.348 E.01679
G1 X130.568 Y109.126 E.05434
G1 X130.033 Y109.126 E.01682
G1 X131.255 Y110.348 E.05434
G1 X130.72 Y110.348 E.01682
G1 X129.498 Y109.126 E.05434
G1 X128.964 Y109.126 E.01679
G1 X130.185 Y110.348 E.05432
G1 X129.65 Y110.348 E.01682
G1 X128.429 Y109.126 E.05432
G1 X127.894 Y109.126 E.01682
G1 X129.115 Y110.348 E.05432
G1 X128.581 Y110.348 E.01679
G1 X127.359 Y109.126 E.05434
G1 X126.824 Y109.126 E.01682
G1 X128.046 Y110.348 E.05434
G1 X127.511 Y110.348 E.01682
G1 X126.289 Y109.126 E.05434
G1 X125.755 Y109.126 E.01679
G1 X126.976 Y110.348 E.05432
G1 X126.441 Y110.348 E.01682
G1 X125.22 Y109.126 E.05432
G1 X124.685 Y109.126 E.01682
G1 X125.907 Y110.348 E.05434
G1 X125.372 Y110.348 E.01682
G1 X124.15 Y109.126 E.05434
G1 X123.615 Y109.126 E.01682
G1 X124.837 Y110.348 E.05434
G1 X124.302 Y110.348 E.01682
G1 X123.081 Y109.126 E.05432
G1 X122.546 Y109.126 E.01682
G1 X123.767 Y110.348 E.05432
G1 X123.232 Y110.348 E.01682
G1 X122.011 Y109.126 E.05432
G1 X121.476 Y109.126 E.01682
G1 X122.698 Y110.348 E.05434
G1 X122.163 Y110.348 E.01682
G1 X120.941 Y109.126 E.05434
G1 X120.406 Y109.126 E.01682
G1 X121.628 Y110.348 E.05434
G1 X121.093 Y110.348 E.01682
G1 X119.872 Y109.126 E.05432
G1 X119.337 Y109.126 E.01682
G1 X120.558 Y110.348 E.05432
G1 X120.023 Y110.348 E.01682
G1 X118.802 Y109.126 E.05432
G1 X118.267 Y109.126 E.01682
G1 X119.489 Y110.348 E.05434
G1 X118.954 Y110.348 E.01682
G1 X117.732 Y109.126 E.05434
G1 X117.197 Y109.126 E.01682
G1 X118.419 Y110.348 E.05434
G1 X117.884 Y110.348 E.01682
G1 X116.663 Y109.126 E.05432
G1 X116.128 Y109.126 E.01682
G1 X117.349 Y110.348 E.05432
G1 X116.814 Y110.348 E.01682
G1 X115.593 Y109.126 E.05432
G1 X115.058 Y109.126 E.01682
G1 X116.28 Y110.348 E.05434
G1 X115.745 Y110.348 E.01682
G1 X114.523 Y109.126 E.05434
G1 X113.988 Y109.126 E.01682
G1 X115.21 Y110.348 E.05434
G1 X114.675 Y110.348 E.01682
G1 X113.454 Y109.126 E.05432
G1 X112.919 Y109.126 E.01682
G1 X114.14 Y110.348 E.05432
G1 X113.606 Y110.348 E.01679
G1 X112.384 Y109.126 E.05434
G1 X111.849 Y109.126 E.01682
G1 X113.071 Y110.348 E.05434
G1 X112.536 Y110.348 E.01682
G1 X111.314 Y109.126 E.05434
G1 X110.78 Y109.126 E.01679
G1 X112.001 Y110.348 E.05432
G1 X111.466 Y110.348 E.01682
G1 X110.245 Y109.126 E.05432
G1 X109.71 Y109.126 E.01682
G1 X110.931 Y110.348 E.05432
G1 X110.397 Y110.348 E.01679
G1 X109.175 Y109.126 E.05434
G1 X108.64 Y109.126 E.01682
G1 X109.862 Y110.348 E.05434
G1 X109.327 Y110.348 E.01682
G1 X108.105 Y109.126 E.05434
G1 X107.571 Y109.126 E.01679
G1 X108.792 Y110.348 E.05432
G1 X108.257 Y110.348 E.01682
G1 X107.036 Y109.126 E.05432
G1 X106.501 Y109.126 E.01682
G1 X107.722 Y110.348 E.05432
G1 X107.188 Y110.348 E.01679
G1 X105.966 Y109.126 E.05434
G1 X105.431 Y109.126 E.01682
G1 X106.653 Y110.348 E.05434
G1 X106.118 Y110.348 E.01682
G1 X104.896 Y109.126 E.05434
G1 X104.362 Y109.126 E.01679
G1 X105.583 Y110.348 E.05432
G1 X105.048 Y110.348 E.01682
G1 X103.827 Y109.126 E.05432
G1 X103.292 Y109.126 E.01682
G1 X104.513 Y110.348 E.05432
G1 X103.979 Y110.348 E.01679
G1 X102.757 Y109.126 E.05434
G1 X102.222 Y109.126 E.01682
G1 X103.444 Y110.348 E.05434
G1 X102.909 Y110.348 E.01682
M73 P2 R92
G1 X101.687 Y109.126 E.05434
G1 X101.153 Y109.126 E.01679
G1 X102.374 Y110.348 E.05432
G1 X101.839 Y110.348 E.01682
G1 X100.618 Y109.126 E.05432
G1 X100.083 Y109.126 E.01682
G1 X101.305 Y110.348 E.05434
G1 X100.77 Y110.348 E.01682
G1 X99.548 Y109.126 E.05434
G1 X99.013 Y109.126 E.01682
G1 X100.235 Y110.348 E.05434
G1 X99.7 Y110.348 E.01682
G1 X98.479 Y109.126 E.05432
G1 X97.944 Y109.126 E.01682
G1 X99.165 Y110.348 E.05432
G1 X98.63 Y110.348 E.01682
G1 X97.409 Y109.126 E.05432
G1 X96.874 Y109.126 E.01682
G1 X98.096 Y110.348 E.05434
G1 X97.561 Y110.348 E.01682
G1 X96.339 Y109.126 E.05434
G1 X95.804 Y109.126 E.01682
G1 X97.026 Y110.348 E.05434
G1 X96.491 Y110.348 E.01682
G1 X95.27 Y109.126 E.05432
G1 X94.735 Y109.126 E.01682
G1 X95.956 Y110.348 E.05432
G1 X95.421 Y110.348 E.01682
G1 X94.2 Y109.126 E.05432
G1 X93.665 Y109.126 E.01682
G1 X94.887 Y110.348 E.05434
G1 X94.352 Y110.348 E.01682
G1 X93.13 Y109.126 E.05434
G1 X92.595 Y109.126 E.01682
G1 X93.817 Y110.348 E.05434
G1 X93.282 Y110.348 E.01682
G1 X92.061 Y109.126 E.05432
G1 X91.526 Y109.126 E.01682
G1 X92.747 Y110.348 E.05432
G1 X92.212 Y110.348 E.01682
G1 X90.991 Y109.126 E.05432
G1 X90.456 Y109.126 E.01682
G1 X91.678 Y110.348 E.05434
G1 X91.143 Y110.348 E.01682
G1 X89.921 Y109.126 E.05434
G1 X89.386 Y109.126 E.01682
G1 X90.608 Y110.348 E.05434
G1 X90.073 Y110.348 E.01682
G1 X88.852 Y109.126 E.05432
G1 X88.317 Y109.126 E.01682
G1 X89.538 Y110.348 E.05432
G1 X89.004 Y110.348 E.01679
G1 X87.782 Y109.126 E.05434
G1 X87.247 Y109.126 E.01682
G1 X88.469 Y110.348 E.05434
G1 X87.934 Y110.348 E.01682
G1 X86.712 Y109.126 E.05434
G1 X86.178 Y109.126 E.01679
G1 X87.399 Y110.348 E.05432
G1 X86.864 Y110.348 E.01682
G1 X85.643 Y109.126 E.05432
G1 X85.108 Y109.126 E.01682
G1 X86.329 Y110.348 E.05432
G1 X85.795 Y110.348 E.01679
