; generated by SuperSlicer 2.4 on 2022-11-20 at 01:11:42 UTC


;
;

;
;
; 

; external perimeters extrusion width = 0.60mm
; perimeters extrusion width = 0.50mm
; infill extrusion width = 0.50mm
; solid infill extrusion width = 0.50mm
; top infill extrusion width = 0.40mm
; first layer extrusion width = 0.42mm

; object:{"name":"foot_l_hole","id":"foot_l_hole.stl id:0 copy 0","object_center":[105.000000,105.000000,0.000000],"boundingbox_center":[105.000000,105.000000,30.298501],"boundingbox_size":[58.341359,76.932203,60.597001]}
; Total objects to print: 1
M486 T1
; plater:{"center":[105.000000,105.000000,0.000000],"boundingbox_center":[105.000000,105.000000,30.298501],"boundingbox_size":[58.341359,76.932203,60.597001]}

M73 P0 R82
;TYPE:Custom
G90 ; use absolute coordinates
M83 ; extruder relative mode
M204 S1250 T1250
M104 S215 ; set extruder temp
M140 S65 ; set bed temp
G28 ; home all
G29 ; AutoBed Leveling I think
G1 Y1.0 Z0.3 F1000 ; move print head up
M190 S65 ; wait for bed temp
M109 S215 ; wait for extruder temp
G92 E0.0
; initial load
G1 X205.0 E19 F1000
G1 Y1.6
G1 X5.0 E19 F1000
G92 E0.0
; intro line
G1 Y2.0 Z0.2 F1000
M73 P0 R81
G1 X65.0 E9.0 F1000
G1 X105.0 E12.5 F1000
G92 E0.0
M107
G21 ; set units to millimeters
G90 ; use absolute coordinates
M83 ; use relative distances for extrusion
; Filament gcode
;_TOOLCHANGE 0
M107
;LAYER_CHANGE
;Z:0.2
;HEIGHT:0.2
;BEFORE_LAYER_CHANGE
G92 E0.0
;0.2
G1 Z0.075 F10800
M73 P1 R81
G1 Z0.2
;AFTER_LAYER_CHANGE
;0.2
G1 Z0.275
M204 S800
G1 X74.507 Y65.872
G1 Z0.2
;TYPE:Skirt
;WIDTH:0.52
G1 F1200
G1 X74.237 Y66.317 E0.02066
G1 X74.002 Y66.847 E0.023
G1 X73.819 Y67.573 E0.0297
G1 X73.65 Y69.689 E0.0842
G1 X73.774 Y72.076 E0.09481
G1 X74.389 Y76.891 E0.19259
G1 X75.061 Y81.093 E0.16881
G1 X76.997 Y91.928 E0.43659
G1 X80.39 Y109.828 E0.72274
G1 X81.792 Y116.984 E0.28928
G1 X83.841 Y126.573 E0.38899
G1 X85.349 Y132.707 E0.25055
G1 X86.243 Y135.79 E0.12734
G1 X87.51 Y139.506 E0.15573
G1 X88.431 Y141.754 E0.09637
G1 X89.181 Y143.212 E0.06506
G1 X89.812 Y144.154 E0.04496
G1 X90.257 Y144.66 E0.02672
G1 X91.303 Y145.398 E0.0508
G1 X92.241 Y145.639 E0.03842
G1 X93.283 Y145.575 E0.04141
G1 X93.968 Y145.357 E0.02852
G1 X94.677 Y144.97 E0.03205
G1 X96.231 Y143.705 E0.07946
G1 X97.718 Y142.259 E0.0823
G1 X100.577 Y139.142 E0.1678
G1 X102.957 Y136.154 E0.15152
G1 X106.424 Y131.297 E0.23671
G1 X110.062 Y125.877 E0.25896
G1 X121.207 Y108.737 E0.81105
G1 X130.636 Y93.872 E0.69831
G1 X132.439 Y90.884 E0.13846
G1 X134.665 Y86.877 E0.1818
G1 X135.641 Y84.718 E0.094
G1 X135.991 Y83.655 E0.04442
G1 X136.227 Y82.48 E0.04751
G1 X136.261 Y81.83 E0.02584
G1 X136.185 Y81.024 E0.03212
G1 X135.878 Y80.085 E0.0392
G1 X135.047 Y78.841 E0.05934
G1 X134.347 Y78.163 E0.03864
G1 X133.059 Y77.119 E0.0658
G1 X109.651 Y65.099 E1.04382
G1 X108.705 Y64.689 E0.04092
G1 X108.003 Y64.516 E0.02867
G1 X107.074 Y64.451 E0.03695
G1 X76.777 Y64.606 E1.20187
G1 X75.954 Y64.776 E0.03336
G1 X75.125 Y65.209 E0.0371
G1 X74.507 Y65.872 E0.03593
M204 S1000
G1 Z0.275 F10800
; printing object foot_l_hole.stl id:0 copy 0
M486 S0
; acceleration to travel
M204 S1500
G1 X86.837 Y91.327
; decel to extrusion
M204 S800
G1 X93.413 Y104.903
; end travel
G1 Z0.2
;TYPE:Internal perimeter
;WIDTH:0.42
G1 F1200
G1 X93.369 Y104.92 E0.00149
G1 X92.272 Y105.523 E0.03924
G1 X91.26 Y106.259 E0.03924
G1 X90.347 Y107.116 E0.03924
G1 X89.55 Y108.08 E0.03924
G1 X88.879 Y109.137 E0.03924
G1 X88.346 Y110.269 E0.03924
G1 X87.959 Y111.46 E0.03924
G1 X87.725 Y112.689 E0.03924
G1 X87.646 Y113.938 E0.03924
G1 X87.725 Y115.187 E0.03924
G1 X87.959 Y116.416 E0.03924
G1 X88.346 Y117.607 E0.03924
G1 X88.879 Y118.739 E0.03924
G1 X89.55 Y119.796 E0.03924
G1 X90.347 Y120.76 E0.03924
G1 X91.26 Y121.617 E0.03924
G1 X92.272 Y122.353 E0.03924
G1 X93.369 Y122.956 E0.03924
G1 X94.533 Y123.416 E0.03924
G1 X95.745 Y123.728 E0.03924
G1 X96.987 Y123.884 E0.03924
G1 X98.238 Y123.884 E0.03924
G1 X99.48 Y123.728 E0.03924
G1 X100.692 Y123.416 E0.03924
G1 X101.856 Y122.956 E0.03924
G1 X102.952 Y122.353 E0.03924
G1 X103.965 Y121.617 E0.03924
G1 X104.877 Y120.76 E0.03924
G1 X105.675 Y119.796 E0.03924
G1 X106.346 Y118.739 E0.03924
G1 X106.879 Y117.607 E0.03924
G1 X107.265 Y116.416 E0.03924
G1 X107.5 Y115.187 E0.03924
G1 X107.578 Y113.938 E0.03924
G1 X107.5 Y112.689 E0.03924
G1 X107.265 Y111.46 E0.03924
G1 X106.879 Y110.269 E0.03924
G1 X106.346 Y109.137 E0.03924
G1 X105.675 Y108.08 E0.03924
G1 X104.877 Y107.116 E0.03924
G1 X103.965 Y106.259 E0.03924
G1 X102.952 Y105.523 E0.03924
G1 X101.856 Y104.92 E0.03924
G1 X100.692 Y104.46 E0.03924
G1 X99.48 Y104.148 E0.03924
G1 X98.238 Y103.992 E0.03924
G1 X96.987 Y103.992 E0.03924
G1 X95.745 Y104.148 E0.03924
G1 X94.533 Y104.46 E0.03924
G1 X93.413 Y104.903 E0.03775
G1 X93.552 Y105.254 F10800
G1 F1200
G1 X93.53 Y105.262 E0.00074
G1 X92.475 Y105.842 E0.03775
G1 X91.501 Y106.55 E0.03775
G1 X90.623 Y107.374 E0.03775
G1 X89.855 Y108.302 E0.03775
G1 X89.21 Y109.319 E0.03775
G1 X88.697 Y110.408 E0.03775
G1 X88.325 Y111.553 E0.03775
G1 X88.1 Y112.736 E0.03775
G1 X88.024 Y113.938 E0.03775
G1 X88.1 Y115.14 E0.03775
G1 X88.325 Y116.323 E0.03775
G1 X88.697 Y117.468 E0.03775
G1 X89.21 Y118.557 E0.03775
G1 X89.855 Y119.574 E0.03775
G1 X90.623 Y120.502 E0.03775
G1 X91.501 Y121.326 E0.03775
G1 X92.475 Y122.034 E0.03775
G1 X93.53 Y122.614 E0.03775
G1 X94.649 Y123.057 E0.03775
G1 X95.816 Y123.356 E0.03775
G1 X97.01 Y123.507 E0.03775
G1 X98.214 Y123.507 E0.03775
G1 X99.409 Y123.356 E0.03775
G1 X100.575 Y123.057 E0.03775
G1 X101.695 Y122.614 E0.03775
G1 X102.75 Y122.034 E0.03775
G1 X103.724 Y121.326 E0.03775
G1 X104.602 Y120.502 E0.03775
G1 X105.369 Y119.574 E0.03775
G1 X106.015 Y118.557 E0.03775
G1 X106.527 Y117.468 E0.03775
G1 X106.899 Y116.322 E0.03775
G1 X107.125 Y115.14 E0.03775
G1 X107.201 Y113.938 E0.03775
G1 X107.125 Y112.736 E0.03775
G1 X106.899 Y111.554 E0.03775
G1 X106.527 Y110.408 E0.03775
G1 X106.015 Y109.319 E0.03775
G1 X105.369 Y108.302 E0.03775
G1 X104.602 Y107.374 E0.03775
G1 X103.724 Y106.55 E0.03775
G1 X102.75 Y105.842 E0.03775
G1 X101.695 Y105.262 E0.03775
G1 X100.575 Y104.819 E0.03775
G1 X99.409 Y104.52 E0.03775
G1 X98.214 Y104.369 E0.03775
G1 X97.01 Y104.369 E0.03775
G1 X95.816 Y104.52 E0.03775
G1 X94.649 Y104.819 E0.03775
G1 X93.552 Y105.254 E0.03701
G1 X93.691 Y105.604 F10800
;TYPE:External perimeter
G1 F1200
G1 X92.677 Y106.161 E0.03627
G1 X91.741 Y106.841 E0.03627
G1 X90.898 Y107.633 E0.03627
G1 X90.161 Y108.524 E0.03627
G1 X89.541 Y109.501 E0.03627
G1 X89.049 Y110.547 E0.03627
G1 X88.691 Y111.647 E0.03627
G1 X88.475 Y112.784 E0.03627
G1 X88.402 Y113.938 E0.03627
G1 X88.475 Y115.092 E0.03627
G1 X88.691 Y116.229 E0.03627
G1 X89.049 Y117.329 E0.03627
G1 X89.541 Y118.375 E0.03627
G1 X90.161 Y119.352 E0.03627
G1 X90.898 Y120.243 E0.03627
G1 X91.741 Y121.035 E0.03627
G1 X92.677 Y121.715 E0.03627
G1 X93.691 Y122.272 E0.03627
G1 X94.766 Y122.698 E0.03627
G1 X95.886 Y122.985 E0.03627
G1 X97.034 Y123.13 E0.03627
G1 X98.191 Y123.13 E0.03627
G1 X99.338 Y122.985 E0.03627
G1 X100.459 Y122.698 E0.03627
G1 X101.534 Y122.272 E0.03627
G1 X102.548 Y121.715 E0.03627
G1 X103.483 Y121.035 E0.03627
G1 X104.326 Y120.243 E0.03627
G1 X105.064 Y119.352 E0.03627
G1 X105.684 Y118.375 E0.03627
G1 X106.176 Y117.329 E0.03627
G1 X106.533 Y116.229 E0.03627
G1 X106.75 Y115.092 E0.03627
G1 X106.823 Y113.938 E0.03627
G1 X106.75 Y112.784 E0.03627
G1 X106.533 Y111.647 E0.03627
G1 X106.176 Y110.547 E0.03627
G1 X105.684 Y109.501 E0.03627
G1 X105.064 Y108.524 E0.03627
G1 X104.326 Y107.633 E0.03627
G1 X103.483 Y106.841 E0.03627
G1 X102.548 Y106.161 E0.03627
G1 X101.534 Y105.604 E0.03627
G1 X100.459 Y105.178 E0.03627
G1 X99.338 Y104.891 E0.03627
G1 X98.191 Y104.746 E0.03627
G1 X97.034 Y104.746 E0.03627
G1 X95.886 Y104.891 E0.03627
G1 X94.766 Y105.178 E0.03627
G1 X93.691 Y105.604 E0.03627
;WIPE_START
M204 S1000
G1 X93.358 Y105.383 F10800
;WIPE_END
G1 Z0.275
; acceleration to travel
M204 S1500
G1 X86.76 Y106.825
; decel to extrusion
M204 S800
G1 X83.241 Y107.594
; end travel
G1 Z0.2
;TYPE:Internal perimeter
G1 F1200
G1 X81.135 Y96.53 E0.35313
G1 X79.307 Y86.644 E0.31522
G1 X78.071 Y79.389 E0.23074
G1 X77.35 Y74.349 E0.15966
G1 X77.215 Y73.025 E0.04173
G1 X77.084 Y70.854 E0.06819
G1 X77.084 Y70.57 E0.00891
G1 X77.155 Y69.275 E0.04066
G1 X77.194 Y68.871 E0.01273
G1 X77.229 Y68.731 E0.00453
G1 X77.352 Y68.418 E0.01052
G1 X77.413 Y68.3 E0.00418
G1 X77.515 Y68.254 E0.00351
G1 X77.942 Y68.168 E0.01366
G1 X78.162 Y68.166 E0.00688
G1 X78.378 Y68.187 E0.00682
G1 X78.897 Y68.321 E0.01681
G1 X79.278 Y68.495 E0.01313
G1 X79.586 Y68.691 E0.01144
G1 X80.018 Y69.079 E0.01821
G1 X81.277 Y70.416 E0.05758
G1 X81.891 Y71.15 E0.02999
G1 X82.868 Y72.455 E0.05112
G1 X84.536 Y74.575 E0.08458
G1 X85.328 Y75.619 E0.04109
G1 X86.168 Y76.478 E0.03767
G1 X87 Y77.237 E0.03531
G1 X87.366 Y77.52 E0.0145
G1 X88.056 Y77.901 E0.02472
G1 X88.636 Y78.156 E0.01986
G1 X89.458 Y78.35 E0.02647
G1 X90.509 Y78.442 E0.03308
G1 X91.657 Y78.141 E0.03722
G1 X91.976 Y78.082 E0.01017
G1 X92.781 Y77.748 E0.02734
G1 X93.553 Y77.355 E0.02715
G1 X95.075 Y76.408 E0.0562
G1 X95.871 Y75.843 E0.03062
G1 X97.842 Y74.311 E0.07827
G1 X99.588 Y72.854 E0.0713
G1 X102.173 Y70.738 E0.10474
G1 X104.356 Y69.166 E0.08433
G1 X104.965 Y68.809 E0.02216
G1 X106.115 Y68.309 E0.0393
G1 X106.824 Y68.184 E0.02256
G1 X107.294 Y68.262 E0.01493
G1 X107.736 Y68.403 E0.01457
G1 X108.287 Y68.826 E0.02176
G1 X109.041 Y69.775 E0.03801
G1 X109.394 Y70.358 E0.02139
G1 X110.526 Y72.722 E0.08217
G1 X112.742 Y78.285 E0.18775
G1 X113.517 Y80.059 E0.0607
G1 X113.925 Y80.9 E0.0293
G1 X114.345 Y81.69 E0.02805
G1 X114.784 Y82.425 E0.02687
G1 X115.249 Y83.1 E0.02568
G1 X115.781 Y83.748 E0.0263
G1 X116.009 Y83.926 E0.00907
G1 X116.879 Y84.709 E0.03672
G1 X117.844 Y85.028 E0.03185
G1 X118.127 Y85.157 E0.00975
G1 X118.919 Y85.226 E0.02495
G1 X120.187 Y85.055 E0.04012
G1 X120.86 Y84.846 E0.02207
G1 X121.502 Y84.588 E0.02169
G1 X122.726 Y83.97 E0.043
G1 X124.529 Y82.892 E0.06586
G1 X126.053 Y81.948 E0.05622
G1 X127.244 Y81.252 E0.04324
G1 X128.326 Y80.67 E0.03852
G1 X129.201 Y80.268 E0.03019
G1 X130.145 Y80.011 E0.03067
G1 X130.748 Y80.024 E0.01893
G1 X131.003 Y80.136 E0.00871
G1 X131.094 Y80.197 E0.00345
G1 X131.318 Y80.412 E0.00972
G1 X132.038 Y81.215 E0.03384
G1 X132.384 Y81.728 E0.01939
G1 X132.465 Y81.872 E0.00519
G1 X132.56 Y82.138 E0.00884
G1 X132.58 Y82.704 E0.01776
G1 X132.34 Y83.779 E0.03452
G1 X132.09 Y84.483 E0.02343
G1 X131.219 Y86.408 E0.06626
G1 X130.6 Y87.593 E0.0419
G1 X129.432 Y89.656 E0.07435
G1 X127.9 Y92.207 E0.09329
G1 X124.783 Y97.207 E0.18474
G1 X118.518 Y106.996 E0.36441
G1 X110.841 Y118.828 E0.44223
G1 X107.383 Y124.122 E0.19828
G1 X105.538 Y126.895 E0.10442
G1 X103.794 Y129.47 E0.09751
G1 X101.992 Y132.052 E0.09872
G1 X100.438 Y134.176 E0.08252
G1 X98.17 Y137.029 E0.11427
G1 X97.313 Y137.988 E0.04033
G1 X95.633 Y139.721 E0.07567
G1 X94.973 Y140.37 E0.02904
G1 X94.211 Y141.068 E0.03238
G1 X93.482 Y141.645 E0.02915
G1 X93.048 Y141.941 E0.01648
G1 X92.966 Y141.991 E0.00302
G1 X92.682 Y142.119 E0.00975
G1 X92.462 Y141.919 E0.00932
G1 X91.988 Y141.222 E0.02644
G1 X91.814 Y140.928 E0.01069
G1 X90.518 Y138.046 E0.09908
G1 X89.707 Y135.904 E0.07184
G1 X89.241 Y134.479 E0.04701
G1 X88.494 Y131.943 E0.08288
G1 X87.643 Y128.696 E0.10524
G1 X86.957 Y125.834 E0.09227
G1 X86.165 Y122.311 E0.11322
G1 X84.929 Y116.34 E0.19119
G1 X84.333 Y113.329 E0.09624
G1 X83.241 Y107.594 E0.18305
G1 X82.871 Y107.664 F10800
G1 F1200
G1 X80.764 Y96.6 E0.35316
G1 X78.936 Y86.71 E0.31534
G1 X77.699 Y79.448 E0.23098
G1 X76.976 Y74.394 E0.16006
G1 X76.839 Y73.055 E0.04221
G1 X76.707 Y70.865 E0.06879
G1 X76.707 Y70.559 E0.00959
G1 X76.778 Y69.246 E0.04122
G1 X76.821 Y68.806 E0.01387
G1 X76.869 Y68.615 E0.00618
G1 X77.008 Y68.262 E0.0119
G1 X77.139 Y68.01 E0.00892
G1 X77.399 Y67.893 E0.00895
G1 X77.903 Y67.791 E0.01611
G1 X78.178 Y67.789 E0.00863
G1 X78.444 Y67.814 E0.00837
G1 X79.024 Y67.964 E0.01879
G1 X79.459 Y68.163 E0.01499
G1 X79.815 Y68.39 E0.01323
G1 X80.282 Y68.809 E0.01968
G1 X81.56 Y70.166 E0.05842
G1 X82.187 Y70.916 E0.03065
G1 X83.167 Y72.226 E0.0513
G1 X84.834 Y74.344 E0.08454
G1 X85.614 Y75.372 E0.04046
G1 X86.43 Y76.207 E0.03659
G1 X87.243 Y76.948 E0.0345
G1 X87.574 Y77.204 E0.01311
G1 X88.224 Y77.562 E0.02327
G1 X88.756 Y77.797 E0.01825
G1 X89.518 Y77.977 E0.02453
G1 X90.476 Y78.061 E0.03017
G1 X91.574 Y77.773 E0.03559
G1 X91.868 Y77.719 E0.00936
G1 X92.623 Y77.406 E0.02564
G1 X93.367 Y77.026 E0.02618
G1 X94.866 Y76.094 E0.05534
G1 X95.646 Y75.54 E0.03001
G1 X97.606 Y74.017 E0.0778
G1 X99.348 Y72.563 E0.07115
G1 X101.943 Y70.439 E0.10516
G1 X104.15 Y68.85 E0.08525
G1 X104.794 Y68.472 E0.02343
G1 X106.006 Y67.946 E0.04141
G1 X106.822 Y67.801 E0.02598
G1 X107.382 Y67.894 E0.01781
G1 X107.914 Y68.064 E0.0175
G1 X108.553 Y68.555 E0.02527
G1 X109.351 Y69.559 E0.04021
G1 X109.726 Y70.179 E0.02272
G1 X110.872 Y72.571 E0.08315
G1 X113.09 Y78.14 E0.18796
G1 X113.86 Y79.901 E0.06028
G1 X114.261 Y80.729 E0.02884
G1 X114.673 Y81.504 E0.02753
G1 X115.102 Y82.221 E0.0262
G1 X115.55 Y82.873 E0.0248
G1 X116.045 Y83.477 E0.02448
G1 X116.251 Y83.637 E0.00817
G1 X117.073 Y84.376 E0.03466
G1 X117.981 Y84.677 E0.03001
G1 X118.224 Y84.787 E0.00835
G1 X118.91 Y84.847 E0.0216
G1 X120.106 Y84.685 E0.03782
G1 X120.733 Y84.49 E0.02061
G1 X121.346 Y84.244 E0.02071
G1 X122.544 Y83.64 E0.04207
G1 X124.333 Y82.57 E0.06535
G1 X125.859 Y81.625 E0.05627
G1 X127.059 Y80.923 E0.0436
G1 X128.158 Y80.332 E0.0391
G1 X129.071 Y79.912 E0.03153
G1 X130.098 Y79.633 E0.03336
G1 X130.831 Y79.649 E0.02299
G1 X131.186 Y79.804 E0.01213
G1 X131.332 Y79.903 E0.00553
G1 X131.589 Y80.149 E0.01117
G1 X132.337 Y80.982 E0.0351
G1 X132.706 Y81.53 E0.0207
G1 X132.81 Y81.716 E0.00668
G1 X132.935 Y82.066 E0.01167
G1 X132.958 Y82.739 E0.0211
G1 X132.703 Y83.883 E0.03676
G1 X132.44 Y84.624 E0.02465
G1 X131.558 Y86.573 E0.06708
G1 X130.932 Y87.773 E0.04243
G1 X129.758 Y89.846 E0.0747
G1 X128.222 Y92.404 E0.09354
G1 X125.102 Y97.408 E0.18491
G1 X118.835 Y107.2 E0.36452
G1 X111.157 Y119.034 E0.44228
G1 X107.697 Y124.33 E0.19835
G1 X105.851 Y127.105 E0.10452
G1 X104.104 Y129.683 E0.09764
G1 X102.298 Y132.271 E0.09893
G1 X100.738 Y134.405 E0.08289
G1 X98.459 Y137.272 E0.11485
G1 X97.59 Y138.245 E0.04091
G1 X95.901 Y139.987 E0.07605
G1 X95.233 Y140.644 E0.02939
G1 X94.456 Y141.355 E0.03301
G1 X93.706 Y141.949 E0.02999
G1 X93.253 Y142.258 E0.0172
G1 X93.142 Y142.326 E0.00407
G1 X92.699 Y142.524 E0.01523
G1 X92.576 Y142.53 E0.00388
G1 X92.176 Y142.168 E0.01691
G1 X91.67 Y141.424 E0.02822
G1 X91.479 Y141.102 E0.01173
G1 X90.17 Y138.19 E0.10011
G1 X89.351 Y136.029 E0.07246
G1 X88.881 Y134.59 E0.04746
G1 X88.131 Y132.044 E0.08323
G1 X87.277 Y128.788 E0.10555
G1 X86.59 Y125.919 E0.09248
G1 X85.797 Y122.391 E0.1134
G1 X85.496 Y120.947 E0.04624
G1 X84.56 Y116.415 E0.1451
G1 X83.963 Y113.401 E0.09633
G1 X82.871 Y107.664 E0.1831
G1 X82.5 Y107.735 F10800
;TYPE:External perimeter
G1 F1200
G1 X80.393 Y96.669 E0.35319
G1 X78.565 Y86.776 E0.31545
M73 P1 R80
G1 X77.326 Y79.506 E0.23122
G1 X76.601 Y74.44 E0.16046
G1 X76.463 Y73.086 E0.04269
G1 X76.33 Y70.876 E0.0694
G1 X76.33 Y70.549 E0.01027
G1 X76.402 Y69.218 E0.04179
G1 X76.448 Y68.742 E0.015
G1 X76.509 Y68.5 E0.00783
G1 X76.664 Y68.106 E0.01327
G1 X76.823 Y67.799 E0.01083
G1 X76.949 Y67.681 E0.0054
G1 X77.284 Y67.532 E0.01149
G1 X77.864 Y67.414 E0.01856
G1 X78.195 Y67.411 E0.01038
G1 X78.51 Y67.442 E0.00992
G1 X79.151 Y67.607 E0.02077
G1 X79.64 Y67.831 E0.01686
G1 X80.043 Y68.089 E0.01502
G1 X80.546 Y68.539 E0.02115
G1 X81.842 Y69.915 E0.05927
G1 X82.482 Y70.682 E0.03132
G1 X83.466 Y71.996 E0.05147
G1 X85.133 Y74.114 E0.0845
G1 X85.9 Y75.126 E0.03983
G1 X86.692 Y75.935 E0.0355
G1 X87.486 Y76.659 E0.0337
G1 X87.781 Y76.888 E0.01171
G1 X88.391 Y77.224 E0.02182
G1 X88.877 Y77.438 E0.01665
G1 X89.578 Y77.604 E0.02259
G1 X90.444 Y77.68 E0.02727
G1 X91.492 Y77.405 E0.03397
G1 X91.76 Y77.355 E0.00855
G1 X92.465 Y77.063 E0.02394
G1 X93.182 Y76.698 E0.02521
G1 X94.657 Y75.78 E0.05448
G1 X95.422 Y75.237 E0.0294
G1 X97.369 Y73.724 E0.07734
G1 X99.108 Y72.273 E0.07101
