; generated by SuperSlicer 2.4 on 2022-11-20 at 01:12:00 UTC


;
;

;
;
; 

; external perimeters extrusion width = 0.60mm
; perimeters extrusion width = 0.50mm
; infill extrusion width = 0.50mm
; solid infill extrusion width = 0.50mm
; top infill extrusion width = 0.40mm
; first layer extrusion width = 0.42mm

; object:{"name":"foot_r_hole","id":"foot_r_hole.stl id:0 copy 0","object_center":[105.000000,105.000000,0.000000],"boundingbox_center":[105.000000,105.000000,30.298501],"boundingbox_size":[58.421539,75.533026,60.597001]}
; Total objects to print: 1
M486 T1
; plater:{"center":[105.000000,105.000000,0.000000],"boundingbox_center":[105.000000,105.000000,30.298501],"boundingbox_size":[58.421539,75.533026,60.597001]}

M73 P0 R84
;TYPE:Custom
G90 ; use absolute coordinates
M83 ; extruder relative mode
M204 S1250 T1250
M104 S215 ; set extruder temp
M140 S65 ; set bed temp
G28 ; home all
G29 ; AutoBed Leveling I think
G1 Y1.0 Z0.3 F1000 ; move print head up
M190 S65 ; wait for bed temp
M109 S215 ; wait for extruder temp
G92 E0.0
; initial load
G1 X205.0 E19 F1000
M73 P0 R83
G1 Y1.6
G1 X5.0 E19 F1000
G92 E0.0
; intro line
G1 Y2.0 Z0.2 F1000
G1 X65.0 E9.0 F1000
G1 X105.0 E12.5 F1000
G92 E0.0
M107
G21 ; set units to millimeters
G90 ; use absolute coordinates
M83 ; use relative distances for extrusion
; Filament gcode
;_TOOLCHANGE 0
M107
;LAYER_CHANGE
;Z:0.2
;HEIGHT:0.2
;BEFORE_LAYER_CHANGE
G92 E0.0
;0.2
G1 Z0.075 F10800
M73 P1 R83
G1 Z0.2
;AFTER_LAYER_CHANGE
;0.2
G1 Z0.275
M204 S800
G1 X74.621 Y79.364
G1 Z0.2
;TYPE:Skirt
;WIDTH:0.52
G1 F1200
G1 X74.057 Y80.16 E0.03868
G1 X73.702 Y81.048 E0.03793
G1 X73.571 Y82.271 E0.04882
G1 X73.593 Y82.823 E0.02191
G1 X73.932 Y84.309 E0.06045
G1 X74.292 Y85.294 E0.04161
G1 X74.835 Y86.514 E0.05299
G1 X76.137 Y88.974 E0.11042
G1 X77.974 Y92.087 E0.14337
G1 X81.906 Y98.251 E0.29005
G1 X86.659 Y105.43 E0.34152
G1 X100.133 Y125.378 E0.95492
G1 X106.256 Y133.989 E0.41917
G1 X108.692 Y137.132 E0.15774
G1 X111.218 Y140.1 E0.1546
G1 X112.988 Y141.854 E0.09886
G1 X114.883 Y143.461 E0.09855
G1 X116.227 Y144.288 E0.06261
G1 X117.383 Y144.704 E0.04877
G1 X118.254 Y144.773 E0.03464
G1 X118.973 Y144.675 E0.02877
G1 X119.654 Y144.429 E0.02874
G1 X120.427 Y143.938 E0.03633
G1 X121.758 Y142.423 E0.07998
G1 X123.119 Y139.971 E0.11125
G1 X124.236 Y137.229 E0.11746
G1 X125.107 Y134.508 E0.11332
G1 X126 Y131.231 E0.13474
G1 X127.084 Y126.558 E0.19032
G1 X128.313 Y120.574 E0.24232
G1 X130.336 Y109.624 E0.44173
G1 X134.051 Y88.524 E0.84989
G1 X135.582 Y78.858 E0.38824
G1 X136.29 Y73.054 E0.23195
G1 X136.412 Y70.777 E0.09043
G1 X136.392 Y69.572 E0.04781
G1 X136.2 Y68.037 E0.06138
G1 X135.888 Y67.124 E0.03829
G1 X135.621 Y66.64 E0.02191
G1 X134.864 Y65.826 E0.0441
G1 X134.072 Y65.439 E0.03497
G1 X132.726 Y65.256 E0.05388
G1 X103.148 Y65.123 E1.17335
G1 X102.072 Y65.204 E0.04281
G1 X101.414 Y65.361 E0.02685
G1 X100.443 Y65.763 E0.0417
G1 X76.757 Y77.69 E1.05201
G1 X75.659 Y78.403 E0.05192
G1 X74.621 Y79.364 E0.05612
M204 S1000
G1 Z0.275 F10800
; printing object foot_r_hole.stl id:0 copy 0
M486 S0
; acceleration to travel
M204 S1500
G1 X94.49 Y97.298
; decel to extrusion
M204 S800
G1 X105.087 Y106.863
; end travel
G1 Z0.2
;TYPE:Internal perimeter
;WIDTH:0.42
G1 F1200
G1 X104.32 Y107.79 E0.03775
G1 X103.649 Y108.847 E0.03924
G1 X103.116 Y109.98 E0.03924
G1 X102.73 Y111.17 E0.03924
G1 X102.495 Y112.399 E0.03924
G1 X102.416 Y113.648 E0.03924
G1 X102.495 Y114.897 E0.03924
G1 X102.73 Y116.127 E0.03924
G1 X103.116 Y117.317 E0.03924
G1 X103.649 Y118.449 E0.03924
G1 X104.32 Y119.506 E0.03924
G1 X105.118 Y120.471 E0.03924
G1 X106.03 Y121.327 E0.03924
G1 X107.042 Y122.063 E0.03924
G1 X108.139 Y122.666 E0.03924
G1 X109.303 Y123.127 E0.03924
G1 X110.515 Y123.438 E0.03924
G1 X111.757 Y123.595 E0.03924
G1 X113.008 Y123.595 E0.03924
G1 X114.25 Y123.438 E0.03924
G1 X115.462 Y123.127 E0.03924
G1 X116.626 Y122.666 E0.03924
G1 X117.723 Y122.063 E0.03924
G1 X118.735 Y121.327 E0.03924
G1 X119.647 Y120.47 E0.03924
G1 X120.445 Y119.506 E0.03924
G1 X121.116 Y118.449 E0.03924
G1 X121.649 Y117.317 E0.03924
G1 X122.035 Y116.127 E0.03924
G1 X122.27 Y114.897 E0.03924
G1 X122.349 Y113.648 E0.03924
G1 X122.27 Y112.399 E0.03924
G1 X122.035 Y111.17 E0.03924
G1 X121.649 Y109.98 E0.03924
G1 X121.116 Y108.847 E0.03924
G1 X120.445 Y107.79 E0.03924
G1 X119.647 Y106.826 E0.03924
G1 X118.735 Y105.969 E0.03924
G1 X117.723 Y105.234 E0.03924
G1 X116.626 Y104.631 E0.03924
G1 X115.462 Y104.17 E0.03924
G1 X114.25 Y103.859 E0.03924
G1 X113.008 Y103.702 E0.03924
G1 X111.757 Y103.702 E0.03924
G1 X110.515 Y103.859 E0.03924
G1 X109.303 Y104.17 E0.03924
G1 X108.139 Y104.631 E0.03924
G1 X107.042 Y105.234 E0.03924
G1 X106.03 Y105.969 E0.03924
G1 X105.118 Y106.826 E0.03924
G1 X105.087 Y106.863 E0.00149
G1 X105.378 Y107.103 F10800
G1 F1200
G1 X104.625 Y108.012 E0.03701
G1 X103.98 Y109.029 E0.03775
G1 X103.468 Y110.119 E0.03775
G1 X103.095 Y111.264 E0.03775
G1 X102.87 Y112.447 E0.03775
G1 X102.794 Y113.648 E0.03775
G1 X102.87 Y114.85 E0.03775
G1 X103.095 Y116.033 E0.03775
G1 X103.468 Y117.178 E0.03775
G1 X103.98 Y118.267 E0.03775
G1 X104.625 Y119.284 E0.03775
G1 X105.393 Y120.212 E0.03775
G1 X106.271 Y121.036 E0.03775
G1 X107.245 Y121.744 E0.03775
M73 P1 R82
G1 X108.3 Y122.324 E0.03775
G1 X109.42 Y122.767 E0.03775
G1 X110.586 Y123.067 E0.03775
G1 X111.78 Y123.218 E0.03775
G1 X112.985 Y123.218 E0.03775
G1 X114.179 Y123.067 E0.03775
G1 X115.345 Y122.767 E0.03775
G1 X116.465 Y122.324 E0.03775
G1 X117.52 Y121.744 E0.03775
G1 X118.494 Y121.036 E0.03775
G1 X119.372 Y120.212 E0.03775
G1 X120.14 Y119.284 E0.03775
G1 X120.785 Y118.267 E0.03775
G1 X121.297 Y117.178 E0.03775
G1 X121.669 Y116.033 E0.03775
G1 X121.895 Y114.85 E0.03775
G1 X121.971 Y113.648 E0.03775
G1 X121.895 Y112.447 E0.03775
G1 X121.669 Y111.264 E0.03775
G1 X121.297 Y110.119 E0.03775
G1 X120.785 Y109.029 E0.03775
G1 X120.14 Y108.012 E0.03775
G1 X119.372 Y107.085 E0.03775
G1 X118.494 Y106.26 E0.03775
G1 X117.52 Y105.553 E0.03775
G1 X116.465 Y104.973 E0.03775
G1 X115.345 Y104.529 E0.03775
G1 X114.179 Y104.23 E0.03775
G1 X112.985 Y104.079 E0.03775
G1 X111.78 Y104.079 E0.03775
G1 X110.586 Y104.23 E0.03775
G1 X109.42 Y104.529 E0.03775
G1 X108.3 Y104.973 E0.03775
G1 X107.245 Y105.553 E0.03775
G1 X106.271 Y106.26 E0.03775
G1 X105.393 Y107.085 E0.03775
G1 X105.378 Y107.103 E0.00074
G1 X105.668 Y107.343 F10800
;TYPE:External perimeter
G1 F1200
G1 X104.931 Y108.235 E0.03627
G1 X104.311 Y109.211 E0.03627
G1 X103.819 Y110.258 E0.03627
G1 X103.461 Y111.358 E0.03627
G1 X103.245 Y112.494 E0.03627
G1 X103.172 Y113.648 E0.03627
G1 X103.245 Y114.803 E0.03627
G1 X103.461 Y115.939 E0.03627
G1 X103.819 Y117.039 E0.03627
G1 X104.311 Y118.085 E0.03627
G1 X104.931 Y119.062 E0.03627
G1 X105.668 Y119.953 E0.03627
G1 X106.512 Y120.745 E0.03627
G1 X107.447 Y121.425 E0.03627
G1 X108.461 Y121.982 E0.03627
G1 X109.536 Y122.408 E0.03627
G1 X110.657 Y122.696 E0.03627
G1 X111.804 Y122.84 E0.03627
G1 X112.961 Y122.84 E0.03627
G1 X114.108 Y122.696 E0.03627
G1 X115.229 Y122.408 E0.03627
G1 X116.304 Y121.982 E0.03627
G1 X117.318 Y121.425 E0.03627
G1 X118.253 Y120.745 E0.03627
G1 X119.097 Y119.953 E0.03627
G1 X119.834 Y119.062 E0.03627
G1 X120.454 Y118.085 E0.03627
G1 X120.946 Y117.039 E0.03627
G1 X121.304 Y115.939 E0.03627
G1 X121.52 Y114.803 E0.03627
G1 X121.593 Y113.648 E0.03627
G1 X121.52 Y112.494 E0.03627
G1 X121.304 Y111.358 E0.03627
G1 X120.946 Y110.258 E0.03627
G1 X120.454 Y109.211 E0.03627
G1 X119.834 Y108.235 E0.03627
G1 X119.097 Y107.343 E0.03627
G1 X118.253 Y106.552 E0.03627
G1 X117.318 Y105.872 E0.03627
G1 X116.304 Y105.314 E0.03627
G1 X115.229 Y104.889 E0.03627
G1 X114.108 Y104.601 E0.03627
G1 X112.961 Y104.456 E0.03627
G1 X111.804 Y104.456 E0.03627
G1 X110.657 Y104.601 E0.03627
G1 X109.536 Y104.889 E0.03627
G1 X108.461 Y105.314 E0.03627
G1 X107.447 Y105.872 E0.03627
G1 X106.512 Y106.552 E0.03627
G1 X105.668 Y107.343 E0.03627
;WIPE_START
M204 S1000
G1 X105.277 Y107.26 F10800
;WIPE_END
G1 Z0.275
; acceleration to travel
M204 S1500
G1 X99.306 Y111.501
; decel to extrusion
M204 S800
G1 X96.122 Y113.763
; end travel
G1 Z0.2
;TYPE:Internal perimeter
G1 F1200
G1 X89.328 Y103.659 E0.38176
G1 X84.781 Y96.783 E0.25846
G1 X82.273 Y92.87 E0.14574
G1 X81.192 Y91.129 E0.06424
G1 X79.37 Y88.051 E0.11215
G1 X78.01 Y85.51 E0.09036
G1 X77.526 Y84.484 E0.03559
G1 X77.277 Y83.874 E0.02063
G1 X76.906 Y82.798 E0.0357
G1 X76.822 Y82.425 E0.01199
G1 X76.812 Y81.953 E0.01481
G1 X76.826 Y81.777 E0.00554
G1 X76.869 Y81.693 E0.00295
G1 X77.03 Y81.479 E0.00841
G1 X77.734 Y80.845 E0.02968
G1 X78.304 Y80.503 E0.02084
G1 X78.433 Y80.467 E0.00422
G1 X78.855 Y80.411 E0.01334
G1 X79.398 Y80.465 E0.01709
G1 X79.838 Y80.575 E0.01422
G1 X80.109 Y80.667 E0.009
G1 X81.865 Y81.417 E0.05986
G1 X82.225 Y81.587 E0.01249
G1 X82.925 Y81.97 E0.025
G1 X86.724 Y84.229 E0.13858
G1 X87.226 Y84.55 E0.01869
G1 X88.156 Y85.008 E0.0325
G1 X89.76 Y85.614 E0.05378
G1 X90.133 Y85.722 E0.01218
G1 X90.76 Y85.794 E0.01977
G1 X91.524 Y85.817 E0.02397
G1 X92.243 Y85.661 E0.02306
G1 X93.159 Y85.336 E0.03048
G1 X93.504 Y85.102 E0.01307
G1 X94.582 Y84.077 E0.04664
G1 X94.821 Y83.802 E0.01143
G1 X95.827 Y82.227 E0.05859
G1 X95.957 Y81.987 E0.00856
G1 X97.645 Y78.268 E0.12805
G1 X99.176 Y74.382 E0.13095
G1 X100.543 Y71.387 E0.10324
G1 X100.688 Y71.11 E0.00981
G1 X101.815 Y69.563 E0.05999
G1 X102.634 Y68.996 E0.03125
G1 X102.81 Y68.934 E0.00585
G1 X103.055 Y68.892 E0.00778
G1 X103.958 Y69.017 E0.02858
G1 X105.782 Y69.893 E0.06346
G1 X106.322 Y70.256 E0.02039
G1 X109.181 Y72.44 E0.11282
G1 X112.282 Y75.005 E0.12619
G1 X113.163 Y75.705 E0.03527
G1 X114.05 Y76.347 E0.03432
G1 X116.258 Y77.806 E0.083
G1 X117.334 Y78.424 E0.03889
G1 X118.352 Y78.761 E0.03362
G1 X119.378 Y79.062 E0.03352
G1 X120.2 Y79.07 E0.0258
G1 X121.185 Y78.929 E0.0312
G1 X122.45 Y78.339 E0.04374
G1 X123.271 Y77.834 E0.03024
G1 X124.816 Y76.262 E0.06911
G1 X125.336 Y75.635 E0.02554
G1 X127.846 Y72.29 E0.13111
G1 X128.292 Y71.728 E0.0225
G1 X128.618 Y71.334 E0.01605
G1 X129.073 Y70.834 E0.02119
G1 X130.17 Y69.674 E0.05006
G1 X130.506 Y69.369 E0.01421
G1 X130.813 Y69.173 E0.01144
G1 X131.195 Y68.996 E0.0132
G1 X131.707 Y68.863 E0.01656
G1 X132.078 Y68.842 E0.01166
G1 X132.608 Y68.943 E0.01691
G1 X132.684 Y68.979 E0.00265
G1 X132.744 Y69.099 E0.0042
G1 X132.869 Y69.42 E0.01081
G1 X132.905 Y69.569 E0.00481
G1 X133.024 Y71.368 E0.05651
G1 X133.024 Y71.666 E0.00935
G1 X132.899 Y73.947 E0.07163
G1 X132.766 Y75.342 E0.04394
G1 X132.021 Y80.911 E0.17615
G1 X131.583 Y83.74 E0.08977
G1 X130.833 Y88.287 E0.14448
G1 X129.347 Y96.902 E0.27413
G1 X127.183 Y109.061 E0.38723
G1 X126.13 Y114.849 E0.18446
G1 X125.166 Y119.977 E0.16358
G1 X124.393 Y123.836 E0.1234
G1 X123.955 Y125.874 E0.06537
G1 X122.912 Y130.298 E0.14252
G1 X122.337 Y132.458 E0.07009
G1 X122.009 Y133.561 E0.03607
G1 X121.663 Y134.631 E0.03525
G1 X121.453 Y135.214 E0.01945
G1 X120.676 Y137.201 E0.0669
G1 X119.997 Y138.629 E0.04957
G1 X119.497 Y139.552 E0.03291
G1 X118.962 Y140.346 E0.03002
G1 X118.281 Y141.118 E0.03228
G1 X118.233 Y141.154 E0.00188
G1 X118.083 Y141.21 E0.00501
G1 X117.935 Y141.202 E0.00466
G1 X117.87 Y141.181 E0.00215
G1 X116.906 Y140.676 E0.0341
G1 X116.221 Y140.208 E0.02602
G1 X115.277 Y139.402 E0.0389
G1 X114.571 Y138.75 E0.03013
G1 X113.486 Y137.671 E0.048
G1 X112.416 Y136.524 E0.04919
G1 X111.568 Y135.506 E0.04153
G1 X108.797 Y132.039 E0.13914
G1 X106.597 Y129.026 E0.11699
G1 X102.778 Y123.573 E0.20872
G1 X96.405 Y114.184 E0.35582
G1 X96.122 Y113.763 E0.0159
G1 X95.809 Y113.973 F10800
G1 F1200
G1 X89.014 Y103.868 E0.38181
G1 X84.465 Y96.989 E0.25859
G1 X81.954 Y93.071 E0.14591
G1 X80.87 Y91.324 E0.06445
G1 X79.042 Y88.236 E0.11253
G1 X77.673 Y85.68 E0.09091
G1 X77.18 Y84.636 E0.0362
G1 X76.924 Y84.007 E0.02127
G1 X76.542 Y82.901 E0.03668
G1 X76.445 Y82.471 E0.01384
G1 X76.434 Y81.941 E0.0166
G1 X76.457 Y81.671 E0.0085
G1 X76.549 Y81.492 E0.00631
G1 X76.751 Y81.223 E0.01055
G1 X77.508 Y80.541 E0.03197
G1 X78.154 Y80.153 E0.0236
G1 X78.358 Y80.097 E0.00663
G1 X78.849 Y80.031 E0.01553
G1 X79.462 Y80.093 E0.01933
G1 X79.944 Y80.213 E0.01557
G1 X80.244 Y80.315 E0.00995
G1 X82.019 Y81.073 E0.06053
G1 X82.396 Y81.251 E0.01306
G1 X83.112 Y81.642 E0.02557
G1 X86.922 Y83.908 E0.13898
G1 X87.411 Y84.221 E0.01822
G1 X88.306 Y84.662 E0.03126
G1 X89.879 Y85.256 E0.05273
G1 X90.208 Y85.351 E0.01072
G1 X90.787 Y85.418 E0.01828
G1 X91.489 Y85.438 E0.02202
G1 X92.14 Y85.298 E0.02086
G1 X92.987 Y84.997 E0.0282
G1 X93.266 Y84.807 E0.01059
G1 X94.309 Y83.816 E0.04511
G1 X94.518 Y83.575 E0.00999
G1 X95.502 Y82.035 E0.05731
G1 X95.62 Y81.819 E0.00772
G1 X97.298 Y78.121 E0.12733
G1 X98.829 Y74.235 E0.13096
G1 X100.204 Y71.222 E0.10385
G1 X100.367 Y70.91 E0.011
G1 X101.406 Y69.463 E0.05585
G1 X101.547 Y69.29 E0.00703
G1 X102.461 Y68.657 E0.03483
G1 X102.715 Y68.567 E0.00845
G1 X103.049 Y68.511 E0.01062
G1 X103.836 Y68.608 E0.02485
G1 X104.068 Y68.652 E0.0074
G1 X105.97 Y69.565 E0.06616
G1 X106.542 Y69.949 E0.0216
G1 X109.416 Y72.145 E0.11341
G1 X112.52 Y74.712 E0.1263
G1 X113.391 Y75.405 E0.03489
G1 X114.264 Y76.037 E0.03381
G1 X116.456 Y77.485 E0.08237
G1 X117.488 Y78.078 E0.03732
G1 X118.464 Y78.401 E0.03222
G1 X119.434 Y78.685 E0.03168
G1 X120.175 Y78.693 E0.02325
G1 X121.076 Y78.563 E0.02854
G1 X122.271 Y78.007 E0.04132
G1 X123.035 Y77.537 E0.02812
G1 X124.536 Y76.009 E0.06717
G1 X125.04 Y75.401 E0.02475
G1 X127.547 Y72.06 E0.13099
G1 X127.999 Y71.49 E0.02279
G1 X128.334 Y71.087 E0.01645
G1 X128.797 Y70.578 E0.02157
G1 X129.906 Y69.404 E0.05063
G1 X130.276 Y69.069 E0.01566
G1 X130.632 Y68.841 E0.01324
G1 X131.068 Y68.64 E0.01506
G1 X131.648 Y68.488 E0.0188
G1 X131.917 Y68.462 E0.00849
G1 X132.103 Y68.463 E0.00581
G1 X132.726 Y68.582 E0.01989
G1 X132.963 Y68.695 E0.00823
G1 X133.089 Y68.945 E0.0088
G1 X133.23 Y69.307 E0.01216
G1 X133.28 Y69.512 E0.00662
G1 X133.322 Y69.975 E0.01458
G1 X133.401 Y71.355 E0.04333
G1 X133.401 Y71.676 E0.01006
G1 X133.275 Y73.975 E0.0722
G1 X133.141 Y75.385 E0.04441
G1 X132.394 Y80.964 E0.1765
G1 X131.955 Y83.799 E0.08995
G1 X131.205 Y88.349 E0.14459
G1 X129.719 Y96.967 E0.2742
G1 X127.555 Y109.128 E0.38728
G1 X126.501 Y114.918 E0.18452
G1 X125.536 Y120.048 E0.16368
G1 X124.762 Y123.912 E0.12355
G1 X124.323 Y125.957 E0.06557
G1 X123.278 Y130.39 E0.1428
G1 X122.7 Y132.561 E0.07043
G1 X122.37 Y133.673 E0.03638
G1 X122.02 Y134.753 E0.03559
G1 X121.806 Y135.347 E0.0198
G1 X121.023 Y137.351 E0.06748
G1 X120.334 Y138.8 E0.05031
G1 X119.82 Y139.748 E0.0338
G1 X119.261 Y140.577 E0.03136
G1 X118.538 Y141.396 E0.03427
G1 X118.415 Y141.488 E0.0048
G1 X118.142 Y141.59 E0.00914
G1 X117.864 Y141.576 E0.00872
G1 X117.721 Y141.529 E0.00472
G1 X116.712 Y141 E0.03574
G1 X115.992 Y140.508 E0.02734
G1 X115.027 Y139.684 E0.03976
G1 X114.311 Y139.023 E0.03058
G1 X113.215 Y137.934 E0.04844
G1 X112.133 Y136.773 E0.04975
G1 X111.276 Y135.744 E0.04198
G1 X108.498 Y132.268 E0.13952
G1 X106.29 Y129.245 E0.11737
G1 X102.468 Y123.787 E0.20892
G1 X96.093 Y114.395 E0.35593
G1 X95.809 Y113.973 E0.01593
G1 X95.496 Y114.184 F10800
;TYPE:External perimeter
G1 F1200
G1 X88.7 Y104.077 E0.38186
G1 X84.149 Y97.195 E0.25872
G1 X81.635 Y93.272 E0.14608
G1 X80.547 Y91.52 E0.06466
G1 X78.713 Y88.421 E0.11291
G1 X77.336 Y85.849 E0.09147
G1 X76.835 Y84.787 E0.03682
G1 X76.571 Y84.14 E0.02191
G1 X76.179 Y83.005 E0.03766
G1 X76.069 Y82.517 E0.01569
G1 X76.057 Y81.93 E0.0184
G1 X76.082 Y81.621 E0.00972
G1 X76.105 Y81.531 E0.0029
G1 X76.228 Y81.291 E0.00845
G1 X76.353 Y81.105 E0.00703
G1 X76.471 Y80.967 E0.00569
G1 X77.283 Y80.236 E0.03426
G1 X78.004 Y79.804 E0.02635
G1 X78.282 Y79.727 E0.00905
G1 X78.842 Y79.652 E0.01772
G1 X79.527 Y79.72 E0.02157
G1 X80.051 Y79.851 E0.01692
G1 X80.379 Y79.963 E0.01089
G1 X82.174 Y80.729 E0.06119
G1 X82.567 Y80.915 E0.01363
G1 X83.299 Y81.315 E0.02614
G1 X87.12 Y83.587 E0.13939
G1 X87.597 Y83.892 E0.01775
G1 X88.456 Y84.315 E0.03003
G1 X89.998 Y84.898 E0.05169
G1 X90.282 Y84.98 E0.00927
G1 X90.814 Y85.041 E0.01679
G1 X91.454 Y85.06 E0.02008
G1 X92.036 Y84.934 E0.01866
G1 X92.815 Y84.658 E0.02591
G1 X93.029 Y84.513 E0.0081
G1 X94.036 Y83.555 E0.04358
