; generated by PrusaSlicer 2.7.0+win64 on 2024-04-04 at 13:58:50 UTC


;
;
; 

; external perimeters extrusion width = 0.45mm
; perimeters extrusion width = 0.45mm
; infill extrusion width = 0.45mm
; solid infill extrusion width = 0.45mm
; top infill extrusion width = 0.40mm
; first layer extrusion width = 0.42mm

; external perimeters extrusion width = 0.45mm
; perimeters extrusion width = 0.45mm
; infill extrusion width = 0.45mm
; solid infill extrusion width = 0.45mm
; top infill extrusion width = 0.40mm
; first layer extrusion width = 0.42mm

M73 P0 R139
M73 Q0 S140
M201 X1000 Y1000 Z200 E5000 ; sets maximum accelerations, mm/sec^2
M203 X200 Y200 Z12 E120 ; sets maximum feedrates, mm / sec
M204 S1250 T1250 ; sets acceleration (S) and retract acceleration (R), mm/sec^2
M205 X8.00 Y8.00 Z0.40 E4.50 ; sets the jerk limits, mm/sec
M205 S0 T0 ; sets the minimum extruding and travel feed rate, mm/sec

; printing object FrontBottomPanel.stl id:0 copy 0
; stop printing object FrontBottomPanel.stl id:0 copy 0
; printing object FrontTopPanel.stl id:1 copy 0
; stop printing object FrontTopPanel.stl id:1 copy 0

;TYPE:Custom
M862.3 P "MK3S" ; printer model check
M862.1 P0.4 ; nozzle diameter check
M115 U3.13.2 ; tell printer latest fw version
G90 ; use absolute coordinates
M83 ; extruder relative mode
M104 S215 ; set extruder temp
M140 S60 ; set bed temp
M190 S60 ; wait for bed temp
M109 S215 ; wait for extruder temp
G28 W ; home all without mesh bed level
G80 X62.2344 Y54.6021 W128.889 H99.1682 ; mesh bed levelling

G1 Z0.2 F720
G1 Y-3 F1000 ; go outside print area
G92 E0
G1 X60 E9 F1000 ; intro line
G1 X100 E12.5 F1000 ; intro line

G92 E0
M221 S95

; Don't change E values below. Excessive value can damage the printer.
M907 E430 ; set extruder motor current
G21 ; set units to millimeters
G90 ; use absolute coordinates
M83 ; use relative distances for extrusion
M900 K0.05 ; Filament gcode LA 1.5
M900 K30 ; Filament gcode LA 1.0

M107
;LAYER_CHANGE
;Z:0.2
;HEIGHT:0.2
;BEFORE_LAYER_CHANGE
G92 E0.0
;0.2


G1 E-.8 F2100
G1 Z.2 F720
;AFTER_LAYER_CHANGE
;0.2
G1 X66.234 Y55.771 F10800
G1 Z.2 F720
G1 E.8 F2100
M204 S800
;TYPE:Skirt/Brim
;WIDTH:0.42
G1 F1200
G1 X67.319 Y54.944 E.04277
G1 X68.157 Y54.791 E.02671
G1 X188.557 Y54.791 E3.77506
G1 X189.865 Y55.182 E.0428
G1 X190.741 Y56.228 E.04278
G1 X190.935 Y57.168 E.03009
G1 X190.935 Y121.908 E2.02988
G1 X187.506 Y149.06 E.85809
M73 P0 R138
G1 X187.223 Y150.117 E.03431
G1 X186.775 Y151.025 E.03175
G1 X186.108 Y151.893 E.03432
G1 X185.347 Y152.561 E.03175
G1 X184.751 Y152.935 E.02206
G1 X183.741 Y153.353 E.03427
G1 X183.055 Y153.51 E.02207
G1 X182.2 Y153.582 E.0269
G1 X67.8 Y153.582 E3.58693
G1 X66.56 Y153.434 E.03916
G1 X65.248 Y152.935 E.04401
G1 X64.134 Y152.133 E.04304
G1 X63.443 Y151.352 E.0327
G1 X63.07 Y150.756 E.02205
G1 X62.655 Y149.756 E.03395
G1 X62.428 Y148.36 E.04435
G1 X62.425 Y130.291 E.56654
G1 X65.783 Y57.059 E2.29855
G1 X66.214 Y55.828 E.04089
M204 S1000
; printing object FrontBottomPanel.stl id:0 copy 0
;WIPE_START
G1 F8640
G1 X66.234 Y55.771 E-.01395
G1 X67.319 Y54.944 E-.31501
G1 X68.157 Y54.791 E-.1967
G1 X69.345 Y54.791 E-.27434
;WIPE_END
G1 Z.6 F720
G1 X69.322 Y120.744 F10800
G1 Z.2 F720
G1 E.8 F2100
M204 S800
;TYPE:Perimeter
;WIDTH:0.419999
G1 F1200
G1 X69.322 Y58.332 E1.95688
G1 X187.393 Y58.332 E3.70203
G1 X187.393 Y63.059 E.14821
G1 X187.393 Y120.744 E1.80867
G1 X69.382 Y120.744 E3.70015
M204 S1000
G1 X68.945 Y121.121 F10800
M204 S800
G1 F1200
G1 X68.945 Y57.955 E1.98052
G1 X187.77 Y57.955 E3.72567
M73 Q0 S139
G1 X187.77 Y63.059 E.16003
G1 X187.77 Y121.121 E1.82049
G1 X69.005 Y121.121 E3.72379
M204 S1000
G1 X68.567 Y121.498 F10800
M204 S800
;TYPE:External perimeter
G1 F1200
G1 X68.567 Y57.578 E2.00416
G1 X188.147 Y57.578 E3.74934
G1 X188.147 Y63.059 E.17185
M73 P0 R137
G1 X188.147 Y121.498 E1.83231
G1 X68.627 Y121.498 E3.74746
M204 S1000
;WIPE_START
G1 F8640
M73 P1 R137
M73 Q1 S139
G1 X68.567 Y121.498 E-.01385
G1 X68.567 Y118.093 E-.78615
;WIPE_END
G1 Z.6 F720
G1 X174.568 Y62.887 F10800
G1 Z.2 F720
G1 E.8 F2100
M204 S800
;TYPE:Perimeter
G1 F1200
G1 X174.662 Y62.847 E.0032
G1 X175.137 Y62.735 E.0153
G1 X175.59 Y62.707 E.01423
G1 X176.11 Y62.763 E.0164
G1 X176.578 Y62.903 E.01532
G1 X177.014 Y63.123 E.01531
G1 X177.406 Y63.415 E.01533
G1 X177.741 Y63.77 E.0153
G1 X178.01 Y64.178 E.01532
G1 X178.203 Y64.627 E.01532
G1 X178.316 Y65.102 E.01531
G1 X178.344 Y65.59 E.01533
G1 X178.287 Y66.075 E.01531
G1 X178.147 Y66.543 E.01532
G1 X177.927 Y66.98 E.01534
G1 X177.636 Y67.371 E.01528
G1 X177.28 Y67.707 E.01535
G1 X176.872 Y67.975 E.01531
G1 X176.423 Y68.168 E.01532
G1 X175.948 Y68.281 E.01531
G1 X175.46 Y68.309 E.01533
G1 X174.975 Y68.252 E.01531
G1 X174.507 Y68.112 E.01532
G1 X174.071 Y67.893 E.0153
G1 X173.679 Y67.601 E.01533
G1 X173.344 Y67.245 E.01533
G1 X173.075 Y66.837 E.01532
G1 X172.895 Y66.421 E.01421
G1 X172.769 Y65.913 E.01641
G1 X172.741 Y65.426 E.01529
G1 X172.769 Y65.102 E.0102
G1 X172.938 Y64.472 E.02045
G1 X173.157 Y64.036 E.0153
G1 X173.449 Y63.644 E.01533
G1 X173.805 Y63.309 E.01533
G1 X174.213 Y63.041 E.01531
G1 X174.513 Y62.911 E.01025
M204 S1000
G1 X174.711 Y63.233 F10800
M204 S800
G1 F1200
G1 X174.759 Y63.211 E.00166
G1 X175.17 Y63.11 E.01327
G1 X175.562 Y63.083 E.01232
G1 X176.012 Y63.127 E.01418
G1 X176.419 Y63.245 E.01329
G1 X176.798 Y63.432 E.01325
G1 X177.14 Y63.681 E.01326
G1 X177.432 Y63.986 E.01324
G1 X177.668 Y64.338 E.01329
G1 X177.839 Y64.724 E.01324
G1 X177.94 Y65.135 E.01327
G1 X177.968 Y65.557 E.01326
G1 X177.923 Y65.978 E.01328
G1 X177.805 Y66.384 E.01326
G1 X177.619 Y66.763 E.01324
G1 X177.369 Y67.105 E.01328
G1 X177.064 Y67.398 E.01326
G1 X176.713 Y67.633 E.01324
G1 X176.326 Y67.804 E.01327
G1 X175.915 Y67.905 E.01327
G1 X175.493 Y67.933 E.01326
G1 X175.073 Y67.888 E.01324
G1 X174.667 Y67.77 E.01326
G1 X174.287 Y67.584 E.01327
G1 X173.945 Y67.334 E.01328
G1 X173.653 Y67.029 E.01324
G1 X173.417 Y66.678 E.01326
G1 X173.258 Y66.319 E.01231
G1 X173.145 Y65.88 E.01421
G1 X173.117 Y65.458 E.01326
G1 X173.145 Y65.135 E.01017
G1 X173.28 Y64.632 E.01633
G1 X173.466 Y64.252 E.01327
G1 X173.716 Y63.911 E.01326
G1 X174.021 Y63.618 E.01326
G1 X174.372 Y63.382 E.01326
G1 X174.656 Y63.257 E.00973
M204 S1000
G1 X174.882 Y63.569 F10800
M204 S800
;TYPE:External perimeter
G1 F1200
G1 X175.203 Y63.486 E.0104
G1 X175.533 Y63.459 E.01038
G1 X175.915 Y63.492 E.01202
G1 X176.259 Y63.587 E.01119
G1 X176.582 Y63.74 E.01121
G1 X176.873 Y63.948 E.01122
G1 X177.124 Y64.203 E.01122
G1 X177.326 Y64.497 E.01118
G1 X177.475 Y64.822 E.01121
G1 X177.564 Y65.168 E.0112
G1 X177.593 Y65.524 E.0112
G1 X177.559 Y65.88 E.01121
G1 X177.463 Y66.224 E.0112
G1 X177.31 Y66.547 E.01121
G1 X177.102 Y66.838 E.01122
G1 X176.848 Y67.089 E.0112
G1 X176.553 Y67.291 E.01121
G1 X176.228 Y67.44 E.01121
G1 X175.882 Y67.53 E.01121
G1 X175.526 Y67.558 E.0112
G1 X175.17 Y67.524 E.01121
G1 X174.826 Y67.429 E.01119
G1 X174.503 Y67.275 E.01122
G1 X174.212 Y67.068 E.0112
G1 X173.961 Y66.813 E.01122
G1 X173.759 Y66.519 E.01118
G1 X173.621 Y66.217 E.01041
G1 X173.521 Y65.848 E.01199
G1 X173.492 Y65.491 E.01123
G1 X173.521 Y65.168 E.01017
G1 X173.622 Y64.791 E.01224
G1 X173.775 Y64.468 E.01121
G1 X173.983 Y64.177 E.01122
G1 X174.237 Y63.927 E.01117
G1 X174.532 Y63.724 E.01123
G1 X174.826 Y63.59 E.01013
M204 S1000
;WIPE_START
G1 F8640
G1 X174.882 Y63.569 E-.01381
G1 X175.203 Y63.486 E-.07656
G1 X175.533 Y63.459 E-.07645
G1 X175.915 Y63.492 E-.08853
G1 X176.259 Y63.587 E-.0824
G1 X176.582 Y63.74 E-.08253
G1 X176.873 Y63.948 E-.08259
G1 X177.124 Y64.203 E-.08262
G1 X177.326 Y64.497 E-.08236
G1 X177.475 Y64.822 E-.08255
G1 X177.529 Y65.03 E-.0496
;WIPE_END
G1 Z.6 F720
G1 X173.035 Y112.301 F10800
G1 Z.2 F720
G1 E.8 F2100
M204 S800
;TYPE:Perimeter
G1 F1200
G1 X173.153 Y112.064 E.0083
G1 X173.443 Y111.672 E.01529
G1 X173.797 Y111.335 E.01532
G1 X174.205 Y111.066 E.01532
G1 X174.66 Y110.869 E.01555
G1 X175.154 Y110.753 E.01591
G1 X175.615 Y110.726 E.01448
G1 X176.1 Y110.782 E.01531
G1 X176.569 Y110.92 E.01533
G1 X177.006 Y111.138 E.01531
G1 X177.399 Y111.428 E.01531
G1 X177.735 Y111.782 E.0153
G1 X178.005 Y112.19 E.01534
G1 X178.199 Y112.637 E.01528
G1 X178.314 Y113.113 E.01535
G1 X178.344 Y113.6 E.0153
G1 X178.289 Y114.085 E.0153
G1 X178.147 Y114.561 E.01557
G1 X177.918 Y115.014 E.01592
G1 X177.642 Y115.384 E.01447
G1 X177.288 Y115.72 E.0153
G1 X176.88 Y115.99 E.01534
G1 X176.433 Y116.185 E.01529
G1 X175.958 Y116.299 E.01532
G1 X175.47 Y116.329 E.01533
G1 X174.985 Y116.274 E.0153
G1 X174.509 Y116.132 E.01557
G1 X174.057 Y115.903 E.01589
G1 X173.686 Y115.627 E.0145
G1 X173.35 Y115.273 E.0153
G1 X173.08 Y114.866 E.01531
G1 X172.885 Y114.418 E.01532
G1 X172.771 Y113.943 E.01532
G1 X172.742 Y113.447 E.01558
G1 X172.802 Y112.944 E.01588
G1 X172.935 Y112.502 E.01447
G1 X173.008 Y112.355 E.00515
M204 S1000
G1 X173.368 Y112.474 F10800
M204 S800
G1 F1200
G1 X173.462 Y112.28 E.00676
G1 X173.711 Y111.937 E.01329
G1 X174.015 Y111.643 E.01326
G1 X174.365 Y111.407 E.01324
G1 X174.756 Y111.233 E.01342
G1 X175.187 Y111.129 E.0139
G1 X175.583 Y111.102 E.01245
G1 X176.004 Y111.146 E.01327
G1 X176.41 Y111.262 E.01324
G1 X176.791 Y111.448 E.01329
G1 X177.133 Y111.696 E.01325
G1 X177.427 Y112 E.01326
G1 X177.663 Y112.35 E.01324
G1 X177.836 Y112.736 E.01326
G1 X177.938 Y113.147 E.01328
G1 X177.968 Y113.569 E.01326
G1 X177.924 Y113.989 E.01324
G1 X177.806 Y114.4 E.01341
G1 X177.609 Y114.797 E.0139
G1 X177.374 Y115.118 E.01247
G1 X177.07 Y115.412 E.01326
G1 X176.72 Y115.649 E.01325
G1 X176.334 Y115.821 E.01325
G1 X175.924 Y115.923 E.01325
G1 X175.502 Y115.953 E.01326
G1 X175.081 Y115.909 E.01327
G1 X174.67 Y115.791 E.01341
G1 X174.273 Y115.594 E.0139
G1 X173.952 Y115.359 E.01247
G1 X173.658 Y115.056 E.01324
G1 X173.422 Y114.705 E.01326
G1 X173.249 Y114.319 E.01326
G1 X173.147 Y113.909 E.01325
G1 X173.117 Y113.482 E.01342
G1 X173.166 Y113.041 E.01391
G1 X173.277 Y112.66 E.01244
G1 X173.342 Y112.528 E.00461
M204 S1000
G1 X173.703 Y112.641 F10800
M204 S800
;TYPE:External perimeter
G1 F1200
G1 X173.772 Y112.495 E.00506
G1 X173.978 Y112.203 E.0112
G1 X174.232 Y111.952 E.0112
G1 X174.526 Y111.748 E.01122
G1 X174.852 Y111.598 E.01125
G1 X175.22 Y111.504 E.01191
G1 X175.552 Y111.478 E.01044
G1 X175.907 Y111.511 E.01118
G1 X176.252 Y111.605 E.01121
G1 X176.575 Y111.757 E.01119
G1 X176.867 Y111.963 E.0112
G1 X177.119 Y112.217 E.01122
G1 X177.322 Y112.511 E.0112
G1 X177.472 Y112.835 E.01119
G1 X177.563 Y113.181 E.01122
G1 X177.592 Y113.537 E.0112
G1 X177.559 Y113.893 E.01121
G1 X177.465 Y114.239 E.01124
G1 X177.3 Y114.581 E.01191
G1 X177.107 Y114.852 E.01043
G1 X176.853 Y115.104 E.01122
G1 X176.559 Y115.307 E.0112
G1 X176.235 Y115.457 E.01119
G1 X175.889 Y115.548 E.01122
G1 X175.533 Y115.577 E.0112
G1 X175.177 Y115.545 E.01121
G1 X174.831 Y115.45 E.01125
G1 X174.489 Y115.285 E.01191
G1 X174.218 Y115.092 E.01043
G1 X173.966 Y114.838 E.01122
G1 X173.763 Y114.545 E.01118
G1 X173.613 Y114.22 E.01122
G1 X173.522 Y113.874 E.01122
G1 X173.493 Y113.517 E.01123
G1 X173.531 Y113.139 E.01191
G1 X173.62 Y112.818 E.01044
G1 X173.678 Y112.695 E.00426
M204 S1000
;WIPE_START
G1 F8640
G1 X173.703 Y112.641 E-.01374
G1 X173.772 Y112.495 E-.03729
G1 X173.978 Y112.203 E-.08251
G1 X174.232 Y111.952 E-.08245
G1 X174.526 Y111.748 E-.08263
G1 X174.852 Y111.598 E-.08286
G1 X175.22 Y111.504 E-.0877
G1 X175.552 Y111.478 E-.07689
G1 X175.907 Y111.511 E-.08232
G1 X176.252 Y111.605 E-.08257
G1 X176.575 Y111.757 E-.08243
G1 X176.598 Y111.774 E-.00661
;WIPE_END
G1 Z.6 F720
G1 X171.407 Y117.521 F10800
G1 Z.2 F720
G1 E.8 F2100
M204 S800
;TYPE:Perimeter
G1 F1200
G1 X171.385 Y117.665 E.00457
G1 X171.284 Y117.888 E.00768
G1 X171.098 Y118.105 E.00896
G1 X170.821 Y118.269 E.01009
G1 X170.484 Y118.332 E.01075
G1 X86.231 Y118.332 E2.64169
G1 X85.898 Y118.271 E.01061
G1 X85.624 Y118.111 E.00995
G1 X85.437 Y117.898 E.00889
G1 X85.306 Y117.572 E.01102
G1 X85.288 Y116.83 E.02327
G1 X85.288 Y114.105 E.08544
G1 X85.288 Y61.646 E1.64481
G1 X85.332 Y61.363 E.00898
G1 X85.435 Y61.142 E.00764
G1 X85.621 Y60.927 E.00891
G1 X85.897 Y60.765 E.01003
G1 X86.231 Y60.704 E.01065
G1 X170.484 Y60.704 E2.64169
G1 X170.823 Y60.767 E.01081
G1 X171.1 Y60.933 E.01013
G1 X171.286 Y61.151 E.00899
G1 X171.418 Y61.518 E.01223
G1 X171.427 Y62.071 E.01734
G1 X171.427 Y117.389 E1.73445
G1 X171.416 Y117.461 E.00228
M204 S1000
G1 X171.04 Y117.455 F10800
M204 S800
G1 F1200
G1 X171.025 Y117.555 E.00317
G1 X170.852 Y117.819 E.0099
G1 X170.582 Y117.946 E.00936
G1 X170.484 Y117.955 E.00309
G1 X86.231 Y117.955 E2.64169
G1 X86.031 Y117.918 E.00638
M73 Q1 S138
G1 X85.867 Y117.822 E.00596
G1 X85.692 Y117.562 E.00983
G1 X85.665 Y116.83 E.02297
G1 X85.665 Y114.105 E.08544
G1 X85.665 Y61.646 E1.64481
G1 X85.692 Y61.476 E.0054
G1 X85.865 Y61.215 E.00982
G1 X86.133 Y61.089 E.00929
G1 X86.231 Y61.081 E.00308
G1 X170.484 Y61.081 E2.64169
G1 X170.687 Y61.118 E.00647
G1 X170.854 Y61.218 E.0061
G1 X171.026 Y61.484 E.00993
G1 X171.05 Y62.071 E.01842
G1 X171.05 Y117.389 E1.73445
G1 X171.049 Y117.396 E.00022
M204 S1000
G1 X170.673 Y117.389 F10800
M204 S800
;TYPE:External perimeter
G1 F1200
G1 X170.607 Y117.532 E.00494
G1 X170.484 Y117.578 E.00412
G1 X86.231 Y117.578 E2.64169
G1 X86.11 Y117.533 E.00405
G1 X86.042 Y117.389 E.00499
G1 X86.042 Y114.105 E.10297
G1 X86.042 Y61.646 E1.64481
G1 X86.109 Y61.502 E.00498
G1 X86.231 Y61.458 E.00407
G1 X170.484 Y61.458 E2.64169
G1 X170.607 Y61.504 E.00412
G1 X170.673 Y61.646 E.00491
G1 X170.673 Y117.329 E1.7459
M204 S1000
;WIPE_START
G1 F8640
G1 X170.673 Y117.389 E-.01385
G1 X170.607 Y117.532 E-.03637
G1 X170.484 Y117.578 E-.03032
G1 X167.368 Y117.578 E-.71946
;WIPE_END
G1 Z.6 F720
M73 P1 R136
G1 X78.65 Y113.043 F10800
G1 Z.2 F720
G1 E.8 F2100
M204 S800
;TYPE:Perimeter
G1 F1200
G1 X78.662 Y112.944 E.00313
G1 X78.795 Y112.502 E.01447
G1 X79.013 Y112.064 E.01534
G1 X79.303 Y111.672 E.01529
G1 X79.657 Y111.335 E.01532
G1 X80.065 Y111.066 E.01532
G1 X80.52 Y110.869 E.01555
G1 X81.014 Y110.753 E.01591
G1 X81.475 Y110.726 E.01448
G1 X81.96 Y110.782 E.01531
G1 X82.429 Y110.92 E.01533
G1 X82.866 Y111.138 E.01531
G1 X83.258 Y111.428 E.01529
G1 X83.595 Y111.783 E.01535
G1 X83.865 Y112.19 E.01531
G1 X84.06 Y112.638 E.01532
G1 X84.174 Y113.112 E.01529
G1 X84.204 Y113.6 E.01533
G1 X84.149 Y114.085 E.0153
G1 X84.007 Y114.561 E.01557
G1 X83.778 Y115.014 E.01592
G1 X83.502 Y115.384 E.01447
G1 X83.148 Y115.72 E.0153
G1 X82.809 Y115.954 E.01292
G1 X82.346 Y116.168 E.01599
G1 X81.818 Y116.299 E.01706
G1 X81.33 Y116.329 E.01533
G1 X80.845 Y116.274 E.0153
G1 X80.369 Y116.132 E.01557
G1 X79.917 Y115.903 E.01589
G1 X79.547 Y115.627 E.01447
G1 X79.21 Y115.273 E.01532
G1 X78.94 Y114.866 E.01531
G1 X78.745 Y114.418 E.01532
G1 X78.631 Y113.943 E.01532
G1 X78.602 Y113.447 E.01558
G1 X78.643 Y113.103 E.01086
M204 S1000
G1 X79.021 Y113.093 F10800
M204 S800
G1 F1200
G1 X79.026 Y113.042 E.00161
G1 X79.137 Y112.66 E.01247
G1 X79.322 Y112.28 E.01325
G1 X79.571 Y111.937 E.01329
G1 X79.875 Y111.643 E.01326
G1 X80.225 Y111.407 E.01324
G1 X80.616 Y111.233 E.01342
G1 X81.047 Y111.129 E.0139
G1 X81.443 Y111.102 E.01245
G1 X81.864 Y111.146 E.01327
G1 X82.27 Y111.262 E.01324
G1 X82.651 Y111.448 E.01329
G1 X82.993 Y111.696 E.01325
G1 X83.287 Y112 E.01326
G1 X83.523 Y112.35 E.01324
G1 X83.696 Y112.736 E.01326
G1 X83.798 Y113.147 E.01328
G1 X83.828 Y113.568 E.01323
G1 X83.784 Y113.989 E.01327
G1 X83.666 Y114.4 E.01341
G1 X83.469 Y114.797 E.0139
G1 X83.234 Y115.118 E.01247
G1 X82.93 Y115.412 E.01326
G1 X82.621 Y115.627 E.0118
G1 X82.194 Y115.821 E.01471
G1 X81.784 Y115.923 E.01325
G1 X81.362 Y115.953 E.01326
G1 X80.941 Y115.909 E.01327
G1 X80.53 Y115.791 E.01341
G1 X80.133 Y115.594 E.0139
G1 X79.812 Y115.36 E.01246
G1 X79.518 Y115.056 E.01326
G1 X79.282 Y114.705 E.01326
G1 X79.109 Y114.319 E.01326
G1 X79.007 Y113.909 E.01325
G1 X78.977 Y113.482 E.01342
G1 X79.014 Y113.153 E.01038
M204 S1000
G1 X79.4 Y113.104 F10800
M204 S800
;TYPE:External perimeter
G1 F1200
G1 X79.48 Y112.818 E.00931
G1 X79.632 Y112.495 E.01119
G1 X79.838 Y112.203 E.0112
G1 X80.092 Y111.952 E.0112
G1 X80.386 Y111.748 E.01122
