; generated by PrusaSlicer 2.7.0+win64 on 2024-04-09 at 03:15:53 UTC


;
;
; 

; external perimeters extrusion width = 0.45mm
; perimeters extrusion width = 0.45mm
; infill extrusion width = 0.45mm
; solid infill extrusion width = 0.45mm
; top infill extrusion width = 0.40mm
; first layer extrusion width = 0.42mm

M73 P0 R110
M73 Q0 S111
M201 X1000 Y1000 Z200 E5000 ; sets maximum accelerations, mm/sec^2
M203 X200 Y200 Z12 E120 ; sets maximum feedrates, mm / sec
M204 S1250 T1250 ; sets acceleration (S) and retract acceleration (R), mm/sec^2
M205 X8.00 Y8.00 Z0.40 E4.50 ; sets the jerk limits, mm/sec
M205 S0 T0 ; sets the minimum extruding and travel feed rate, mm/sec

; printing object Front.stl id:0 copy 0
; stop printing object Front.stl id:0 copy 0

;TYPE:Custom
M862.3 P "MK3S" ; printer model check
M862.1 P0.4 ; nozzle diameter check
M115 U3.13.2 ; tell printer latest fw version
G90 ; use absolute coordinates
M83 ; extruder relative mode
M104 S215 ; set extruder temp
M140 S60 ; set bed temp
M190 S60 ; wait for bed temp
M109 S215 ; wait for extruder temp
G28 W ; home all without mesh bed level
G80 X62.2344 Y55.4198 W125.531 H99.1604 ; mesh bed levelling

G1 Z0.2 F720
G1 Y-3 F1000 ; go outside print area
G92 E0
G1 X60 E9 F1000 ; intro line
G1 X100 E12.5 F1000 ; intro line

G92 E0
M221 S95

; Don't change E values below. Excessive value can damage the printer.
M907 E430 ; set extruder motor current
G21 ; set units to millimeters
G90 ; use absolute coordinates
M83 ; use relative distances for extrusion
M900 K0.05 ; Filament gcode LA 1.5
M900 K30 ; Filament gcode LA 1.0

M107
;LAYER_CHANGE
;Z:0.2
;HEIGHT:0.2
;BEFORE_LAYER_CHANGE
G92 E0.0
;0.2


G1 E-.8 F2100
G1 Z.2 F720
;AFTER_LAYER_CHANGE
;0.2
G1 X63.63 Y57.596 F10800
G1 Z.2 F720
G1 E.8 F2100
M204 S800
;TYPE:Skirt/Brim
;WIDTH:0.42
G1 F1200
G1 X64.411 Y56.815 E.03463
G1 X65.039 Y56.375 E.02404
G1 X66.124 Y55.88 E.03739
G1 X66.868 Y55.693 E.02405
G1 X67.8 Y55.608 E.02934
G1 X182.37 Y55.614 E3.59226
G1 X183.55 Y55.784 E.03738
G1 X184.585 Y56.17 E.03464
G1 X185.246 Y56.559 E.02405
G1 X186.148 Y57.34 E.03741
G1 X186.627 Y57.939 E.02405
G1 X187.156 Y58.908 E.03461
G1 X187.492 Y60.053 E.03741
G1 X187.577 Y60.985 E.02934
G1 X187.577 Y149.015 E2.76012
G1 X187.401 Y150.365 E.04269
G1 X187.015 Y151.4 E.03464
G1 X186.37 Y152.404 E.03742
G1 X185.589 Y153.185 E.03463
G1 X184.961 Y153.625 E.02404
G1 X183.876 Y154.12 E.03739
G1 X183.132 Y154.307 E.02405
M73 P0 R109
G1 X182.2 Y154.392 E.02934
G1 X67.8 Y154.392 E3.58693
G1 X66.45 Y154.216 E.04269
G1 X65.415 Y153.83 E.03464
G1 X64.411 Y153.185 E.03742
G1 X63.63 Y152.404 E.03463
G1 X63.19 Y151.776 E.02404
G1 X62.694 Y150.69 E.03743
G1 X62.508 Y149.947 E.02402
G1 X62.423 Y149.015 E.02934
G1 X62.423 Y60.985 E2.76012
G1 X62.599 Y59.635 E.04269
G1 X62.985 Y58.6 E.03464
G1 X63.597 Y57.647 E.03551
M204 S1000
; printing object Front.stl id:0 copy 0
;WIPE_START
G1 F8640
G1 X63.63 Y57.596 E-.01403
G1 X64.411 Y56.815 E-.25503
G1 X65.039 Y56.375 E-.17706
G1 X66.124 Y55.88 E-.27537
G1 X66.454 Y55.797 E-.07851
;WIPE_END
G1 Z.6 F720
G1 X66.097 Y59.581 F10800
G1 Z.2 F720
G1 E.8 F2100
M204 S800
;TYPE:Perimeter
;WIDTH:0.419999
G1 F1200
G1 X66.395 Y59.282 E.01324
G1 X66.836 Y58.999 E.01643
G1 X67.278 Y58.842 E.01471
G1 X67.828 Y58.773 E.01738
G1 X68.44 Y58.773 E.01919
;WIDTH:0.469813
G1 X68.652 Y58.797 E.00757
;WIDTH:0.519627
G1 X68.864 Y58.822 E.00846
;WIDTH:0.56944
G1 X69.075 Y58.847 E.0093
;WIDTH:0.572791
G1 X69.592 Y58.849 E.02278
;WIDTH:0.578297
G1 X70.158 Y58.852 E.0252
G1 X70.3 Y58.832 E.00638
;WIDTH:0.538723
G1 X70.442 Y58.812 E.00591
;WIDTH:0.499148
G1 X70.584 Y58.792 E.00544
;WIDTH:0.459574
G1 X70.726 Y58.773 E.00496
;WIDTH:0.419999
G1 X179.001 Y58.773 E3.39488
;WIDTH:0.463516
G1 X179.15 Y58.795 E.00527
M73 Q0 S110
;WIDTH:0.507033
G1 X179.3 Y58.817 E.00585
;WIDTH:0.55055
G1 X179.45 Y58.838 E.00639
;WIDTH:0.594067
G1 X179.6 Y58.86 E.00695
G1 X180.124 Y58.848 E.02402
;WIDTH:0.585396
G1 X180.692 Y58.856 E.02562
G1 X180.836 Y58.835 E.00656
;WIDTH:0.544047
G1 X180.98 Y58.814 E.00606
;WIDTH:0.502698
G1 X181.124 Y58.794 E.00556
;WIDTH:0.461349
G1 X181.267 Y58.773 E.00503
;WIDTH:0.419999
G1 X182.2 Y58.775 E.02925
G1 X182.774 Y58.854 E.01817
G1 X183.164 Y58.999 E.01305
G1 X183.605 Y59.282 E.01643
G1 X183.903 Y59.581 E.01324
G1 X184.186 Y60.022 E.01643
G1 X184.337 Y60.436 E.01382
G1 X184.413 Y61.035 E.01893
G1 X184.413 Y61.772 E.02311
;WIDTH:0.464011
G1 X184.391 Y61.917 E.00514
;WIDTH:0.508023
G1 X184.369 Y62.061 E.00563
;WIDTH:0.552035
G1 X184.347 Y62.206 E.00621
;WIDTH:0.596047
G1 X184.325 Y62.35 E.0067
G1 X184.338 Y62.919 E.02618
;WIDTH:0.586142
G1 X184.33 Y63.485 E.02557
G1 X184.351 Y63.628 E.00653
;WIDTH:0.544607
G1 X184.371 Y63.77 E.00598
;WIDTH:0.503071
G1 X184.392 Y63.912 E.00549
;WIDTH:0.461535
G1 X184.413 Y64.054 E.005
;WIDTH:0.419999
G1 X184.413 Y145.801 E2.56312
;WIDTH:0.464011
G1 X184.391 Y145.946 E.00514
;WIDTH:0.508023
G1 X184.369 Y146.09 E.00563
;WIDTH:0.552035
G1 X184.347 Y146.235 E.00621
;WIDTH:0.596047
G1 X184.325 Y146.38 E.00675
G1 X184.338 Y146.949 E.02618
;WIDTH:0.586142
G1 X184.33 Y147.514 E.02552
G1 X184.351 Y147.657 E.00653
;WIDTH:0.544607
G1 X184.371 Y147.799 E.00598
;WIDTH:0.503071
G1 X184.392 Y147.941 E.00549
;WIDTH:0.461535
G1 X184.413 Y148.083 E.005
;WIDTH:0.419999
G1 X184.413 Y148.822 E.02317
G1 X184.376 Y149.388 E.01778
G1 X184.229 Y149.885 E.01625
G1 X184.028 Y150.252 E.01312
G1 X183.648 Y150.685 E.01806
G1 X183.198 Y150.982 E.01691
G1 X182.774 Y151.146 E.01425
G1 X182.172 Y151.227 E.01905
G1 X181.267 Y151.227 E.02838
;WIDTH:0.461228
G1 X181.122 Y151.207 E.00509
;WIDTH:0.502456
G1 X180.976 Y151.186 E.00564
;WIDTH:0.543684
G1 X180.83 Y151.166 E.00614
;WIDTH:0.584912
G1 X180.684 Y151.145 E.00665
G1 X180.091 Y151.152 E.02673
;WIDTH:0.596595
G1 X179.558 Y151.139 E.02455
G1 X179.416 Y151.161 E.00662
;WIDTH:0.552446
G1 X179.273 Y151.183 E.00613
;WIDTH:0.508297
G1 X179.13 Y151.205 E.0056
;WIDTH:0.464148
G1 X178.988 Y151.227 E.00503
;WIDTH:0.419999
G1 X70.867 Y151.227 E3.39005
;WIDTH:0.461228
G1 X70.722 Y151.207 E.00509
;WIDTH:0.502456
G1 X70.576 Y151.186 E.00564
;WIDTH:0.543684
G1 X70.43 Y151.166 E.00614
;WIDTH:0.584912
G1 X70.284 Y151.145 E.00665
G1 X69.691 Y151.152 E.02673
;WIDTH:0.596595
G1 X69.158 Y151.139 E.02455
G1 X69.09 Y151.154 E.00321
;WIDTH:0.566271
G1 X69.022 Y151.17 E.00304
;WIDTH:0.535946
G1 X68.823 Y151.189 E.0082
;WIDTH:0.497297
G1 X68.625 Y151.208 E.00752
;WIDTH:0.458648
G1 X68.427 Y151.227 E.00688
;WIDTH:0.419999
G1 X67.532 Y151.206 E.02807
G1 X67.009 Y151.073 E.01692
G1 X66.562 Y150.843 E.01576
G1 X66.129 Y150.462 E.01808
G1 X65.848 Y150.041 E.01587
G1 X65.668 Y149.589 E.01525
G1 X65.587 Y148.986 E.01908
G1 X65.587 Y61.629 E2.73901
G1 X65.589 Y60.993 E.01994
G1 X65.668 Y60.411 E.01842
G1 X65.814 Y60.022 E.01303
G1 X66.064 Y59.631 E.01455
M204 S1000
G1 X65.832 Y59.307 F10800
M204 S800
;TYPE:External perimeter
G1 F1200
G1 X65.843 Y59.29 E.00063
G1 X66.225 Y58.939 E.01627
G1 X66.656 Y58.668 E.01596
G1 X67.198 Y58.474 E.01805
G1 X67.815 Y58.395 E.0195
G1 X181.857 Y58.396 E3.5757
G1 X182.495 Y58.418 E.02002
G1 X183.001 Y58.528 E.01624
G1 X183.53 Y58.769 E.01823
G1 X183.953 Y59.086 E.01657
G1 X184.33 Y59.522 E.01807
G1 X184.582 Y59.984 E.0165
G1 X184.744 Y60.532 E.01792
G1 X184.79 Y61.035 E.01584
G1 X184.788 Y149.034 E2.75914
G1 X184.7 Y149.669 E.0201
G1 X184.517 Y150.159 E.0164
G1 X184.205 Y150.645 E.01811
G1 X183.831 Y151.02 E.01661
G1 X183.344 Y151.332 E.01813
G1 X182.855 Y151.515 E.01637
G1 X182.185 Y151.605 E.0212
G1 X68.427 Y151.605 E3.5668
G1 X67.731 Y151.599 E.02182
M73 P1 R109
G1 X67.145 Y151.515 E.01856
G1 X66.656 Y151.332 E.01637
G1 X66.169 Y151.019 E.01815
G1 X65.795 Y150.645 E.01658
G1 X65.483 Y150.159 E.01811
G1 X65.3 Y149.669 E.0164
G1 X65.21 Y149 E.02116
G1 X65.21 Y61.478 E2.74419
G1 X65.224 Y60.805 E.02111
M73 Q1 S110
G1 X65.316 Y60.256 E.01745
G1 X65.517 Y59.778 E.01626
G1 X65.798 Y59.357 E.01587
M204 S1000
;WIPE_START
G1 F8640
G1 X65.832 Y59.307 E-.01396
G1 X65.843 Y59.29 E-.00468
G1 X66.225 Y58.939 E-.11979
G1 X66.656 Y58.668 E-.11756
G1 X67.198 Y58.474 E-.13292
G1 X67.815 Y58.395 E-.14363
G1 X68.973 Y58.395 E-.26746
;WIPE_END
G1 Z.6 F720
G1 X179.055 Y59.638 F10800
G1 Z.2 F720
G1 E.8 F2100
M204 S800
;TYPE:Perimeter
;WIDTH:0.469746
G1 F1200
G1 X179.195 Y59.58 E.00538
;WIDTH:0.519493
G1 X179.371 Y59.509 E.00752
;WIDTH:0.569239
G1 X179.547 Y59.437 E.00832
;WIDTH:0.569827
G1 X180.091 Y59.375 E.02399
;WIDTH:0.585396
G1 X180.643 Y59.394 E.02491
G1 X180.766 Y59.439 E.00591
;WIDTH:0.544047
G1 X180.889 Y59.484 E.00546
;WIDTH:0.502698
G1 X181.011 Y59.529 E.00497
;WIDTH:0.461349
G1 X181.134 Y59.575 E.00457
;WIDTH:0.419999
G1 X181.621 Y59.747 E.01619
G1 X182.077 Y59.989 E.01619
G1 X182.488 Y60.289 E.01595
G1 X182.857 Y60.651 E.01621
G1 X183.172 Y61.069 E.01641
G1 X183.419 Y61.522 E.01618
G1 X183.598 Y62.006 E.01618
;WIDTH:0.464011
G1 X183.643 Y62.107 E.00387
;WIDTH:0.508023
G1 X183.688 Y62.208 E.00428
;WIDTH:0.552035
G1 X183.733 Y62.309 E.00468
;WIDTH:0.596047
G1 X183.778 Y62.411 E.00513
G1 X183.811 Y62.939 E.02433
;WIDTH:0.586142
G1 X183.787 Y63.465 E.02378
G1 X183.74 Y63.59 E.00603
;WIDTH:0.544607
G1 X183.693 Y63.715 E.00557
;WIDTH:0.503071
G1 X183.645 Y63.84 E.00512
;WIDTH:0.461535
G1 X183.598 Y63.965 E.00465
;WIDTH:0.419999
G1 X183.419 Y64.449 E.01618
G1 X183.172 Y64.902 E.01618
G1 X182.861 Y65.314 E.01619
G1 X182.494 Y65.677 E.01618
G1 X182.035 Y66.006 E.01771
G1 X181.545 Y66.256 E.01725
G1 X181.054 Y66.417 E.0162
G1 X180.546 Y66.505 E.01617
G1 X180.03 Y66.518 E.01618
G1 X179.517 Y66.455 E.01621
G1 X179.019 Y66.319 E.01619
G1 X178.546 Y66.111 E.0162
G1 X178.109 Y65.837 E.01617
G1 X177.716 Y65.502 E.01619
G1 X177.376 Y65.114 E.01618
G1 X177.096 Y64.68 E.01619
G1 X176.882 Y64.21 E.01619
G1 X176.742 Y63.729 E.01571
G1 X176.67 Y63.202 E.01668
G1 X176.682 Y62.645 E.01747
G1 X176.757 Y62.176 E.01489
G1 X176.912 Y61.684 E.01617
G1 X177.137 Y61.219 E.0162
G1 X177.426 Y60.792 E.01617
G1 X177.775 Y60.411 E.0162
G1 X178.176 Y60.085 E.0162
G1 X178.546 Y59.859 E.01359
G1 X178.999 Y59.661 E.0155
M204 S1000
G1 X179.202 Y59.988 F10800
M204 S800
;TYPE:External perimeter
G1 F1200
G1 X179.681 Y59.871 E.01546
G1 X180.098 Y59.827 E.01315
G1 X180.559 Y59.846 E.01447
G1 X181.013 Y59.932 E.01449
G1 X181.449 Y60.082 E.01446
G1 X182.005 Y60.4 E.02008
G1 X182.519 Y60.842 E.02126
G1 X182.843 Y61.253 E.01641
G1 X183.067 Y61.657 E.01448
G1 X183.23 Y62.088 E.01445
G1 X183.328 Y62.539 E.01447
G1 X183.36 Y62.999 E.01446
G1 X183.324 Y63.459 E.01447
G1 X183.222 Y63.909 E.01447
G1 X183.055 Y64.339 E.01446
G1 X182.828 Y64.741 E.01448
G1 X182.544 Y65.104 E.01445
G1 X182.209 Y65.425 E.01455
G1 X181.798 Y65.709 E.01566
G1 X181.423 Y65.899 E.01318
G1 X180.986 Y66.046 E.01446
G1 X180.532 Y66.128 E.01447
G1 X180.071 Y66.143 E.01446
G1 X179.612 Y66.09 E.01449
G1 X179.167 Y65.972 E.01443
G1 X178.743 Y65.79 E.01447
G1 X178.35 Y65.547 E.01449
G1 X177.997 Y65.251 E.01444
G1 X177.69 Y64.906 E.01448
G1 X177.438 Y64.52 E.01445
G1 X177.244 Y64.101 E.01448
G1 X177.113 Y63.659 E.01445
G1 X177.047 Y63.2 E.01454
G1 X177.055 Y62.7 E.01568
G1 X177.119 Y62.285 E.01317
G1 X177.253 Y61.844 E.01445
G1 X177.451 Y61.427 E.01447
G1 X177.707 Y61.043 E.01447
G1 X178.017 Y60.701 E.01447
G1 X178.372 Y60.407 E.01445
G1 X178.743 Y60.181 E.01362
G1 X179.146 Y60.01 E.01373
M204 S1000
;WIPE_START
G1 F8640
G1 X179.202 Y59.988 E-.01389
G1 X179.681 Y59.871 E-.11385
G1 X180.098 Y59.827 E-.09682
G1 X180.559 Y59.846 E-.10654
G1 X181.013 Y59.932 E-.10669
G1 X181.449 Y60.082 E-.10646
G1 X182.005 Y60.4 E-.1479
G1 X182.359 Y60.705 E-.10785
;WIPE_END
G1 Z.6 F720
G1 X165.397 Y137.11 F10800
G1 Z.2 F720
G1 E.8 F2100
M204 S800
;TYPE:Perimeter
G1 F1200
G1 X164.935 Y137.301 E.01567
G1 X164.417 Y137.447 E.01687
G1 X163.886 Y137.53 E.01685
G1 X163.349 Y137.55 E.01685
G1 X162.813 Y137.506 E.01686
G1 X162.287 Y137.399 E.01683
G1 X161.776 Y137.231 E.01687
G1 X161.289 Y137.003 E.01686
G1 X160.809 Y136.701 E.01778
G1 X160.413 Y136.384 E.0159
G1 X160.035 Y136.001 E.01687
G1 X159.706 Y135.577 E.01683
G1 X159.429 Y135.116 E.01686
G1 X159.2 Y134.597 E.01779
G1 X159.048 Y134.113 E.01591
G1 X158.954 Y133.609 E.01608
G1 X158.914 Y133.048 E.01763
G1 X158.941 Y132.511 E.01686
G1 X159.033 Y131.982 E.01684
G1 X159.186 Y131.466 E.01688
G1 X159.399 Y130.973 E.01684
G1 X159.669 Y130.508 E.01686
G1 X159.992 Y130.078 E.01686
G1 X160.363 Y129.69 E.01683
G1 X160.833 Y129.309 E.01897
G1 X161.289 Y129.026 E.01683
G1 X161.776 Y128.798 E.01686
G1 X162.29 Y128.629 E.01696
G1 X162.792 Y128.527 E.01606
G1 X163.332 Y128.479 E.017
G1 X163.886 Y128.499 E.01738
G1 X164.417 Y128.582 E.01685
G1 X164.935 Y128.728 E.01687
G1 X165.402 Y128.918 E.01581
G1 X165.843 Y129.161 E.01579
G1 X166.282 Y129.471 E.01685
G1 X166.682 Y129.831 E.01687
G1 X167.036 Y130.235 E.01684
G1 X167.339 Y130.679 E.01685
G1 X167.588 Y131.155 E.01684
G1 X167.779 Y131.658 E.01687
G1 X167.909 Y132.179 E.01684
G1 X167.977 Y132.712 E.01685
G1 X167.98 Y133.25 E.01687
G1 X167.921 Y133.784 E.01685
G1 X167.798 Y134.307 E.01685
G1 X167.615 Y134.813 E.01687
G1 X167.373 Y135.293 E.01685
G1 X167.076 Y135.741 E.01685
G1 X166.728 Y136.15 E.01684
G1 X166.334 Y136.516 E.01686
G1 X165.9 Y136.833 E.01685
G1 X165.451 Y137.085 E.01614
M204 S1000
G1 X165.67 Y136.512 F10800
M204 S800
;TYPE:External perimeter
G1 F1200
G1 X165.249 Y136.765 E.0154
G1 X164.772 Y136.959 E.01615
G1 X164.296 Y137.088 E.01546
G1 X163.808 Y137.159 E.01546
G1 X163.316 Y137.172 E.01543
G1 X162.825 Y137.127 E.01546
G1 X162.343 Y137.025 E.01545
G1 X161.876 Y136.865 E.01548
G1 X161.431 Y136.652 E.01547
G1 X160.995 Y136.371 E.01626
G1 X160.432 Y135.869 E.02365
G1 X160.006 Y135.348 E.0211
G1 X159.746 Y134.908 E.01602
G1 X159.546 Y134.447 E.01576
G1 X159.404 Y133.981 E.01527
G1 X159.298 Y133.17 E.02564
G1 X159.318 Y132.534 E.01995
G1 X159.406 Y132.038 E.01579
G1 X159.554 Y131.556 E.01581
G1 X159.906 Y130.847 E.02482
G1 X160.291 Y130.307 E.02079
G1 X160.65 Y129.938 E.01614
G1 X161.034 Y129.628 E.01547
G1 X161.451 Y129.366 E.01544
G1 X161.897 Y129.155 E.01547
G1 X162.365 Y128.998 E.01548
G1 X162.858 Y128.898 E.01577
G1 X163.338 Y128.856 E.01511
G1 X163.831 Y128.872 E.01547
G1 X164.318 Y128.946 E.01544
G1 X164.793 Y129.077 E.01545
G1 X165.249 Y129.264 E.01545
G1 X165.68 Y129.503 E.01545
G1 X166.08 Y129.791 E.01545
G1 X166.443 Y130.125 E.01547
G1 X166.763 Y130.499 E.01543
G1 X167.038 Y130.909 E.01548
G1 X167.262 Y131.348 E.01545
G1 X167.432 Y131.81 E.01544
G1 X167.546 Y132.29 E.01547
G1 X167.603 Y132.779 E.01544
G1 X167.602 Y133.272 E.01546
G1 X167.533 Y133.8 E.0167
G1 X167.425 Y134.24 E.01421
G1 X167.253 Y134.702 E.01546
G1 X167.026 Y135.14 E.01547
G1 X166.707 Y135.597 E.01747
M73 P1 R108
G1 X166.362 Y135.979 E.01614
G1 X165.855 Y136.401 E.02068
G1 X165.721 Y136.481 E.00489
M204 S1000
;WIPE_START
G1 F8640
G1 X165.67 Y136.512 E-.01378
G1 X165.249 Y136.765 E-.11341
G1 X164.772 Y136.959 E-.1189
G1 X164.296 Y137.088 E-.11387
G1 X163.808 Y137.159 E-.11387
G1 X163.316 Y137.172 E-.11364
G1 X162.825 Y137.127 E-.11385
G1 X162.407 Y137.038 E-.09868
;WIPE_END
G1 Z.6 F720
G1 X140.886 Y129.83 F10800
G1 Z.2 F720
G1 E.8 F2100
M204 S800
;TYPE:Perimeter
G1 F1200
G1 X141.283 Y129.468 E.01685
G1 X141.756 Y129.136 E.01812
G1 X142.268 Y128.867 E.01813
G1 X142.81 Y128.665 E.01814
G1 X143.374 Y128.533 E.01816
G1 X143.92 Y128.477 E.01721
G1 X144.523 Y128.49 E.01891
G1 X145.099 Y128.578 E.01827
G1 X145.655 Y128.739 E.01815
G1 X146.185 Y128.969 E.01812
G1 X146.683 Y129.265 E.01816
G1 X147.138 Y129.621 E.01811
G1 X147.545 Y130.033 E.01816
G1 X147.895 Y130.493 E.01812
G1 X148.185 Y130.994 E.01815
G1 X148.408 Y131.527 E.01812
G1 X148.561 Y132.085 E.01814
G1 X148.643 Y132.658 E.01815
G1 X148.639 Y133.27 E.01919
G1 X148.539 Y133.953 E.02164
G1 X148.449 Y134.371 E.01341
G1 X148.266 Y134.858 E.01631
G1 X148.036 Y135.306 E.01579
G1 X147.724 Y135.748 E.01696
G1 X147.5 Y136.023 E.01112
G1 X147.022 Y136.5 E.02117
G1 X146.57 Y136.833 E.0176
G1 X146.101 Y137.096 E.01686
G1 X145.372 Y137.367 E.02439
G1 X144.579 Y137.526 E.02536
G1 X143.755 Y137.529 E.02584
G1 X142.978 Y137.404 E.02468
G1 X142.446 Y137.231 E.01754
