; generated by SuperSlicer 2.4 on 2023-03-26 at 19:17:27 UTC


;
;

;
;
; 

; external perimeters extrusion width = 0.60mm
; perimeters extrusion width = 0.50mm
; infill extrusion width = 0.50mm
; solid infill extrusion width = 0.50mm
; top infill extrusion width = 0.40mm
; support material extrusion width = 0.38mm
; first layer extrusion width = 0.42mm

; object:{"name":"Front","id":"Front.stl id:0 copy 0","object_center":[105.000000,105.000000,0.000000],"boundingbox_center":[105.000000,105.000000,15.000250],"boundingbox_size":[150.000000,52.000000,30.000500]}
; Total objects to print: 1
M486 T1
; plater:{"center":[105.000000,105.000000,0.000000],"boundingbox_center":[105.000000,105.000000,15.000250],"boundingbox_size":[150.000000,52.000000,30.000500]}

M73 P0 R146
;TYPE:Custom
G90 ; use absolute coordinates
M83 ; extruder relative mode
M204 S1250 T1250
M104 S230 ; set extruder temp
M140 S90 ; set bed temp
G28 ; home all
G29 ; AutoBed Leveling I think
G1 Y1.0 Z0.3 F1000 ; move print head up
M190 S90 ; wait for bed temp
M109 S230 ; wait for extruder temp
G92 E0.0
; initial load
G1 X205.0 E19 F1000
G1 Y1.6
G1 X5.0 E19 F1000
G92 E0.0
; intro line
G1 Y2.0 Z0.2 F1000
G1 X65.0 E9.0 F1000
G1 X105.0 E12.5 F1000
G92 E0.0
M107
G21 ; set units to millimeters
G90 ; use absolute coordinates
M83 ; use relative distances for extrusion
; Filament gcode
;_TOOLCHANGE 0
M107
;LAYER_CHANGE
;Z:0.2
;HEIGHT:0.2
;BEFORE_LAYER_CHANGE
G92 E0.0
;0.2
G1 Z0.075 F10800
G1 Z0.2
;AFTER_LAYER_CHANGE
;0.2
G1 Z0.275
M204 S800
G1 X31.977 Y77.506
G1 Z0.2
;TYPE:Skirt
;WIDTH:0.52
G1 F1200
G1 X31.837 Y77.563 E0.00599
G1 X31.024 Y78.031 E0.03722
G1 X30.314 Y78.568 E0.03529
G1 X29.442 Y79.464 E0.04961
G1 X28.837 Y80.329 E0.04188
G1 X28.336 Y81.345 E0.04495
G1 X28.018 Y82.352 E0.04188
G1 X27.846 Y83.472 E0.04494
G1 X27.825 Y126 E1.68706
G1 X27.919 Y127.149 E0.04575
M73 P0 R145
G1 X28.188 Y128.25 E0.04495
G1 X28.592 Y129.226 E0.04188
G1 X29.21 Y130.233 E0.04687
G1 X29.777 Y130.918 E0.03529
G1 X30.711 Y131.75 E0.0496
G1 X31.601 Y132.317 E0.04188
G1 X32.685 Y132.788 E0.04688
G1 X33.543 Y133.024 E0.03529
G1 X34.785 Y133.17 E0.0496
G1 X175 Y133.175 E5.56225
G1 X176.149 Y133.081 E0.04575
G1 X177.296 Y132.794 E0.04687
G1 X178.163 Y132.437 E0.03722
G1 X178.976 Y131.969 E0.03722
G1 X179.686 Y131.432 E0.03529
G1 X180.558 Y130.536 E0.04961
G1 X181.163 Y129.671 E0.04188
G1 X181.664 Y128.655 E0.04495
G1 X181.982 Y127.648 E0.04188
G1 X182.13 Y126.771 E0.03529
G1 X182.17 Y83.784 E1.70524
G1 X181.982 Y82.352 E0.05731
G1 X181.59 Y81.165 E0.0496
G1 X180.969 Y80.024 E0.05153
G1 X180.141 Y78.997 E0.05232
G1 X178.936 Y78.003 E0.06196
G1 X177.835 Y77.41 E0.0496
G1 X176.648 Y77.018 E0.04961
G1 X175.215 Y76.83 E0.05731
G1 X35 Y76.825 E5.56225
G1 X33.851 Y76.919 E0.04575
G1 X32.704 Y77.206 E0.04687
G1 X31.977 Y77.506 E0.03123
M204 S1000
G1 Z0.275 F10800
; printing object Front.stl id:0 copy 0
M486 S0
; acceleration to travel
M204 S1500
G1 X32.986 Y79.693
; decel to extrusion
M204 S800
G1 X33.524 Y80.86
; end travel
G1 Z0.2
;TYPE:Internal perimeter
;WIDTH:0.42
G1 F1200
G1 X33.957 Y80.691 E0.01456
G1 X34.408 Y80.581 E0.01456
G1 X34.698 Y80.543 E0.00917
G1 X35.021 Y80.529 E0.01015
G1 X175.066 Y80.531 E4.391
G1 X175.459 Y80.56 E0.01236
G1 X175.751 Y80.612 E0.00931
G1 X176.044 Y80.69 E0.00949
G1 X176.328 Y80.794 E0.00949
G1 X176.602 Y80.922 E0.00949
G1 X176.865 Y81.073 E0.00949
G1 X177.104 Y81.241 E0.00916
G1 X177.461 Y81.554 E0.01489
G1 X177.658 Y81.769 E0.00916
G1 X177.843 Y82.01 E0.00949
G1 X178.005 Y82.265 E0.00949
G1 X178.145 Y82.533 E0.00949
G1 X178.261 Y82.813 E0.00949
G1 X178.349 Y83.092 E0.00916
G1 X178.442 Y83.558 E0.01489
G1 X178.467 Y83.849 E0.00916
G1 X178.471 Y125.979 E1.32096
G1 X178.457 Y126.302 E0.01015
G1 X178.418 Y126.603 E0.0095
G1 X178.354 Y126.888 E0.00916
G1 X178.205 Y127.328 E0.01456
G1 X178.004 Y127.735 E0.01423
G1 X177.746 Y128.121 E0.01456
G1 X177.559 Y128.345 E0.00916
G1 X177.352 Y128.551 E0.00916
G1 X176.982 Y128.848 E0.01489
G1 X176.735 Y129.005 E0.00916
G1 X176.476 Y129.14 E0.00916
G1 X176.043 Y129.309 E0.01456
G1 X175.592 Y129.419 E0.01456
G1 X175.302 Y129.457 E0.00917
G1 X174.979 Y129.471 E0.01015
G1 X35.021 Y129.471 E4.38827
G1 X34.698 Y129.457 E0.01015
M73 P1 R145
G1 X34.397 Y129.418 E0.0095
G1 X34.102 Y129.352 E0.00949
G1 X33.813 Y129.261 E0.00949
G1 X33.533 Y129.145 E0.00949
G1 X33.274 Y129.01 E0.00916
G1 X32.888 Y128.752 E0.01456
G1 X32.539 Y128.446 E0.01456
G1 X32.342 Y128.231 E0.00916
G1 X32.157 Y127.99 E0.00949
G1 X31.995 Y127.735 E0.00949
G1 X31.86 Y127.476 E0.00916
G1 X31.691 Y127.043 E0.01456
G1 X31.581 Y126.592 E0.01456
G1 X31.543 Y126.302 E0.00917
G1 X31.529 Y125.979 E0.01015
G1 X31.533 Y83.859 E1.32063
G1 X31.585 Y83.387 E0.01489
G1 X31.648 Y83.102 E0.00916
G1 X31.739 Y82.813 E0.00949
G1 X31.855 Y82.533 E0.00949
G1 X31.99 Y82.274 E0.00916
G1 X32.254 Y81.879 E0.01489
G1 X32.441 Y81.655 E0.00916
G1 X32.648 Y81.449 E0.00916
G1 X33.018 Y81.152 E0.01489
G1 X33.265 Y80.995 E0.00916
G1 X33.524 Y80.86 E0.00916
G1 X33.368 Y80.516 F10800
G1 F1200
G1 X33.843 Y80.331 E0.01598
G1 X34.338 Y80.21 E0.01598
G1 X34.665 Y80.167 E0.01033
G1 X35.013 Y80.151 E0.01093
G1 X175.08 Y80.154 E4.3917
G1 X175.506 Y80.186 E0.01339
G1 X175.833 Y80.243 E0.01041
G1 X176.157 Y80.33 E0.01053
G1 X176.472 Y80.445 E0.01052
G1 X176.777 Y80.587 E0.01052
G1 X177.067 Y80.755 E0.01053
G1 X177.337 Y80.944 E0.01032
G1 X177.725 Y81.284 E0.01618
G1 X177.948 Y81.527 E0.01032
G1 X178.152 Y81.793 E0.01052
G1 X178.332 Y82.076 E0.01052
G1 X178.487 Y82.374 E0.01052
G1 X178.616 Y82.684 E0.01053
G1 X178.715 Y82.998 E0.01032
G1 X178.815 Y83.504 E0.01618
G1 X178.844 Y83.832 E0.01032
G1 X178.849 Y125.987 E1.32174
G1 X178.833 Y126.335 E0.01093
G1 X178.789 Y126.668 E0.01053
G1 X178.718 Y126.99 E0.01032
G1 X178.554 Y127.472 E0.01598
G1 X178.332 Y127.924 E0.01578
G1 X178.049 Y128.347 E0.01598
G1 X177.837 Y128.6 E0.01032
G1 X177.604 Y128.832 E0.01032
G1 X177.202 Y129.155 E0.01618
G1 X176.924 Y129.332 E0.01032
G1 X176.632 Y129.484 E0.01032
G1 X176.157 Y129.669 E0.01598
G1 X175.662 Y129.79 E0.01598
G1 X175.335 Y129.833 E0.01033
G1 X174.987 Y129.849 E0.01093
G1 X35.013 Y129.849 E4.38879
G1 X34.665 Y129.833 E0.01093
G1 X34.332 Y129.789 E0.01053
G1 X34.004 Y129.717 E0.01052
G1 X33.684 Y129.616 E0.01053
G1 X33.374 Y129.487 E0.01053
G1 X33.082 Y129.335 E0.01032
G1 X32.658 Y129.052 E0.01598
G1 X32.275 Y128.716 E0.01598
G1 X32.052 Y128.473 E0.01032
G1 X31.848 Y128.207 E0.01052
G1 X31.668 Y127.924 E0.01052
G1 X31.516 Y127.632 E0.01032
G1 X31.331 Y127.157 E0.01598
G1 X31.21 Y126.662 E0.01598
G1 X31.167 Y126.335 E0.01033
G1 X31.151 Y125.987 E0.01093
G1 X31.156 Y83.839 E1.32154
G1 X31.212 Y83.326 E0.01618
G1 X31.283 Y83.004 E0.01032
G1 X31.384 Y82.684 E0.01052
G1 X31.513 Y82.374 E0.01053
G1 X31.665 Y82.082 E0.01032
G1 X31.951 Y81.653 E0.01618
G1 X32.163 Y81.4 E0.01032
G1 X32.396 Y81.168 E0.01032
G1 X32.798 Y80.845 E0.01618
G1 X33.076 Y80.668 E0.01032
G1 X33.368 Y80.516 E0.01032
G1 X33.212 Y80.172 F10800
;TYPE:External perimeter
G1 F1200
G1 X33.73 Y79.971 E0.0174
G1 X34.269 Y79.839 E0.0174
G1 X34.632 Y79.791 E0.01149
G1 X35.005 Y79.774 E0.0117
G1 X175.094 Y79.777 E4.39241
G1 X175.553 Y79.811 E0.01442
M73 P1 R144
G1 X175.915 Y79.875 E0.01152
G1 X176.271 Y79.97 E0.01156
G1 X176.617 Y80.096 E0.01156
G1 X176.951 Y80.252 E0.01156
G1 X177.27 Y80.437 E0.01156
G1 X177.57 Y80.647 E0.01148
G1 X177.989 Y81.014 E0.01747
G1 X178.237 Y81.284 E0.01149
G1 X178.461 Y81.577 E0.01156
G1 X178.659 Y81.887 E0.01156
G1 X178.829 Y82.214 E0.01156
G1 X178.97 Y82.555 E0.01156
G1 X179.081 Y82.904 E0.01149
G1 X179.189 Y83.451 E0.01747
G1 X179.221 Y83.816 E0.01149
G1 X179.226 Y125.995 E1.32251
G1 X179.209 Y126.368 E0.0117
G1 X179.161 Y126.734 E0.01156
G1 X179.082 Y127.091 E0.01149
G1 X178.903 Y127.617 E0.0174
G1 X178.659 Y128.112 E0.01733
G1 X178.351 Y128.574 E0.0174
G1 X178.115 Y128.855 E0.01149
G1 X177.856 Y129.114 E0.01149
G1 X177.422 Y129.462 E0.01747
G1 X177.113 Y129.659 E0.01149
G1 X176.788 Y129.828 E0.01148
G1 X176.27 Y130.029 E0.0174
G1 X175.731 Y130.161 E0.0174
G1 X175.368 Y130.209 E0.01149
G1 X174.995 Y130.226 E0.0117
G1 X35.005 Y130.226 E4.38931
G1 X34.632 Y130.209 E0.0117
G1 X34.266 Y130.161 E0.01156
G1 X33.906 Y130.081 E0.01156
G1 X33.555 Y129.97 E0.01156
G1 X33.214 Y129.829 E0.01156
G1 X32.889 Y129.66 E0.01148
G1 X32.428 Y129.352 E0.0174
G1 X32.011 Y128.986 E0.0174
G1 X31.763 Y128.716 E0.01149
G1 X31.539 Y128.423 E0.01156
G1 X31.341 Y128.113 E0.01156
G1 X31.172 Y127.788 E0.01149
G1 X30.971 Y127.27 E0.0174
G1 X30.839 Y126.731 E0.0174
G1 X30.791 Y126.368 E0.01149
G1 X30.774 Y125.995 E0.0117
G1 X30.779 Y83.818 E1.32244
G1 X30.839 Y83.264 E0.01747
G1 X30.919 Y82.906 E0.01149
G1 X31.03 Y82.555 E0.01156
G1 X31.171 Y82.214 E0.01156
G1 X31.34 Y81.889 E0.01149
G1 X31.649 Y81.426 E0.01747
G1 X31.885 Y81.145 E0.01149
G1 X32.144 Y80.886 E0.01149
G1 X32.578 Y80.538 E0.01747
G1 X32.887 Y80.341 E0.01149
G1 X33.212 Y80.172 E0.01148
;WIPE_START
M204 S1000
G1 X33.533 Y80.411 F10800
;WIPE_END
G1 Z0.275
; acceleration to travel
M204 S1500
G1 X32.483 Y111.009
; decel to extrusion
M204 S800
G1 X31.923 Y127.328
; end travel
G1 Z0.2
;TYPE:Solid infill
;WIDTH:0.420116
G1 F1200
G1 X33.277 Y128.681 E0.06003
G1 X33.409 Y128.77 E0.00501
G1 X33.907 Y129.001 E0.01723
G1 X34.212 Y129.083 E0.00989
G1 X31.911 Y126.782 E0.10207
G1 X31.853 Y126.547 E0.00756
G1 X31.82 Y126.158 E0.01227
G1 X34.842 Y129.18 E0.13403
G1 X35.033 Y129.196 E0.00602
G1 X35.392 Y129.196 E0.01125
G1 X31.804 Y125.608 E0.15914
G1 X31.804 Y125.075 E0.01672
G1 X35.925 Y129.196 E0.18279
G1 X36.458 Y129.196 E0.01672
G1 X31.804 Y124.542 E0.20644
G1 X31.804 Y124.009 E0.01672
G1 X36.992 Y129.196 E0.23009
G1 X37.525 Y129.196 E0.01672
G1 X31.804 Y123.475 E0.25374
G1 X31.804 Y122.942 E0.01672
G1 X38.058 Y129.196 E0.27739
G1 X38.591 Y129.196 E0.01672
G1 X31.804 Y122.409 E0.30104
G1 X31.804 Y121.876 E0.01672
G1 X39.125 Y129.196 E0.32469
G1 X39.658 Y129.196 E0.01672
G1 X31.804 Y121.343 E0.34834
G1 X31.804 Y120.809 E0.01672
G1 X40.191 Y129.196 E0.37199
G1 X40.725 Y129.196 E0.01672
G1 X31.804 Y120.276 E0.39564
G1 X31.804 Y119.743 E0.01672
G1 X41.258 Y129.196 E0.41929
G1 X41.791 Y129.196 E0.01672
G1 X31.804 Y119.21 E0.44294
G1 X31.805 Y118.676 E0.01672
G1 X42.324 Y129.196 E0.46659
G1 X42.858 Y129.196 E0.01672
G1 X31.805 Y118.143 E0.49024
G1 X31.805 Y117.61 E0.01672
G1 X43.391 Y129.196 E0.51389
G1 X43.924 Y129.196 E0.01672
G1 X31.805 Y117.077 E0.53754
G1 X31.805 Y116.544 E0.01672
G1 X44.457 Y129.196 E0.56119
G1 X44.991 Y129.196 E0.01672
G1 X31.805 Y116.01 E0.58484
G1 X31.805 Y115.477 E0.01672
G1 X45.524 Y129.196 E0.60849
G1 X46.057 Y129.196 E0.01672
G1 X31.805 Y114.944 E0.63214
G1 X31.805 Y114.411 E0.01672
G1 X46.59 Y129.196 E0.65579
G1 X47.124 Y129.196 E0.01672
G1 X31.805 Y113.878 E0.67944
G1 X31.805 Y113.344 E0.01672
G1 X47.657 Y129.196 E0.70309
G1 X48.19 Y129.196 E0.01672
G1 X31.805 Y112.811 E0.72675
G1 X31.805 Y112.278 E0.01672
G1 X48.724 Y129.196 E0.7504
G1 X49.257 Y129.196 E0.01672
G1 X31.805 Y111.745 E0.77405
G1 X31.805 Y111.211 E0.01672
G1 X49.79 Y129.196 E0.7977
G1 X50.323 Y129.196 E0.01672
G1 X31.805 Y110.678 E0.82135
G1 X31.805 Y110.145 E0.01672
G1 X50.857 Y129.196 E0.845
G1 X51.39 Y129.196 E0.01672
G1 X31.806 Y109.612 E0.86865
G1 X31.806 Y109.079 E0.01672
G1 X51.923 Y129.196 E0.8923
G1 X52.456 Y129.196 E0.01672
G1 X31.806 Y108.545 E0.91595
G1 X31.806 Y108.012 E0.01672
G1 X52.99 Y129.196 E0.9396
G1 X53.523 Y129.196 E0.01672
G1 X31.806 Y107.479 E0.96325
G1 X31.806 Y106.946 E0.01672
G1 X54.056 Y129.196 E0.9869
G1 X54.59 Y129.196 E0.01672
G1 X31.806 Y106.413 E1.01055
G1 X31.806 Y105.879 E0.01672
G1 X55.123 Y129.196 E1.0342
G1 X55.656 Y129.196 E0.01672
G1 X31.806 Y105.346 E1.05785
G1 X31.806 Y104.813 E0.01672
G1 X56.189 Y129.196 E1.0815
G1 X56.723 Y129.196 E0.01672
G1 X31.806 Y104.28 E1.10515
G1 X31.806 Y103.746 E0.01672
M73 P1 R143
G1 X57.256 Y129.196 E1.1288
G1 X57.789 Y129.196 E0.01672
M73 P2 R143
G1 X31.806 Y103.213 E1.15245
G1 X31.806 Y102.68 E0.01672
G1 X58.322 Y129.196 E1.1761
G1 X58.856 Y129.196 E0.01672
G1 X31.806 Y102.147 E1.19975
G1 X31.806 Y101.614 E0.01672
G1 X59.389 Y129.196 E1.2234
G1 X59.922 Y129.196 E0.01672
G1 X31.806 Y101.08 E1.24705
G1 X31.806 Y100.547 E0.01672
G1 X60.456 Y129.196 E1.2707
G1 X60.989 Y129.196 E0.01672
G1 X31.807 Y100.014 E1.29435
G1 X31.807 Y99.481 E0.01672
G1 X61.522 Y129.196 E1.318
G1 X62.055 Y129.196 E0.01672
G1 X31.807 Y98.948 E1.34165
G1 X31.807 Y98.414 E0.01672
G1 X62.589 Y129.196 E1.3653
G1 X63.122 Y129.196 E0.01672
G1 X31.807 Y97.881 E1.38895
G1 X31.807 Y97.348 E0.01672
G1 X63.655 Y129.196 E1.4126
G1 X64.188 Y129.196 E0.01672
G1 X31.807 Y96.815 E1.43625
G1 X31.807 Y96.281 E0.01672
G1 X64.722 Y129.196 E1.4599
G1 X65.255 Y129.196 E0.01672
G1 X31.807 Y95.748 E1.48355
G1 X31.807 Y95.215 E0.01672
G1 X65.788 Y129.196 E1.5072
G1 X66.321 Y129.196 E0.01672
G1 X31.807 Y94.682 E1.53085
G1 X31.807 Y94.149 E0.01672
G1 X66.855 Y129.196 E1.5545
G1 X67.388 Y129.196 E0.01672
G1 X31.807 Y93.615 E1.57815
G1 X31.807 Y93.082 E0.01672
G1 X67.921 Y129.196 E1.6018
G1 X68.455 Y129.196 E0.01672
G1 X31.807 Y92.549 E1.62545
G1 X31.807 Y92.016 E0.01672
G1 X68.988 Y129.196 E1.6491
G1 X69.521 Y129.196 E0.01672
G1 X31.807 Y91.483 E1.67275
G1 X31.807 Y90.949 E0.01672
G1 X70.054 Y129.196 E1.6964
G1 X70.588 Y129.196 E0.01672
G1 X31.808 Y90.416 E1.72005
G1 X31.808 Y89.883 E0.01672
M73 P2 R142
G1 X71.121 Y129.196 E1.7437
G1 X71.654 Y129.196 E0.01672
G1 X31.808 Y89.35 E1.76735
G1 X31.808 Y88.816 E0.01672
G1 X72.187 Y129.196 E1.791
G1 X72.721 Y129.196 E0.01672
G1 X31.808 Y88.283 E1.81465
G1 X31.808 Y87.75 E0.01672
G1 X73.254 Y129.196 E1.8383
G1 X73.787 Y129.196 E0.01672
G1 X31.808 Y87.217 E1.86195
G1 X31.808 Y86.684 E0.01672
G1 X74.321 Y129.196 E1.8856
G1 X74.854 Y129.196 E0.01672
G1 X31.808 Y86.15 E1.90925
G1 X31.808 Y85.617 E0.01672
G1 X75.387 Y129.196 E1.9329
G1 X75.92 Y129.196 E0.01672
G1 X31.808 Y85.084 E1.95655
G1 X31.808 Y84.551 E0.01672
G1 X76.454 Y129.196 E1.9802
M73 P3 R142
G1 X76.987 Y129.196 E0.01672
G1 X31.808 Y84.018 E2.00385
G1 X31.808 Y83.874 E0.00449
G1 X31.847 Y83.523 E0.01109
G1 X77.52 Y129.196 E2.0258
G1 X78.053 Y129.196 E0.01672
G1 X31.949 Y83.092 E2.04491
G1 X31.999 Y82.908 E0.00598
G1 X32.094 Y82.703 E0.00707
G1 X78.587 Y129.196 E2.06215
G1 X79.12 Y129.196 E0.01672
G1 X32.272 Y82.348 E2.07791
G1 X32.471 Y82.05 E0.01124
G1 X32.488 Y82.031 E0.0008
G1 X79.653 Y129.196 E2.09197
G1 X80.187 Y129.196 E0.01672
G1 X32.743 Y81.753 E2.10431
G1 X32.837 Y81.65 E0.00435
G1 X33.024 Y81.5 E0.00752
G1 X80.72 Y129.196 E2.11551
G1 X81.253 Y129.196 E0.01672
M73 P3 R141
G1 X33.34 Y81.284 E2.12512
G1 X33.643 Y81.109 E0.01097
G1 X33.683 Y81.093 E0.00134
G1 X81.786 Y129.196 E2.13356
G1 X82.32 Y129.196 E0.01672
G1 X34.07 Y80.947 E2.14005
G1 X34.453 Y80.853 E0.01234
G1 X34.506 Y80.849 E0.00167
G1 X82.853 Y129.196 E2.1444
G1 X83.386 Y129.196 E0.01672
G1 X34.997 Y80.807 E2.14626
G1 X35.033 Y80.804 E0.00114
G1 X35.527 Y80.804 E0.01549
G1 X83.919 Y129.196 E2.1464
G1 X84.453 Y129.196 E0.01672
G1 X36.06 Y80.804 E2.1464
G1 X36.594 Y80.804 E0.01673
G1 X84.986 Y129.196 E2.1464
G1 X85.519 Y129.196 E0.01672
G1 X37.127 Y80.804 E2.1464
G1 X37.66 Y80.804 E0.01673
G1 X86.052 Y129.196 E2.14639
G1 X86.586 Y129.196 E0.01672
G1 X38.193 Y80.804 E2.14639
G1 X38.727 Y80.804 E0.01673
G1 X87.119 Y129.196 E2.14639
G1 X87.652 Y129.196 E0.01672
G1 X39.26 Y80.804 E2.14639
G1 X39.793 Y80.804 E0.01673
G1 X88.186 Y129.196 E2.14639
G1 X88.719 Y129.196 E0.01672
G1 X40.326 Y80.804 E2.14639
G1 X40.86 Y80.804 E0.01673
G1 X89.252 Y129.196 E2.14639
G1 X89.785 Y129.196 E0.01672
G1 X41.393 Y80.804 E2.14639
G1 X41.926 Y80.804 E0.01673
M73 P4 R141
G1 X90.319 Y129.196 E2.14639
G1 X90.852 Y129.196 E0.01672
M73 P4 R140
G1 X42.46 Y80.804 E2.14639
G1 X42.993 Y80.804 E0.01673
G1 X91.385 Y129.196 E2.14639
G1 X91.918 Y129.196 E0.01672
G1 X43.526 Y80.804 E2.14639
G1 X44.059 Y80.804 E0.01673
G1 X92.452 Y129.196 E2.14639
G1 X92.985 Y129.196 E0.01672
G1 X44.593 Y80.804 E2.14639
G1 X45.126 Y80.804 E0.01673
G1 X93.518 Y129.196 E2.14639
G1 X94.052 Y129.196 E0.01672
G1 X45.659 Y80.804 E2.14639
G1 X46.193 Y80.804 E0.01673
