; generated by PrusaSlicer 2.6.1+win64 on 2023-10-09 at 22:52:50 UTC


;
;
; 

; external perimeters extrusion width = 0.45mm
; perimeters extrusion width = 0.45mm
; infill extrusion width = 0.45mm
; solid infill extrusion width = 0.45mm
; top infill extrusion width = 0.40mm
; first layer extrusion width = 0.42mm

M73 P0 R41
M73 Q0 S41
M201 X1000 Y1000 Z200 E5000 ; sets maximum accelerations, mm/sec^2
M203 X200 Y200 Z12 E120 ; sets maximum feedrates, mm / sec
M204 S1250 T1250 ; sets acceleration (S) and retract acceleration (R), mm/sec^2
M205 X8.00 Y8.00 Z0.40 E4.50 ; sets the jerk limits, mm/sec
M205 S0 T0 ; sets the minimum extruding and travel feed rate, mm/sec
;TYPE:Custom
M862.3 P "MK3S" ; printer model check
M862.1 P0.4 ; nozzle diameter check
M115 U3.12.2 ; tell printer latest fw version
G90 ; use absolute coordinates
M83 ; extruder relative mode
M104 S215 ; set extruder temp
M140 S60 ; set bed temp
M190 S60 ; wait for bed temp
M109 S215 ; wait for extruder temp
G28 W ; home all without mesh bed level
G80 ; mesh bed leveling

G1 Z0.2 F720
G1 Y-3 F1000 ; go outside print area
G92 E0
G1 X60 E9 F1000 ; intro line
G1 X100 E12.5 F1000 ; intro line

G92 E0
M221 S95

; Don't change E values below. Excessive value can damage the printer.

M907 E538 ; set extruder motor current
G21 ; set units to millimeters
G90 ; use absolute coordinates
M83 ; use relative distances for extrusion
M900 K0.05 ; Filament gcode LA 1.5
M900 K30 ; Filament gcode LA 1.0
M107
;LAYER_CHANGE
;Z:0.2
;HEIGHT:0.2
;BEFORE_LAYER_CHANGE
G92 E0.0
;0.2


G1 E-.8 F2100
M73 P0 R40
G1 Z.4 F720
;AFTER_LAYER_CHANGE
;0.2
G1 X109.264 Y73.693 F10800
G1 Z.2 F720
G1 E.8 F2100
M204 S800
;TYPE:Skirt/Brim
;WIDTH:0.42
G1 F1200
G1 X110.31 Y72.817 E.04278
G1 X111.25 Y72.623 E.03009
G1 X138.75 Y72.623 E.86224
G1 X140.057 Y73.015 E.04278
G1 X140.934 Y74.06 E.04277
G1 X141.127 Y75 E.03009
G1 X141.127 Y135 E1.88126
G1 X140.736 Y136.307 E.04277
G1 X139.69 Y137.183 E.04278
G1 X138.75 Y137.377 E.03009
G1 X111.25 Y137.377 E.86224
G1 X109.943 Y136.985 E.04278
G1 X109.066 Y135.94 E.04277
G1 X108.873 Y135 E.03009
G1 X108.873 Y75 E1.88126
G1 X109.247 Y73.75 E.04091
M204 S1000
; printing object Fuckit.stl id:0 copy 0
;WIPE_START
G1 F8640
G1 X110.31 Y72.817 E-.32658
G1 X111.25 Y72.623 E-.22162
G1 X112.341 Y72.623 E-.2518
;WIPE_END
G1 Z.6 F720
G1 X132.108 Y126.569 F10800
G1 Z.2 F720
G1 E.8 F2100
M204 S800
;TYPE:Perimeter
;WIDTH:0.419999
G1 F1200
G1 X131.81 Y126.205 E.01475
G1 X131.564 Y125.662 E.01869
G1 X131.467 Y125.074 E.01869
G1 X131.526 Y124.481 E.01868
G1 X131.701 Y124.009 E.01578
G1 X131.81 Y123.795 E.00753
G1 X132.132 Y123.383 E.0164
G1 X132.562 Y123.047 E.01711
G1 X133.088 Y122.814 E.01804
G1 X133.653 Y122.719 E.01796
G1 X134.265 Y122.775 E.01927
G1 X134.828 Y122.986 E.01885
G1 X135.312 Y123.334 E.01869
G1 X135.69 Y123.795 E.01869
G1 X135.936 Y124.338 E.01869
G1 X136.033 Y124.926 E.01869
G1 X135.974 Y125.52 E.01872
G1 X135.764 Y126.077 E.01866
G1 X135.416 Y126.562 E.01872
G1 X134.955 Y126.94 E.01869
G1 X134.412 Y127.186 E.01869
G1 X133.824 Y127.283 E.01869
G1 X133.231 Y127.224 E.01868
G1 X132.673 Y127.014 E.01869
G1 X132.188 Y126.666 E.01872
G1 X132.146 Y126.615 E.00207
M204 S1000
G1 X132.223 Y126.118 F10800
M204 S800
;TYPE:External perimeter
G1 F1200
G1 X132.083 Y125.928 E.0074
G1 X131.9 Y125.47 E.01546
G1 X131.841 Y124.976 E.0156
G1 X131.913 Y124.482 E.01565
G1 X132.109 Y124.024 E.01562
G1 X132.418 Y123.633 E.01563
G1 X132.78 Y123.355 E.01431
G1 X133.247 Y123.157 E.0159
G1 X133.752 Y123.092 E.01596
G1 X134.268 Y123.163 E.01633
G1 X134.726 Y123.359 E.01562
G1 X135.117 Y123.668 E.01563
G1 X135.416 Y124.067 E.01563
G1 X135.6 Y124.53 E.01562
G1 X135.659 Y125.025 E.01563
G1 X135.588 Y125.518 E.01562
G1 X135.391 Y125.976 E.01563
G1 X135.083 Y126.367 E.01561
G1 X134.683 Y126.665 E.01564
G1 X134.22 Y126.85 E.01563
G1 X133.726 Y126.909 E.0156
G1 X133.232 Y126.837 E.01565
G1 X132.774 Y126.641 E.01562
G1 X132.383 Y126.332 E.01563
G1 X132.259 Y126.166 E.0065
M204 S1000
G1 X131.991 Y126.158 F10800
;WIPE_START
G1 F8640
G1 X132.083 Y125.928 E-.06835
G1 X131.9 Y125.47 E-.11388
G1 X131.841 Y124.976 E-.11488
G1 X131.913 Y124.482 E-.11527
G1 X132.109 Y124.024 E-.11503
G1 X132.418 Y123.633 E-.11507
G1 X132.78 Y123.355 E-.10539
G1 X132.988 Y123.267 E-.05213
;WIPE_END
G1 Z.6 F720
G1 X132.56 Y106.945 F10800
G1 Z.2 F720
G1 E.8 F2100
M204 S800
;TYPE:Perimeter
G1 F1200
G1 X132.204 Y106.679 E.01393
G1 X131.81 Y106.205 E.01933
G1 X131.564 Y105.662 E.01869
;WIDTH:0.460384
G1 X131.524 Y105.556 E.00393
;WIDTH:0.500769
G1 X131.483 Y105.45 E.00433
;WIDTH:0.541153
G1 X131.442 Y105.344 E.00471
G1 X131.42 Y104.92 E.01759
;WIDTH:0.526167
G1 X131.473 Y104.474 E.01805
G1 X131.561 Y104.29 E.0082
;WIDTH:0.490778
G1 X131.649 Y104.106 E.0076
;WIDTH:0.455389
G1 X131.736 Y103.923 E.00695
;WIDTH:0.419999
G1 X132.084 Y103.438 E.01872
G1 X132.545 Y103.06 E.01869
G1 X133.088 Y102.814 E.01869
G1 X133.653 Y102.719 E.01796
G1 X134.265 Y102.775 E.01927
G1 X134.828 Y102.986 E.01885
G1 X135.312 Y103.334 E.01869
G1 X135.69 Y103.795 E.01869
G1 X135.936 Y104.338 E.01869
G1 X136.033 Y104.926 E.01869
G1 X135.974 Y105.52 E.01872
G1 X135.764 Y106.077 E.01866
G1 X135.416 Y106.562 E.01872
G1 X134.955 Y106.94 E.01869
G1 X134.412 Y107.186 E.01869
G1 X133.824 Y107.283 E.01869
G1 X133.231 Y107.224 E.01868
G1 X133.088 Y107.186 E.00464
G1 X132.608 Y106.981 E.01637
M204 S1000
G1 X132.488 Y106.415 F10800
M204 S800
;TYPE:External perimeter
G1 F1200
G1 X132.383 Y106.332 E.0042
G1 X132.085 Y105.933 E.01561
G1 X131.892 Y105.41 E.01748
G1 X131.841 Y104.975 E.01373
G1 X131.913 Y104.482 E.01562
G1 X132.109 Y104.024 E.01562
G1 X132.486 Y103.581 E.01824
G1 X132.817 Y103.335 E.01293
G1 X133.279 Y103.15 E.0156
G1 X133.752 Y103.092 E.01494
G1 X134.268 Y103.163 E.01633
G1 X134.726 Y103.359 E.01562
G1 X135.117 Y103.668 E.01563
G1 X135.416 Y104.067 E.01563
G1 X135.6 Y104.53 E.01562
G1 X135.659 Y105.025 E.01563
G1 X135.588 Y105.518 E.01562
G1 X135.391 Y105.976 E.01563
G1 X135.083 Y106.367 E.01561
G1 X134.683 Y106.665 E.01564
G1 X134.22 Y106.85 E.01563
G1 X133.679 Y106.903 E.01704
G1 X133.232 Y106.837 E.01417
G1 X132.774 Y106.641 E.01562
G1 X132.535 Y106.452 E.00955
M204 S1000
G1 X132.367 Y106.471 F10800
;WIPE_START
G1 F8640
G1 X132.383 Y106.332 E-.04472
G1 X132.085 Y105.933 E-.11499
G1 X131.892 Y105.41 E-.12872
G1 X131.841 Y104.975 E-.10113
G1 X131.913 Y104.482 E-.11504
G1 X132.109 Y104.024 E-.11503
G1 X132.486 Y103.581 E-.13432
G1 X132.646 Y103.462 E-.04605
;WIPE_END
G1 Z.6 F720
G1 X123.7 Y98.896 F10800
G1 Z.2 F720
G1 E.8 F2100
M204 S800
;TYPE:Perimeter
G1 F1200
G1 X123.425 Y98.577 E.01321
G1 X123.24 Y98.106 E.01587
G1 X123.236 Y97.592 E.01612
G1 X123.401 Y97.103 E.01618
G1 X123.709 Y96.704 E.0158
G1 X124.166 Y96.397 E.01726
G1 X123.785 Y96.135 E.0145
G1 X123.481 Y95.746 E.01548
G1 X123.31 Y95.258 E.01621
G1 X123.307 Y94.741 E.01621
G1 X123.474 Y94.245 E.01641
G1 X123.785 Y93.841 E.01599
G1 X124.243 Y93.537 E.01724
G1 X124.61 Y93.437 E.01193
G1 X124.318 Y93.35 E.00955
G1 X123.86 Y93.047 E.01722
G1 X123.556 Y92.659 E.01545
G1 X123.388 Y92.185 E.01577
G1 X123.383 Y91.65 E.01678
G1 X123.566 Y91.128 E.01734
G1 X123.878 Y90.751 E.01534
G1 X124.174 Y90.55 E.01122
G1 X123.878 Y90.349 E.01122
G1 X123.566 Y89.972 E.01534
G1 X123.388 Y89.483 E.01632
G1 X123.38 Y88.978 E.01584
G1 X123.533 Y88.496 E.01586
G1 X123.632 Y88.325 E.0062
G1 X123.968 Y87.954 E.01569
G1 X124.438 Y87.698 E.01678
G1 X124.965 Y87.615 E.01673
G1 X125.321 Y87.662 E.01126
G1 X125.779 Y87.847 E.01549
G1 X126.183 Y88.199 E.0168
G1 X126.441 Y88.654 E.0164
G1 X126.537 Y89.172 E.01652
G1 X126.462 Y89.668 E.01573
G1 X126.216 Y90.142 E.01674
G1 X125.859 Y90.472 E.01524
G1 X125.732 Y90.553 E.00472
G1 X126.037 Y90.767 E.01168
G1 X126.355 Y91.171 E.01612
G1 X126.518 Y91.658 E.0161
G1 X126.514 Y92.175 E.01621
G1 X126.323 Y92.698 E.01746
G1 X126.003 Y93.088 E.01582
G1 X125.518 Y93.383 E.0178
G1 X125.207 Y93.451 E.00998
G1 X125.508 Y93.537 E.00982
G1 X125.966 Y93.841 E.01724
G1 X126.291 Y94.28 E.01713
G1 X126.441 Y94.779 E.01634
G1 X126.432 Y95.298 E.01628
G1 X126.258 Y95.765 E.01563
G1 X125.926 Y96.177 E.01659
G1 X125.511 Y96.436 E.01534
G1 X125.947 Y96.76 E.01703
G1 X126.251 Y97.219 E.01726
G1 X126.319 Y97.409 E.00633
G1 X126.381 Y97.904 E.01564
G1 X126.259 Y98.422 E.01669
G1 X125.96 Y98.866 E.01678
G1 X126.498 Y98.965 E.01715
G1 X127.227 Y99.214 E.02415
G1 X127.862 Y99.534 E.0223
G1 X128.686 Y100.088 E.03113
G1 X129.307 Y100.669 E.02666
G1 X129.884 Y101.397 E.02913
G1 X130.274 Y102.062 E.02417
G1 X130.596 Y102.833 E.0262
G1 X130.793 Y103.586 E.0244
;WIDTH:0.455062
G1 X130.898 Y104.237 E.0226
;WIDTH:0.49193
G1 X130.932 Y104.417 E.00684
;WIDTH:0.528797
G1 X130.967 Y104.597 E.00741
G1 X130.944 Y105.103 E.02046
;WIDTH:0.519141
G1 X130.919 Y105.452 E.01386
;WIDTH:0.505539
G1 X130.871 Y105.597 E.00588
;WIDTH:0.462769
G1 X130.824 Y105.742 E.00532
;WIDTH:0.419999
G1 X130.722 Y106.281 E.0172
G1 X130.481 Y107.013 E.02416
G1 X130.069 Y107.847 E.02917
G1 X129.634 Y108.483 E.02416
G1 X129.064 Y109.114 E.02666
G1 X128.411 Y109.658 E.02665
G1 X127.688 Y110.105 E.02665
G1 X126.909 Y110.446 E.02666
G1 X126.136 Y110.662 E.02517
G1 X125.328 Y110.774 E.02558
G1 X125.706 Y111.032 E.01435
G1 X126.033 Y111.474 E.01724
G1 X126.188 Y112.001 E.01722
G1 X126.164 Y112.521 E.01632
G1 X126.006 Y112.946 E.01422
G1 X125.648 Y113.386 E.01779
G1 X125.255 Y113.625 E.01442
G1 X125.706 Y113.925 E.01698
G1 X126.033 Y114.367 E.01724
G1 X126.186 Y114.842 E.01565
G1 X126.18 Y115.347 E.01584
G1 X126.006 Y115.839 E.01636
G1 X125.706 Y116.219 E.01518
G1 X125.307 Y116.488 E.01509
G1 X125.706 Y116.758 E.01511
G1 X126.033 Y117.2 E.01724
G1 X126.187 Y117.693 E.01619
G1 X126.176 Y118.201 E.01593
G1 X125.989 Y118.702 E.01677
G1 X125.666 Y119.094 E.01593
G1 X125.181 Y119.388 E.01778
;WIDTH:0.420352
G1 X124.624 Y119.493 E.01779
G1 X125.054 Y119.568 E.0137
;WIDTH:0.419999
G1 X125.522 Y119.826 E.01676
G1 X125.878 Y120.227 E.01681
G1 X126.071 Y120.697 E.01593
G1 X126.105 Y120.89 E.00614
G1 X126.087 Y121.386 E.01556
G1 X125.893 Y121.886 E.01682
G1 X125.554 Y122.283 E.01637
G1 X125.101 Y122.55 E.01649
G1 X124.571 Y122.654 E.01693
G1 X124.019 Y122.569 E.01751
G1 X123.548 Y122.312 E.01682
G1 X123.191 Y121.913 E.01679
G1 X122.995 Y121.439 E.01608
G1 X122.961 Y121.245 E.00618
G1 X122.993 Y120.703 E.01702
G1 X123.16 Y120.27 E.01455
G1 X123.483 Y119.878 E.01593
G1 X123.968 Y119.584 E.01778
G1 X124.51 Y119.482 E.01729
G1 X123.983 Y119.355 E.017
M73 Q1 S41
G1 X123.525 Y119.051 E.01724
M73 P1 R40
G1 X123.222 Y118.663 E.01544
G1 X123.048 Y118.151 E.01696
G1 X123.055 Y117.613 E.01687
G1 X123.226 Y117.137 E.01586
G1 X123.525 Y116.758 E.01514
G1 X123.924 Y116.488 E.01511
G1 X123.525 Y116.219 E.01509
G1 X123.199 Y115.776 E.01725
G1 X123.046 Y115.307 E.01547
G1 X123.053 Y114.79 E.01621
G1 X123.226 Y114.305 E.01615
G1 X123.584 Y113.865 E.01779
G1 X123.977 Y113.625 E.01444
G1 X123.526 Y113.326 E.01697
G1 X123.199 Y112.884 E.01724
G1 X123.049 Y112.431 E.01496
G1 X123.046 Y111.945 E.01524
G1 X123.214 Y111.438 E.01675
G1 X123.525 Y111.032 E.01604
G1 X123.676 Y110.906 E.00617
G1 X123.981 Y110.714 E.0113
G1 X123.478 Y110.628 E.016
G1 X122.742 Y110.4 E.02416
G1 X121.97 Y110.042 E.02668
G1 X121.257 Y109.579 E.02666
G1 X120.616 Y109.021 E.02665
G1 X120.202 Y108.543 E.01983
G1 X119.898 Y108.131 E.01605
G1 X119.601 Y107.662 E.01741
G1 X119.246 Y106.889 E.02667
G1 X119.09 Y106.374 E.01687
G1 X118.949 Y105.727 E.02076
G1 X118.879 Y105.177 E.01738
;WIDTH:0.431547
G1 X118.867 Y104.454 E.02337
G1 X118.945 Y103.837 E.0201
;WIDTH:0.419999
G1 X119.074 Y103.22 E.01976
G1 X119.218 Y102.722 E.01625
G1 X119.601 Y101.874 E.02917
G1 X120.013 Y101.223 E.02416
G1 X120.56 Y100.572 E.02666
G1 X121.194 Y100.005 E.02667
G1 X121.901 Y99.533 E.02665
G1 X122.468 Y99.259 E.01974
G1 X122.889 Y99.095 E.01417
G1 X123.499 Y98.923 E.01987
G1 X123.641 Y98.904 E.00449
M204 S1000
;WIPE_START
G1 F8640
G1 X123.425 Y98.577 E-.09049
G1 X123.24 Y98.106 E-.11684
G1 X123.236 Y97.592 E-.11869
G1 X123.401 Y97.103 E-.11917
G1 X123.709 Y96.704 E-.11639
G1 X124.166 Y96.397 E-.12712
G1 X123.785 Y96.135 E-.10677
G1 X123.773 Y96.12 E-.00453
;WIPE_END
G1 Z.6 F720
G1 X124.753 Y99.275 F10800
G1 Z.2 F720
G1 E.8 F2100
M204 S800
;TYPE:External perimeter
;WIDTH:0.435864
G1 F1200
G1 X124.773 Y99.276 E.00065
;WIDTH:0.437496
G1 X125.342 Y99.233 E.01872
G1 X125.942 Y99.243 E.01969
;WIDTH:0.419999
G1 X126.576 Y99.39 E.02041
G1 X127.106 Y99.57 E.01755
G1 X127.689 Y99.869 E.02054
G1 X128.467 Y100.395 E.02945
G1 X129.047 Y100.942 E.025
G1 X129.559 Y101.588 E.02585
G1 X129.948 Y102.253 E.02416
G1 X130.247 Y102.976 E.02453
G1 X130.427 Y103.679 E.02275
G1 X130.505 Y104.279 E.01897
G1 X130.526 Y104.866 E.01842
G1 X130.506 Y105.378 E.01607
G1 X130.37 Y106.137 E.02418
G1 X130.185 Y106.706 E.01876
G1 X129.758 Y107.634 E.03203
G1 X129.323 Y108.27 E.02416
G1 X128.786 Y108.859 E.02499
G1 X128.172 Y109.367 E.02499
G1 X127.492 Y109.783 E.02499
G1 X126.76 Y110.1 E.02501
G1 X126.037 Y110.298 E.0235
;WIDTH:0.450934
G1 X125.621 Y110.369 E.01432
;WIDTH:0.481868
G1 X125.204 Y110.441 E.01545
;WIDTH:0.513238
G1 X125.127 Y110.457 E.00308
;WIDTH:0.544608
G1 X125.049 Y110.472 E.00331
G1 X124.523 Y110.45 E.02196
;WIDTH:0.519192
G1 X124.106 Y110.368 E.01683
;WIDTH:0.469596
G1 X123.69 Y110.286 E.01504
;WIDTH:0.419999
G1 X123.172 Y110.139 E.01688
G1 X122.604 Y109.925 E.01903
G1 X122.132 Y109.701 E.01638
G1 X121.465 Y109.264 E.025
G1 X120.866 Y108.738 E.02499
G1 X120.489 Y108.299 E.01814
G1 X119.976 Y107.55 E.02846
G1 X119.59 Y106.734 E.0283
G1 X119.378 Y106.013 E.02356
G1 X119.292 Y105.463 E.01745
G1 X119.25 Y104.904 E.01758
G1 X119.25 Y104.383 E.01634
G1 X119.353 Y103.64 E.02352
G1 X119.532 Y102.993 E.02105
G1 X119.821 Y102.29 E.02383
G1 X120.318 Y101.447 E.03068
G1 X120.847 Y100.817 E.02579
G1 X121.444 Y100.288 E.02501
G1 X122.108 Y99.848 E.02498
G1 X122.629 Y99.6 E.01809
G1 X122.991 Y99.458 E.01219
G1 X123.601 Y99.286 E.01987
;WIDTH:0.435864
G1 X124.156 Y99.244 E.01819
G1 X124.693 Y99.272 E.01757
M204 S1000
G1 X124.764 Y99.257 F10800
;WIPE_START
G1 F8640
G1 X124.773 Y99.276 E-.0185
G1 X125.342 Y99.233 E-.13176
G1 X125.942 Y99.243 E-.13856
G1 X126.576 Y99.39 E-.15028
G1 X127.106 Y99.57 E-.12924
G1 X127.689 Y99.869 E-.15129
G1 X127.977 Y100.064 E-.08037
;WIPE_END
G1 Z.6 F720
G1 X114.31 Y103.821 F10800
G1 Z.2 F720
G1 E.8 F2100
M204 S800
;TYPE:Perimeter
;WIDTH:0.419999
G1 F1200
G1 X114.584 Y103.438 E.01477
G1 X115.045 Y103.06 E.01869
G1 X115.588 Y102.814 E.01869
G1 X116.153 Y102.719 E.01796
G1 X116.739 Y102.772 E.01845
G1 X117.328 Y102.986 E.01965
G1 X117.812 Y103.334 E.01869
G1 X118.161 Y103.757 E.01719
;WIDTH:0.425579
G1 X118.439 Y104.337 E.02046
G1 X118.524 Y104.927 E.01897
;WIDTH:0.418936
G1 X118.474 Y105.519 E.01858
;WIDTH:0.419999
G1 X118.276 Y106.048 E.01771
G1 X117.916 Y106.562 E.01968
G1 X117.455 Y106.94 E.01869
G1 X117.328 Y107.014 E.00461
G1 X116.834 Y107.212 E.01669
G1 X116.324 Y107.283 E.01614
G1 X115.753 Y107.228 E.01799
G1 X115.177 Y107.016 E.01924
G1 X114.688 Y106.666 E.01885
G1 X114.31 Y106.205 E.01869
G1 X114.064 Y105.662 E.01869
G1 X113.967 Y105.074 E.01869
G1 X114.022 Y104.503 E.01799
G1 X114.234 Y103.927 E.01924
G1 X114.275 Y103.87 E.0022
M204 S1000
G1 X114.503 Y104.279 F10800
M204 S800
;TYPE:External perimeter
G1 F1200
G1 X114.609 Y104.024 E.00866
G1 X114.918 Y103.633 E.01563
G1 X115.317 Y103.335 E.01561
G1 X115.779 Y103.15 E.0156
G1 X116.252 Y103.092 E.01494
G1 X116.76 Y103.159 E.01607
G1 X117.226 Y103.359 E.0159
G1 X117.617 Y103.668 E.01563
G1 X117.916 Y104.067 E.01563
G1 X118.1 Y104.53 E.01562
G1 X118.152 Y105.081 E.01735
G1 X118.088 Y105.518 E.01385
G1 X117.891 Y105.976 E.01563
G1 X117.583 Y106.367 E.01561
G1 X117.183 Y106.665 E.01564
G1 X116.72 Y106.85 E.01563
G1 X116.226 Y106.909 E.0156
G1 X115.755 Y106.842 E.01492
G1 X115.274 Y106.641 E.01635
G1 X114.883 Y106.332 E.01563
G1 X114.585 Y105.933 E.01561
G1 X114.4 Y105.47 E.01563
G1 X114.341 Y104.976 E.0156
G1 X114.408 Y104.504 E.01495
G1 X114.479 Y104.334 E.00578
M204 S1000
G1 X114.323 Y104.069 F10800
;WIPE_START
G1 F8640
G1 X114.609 Y104.024 E-.07762
