; generated by SuperSlicer 2.4 on 2022-11-19 at 17:37:06 UTC


;
;

;
;
; 

; external perimeters extrusion width = 0.60mm
; perimeters extrusion width = 0.50mm
; infill extrusion width = 0.50mm
; solid infill extrusion width = 0.50mm
; top infill extrusion width = 0.40mm
; first layer extrusion width = 0.42mm

; object:{"name":"GooseTail","id":"GooseTail.stl id:0 copy 0","object_center":[105.000000,105.000000,0.000000],"boundingbox_center":[105.000000,105.000000,30.295158],"boundingbox_size":[78.654282,59.201128,60.590317]}
; Total objects to print: 1
M486 T1
; plater:{"center":[105.000000,105.000000,0.000000],"boundingbox_center":[105.000000,105.000000,30.295158],"boundingbox_size":[78.654282,59.201128,60.590317]}

M73 P0 R119
;TYPE:Custom
G90 ; use absolute coordinates
M83 ; extruder relative mode
M204 S1250 T1250
M104 S215 ; set extruder temp
M140 S65 ; set bed temp
G28 ; home all
G29 ; AutoBed Leveling I think
G1 Y1.0 Z0.3 F1000 ; move print head up
M190 S65 ; wait for bed temp
M109 S215 ; wait for extruder temp
G92 E0.0
; initial load
G1 X205.0 E19 F1000
M73 P0 R118
G1 Y1.6
G1 X5.0 E19 F1000
G92 E0.0
; intro line
G1 Y2.0 Z0.2 F1000
G1 X65.0 E9.0 F1000
G1 X105.0 E12.5 F1000
G92 E0.0
M107
G21 ; set units to millimeters
G90 ; use absolute coordinates
M83 ; use relative distances for extrusion
; Filament gcode
;_TOOLCHANGE 0
M107
;LAYER_CHANGE
;Z:0.2
;HEIGHT:0.2
;BEFORE_LAYER_CHANGE
G92 E0.0
;0.2
G1 Z0.075 F10800
G1 Z0.2
;AFTER_LAYER_CHANGE
;0.2
G1 Z0.275
M204 S800
G1 X76.044 Y73.851
G1 Z0.2
;TYPE:Skirt
;WIDTH:0.52
G1 F1200
G1 X74.092 Y75.994 E0.11499
G1 X71.684 Y79.139 E0.15711
G1 X68.992 Y83.218 E0.19391
G1 X68.055 Y84.769 E0.07188
G1 X66.398 Y87.772 E0.13605
G1 X65.145 Y90.488 E0.11865
G1 X64.182 Y93.326 E0.11888
G1 X63.807 Y95.009 E0.06841
G1 X63.557 Y97.284 E0.0908
G1 X63.533 Y98.356 E0.04253
G1 X63.647 Y114.228 E0.62966
G1 X63.695 Y116.008 E0.07063
G1 X63.81 Y117.023 E0.0405
G1 X64.402 Y119.472 E0.09996
G1 X65.262 Y121.615 E0.09161
G1 X66.713 Y124.32 E0.12174
G1 X68.064 Y126.168 E0.09083
G1 X69.271 Y127.385 E0.06799
G1 X71.268 Y128.838 E0.09799
G1 X72.557 Y129.509 E0.05764
G1 X73.843 Y130.04 E0.05518
G1 X77.309 Y131.102 E0.14379
G1 X93.824 Y134.803 E0.67142
G1 X99.841 Y136.029 E0.24359
G1 X102.951 Y136.521 E0.12489
G1 X105.287 Y136.744 E0.0931
G1 X107.946 Y136.819 E0.1055
G1 X109.924 Y136.557 E0.07916
G1 X113.974 Y135.654 E0.16462
G1 X126.839 Y132.559 E0.52489
G1 X128.753 Y132.045 E0.07864
G1 X130.12 Y131.567 E0.05743
G1 X132.08 Y130.627 E0.08625
G1 X135.041 Y128.717 E0.13978
G1 X141.494 Y123.843 E0.3208
G1 X143.9 Y121.451 E0.13456
G1 X145.159 Y119.636 E0.08764
G1 X146.025 Y117.648 E0.08604
G1 X146.399 Y115.909 E0.07056
G1 X146.524 Y114.163 E0.06944
G1 X146.516 Y112.358 E0.07157
G1 X145.7 Y102.161 E0.40582
G1 X145.483 Y99.993 E0.08641
G1 X145.199 Y98.478 E0.06118
G1 X144.457 Y96.097 E0.09892
G1 X143.488 Y93.869 E0.0964
G1 X140.002 Y87.074 E0.30292
G1 X137.888 Y83.331 E0.17053
G1 X135.388 Y79.442 E0.18344
G1 X132.618 Y76.434 E0.16218
G1 X129.639 Y73.736 E0.15942
G1 X128.141 Y73.161 E0.06368
G1 X77.66 Y73.161 E2.00253
G1 X76.099 Y73.828 E0.06735
M204 S1000
G1 Z0.275 F10800
; printing object GooseTail.stl id:0 copy 0
M486 S0
; acceleration to travel
M204 S1500
G1 X77.386 Y75.481
; decel to extrusion
M204 S800
G1 X78.072 Y76.364
; end travel
G1 Z0.2
;TYPE:Internal perimeter
;WIDTH:0.42
G1 F1200
G1 X127.769 Y76.364 E1.55822
G1 X129.066 Y77.539 E0.05487
G1 X130.294 Y78.637 E0.05166
G1 X132.972 Y81.547 E0.12399
G1 X135.17 Y85.025 E0.129
G1 X136.531 Y87.392 E0.08559
G1 X137.166 Y88.562 E0.04175
G1 X139.159 Y92.387 E0.13525
G1 X140.617 Y95.288 E0.10181
G1 X141.229 Y96.644 E0.04663
G1 X141.441 Y97.174 E0.0179
G1 X141.843 Y98.324 E0.0382
G1 X142.095 Y99.269 E0.03066
G1 X142.301 Y100.355 E0.03467
G1 X142.512 Y102.462 E0.06639
G1 X142.821 Y107.523 E0.159
G1 X142.973 Y108.395 E0.02774
G1 X143.154 Y110.874 E0.07793
G1 X143.32 Y112.584 E0.05389
G1 X143.323 Y114.05 E0.04596
G1 X143.281 Y115.058 E0.03162
G1 X143.228 Y115.455 E0.01257
G1 X143.007 Y116.536 E0.0346
G1 X142.949 Y116.751 E0.00696
G1 X142.435 Y117.949 E0.04088
G1 X141.72 Y119.038 E0.04086
G1 X139.67 Y121.152 E0.09234
G1 X134.538 Y125.122 E0.20341
G1 X134.322 Y125.256 E0.00798
G1 X133.248 Y126.061 E0.04209
G1 X132.606 Y126.456 E0.02362
G1 X131.364 Y127.329 E0.0476
G1 X130.748 Y127.678 E0.02222
G1 X130.457 Y127.866 E0.01085
G1 X129.745 Y128.236 E0.02515
G1 X128.968 Y128.579 E0.02664
G1 X128.358 Y128.808 E0.02043
G1 X127.796 Y128.989 E0.0185
G1 X126.078 Y129.448 E0.05576
G1 X113.23 Y132.539 E0.41433
G1 X110.537 Y133.16 E0.08665
G1 X109.296 Y133.416 E0.03974
G1 X108.212 Y133.592 E0.03441
G1 X107.773 Y133.621 E0.01381
G1 X106.955 Y133.615 E0.02565
G1 X105.459 Y133.546 E0.04696
G1 X103.282 Y133.336 E0.06857
G1 X101.948 Y133.142 E0.04226
G1 X100.449 Y132.885 E0.04769
G1 X97.032 Y132.211 E0.1092
G1 X94.511 Y131.675 E0.0808
G1 X90.71 Y130.815 E0.1222
G1 X86.143 Y129.837 E0.14644
M73 P1 R118
G1 X83.085 Y129.127 E0.09843
G1 X81.32 Y128.771 E0.05645
G1 X80.17 Y128.476 E0.03723
G1 X78.08 Y127.994 E0.06725
G1 X75.022 Y127.062 E0.10025
G1 X73.821 Y126.566 E0.04072
G1 X72.832 Y126.042 E0.03508
G1 X71.248 Y124.864 E0.06193
G1 X70.424 Y124.001 E0.0374
G1 X69.478 Y122.703 E0.05035
G1 X68.866 Y121.612 E0.03921
G1 X68.205 Y120.35 E0.0447
G1 X67.498 Y118.643 E0.05792
G1 X67.326 Y117.855 E0.02528
G1 X66.98 Y116.563 E0.04196
G1 X66.897 Y115.89 E0.02126
G1 X66.901 Y114.93 E0.03008
G1 X66.858 Y114.298 E0.01987
G1 X67.167 Y113.056 E0.04014
G1 X67.405 Y111.783 E0.04058
G1 X67.464 Y111.348 E0.01376
G1 X67.612 Y110.763 E0.01894
G1 X67.754 Y110.364 E0.01327
G1 X67.968 Y107.88 E0.07817
G1 X67.91 Y106.486 E0.04375
G1 X67.911 Y105.752 E0.02303
G1 X67.628 Y103.822 E0.06114
G1 X67.246 Y102.081 E0.0559
G1 X66.899 Y100.347 E0.05544
G1 X66.736 Y98.308 E0.06413
G1 X66.746 Y97.588 E0.02258
G1 X66.985 Y95.415 E0.06856
G1 X67.26 Y94.213 E0.03866
G1 X67.516 Y93.357 E0.02799
G1 X68.101 Y91.72 E0.05452
G1 X68.623 Y90.499 E0.04163
G1 X69.26 Y89.209 E0.0451
G1 X70.807 Y86.408 E0.10035
G1 X71.687 Y84.948 E0.05345
M73 P1 R117
G1 X73.669 Y81.893 E0.11417
G1 X74.242 Y81.066 E0.03155
G1 X76.545 Y78.054 E0.11888
G1 X77.293 Y77.177 E0.03616
G1 X78.03 Y76.407 E0.03342
G1 X77.911 Y75.987 F10800
G1 F1200
G1 X127.915 Y75.987 E1.56782
G1 X129.318 Y77.258 E0.0594
G1 X130.559 Y78.369 E0.05219
G1 X133.273 Y81.316 E0.12563
G1 X135.493 Y84.83 E0.13032
G1 X136.86 Y87.208 E0.08598
G1 X137.499 Y88.385 E0.04199
G1 X139.495 Y92.215 E0.13544
G1 X140.957 Y95.126 E0.10214
G1 X141.576 Y96.496 E0.04713
G1 X141.794 Y97.042 E0.01842
G1 X142.204 Y98.213 E0.0389
G1 X142.463 Y99.185 E0.03154
G1 X142.674 Y100.301 E0.03562
G1 X142.888 Y102.431 E0.06714
G1 X143.196 Y107.479 E0.15857
G1 X143.348 Y108.349 E0.02767
G1 X143.529 Y110.842 E0.07837
G1 X143.698 Y112.566 E0.05431
G1 X143.7 Y114.058 E0.04678
G1 X143.657 Y115.091 E0.03241
G1 X143.6 Y115.518 E0.01352
G1 X143.374 Y116.623 E0.03538
G1 X143.306 Y116.875 E0.00816
G1 X142.769 Y118.128 E0.04277
G1 X142.016 Y119.275 E0.04302
G1 X139.922 Y121.434 E0.0943
G1 X134.754 Y125.432 E0.20486
G1 X134.535 Y125.568 E0.00807
G1 X133.46 Y126.373 E0.04213
G1 X132.814 Y126.771 E0.0238
G1 X131.566 Y127.648 E0.04782
G1 X130.943 Y128.001 E0.02246
G1 X130.646 Y128.192 E0.01106
G1 X129.908 Y128.577 E0.02608
G1 X129.11 Y128.928 E0.02735
G1 X128.482 Y129.164 E0.02105
G1 X127.902 Y129.351 E0.01908
G1 X126.171 Y129.814 E0.05621
G1 X113.316 Y132.906 E0.41454
G1 X110.617 Y133.528 E0.08684
G1 X109.364 Y133.787 E0.04013
G1 X108.255 Y133.967 E0.03523
G1 X107.784 Y133.998 E0.01481
G1 X106.945 Y133.992 E0.02631
G1 X105.432 Y133.922 E0.04748
G1 X103.237 Y133.71 E0.06915
G1 X101.889 Y133.514 E0.0427
G1 X100.38 Y133.256 E0.04799
G1 X96.956 Y132.581 E0.10943
G1 X94.43 Y132.044 E0.08096
G1 X90.629 Y131.183 E0.12221
G1 X86.061 Y130.205 E0.14647
G1 X83.005 Y129.495 E0.09835
G1 X81.236 Y129.139 E0.05659
G1 X80.081 Y128.842 E0.0374
G1 X77.983 Y128.358 E0.06751
G1 X74.895 Y127.417 E0.10122
G1 X73.661 Y126.908 E0.04185
G1 X72.631 Y126.362 E0.03655
G1 X70.997 Y125.147 E0.06383
G1 X70.134 Y124.244 E0.03919
G1 X69.16 Y122.907 E0.05184
G1 X68.535 Y121.792 E0.04008
G1 X67.863 Y120.51 E0.0454
G1 X67.137 Y118.756 E0.0595
G1 X66.959 Y117.944 E0.02606
G1 X66.609 Y116.635 E0.0425
G1 X66.52 Y115.912 E0.02284
G1 X66.524 Y114.942 E0.0304
G1 X66.477 Y114.264 E0.0213
G1 X66.798 Y112.975 E0.04166
G1 X67.032 Y111.723 E0.03994
G1 X67.093 Y111.276 E0.01414
G1 X67.251 Y110.653 E0.02015
G1 X67.382 Y110.283 E0.01231
G1 X67.59 Y107.872 E0.0759
G1 X67.533 Y106.493 E0.04325
G1 X67.534 Y105.779 E0.02241
G1 X67.257 Y103.89 E0.05985
G1 X66.877 Y102.158 E0.05559
G1 X66.525 Y100.399 E0.05625
G1 X66.359 Y98.321 E0.06538
G1 X66.369 Y97.565 E0.02369
G1 X66.612 Y95.352 E0.06981
G1 X66.895 Y94.117 E0.03973
G1 X67.157 Y93.24 E0.02869
G1 X67.75 Y91.582 E0.05519
G1 X68.281 Y90.342 E0.04231
G1 X68.926 Y89.035 E0.0457
G1 X70.48 Y86.219 E0.10085
G1 X71.368 Y84.748 E0.05387
G1 X73.355 Y81.683 E0.11455
G1 X73.937 Y80.844 E0.03201
G1 X76.251 Y77.817 E0.11947
G1 X77.014 Y76.924 E0.03681
G1 X77.87 Y76.03 E0.0388
G1 X77.75 Y75.609 F10800
;TYPE:External perimeter
G1 F1200
G1 X128.06 Y75.609 E1.57743
G1 X129.571 Y76.978 E0.06392
G1 X130.824 Y78.1 E0.05273
G1 X133.573 Y81.086 E0.12727
G1 X135.816 Y84.635 E0.13164
G1 X137.189 Y87.024 E0.08638
G1 X137.832 Y88.207 E0.04224
G1 X139.831 Y92.043 E0.13563
G1 X141.298 Y94.964 E0.10247
G1 X141.923 Y96.348 E0.04764
G1 X142.147 Y96.909 E0.01894
G1 X142.564 Y98.102 E0.03961
G1 X142.831 Y99.101 E0.03242
G1 X143.048 Y100.247 E0.03657
G1 X143.264 Y102.401 E0.06788
G1 X143.571 Y107.436 E0.15815
G1 X143.722 Y108.303 E0.0276
G1 X143.905 Y110.81 E0.07882
G1 X144.075 Y112.547 E0.05473
G1 X144.077 Y114.065 E0.0476
G1 X144.033 Y115.123 E0.0332
G1 X143.973 Y115.581 E0.01447
G1 X143.741 Y116.71 E0.03615
G1 X143.664 Y116.998 E0.00936
G1 X143.102 Y118.308 E0.04466
G1 X142.311 Y119.512 E0.04519
G1 X140.174 Y121.716 E0.09626
G1 X140.068 Y121.783 E0.00393
G1 X134.969 Y125.742 E0.20239
G1 X134.748 Y125.879 E0.00816
G1 X133.673 Y126.686 E0.04216
G1 X133.021 Y127.086 E0.02398
G1 X131.768 Y127.968 E0.04804
G1 X131.138 Y128.324 E0.0227
G1 X130.836 Y128.519 E0.01126
G1 X130.072 Y128.917 E0.02701
G1 X129.252 Y129.277 E0.02807
G1 X128.606 Y129.521 E0.02166
G1 X128.009 Y129.713 E0.01966
G1 X126.263 Y130.179 E0.05665
G1 X113.403 Y133.274 E0.41475
G1 X110.698 Y133.896 E0.08703
G1 X109.432 Y134.158 E0.04051
G1 X108.297 Y134.343 E0.03606
G1 X107.794 Y134.375 E0.01581
G1 X106.935 Y134.369 E0.02696
G1 X105.405 Y134.298 E0.04801
G1 X103.191 Y134.085 E0.06973
G1 X101.83 Y133.887 E0.04314
G1 X100.312 Y133.627 E0.04828
G1 X96.881 Y132.95 E0.10967
G1 X94.35 Y132.412 E0.08113
G1 X90.548 Y131.551 E0.12222
G1 X85.979 Y130.573 E0.1465
G1 X82.925 Y129.864 E0.09828
G1 X81.152 Y129.507 E0.05673
G1 X79.991 Y129.208 E0.03757
G1 X77.885 Y128.723 E0.06777
G1 X74.768 Y127.772 E0.1022
G1 X73.5 Y127.25 E0.04299
G1 X72.429 Y126.682 E0.03802
G1 X70.747 Y125.431 E0.06573
G1 X69.844 Y124.486 E0.04097
G1 X68.842 Y123.111 E0.05334
G1 X68.203 Y121.972 E0.04095
G1 X67.521 Y120.67 E0.0461
G1 X66.776 Y118.869 E0.06109
G1 X66.593 Y118.033 E0.02684
G1 X66.238 Y116.707 E0.04304
G1 X66.143 Y115.934 E0.02441
G1 X66.147 Y114.955 E0.03073
G1 X66.097 Y114.231 E0.02274
G1 X66.43 Y112.895 E0.04317
G1 X66.66 Y111.663 E0.0393
G1 X66.722 Y111.204 E0.01452
G1 X66.89 Y110.544 E0.02136
G1 X67.011 Y110.203 E0.01134
G1 X67.213 Y107.863 E0.07364
G1 X67.156 Y106.501 E0.04275
G1 X67.157 Y105.806 E0.02179
G1 X66.886 Y103.958 E0.05856
G1 X66.508 Y102.236 E0.05529
G1 X66.15 Y100.451 E0.05706
G1 X65.982 Y98.333 E0.06662
G1 X65.992 Y97.542 E0.02481
G1 X66.24 Y95.289 E0.07107
G1 X66.531 Y94.02 E0.0408
G1 X66.799 Y93.122 E0.02939
G1 X67.399 Y91.445 E0.05586
G1 X67.938 Y90.184 E0.04299
G1 X68.591 Y88.86 E0.04629
G1 X70.154 Y86.03 E0.10134
G1 X71.048 Y84.548 E0.05429
G1 X73.042 Y81.472 E0.11493
G1 X73.632 Y80.622 E0.03246
G1 X75.958 Y77.58 E0.12006
G1 X76.734 Y76.671 E0.03747
G1 X77.709 Y75.653 E0.04419
;WIPE_START
M204 S1000
G1 X78.035 Y75.89 F10800
;WIPE_END
G1 Z0.275
; acceleration to travel
M204 S1500
G1 X75.128 Y108.772
; decel to extrusion
M204 S800
G1 X73.578 Y126.309
; end travel
G1 Z0.2
;TYPE:Solid infill
;WIDTH:0.420195
G1 F1200
G1 X69.578 Y122.309 E0.17747
G1 X68.949 Y121.147 E0.04144
G1 X74.245 Y126.443 E0.23496
G1 X75.115 Y126.802 E0.0295
G1 X75.147 Y126.812 E0.00107
G1 X68.374 Y120.039 E0.30049
G1 X67.997 Y119.128 E0.0309
G1 X75.914 Y127.046 E0.35123
G1 X76.681 Y127.28 E0.02515
G1 X67.695 Y118.293 E0.39867
G1 X67.518 Y117.583 E0.02295
G1 X77.448 Y127.513 E0.44053
G1 X78.153 Y127.728 E0.0231
G1 X78.21 Y127.742 E0.00185
G1 X67.341 Y116.873 E0.48216
G1 X67.252 Y116.512 E0.01166
G1 X67.214 Y116.213 E0.00946
G1 X78.912 Y127.91 E0.51892
G1 X79.613 Y128.079 E0.02264
G1 X67.173 Y115.638 E0.55187
G1 X67.176 Y115.107 E0.01666
G1 X80.315 Y128.247 E0.5829
G1 X81.017 Y128.416 E0.02264
G1 X67.151 Y114.549 E0.61513
G1 X67.135 Y114.322 E0.00714
G1 X67.199 Y114.065 E0.00833
G1 X81.702 Y128.568 E0.64338
G1 X82.37 Y128.702 E0.02137
G1 X67.306 Y113.638 E0.66829
G1 X67.412 Y113.211 E0.0138
G1 X83.038 Y128.836 E0.69319
G1 X83.144 Y128.858 E0.00339
G1 X83.728 Y128.994 E0.01882
G1 X67.497 Y112.763 E0.72003
G1 X67.576 Y112.309 E0.01446
G1 X84.423 Y129.155 E0.74734
G1 X85.117 Y129.316 E0.02237
G1 X67.655 Y111.854 E0.77465
G1 X67.735 Y111.401 E0.01444
G1 X85.812 Y129.478 E0.80191
G1 X86.204 Y129.569 E0.01262
G1 X86.502 Y129.634 E0.00956
G1 X67.857 Y110.989 E0.82713
G1 X67.978 Y110.577 E0.01347
G1 X87.185 Y129.784 E0.85207
G1 X87.868 Y129.934 E0.02195
G1 X68.051 Y110.117 E0.87913
G1 X68.094 Y109.626 E0.01546
G1 X88.552 Y130.084 E0.90756
G1 X89.235 Y130.234 E0.02195
G1 X68.136 Y109.135 E0.936
G1 X68.178 Y108.645 E0.01546
G1 X89.918 Y130.385 E0.96444
G1 X90.602 Y130.535 E0.02195
G1 X68.221 Y108.154 E0.99288
G1 X68.244 Y107.888 E0.00836
G1 X68.237 Y107.637 E0.00789
G1 X91.285 Y130.685 E1.02247
G1 X91.969 Y130.835 E0.02195
G1 X68.222 Y107.089 E1.05344
G1 X68.208 Y106.541 E0.01719
G1 X92.652 Y130.985 E1.0844
G1 X93.335 Y131.135 E0.02195
G1 X68.193 Y105.993 E1.11537
G1 X68.186 Y105.728 E0.00832
G1 X68.139 Y105.405 E0.01022
G1 X94.019 Y131.285 E1.1481
G1 X94.568 Y131.406 E0.01764
G1 X94.7 Y131.433 E0.0042
G1 X68.047 Y104.78 E1.18236
G1 X67.955 Y104.155 E0.01982
M73 P1 R116
G1 X95.369 Y131.569 E1.21614
G1 X96.039 Y131.706 E0.02144
G1 X67.844 Y103.511 E1.25079
G1 X67.702 Y102.836 E0.02163
G1 X96.709 Y131.842 E1.28678
G1 X97.378 Y131.978 E0.02144
G1 X67.561 Y102.161 E1.32278
G1 X67.419 Y101.486 E0.02163
M73 P2 R116
G1 X98.048 Y132.115 E1.35877
G1 X98.718 Y132.251 E0.02144
G1 X67.277 Y100.811 E1.39477
G1 X67.172 Y100.307 E0.01614
G1 X67.16 Y100.16 E0.00463
G1 X99.387 Y132.388 E1.42968
G1 X100.057 Y132.524 E0.02144
G1 X67.114 Y99.581 E1.46144
G1 X67.068 Y99.001 E0.01823
G1 X100.715 Y132.648 E1.49266
G1 X101.349 Y132.749 E0.02014
G1 X67.021 Y98.422 E1.52284
G1 X67.012 Y98.299 E0.00388
G1 X67.017 Y97.884 E0.013
G1 X101.983 Y132.85 E1.55117
G1 X102.617 Y132.951 E0.02014
G1 X67.045 Y97.379 E1.57804
G1 X67.098 Y96.899 E0.01516
G1 X103.251 Y133.052 E1.60383
G1 X103.317 Y133.063 E0.00208
G1 X103.846 Y133.114 E0.01669
G1 X67.151 Y96.419 E1.62788
G1 X67.204 Y95.938 E0.01516
G1 X104.437 Y133.171 E1.65172
G1 X105.027 Y133.228 E0.0186
G1 X67.257 Y95.458 E1.67555
G1 X67.356 Y95.024 E0.01396
G1 X105.608 Y133.275 E1.69691
G1 X106.159 Y133.293 E0.0173
G1 X67.456 Y94.59 E1.71695
G1 X67.526 Y94.283 E0.00989
G1 X67.562 Y94.163 E0.00392
G1 X106.71 Y133.311 E1.73669
G1 X107.261 Y133.329 E0.0173
G1 X67.685 Y93.753 E1.75569
G1 X67.777 Y93.443 E0.01013
G1 X67.812 Y93.346 E0.00322
G1 X107.808 Y133.343 E1.77433
G1 X108.181 Y133.319 E0.01173
G1 X108.298 Y133.299 E0.00372
G1 X67.952 Y92.954 E1.78983
G1 X68.093 Y92.561 E0.01309
G1 X108.757 Y133.225 E1.80395
G1 X109.216 Y133.15 E0.01458
G1 X68.233 Y92.168 E1.81807
G1 X68.358 Y91.821 E0.01158
M73 P2 R115
G1 X68.376 Y91.778 E0.00147
G1 X109.653 Y133.055 E1.83114
G1 X110.089 Y132.957 E0.01401
G1 X68.536 Y91.404 E1.8434
G1 X68.696 Y91.03 E0.01274
G1 X110.525 Y132.86 E1.85566
G1 X110.961 Y132.763 E0.01401
