; generated by PrusaSlicer 2.7.0+win64 on 2024-02-02 at 15:41:12 UTC


;
;
; 

; external perimeters extrusion width = 0.45mm
; perimeters extrusion width = 0.45mm
; infill extrusion width = 0.45mm
; solid infill extrusion width = 0.45mm
; top infill extrusion width = 0.40mm
; first layer extrusion width = 0.42mm

M73 P0 R62
M73 Q0 S64
M201 X1000 Y1000 Z200 E5000 ; sets maximum accelerations, mm/sec^2
M203 X200 Y200 Z12 E120 ; sets maximum feedrates, mm / sec
M204 S1250 T1250 ; sets acceleration (S) and retract acceleration (R), mm/sec^2
M205 X8.00 Y8.00 Z0.40 E4.50 ; sets the jerk limits, mm/sec
M205 S0 T0 ; sets the minimum extruding and travel feed rate, mm/sec

; printing object Knife_Sharpener-25.stl id:0 copy 0
; stop printing object Knife_Sharpener-25.stl id:0 copy 0

;TYPE:Custom
M862.3 P "MK3S" ; printer model check
M862.1 P0.4 ; nozzle diameter check
M115 U3.13.2 ; tell printer latest fw version
G90 ; use absolute coordinates
M83 ; extruder relative mode
M104 S215 ; set extruder temp
M140 S60 ; set bed temp
M190 S60 ; wait for bed temp
M109 S215 ; wait for extruder temp
G28 W ; home all without mesh bed level
G80 X78.491 Y34.7351 W25.5081 H62.1312 ; mesh bed levelling

G1 Z0.2 F720
G1 Y-3 F1000 ; go outside print area
G92 E0
G1 X60 E9 F1000 ; intro line
G1 X100 E12.5 F1000 ; intro line
M73 Q0 S63

G92 E0
M221 S95

; Don't change E values below. Excessive value can damage the printer.

M907 E538 ; set extruder motor current
G21 ; set units to millimeters
G90 ; use absolute coordinates
M83 ; use relative distances for extrusion
M900 K0.05 ; Filament gcode LA 1.5
M900 K30 ; Filament gcode LA 1.0

M107
;LAYER_CHANGE
;Z:0.2
;HEIGHT:0.2
;BEFORE_LAYER_CHANGE
G92 E0.0
;0.2


G1 E-.8 F2100
G1 Z.2 F720
;AFTER_LAYER_CHANGE
;0.2
G1 X79.071 Y35.994 F10800
G1 Z.2 F720
G1 E.8 F2100
M204 S800
;TYPE:Skirt/Brim
;WIDTH:0.42
G1 F1200
G1 X80.117 Y35.117 E.0428
G1 X81.057 Y34.924 E.03009
G1 X101.433 Y34.924 E.63888
G1 X102.74 Y35.315 E.04277
G1 X103.617 Y36.361 E.0428
G1 X103.811 Y37.301 E.03009
G1 X103.811 Y94.301 E1.78719
G1 X103.419 Y95.608 E.04278
G1 X102.373 Y96.484 E.04278
G1 X101.433 Y96.678 E.03009
G1 X81.057 Y96.678 E.63888
G1 X79.75 Y96.286 E.04278
G1 X78.873 Y95.24 E.0428
G1 X78.68 Y94.301 E.03006
G1 X78.68 Y37.301 E1.78719
G1 X79.054 Y36.051 E.04091
M204 S1000
; printing object Knife_Sharpener-25.stl id:0 copy 0
;WIPE_START
G1 F8640
G1 X79.071 Y35.994 E-.01373
G1 X80.117 Y35.117 E-.31518
G1 X81.057 Y34.924 E-.22158
G1 X82.138 Y34.924 E-.24951
;WIPE_END
G1 Z.6 F720
G1 X84.559 Y84.313 F10800
G1 Z.2 F720
G1 E.8 F2100
M204 S800
;TYPE:Perimeter
;WIDTH:0.419999
G1 F1200
G1 X84.559 Y85.721 E.04415
G1 X84.559 Y93.514 E.24434
G1 X81.844 Y93.514 E.08513
G1 X81.844 Y84.716 E.27585
G1 X83.169 Y84.534 E.04193
G1 X84.5 Y84.322 E.04226
M204 S1000
G1 X84.936 Y83.871 F10800
M204 S800
;TYPE:External perimeter
G1 F1200
G1 X84.936 Y85.721 E.05801
G1 X84.936 Y93.891 E.25616
G1 X81.467 Y93.891 E.10877
G1 X81.467 Y84.387 E.29799
G1 X83.109 Y84.161 E.05197
G1 X84.877 Y83.881 E.05613
M204 S1000
;WIPE_START
G1 F8640
G1 X84.936 Y83.871 E-.01382
G1 X84.936 Y85.721 E-.42717
G1 X84.936 Y87.276 E-.35901
;WIPE_END
G1 Z.6 F720
G1 X84.39 Y85.277 F10800
G1 Z.2 F720
G1 E.8 F2100
M204 S800
;TYPE:Solid infill
;WIDTH:0.422975
G1 F1200
G1 X83.877 Y84.765 E.0229
G1 X83.414 Y84.839 E.01482
G1 X84.22 Y85.645 E.03602
G1 X84.22 Y86.182 E.01697
G1 X82.945 Y84.907 E.05698
G1 X82.472 Y84.972 E.01509
G1 X84.22 Y86.72 E.07812
G1 X84.22 Y87.257 E.01697
G1 X82.183 Y85.22 E.09104
G1 X82.183 Y85.758 E.017
G1 X84.22 Y87.795 E.09104
G1 X84.22 Y88.332 E.01697
G1 X82.183 Y86.295 E.09104
G1 X82.183 Y86.833 E.017
G1 X84.22 Y88.87 E.09104
G1 X84.22 Y89.407 E.01697
G1 X82.183 Y87.37 E.09104
G1 X82.183 Y87.908 E.017
G1 X84.22 Y89.945 E.09104
G1 X84.22 Y90.482 E.01697
G1 X82.183 Y88.445 E.09104
G1 X82.183 Y88.983 E.017
G1 X84.22 Y91.02 E.09104
G1 X84.22 Y91.557 E.01697
G1 X82.183 Y89.52 E.09104
G1 X82.183 Y90.058 E.017
G1 X84.22 Y92.095 E.09104
G1 X84.22 Y92.632 E.01697
G1 X82.183 Y90.595 E.09104
G1 X82.183 Y91.133 E.017
G1 X84.22 Y93.174 E.09113
G1 X83.687 Y93.174 E.01684
G1 X82.183 Y91.67 E.06722
G1 X82.183 Y92.208 E.017
G1 X83.15 Y93.174 E.04319
G1 X82.612 Y93.174 E.017
G1 X82.013 Y92.575 E.02677
M204 S1000
;WIPE_START
G1 F8640
G1 X82.612 Y93.174 E-.1956
G1 X83.15 Y93.174 E-.12423
G1 X82.183 Y92.208 E-.31561
G1 X82.183 Y91.67 E-.12423
G1 X82.307 Y91.794 E-.04033
;WIPE_END
G1 Z.6 F720
G1 X84.559 Y45.86 F10800
G1 Z.2 F720
G1 E.8 F2100
M204 S800
;TYPE:Perimeter
;WIDTH:0.419999
G1 F1200
G1 X83.169 Y45.639 E.04413
G1 X81.844 Y45.457 E.04193
G1 X81.844 Y38.088 E.23105
G1 X84.559 Y38.088 E.08513
G1 X84.559 Y39.445 E.04255
G1 X84.559 Y45.8 E.19926
M204 S1000
G1 X84.936 Y46.302 F10800
M204 S800
;TYPE:External perimeter
G1 F1200
G1 X83.109 Y46.011 E.05801
G1 X81.467 Y45.786 E.05196
G1 X81.467 Y37.711 E.25319
G1 X84.936 Y37.711 E.10877
G1 X84.936 Y39.445 E.05437
G1 X84.936 Y46.242 E.21311
M204 S1000
;WIPE_START
G1 F8640
G1 X84.936 Y46.302 E-.01385
G1 X83.109 Y46.011 E-.42718
G1 X81.568 Y45.8 E-.35897
;WIPE_END
G1 Z.6 F720
G1 X83.589 Y38.257 F10800
G1 Z.2 F720
G1 E.8 F2100
M204 S800
;TYPE:Solid infill
;WIDTH:0.438105
G1 F1200
G1 X84.22 Y38.888 E.02932
G1 X84.22 Y39.447 E.01837
G1 X83.2 Y38.427 E.0474
G1 X82.641 Y38.427 E.01837
G1 X84.22 Y40.006 E.07338
G1 X84.22 Y40.565 E.01837
G1 X82.183 Y38.528 E.09466
G1 X82.183 Y39.087 E.01837
G1 X84.22 Y41.124 E.09466
G1 X84.22 Y41.683 E.01837
G1 X82.183 Y39.646 E.09466
G1 X82.183 Y40.205 E.01837
G1 X84.22 Y42.242 E.09466
G1 X84.22 Y42.801 E.01837
G1 X82.183 Y40.764 E.09466
G1 X82.183 Y41.323 E.01837
G1 X84.22 Y43.359 E.09464
G1 X84.22 Y43.918 E.01837
G1 X82.183 Y41.882 E.09464
G1 X82.183 Y42.44 E.01834
G1 X84.22 Y44.477 E.09466
G1 X84.22 Y45.036 E.01837
G1 X82.183 Y42.999 E.09466
G1 X82.183 Y43.558 E.01837
G1 X84.062 Y45.437 E.08732
G1 X83.398 Y45.332 E.02209
G1 X82.183 Y44.117 E.05646
G1 X82.183 Y44.676 E.01837
G1 X82.944 Y45.437 E.03536
M204 S1000
;WIPE_START
G1 F8640
G1 X82.183 Y44.676 E-.2485
G1 X82.183 Y44.117 E-.12907
G1 X83.398 Y45.332 E-.39675
G1 X83.508 Y45.349 E-.02568
;WIPE_END
G1 Z.6 F720
G1 X94.747 Y91.6 F10800
G1 Z.2 F720
G1 E.8 F2100
M204 S800
;TYPE:Perimeter
;WIDTH:0.419999
G1 F1200
G1 X94.775 Y91.74 E.00448
G1 X94.957 Y91.975 E.00932
G1 X95.297 Y92.088 E.01123
G1 X100.646 Y92.088 E.16771
G1 X100.646 Y92.801 E.02236
G1 X100.646 Y93.514 E.02236
G1 X88.265 Y93.514 E.3882
G1 X88.265 Y83.63 E.30991
G1 X89.517 Y83.367 E.04011
G1 X90.765 Y83.076 E.04018
G1 X91.027 Y82.956 E.00904
G1 X91.208 Y82.692 E.01004
G1 X91.236 Y82.517 E.00556
G1 X91.236 Y47.656 E1.09304
G1 X91.208 Y47.48 E.00559
G1 X91.027 Y47.216 E.01004
G1 X90.799 Y47.105 E.00795
G1 X89.517 Y46.806 E.04127
G1 X88.265 Y46.543 E.04011
G1 X88.265 Y38.088 E.2651
G1 X100.646 Y38.088 E.3882
G1 X100.646 Y39.514 E.04471
G1 X95.297 Y39.514 E.16771
G1 X94.957 Y39.627 E.01123
G1 X94.775 Y39.862 E.00932
G1 X94.731 Y40.079 E.00694
G1 X94.731 Y91.522 E1.61296
G1 X94.735 Y91.541 E.00061
M204 S1000
G1 X95.108 Y91.522 F10800
M204 S800
;TYPE:External perimeter
G1 F1200
G1 X95.184 Y91.673 E.0053
G1 X95.297 Y91.711 E.00374
G1 X101.023 Y91.711 E.17953
G1 X101.023 Y92.801 E.03418
G1 X101.023 Y93.891 E.03418
G1 X87.888 Y93.891 E.41184
G1 X87.888 Y83.324 E.33132
M73 P0 R61
G1 X89.427 Y83 E.04931
M73 P1 R61
M73 Q1 S63
G1 X90.68 Y82.709 E.04033
G1 X90.789 Y82.664 E.0037
G1 X90.859 Y82.517 E.0051
G1 X90.859 Y47.656 E1.09304
G1 X90.825 Y47.547 E.00358
G1 X90.713 Y47.472 E.00423
G1 X89.427 Y47.173 E.0414
G1 X87.888 Y46.849 E.04931
G1 X87.888 Y37.711 E.28652
G1 X101.023 Y37.711 E.41184
G1 X101.023 Y39.891 E.06835
G1 X95.297 Y39.891 E.17953
G1 X95.184 Y39.928 E.00373
G1 X95.108 Y40.079 E.0053
G1 X95.108 Y91.462 E1.61108
M204 S1000
;WIPE_START
G1 F8640
G1 X95.108 Y91.522 E-.01385
G1 X95.184 Y91.673 E-.03903
G1 X95.297 Y91.711 E-.02753
G1 X98.414 Y91.711 E-.71959
;WIPE_END
G1 Z.6 F720
G1 X99.714 Y38.257 F10800
G1 Z.2 F720
G1 E.8 F2100
M204 S800
;TYPE:Solid infill
;WIDTH:0.420065
G1 F1200
G1 X100.307 Y38.85 E.0263
G1 X100.307 Y39.175 E.01019
G1 X100.099 Y39.175 E.00652
G1 X99.351 Y38.427 E.03317
G1 X98.817 Y38.427 E.01675
G1 X99.566 Y39.176 E.03322
G1 X99.034 Y39.177 E.01668
G1 X98.284 Y38.427 E.03326
G1 X97.751 Y38.427 E.01671
G1 X98.502 Y39.178 E.03331
G1 X97.97 Y39.18 E.01668
G1 X97.217 Y38.427 E.0334
G1 X96.684 Y38.427 E.01671
G1 X97.437 Y39.181 E.03342
G1 X96.905 Y39.182 E.01668
G1 X96.15 Y38.427 E.03348
G1 X95.617 Y38.427 E.01671
G1 X96.373 Y39.183 E.03353
G1 X95.841 Y39.184 E.01668
G1 X95.084 Y38.427 E.03357
G1 X94.55 Y38.427 E.01675
G1 X95.309 Y39.185 E.03364
G1 X95.135 Y39.186 E.00546
G1 X94.884 Y39.294 E.00857
G1 X94.017 Y38.427 E.03845
G1 X93.484 Y38.427 E.01671
G1 X94.6 Y39.544 E.04952
G1 X94.46 Y39.725 E.00718
G1 X94.424 Y39.901 E.00563
G1 X92.95 Y38.427 E.06537
G1 X92.417 Y38.427 E.01671
G1 X94.392 Y40.402 E.08759
G1 X94.392 Y40.935 E.01671
G1 X91.884 Y38.427 E.11123
G1 X91.35 Y38.427 E.01675
G1 X94.392 Y41.469 E.13491
G1 X94.392 Y42.002 E.01671
G1 X90.817 Y38.427 E.15855
G1 X90.283 Y38.427 E.01675
G1 X94.392 Y42.535 E.18221
G1 X94.392 Y43.069 E.01675
G1 X89.75 Y38.427 E.20587
G1 X89.217 Y38.427 E.01671
G1 X94.392 Y43.602 E.22951
G1 X94.392 Y44.135 E.01671
G1 X88.683 Y38.427 E.25317
G1 X88.604 Y38.427 E.00248
G1 X88.604 Y38.881 E.01424
G1 X94.392 Y44.669 E.25669
G1 X94.392 Y45.202 E.01671
G1 X88.604 Y39.415 E.25667
G1 X88.604 Y39.948 E.01671
G1 X94.392 Y45.736 E.25669
G1 X94.392 Y46.269 E.01671
G1 X88.604 Y40.482 E.25667
G1 X88.604 Y41.015 E.01671
G1 X94.392 Y46.802 E.25667
G1 X94.392 Y47.336 E.01675
G1 X88.604 Y41.548 E.25669
G1 X88.604 Y42.082 E.01675
G1 X94.392 Y47.869 E.25667
G1 X94.392 Y48.402 E.01671
G1 X88.604 Y42.615 E.25667
G1 X88.604 Y43.148 E.01671
G1 X94.392 Y48.936 E.25669
G1 X94.392 Y49.469 E.01671
G1 X88.604 Y43.682 E.25667
G1 X88.604 Y44.215 E.01671
G1 X94.392 Y50.002 E.25667
G1 X94.392 Y50.536 E.01675
G1 X91.576 Y47.72 E.12489
G1 X91.533 Y47.375 E.0109
G1 X91.412 Y47.133 E.00848
G1 X91.243 Y46.953 E.00774
G1 X91.057 Y46.836 E.00689
G1 X90.556 Y46.7 E.01628
G1 X88.604 Y44.748 E.08657
G1 X88.604 Y45.282 E.01675
G1 X89.86 Y46.538 E.0557
G1 X89.177 Y46.388 E.02193
G1 X88.435 Y45.646 E.03291
M204 S1000
;WIPE_START
G1 F8640
G1 X89.177 Y46.388 E-.2423
G1 X89.86 Y46.538 E-.16147
G1 X88.647 Y45.324 E-.39623
;WIPE_END
G1 Z.6 F720
G1 X91.406 Y48.083 F10800
G1 Z.2 F720
G1 E.8 F2100
M204 S800
G1 F1200
G1 X94.392 Y51.069 E.13243
G1 X94.392 Y51.603 E.01675
G1 X91.576 Y48.787 E.12489
G1 X91.576 Y49.32 E.01671
G1 X94.392 Y52.136 E.12489
G1 X94.392 Y52.669 E.01671
G1 X91.576 Y49.853 E.12489
G1 X91.576 Y50.387 E.01675
G1 X94.392 Y53.203 E.12489
G1 X94.392 Y53.736 E.01671
G1 X91.576 Y50.92 E.12489
G1 X91.576 Y51.453 E.01671
G1 X94.392 Y54.269 E.12489
G1 X94.392 Y54.803 E.01675
G1 X91.576 Y51.987 E.12489
G1 X91.576 Y52.52 E.01671
G1 X94.392 Y55.336 E.12489
G1 X94.392 Y55.869 E.01671
G1 X91.576 Y53.053 E.12489
G1 X91.576 Y53.587 E.01675
G1 X94.392 Y56.403 E.12489
G1 X94.392 Y56.936 E.01671
G1 X91.576 Y54.12 E.12489
G1 X91.576 Y54.654 E.01675
G1 X94.392 Y57.47 E.12489
G1 X94.392 Y58.003 E.01671
G1 X91.576 Y55.187 E.12489
G1 X91.576 Y55.72 E.01671
G1 X94.392 Y58.536 E.12489
G1 X94.392 Y59.07 E.01675
G1 X91.576 Y56.254 E.12489
G1 X91.576 Y56.787 E.01671
G1 X94.392 Y59.603 E.12489
G1 X94.392 Y60.136 E.01671
G1 X91.576 Y57.32 E.12489
G1 X91.576 Y57.854 E.01675
G1 X94.392 Y60.67 E.12489
G1 X94.392 Y61.203 E.01671
G1 X91.576 Y58.387 E.12489
G1 X91.576 Y58.92 E.01671
G1 X94.392 Y61.736 E.12489
G1 X94.392 Y62.27 E.01675
G1 X91.576 Y59.454 E.12489
G1 X91.576 Y59.987 E.01671
G1 X94.392 Y62.803 E.12489
G1 X94.392 Y63.337 E.01675
G1 X91.576 Y60.521 E.12489
G1 X91.576 Y61.054 E.01671
G1 X94.392 Y63.87 E.12489
G1 X94.392 Y64.403 E.01671
G1 X91.576 Y61.587 E.12489
G1 X91.576 Y62.121 E.01675
G1 X94.392 Y64.937 E.12489
G1 X94.392 Y65.47 E.01671
G1 X91.576 Y62.654 E.12489
G1 X91.576 Y63.187 E.01671
M73 Q1 S62
G1 X94.392 Y66.003 E.12489
G1 X94.392 Y66.537 E.01675
G1 X91.576 Y63.721 E.12489
G1 X91.576 Y64.254 E.01671
G1 X94.392 Y67.07 E.12489
G1 X94.392 Y67.603 E.01671
G1 X91.576 Y64.787 E.12489
G1 X91.576 Y65.321 E.01675
G1 X94.392 Y68.137 E.12489
G1 X94.392 Y68.67 E.01671
G1 X91.576 Y65.854 E.12489
G1 X91.576 Y66.388 E.01675
G1 X94.392 Y69.204 E.12489
G1 X94.392 Y69.737 E.01671
G1 X91.576 Y66.921 E.12489
G1 X91.576 Y67.454 E.01671
G1 X94.392 Y70.27 E.12489
G1 X94.392 Y70.804 E.01675
G1 X91.576 Y67.988 E.12489
G1 X91.576 Y68.521 E.01671
G1 X94.392 Y71.337 E.12489
G1 X94.392 Y71.87 E.01671
G1 X91.576 Y69.054 E.12489
G1 X91.576 Y69.588 E.01675
G1 X94.392 Y72.404 E.12489
G1 X94.392 Y72.937 E.01671
G1 X91.576 Y70.121 E.12489
G1 X91.576 Y70.654 E.01671
G1 X94.392 Y73.47 E.12489
G1 X94.392 Y74.004 E.01675
G1 X91.576 Y71.188 E.12489
G1 X91.576 Y71.721 E.01671
G1 X94.392 Y74.537 E.12489
G1 X94.392 Y75.071 E.01675
G1 X91.576 Y72.255 E.12489
G1 X91.576 Y72.788 E.01671
G1 X94.392 Y75.604 E.12489
G1 X94.392 Y76.137 E.01671
G1 X91.576 Y73.321 E.12489
G1 X91.576 Y73.855 E.01675
G1 X94.392 Y76.671 E.12489
G1 X94.392 Y77.204 E.01671
G1 X91.576 Y74.388 E.12489
G1 X91.576 Y74.921 E.01671
G1 X94.392 Y77.737 E.12489
G1 X94.392 Y78.271 E.01675
G1 X91.576 Y75.455 E.12489
G1 X91.576 Y75.988 E.01671
G1 X94.392 Y78.804 E.12489
G1 X94.392 Y79.337 E.01671
G1 X91.576 Y76.521 E.12489
G1 X91.576 Y77.055 E.01675
G1 X94.392 Y79.871 E.12489
G1 X94.392 Y80.404 E.01671
G1 X91.576 Y77.588 E.12489
G1 X91.576 Y78.122 E.01675
G1 X94.392 Y80.938 E.12489
G1 X94.392 Y81.471 E.01671
G1 X91.576 Y78.655 E.12489
G1 X91.576 Y79.188 E.01671
G1 X94.392 Y82.004 E.12489
G1 X94.392 Y82.538 E.01675
G1 X91.576 Y79.722 E.12489
G1 X91.576 Y80.255 E.01671
G1 X94.392 Y83.071 E.12489
G1 X94.392 Y83.604 E.01671
G1 X91.576 Y80.788 E.12489
G1 X91.576 Y81.322 E.01675
G1 X94.392 Y84.138 E.12489
G1 X94.392 Y84.671 E.01671
G1 X91.576 Y81.855 E.12489
G1 X91.576 Y82.388 E.01671
G1 X94.392 Y85.204 E.12489
G1 X94.392 Y85.738 E.01675
G1 X91.506 Y82.852 E.12799
G1 X91.412 Y83.039 E.00656
G1 X91.29 Y83.169 E.00559
G1 X94.392 Y86.271 E.13757
G1 X94.392 Y86.805 E.01675
G1 X90.958 Y83.371 E.1523
G1 X90.532 Y83.479 E.01378
G1 X94.392 Y87.338 E.17117
G1 X94.392 Y87.871 E.01671
G1 X90.1 Y83.579 E.19035
G1 X89.667 Y83.68 E.01394
G1 X94.392 Y88.405 E.20955
G1 X94.392 Y88.938 E.01671
G1 X89.228 Y83.774 E.22902
G1 X88.787 Y83.867 E.01413
G1 X94.392 Y89.471 E.24856
G1 X94.392 Y90.005 E.01675
G1 X88.604 Y84.217 E.25669
G1 X88.604 Y84.751 E.01675
G1 X94.392 Y90.538 E.25667
G1 X94.392 Y91.071 E.01671
G1 X88.435 Y85.114 E.26419
M204 S1000
;WIPE_START
G1 F8640
G1 X90.885 Y87.564 E-.8
;WIPE_END
G1 Z.6 F720
G1 X99.845 Y92.257 F10800
G1 Z.2 F720
G1 E.8 F2100
M204 S800
G1 F1200
G1 X100.307 Y92.72 E.02051
G1 X100.307 Y93.174 E.01424
G1 X100.228 Y93.174 E.00248
G1 X99.481 Y92.427 E.03313
G1 X98.948 Y92.427 E.01671
G1 X99.695 Y93.174 E.03313
G1 X99.161 Y93.174 E.01675
M73 P2 R61
G1 X98.414 Y92.427 E.03313
G1 X97.881 Y92.427 E.01671
G1 X98.628 Y93.174 E.03313
G1 X98.095 Y93.174 E.01671
G1 X97.347 Y92.427 E.03315
G1 X96.814 Y92.427 E.01671
G1 X97.561 Y93.174 E.03313
G1 X97.028 Y93.174 E.01671
G1 X96.281 Y92.427 E.03313
G1 X95.747 Y92.427 E.01675
G1 X96.494 Y93.174 E.03313
G1 X95.961 Y93.174 E.01671
G1 X95.185 Y92.398 E.03442
G1 X94.753 Y92.254 E.01428
G1 X94.46 Y91.877 E.01497
G1 X94.409 Y91.622 E.00816
G1 X88.604 Y85.817 E.25745
G1 X88.604 Y86.351 E.01675
M73 Q2 S62
G1 X95.428 Y93.174 E.30262
G1 X94.894 Y93.174 E.01675
G1 X88.604 Y86.884 E.27896
G1 X88.604 Y87.418 E.01675
G1 X94.361 Y93.174 E.2553
G1 X93.828 Y93.174 E.01671
G1 X88.604 Y87.951 E.23166
G1 X88.604 Y88.484 E.01671
G1 X93.294 Y93.174 E.208
G1 X92.761 Y93.174 E.01671
G1 X88.604 Y89.018 E.18434
G1 X88.604 Y89.551 E.01671
G1 X92.228 Y93.174 E.1607
G1 X91.694 Y93.174 E.01675
G1 X88.604 Y90.084 E.13704
G1 X88.604 Y90.618 E.01675
G1 X91.161 Y93.174 E.11338
G1 X90.627 Y93.174 E.01675
G1 X88.604 Y91.151 E.08972
G1 X88.604 Y91.684 E.01671
G1 X90.094 Y93.174 E.06608
G1 X89.561 Y93.174 E.01671
G1 X88.604 Y92.218 E.04242
G1 X88.604 Y92.751 E.01671
G1 X89.197 Y93.344 E.0263
M204 S1000
; stop printing object Knife_Sharpener-25.stl id:0 copy 0
