; generated by PrusaSlicer 2.6.1+win64 on 2023-10-01 at 00:16:57 UTC


;
;
; 

; external perimeters extrusion width = 0.45mm
; perimeters extrusion width = 0.45mm
; infill extrusion width = 0.45mm
; solid infill extrusion width = 0.45mm
; top infill extrusion width = 0.40mm
; first layer extrusion width = 0.42mm

M73 P0 R280
M73 Q0 S287
M201 X1000 Y1000 Z200 E5000 ; sets maximum accelerations, mm/sec^2
M203 X200 Y200 Z12 E120 ; sets maximum feedrates, mm / sec
M204 S1250 T1250 ; sets acceleration (S) and retract acceleration (R), mm/sec^2
M205 X8.00 Y8.00 Z0.40 E4.50 ; sets the jerk limits, mm/sec
M205 S0 T0 ; sets the minimum extruding and travel feed rate, mm/sec
;TYPE:Custom
M862.3 P "MK3S" ; printer model check
M862.1 P0.4 ; nozzle diameter check
M115 U3.12.2 ; tell printer latest fw version
G90 ; use absolute coordinates
M83 ; extruder relative mode
M104 S215 ; set extruder temp
M140 S60 ; set bed temp
M190 S60 ; wait for bed temp
M109 S215 ; wait for extruder temp
G28 W ; home all without mesh bed level
G80 ; mesh bed leveling

G1 Z0.2 F720
G1 Y-3 F1000 ; go outside print area
G92 E0
G1 X60 E9 F1000 ; intro line
G1 X100 E12.5 F1000 ; intro line

G92 E0
M221 S95

; Don't change E values below. Excessive value can damage the printer.

M907 E538 ; set extruder motor current
G21 ; set units to millimeters
G90 ; use absolute coordinates
M83 ; use relative distances for extrusion
M900 K0.05 ; Filament gcode LA 1.5
M900 K30 ; Filament gcode LA 1.0
M107
;LAYER_CHANGE
;Z:0.2
;HEIGHT:0.2
;BEFORE_LAYER_CHANGE
G92 E0.0
;0.2


G1 E-.8 F2100
G1 Z.4 F720
;AFTER_LAYER_CHANGE
;0.2
G1 X73.015 Y53.693 F10800
G1 Z.2 F720
G1 E.8 F2100
M204 S800
;TYPE:Skirt/Brim
;WIDTH:0.42
G1 F1200
G1 X74.06 Y52.817 E.04275
G1 X75 Y52.623 E.03009
G1 X175 Y52.623 E3.13543
G1 X176.307 Y53.015 E.04278
G1 X177.183 Y54.06 E.04275
G1 X177.377 Y55 E.03009
G1 X177.377 Y155 E3.13543
G1 X176.985 Y156.307 E.04278
G1 X175.94 Y157.183 E.04275
G1 X175 Y157.377 E.03009
G1 X75 Y157.377 E3.13543
G1 X73.693 Y156.985 E.04278
G1 X72.817 Y155.94 E.04275
G1 X72.623 Y155 E.03009
G1 X72.623 Y55 E3.13543
G1 X72.997 Y53.75 E.04091
M204 S1000
; printing object Base .stl id:0 copy 0
;WIPE_START
G1 F8640
G1 X74.06 Y52.817 E-.32658
G1 X75 Y52.623 E-.22162
G1 X76.091 Y52.623 E-.2518
;WIPE_END
G1 Z.6 F720
G1 X75.787 Y55.787 F10800
G1 Z.2 F720
G1 E.8 F2100
M204 S800
;TYPE:Perimeter
;WIDTH:0.419999
G1 F1200
G1 X174.213 Y55.787 E3.08607
G1 X174.213 Y154.213 E3.08607
M73 P0 R279
G1 X75.787 Y154.213 E3.08607
M73 Q0 S286
G1 X75.787 Y55.847 E3.08419
M204 S1000
G1 X75.41 Y55.41 F10800
M204 S800
;TYPE:External perimeter
G1 F1200
G1 X174.59 Y55.41 E3.10971
G1 X174.59 Y154.59 E3.10971
G1 X75.41 Y154.59 E3.10971
G1 X75.41 Y55.47 E3.10783
M204 S1000
G1 X75.796 Y55.514 F10800
;WIPE_START
G1 F8640
G1 X78.875 Y55.468 E-.8
;WIPE_END
G1 Z.6 F720
G1 X165.765 Y62.853 F10800
G1 Z.2 F720
G1 E.8 F2100
M204 S800
;TYPE:Perimeter
G1 F1200
G1 X166.186 Y63.045 E.01451
G1 X166.613 Y63.387 E.01715
G1 X166.955 Y63.814 E.01715
G1 X167.165 Y64.265 E.0156
G1 X167.26 Y64.652 E.01249
G1 X167.286 Y65.049 E.01247
G1 X167.242 Y65.445 E.01249
G1 X167.131 Y65.828 E.0125
G1 X166.955 Y66.186 E.01251
G1 X166.719 Y66.507 E.01249
G1 X166.432 Y66.783 E.01248
G1 X166.1 Y67.004 E.0125
G1 X165.735 Y67.165 E.01251
G1 X165.348 Y67.26 E.01249
G1 X164.951 Y67.286 E.01247
G1 X164.555 Y67.242 E.01249
G1 X164.172 Y67.131 E.0125
G1 X163.814 Y66.955 E.01251
G1 X163.387 Y66.613 E.01715
G1 X163.045 Y66.186 E.01715
G1 X162.835 Y65.735 E.0156
G1 X162.74 Y65.348 E.01249
G1 X162.714 Y64.951 E.01247
G1 X162.758 Y64.555 E.01249
G1 X162.869 Y64.172 E.0125
G1 X163.045 Y63.814 E.01251
G1 X163.281 Y63.493 E.01249
G1 X163.568 Y63.217 E.01248
G1 X163.9 Y62.996 E.0125
G1 X164.265 Y62.835 E.01251
G1 X164.701 Y62.738 E.014
G1 X165.299 Y62.738 E.01875
G1 X165.707 Y62.839 E.01318
M204 S1000
G1 X165.722 Y63.236 F10800
M204 S800
;TYPE:External perimeter
G1 F1200
G1 X165.969 Y63.354 E.00858
G1 X166.347 Y63.653 E.01511
G1 X166.662 Y64.059 E.01611
G1 X166.801 Y64.362 E.01045
G1 X166.884 Y64.684 E.01043
G1 X166.91 Y65.016 E.01044
G1 X166.878 Y65.348 E.01046
G1 X166.789 Y65.669 E.01044
G1 X166.646 Y65.969 E.01042
G1 X166.453 Y66.24 E.01043
G1 X166.215 Y66.474 E.01046
G1 X165.941 Y66.662 E.01042
G1 X165.638 Y66.801 E.01045
G1 X165.316 Y66.884 E.01043
G1 X164.984 Y66.91 E.01044
G1 X164.652 Y66.878 E.01046
G1 X164.331 Y66.789 E.01044
G1 X164.031 Y66.646 E.01042
G1 X163.653 Y66.346 E.01513
G1 X163.344 Y65.954 E.01565
G1 X163.199 Y65.638 E.0109
G1 X163.116 Y65.316 E.01043
G1 X163.09 Y64.984 E.01044
G1 X163.122 Y64.652 E.01046
G1 X163.211 Y64.331 E.01044
G1 X163.354 Y64.031 E.01042
G1 X163.547 Y63.76 E.01043
G1 X163.785 Y63.526 E.01046
G1 X164.059 Y63.338 E.01042
G1 X164.362 Y63.199 E.01045
G1 X164.701 Y63.115 E.01095
G1 X165.299 Y63.115 E.01875
G1 X165.668 Y63.211 E.01195
M204 S1000
G1 X165.93 Y63.058 F10800
;WIPE_START
G1 F8640
G1 X165.969 Y63.354 E-.07695
G1 X166.347 Y63.653 E-.11129
G1 X166.662 Y64.059 E-.11865
G1 X166.801 Y64.362 E-.07697
G1 X166.884 Y64.684 E-.07678
G1 X166.91 Y65.016 E-.07689
G1 X166.878 Y65.348 E-.07701
G1 X166.789 Y65.669 E-.07692
G1 X166.646 Y65.969 E-.07674
G1 X166.566 Y66.081 E-.0318
;WIPE_END
G1 Z.6 F720
G1 X85.765 Y62.853 F10800
G1 Z.2 F720
G1 E.8 F2100
M204 S800
;TYPE:Perimeter
G1 F1200
G1 X86.186 Y63.045 E.01451
G1 X86.507 Y63.281 E.01249
G1 X86.783 Y63.568 E.01248
G1 X87.023 Y63.945 E.01401
G1 X87.228 Y64.507 E.01876
G1 X87.286 Y65.049 E.01709
G1 X87.242 Y65.445 E.01249
G1 X87.131 Y65.828 E.0125
G1 X86.955 Y66.186 E.01251
G1 X86.614 Y66.613 E.01713
G1 X86.186 Y66.955 E.01718
G1 X85.735 Y67.165 E.0156
G1 X85.348 Y67.26 E.01249
G1 X84.951 Y67.286 E.01247
G1 X84.555 Y67.242 E.01249
G1 X84.172 Y67.131 E.0125
G1 X83.814 Y66.955 E.01251
G1 X83.493 Y66.719 E.01249
G1 X83.217 Y66.432 E.01248
G1 X82.996 Y66.1 E.0125
G1 X82.835 Y65.735 E.01251
G1 X82.74 Y65.348 E.01249
G1 X82.714 Y65.049 E.00941
G1 X82.758 Y64.555 E.01555
G1 X82.869 Y64.172 E.0125
G1 X83.045 Y63.814 E.01251
G1 X83.387 Y63.387 E.01715
G1 X83.814 Y63.045 E.01715
G1 X84.265 Y62.835 E.0156
G1 X84.701 Y62.738 E.014
G1 X85.299 Y62.738 E.01875
G1 X85.707 Y62.839 E.01318
M204 S1000
G1 X85.694 Y63.223 F10800
M204 S800
;TYPE:External perimeter
G1 F1200
G1 X85.969 Y63.354 E.00955
G1 X86.24 Y63.547 E.01043
G1 X86.474 Y63.785 E.01046
G1 X86.669 Y64.074 E.01093
G1 X86.873 Y64.636 E.01875
G1 X86.91 Y65.016 E.01197
G1 X86.878 Y65.348 E.01046
G1 X86.789 Y65.669 E.01044
G1 X86.646 Y65.969 E.01042
G1 X86.347 Y66.346 E.01509
G1 X85.954 Y66.656 E.01569
G1 X85.638 Y66.801 E.0109
G1 X85.316 Y66.884 E.01043
G1 X84.984 Y66.91 E.01044
G1 X84.652 Y66.878 E.01046
G1 X84.331 Y66.789 E.01044
G1 X84.031 Y66.646 E.01042
G1 X83.76 Y66.453 E.01043
G1 X83.526 Y66.215 E.01046
G1 X83.338 Y65.941 E.01042
G1 X83.199 Y65.638 E.01045
G1 X83.116 Y65.316 E.01043
G1 X83.09 Y65.016 E.00944
G1 X83.122 Y64.652 E.01146
G1 X83.211 Y64.331 E.01044
G1 X83.354 Y64.031 E.01042
G1 X83.653 Y63.654 E.01509
G1 X84.059 Y63.338 E.01613
G1 X84.362 Y63.199 E.01045
G1 X84.701 Y63.115 E.01095
G1 X85.299 Y63.115 E.01875
G1 X85.638 Y63.203 E.01098
M204 S1000
G1 X85.924 Y63.023 F10800
;WIPE_START
G1 F8640
G1 X85.969 Y63.354 E-.08401
G1 X86.24 Y63.547 E-.07682
G1 X86.474 Y63.785 E-.07707
G1 X86.669 Y64.074 E-.0805
G1 X86.873 Y64.636 E-.13805
G1 X86.91 Y65.016 E-.08816
G1 X86.878 Y65.348 E-.07701
G1 X86.789 Y65.669 E-.07692
G1 X86.646 Y65.969 E-.07674
G1 X86.579 Y66.053 E-.02472
;WIPE_END
G1 Z.6 F720
G1 X82.753 Y145.4 F10800
G1 Z.2 F720
G1 E.8 F2100
M204 S800
;TYPE:Perimeter
G1 F1200
G1 X82.714 Y144.951 E.01413
G1 X82.758 Y144.555 E.01249
G1 X82.869 Y144.172 E.0125
G1 X83.045 Y143.814 E.01251
G1 X83.281 Y143.493 E.01249
G1 X83.569 Y143.217 E.01251
G1 X83.9 Y142.996 E.01248
G1 X84.265 Y142.835 E.01251
G1 X84.701 Y142.738 E.014
G1 X85.299 Y142.738 E.01875
G1 X85.8 Y142.857 E.01615
G1 X86.186 Y143.045 E.01346
G1 X86.613 Y143.387 E.01715
G1 X86.955 Y143.814 E.01715
G1 X87.228 Y144.507 E.02335
G1 X87.286 Y145.049 E.01709
G1 X87.242 Y145.445 E.01249
G1 X87.131 Y145.828 E.0125
G1 X86.955 Y146.186 E.01251
G1 X86.783 Y146.431 E.00939
G1 X86.431 Y146.783 E.01561
G1 X86.055 Y147.023 E.01399
G1 X85.493 Y147.228 E.01876
G1 X84.951 Y147.286 E.01709
G1 X84.555 Y147.242 E.01249
G1 X84.172 Y147.131 E.0125
G1 X83.814 Y146.955 E.01251
G1 X83.387 Y146.613 E.01715
G1 X83.045 Y146.186 E.01715
G1 X82.835 Y145.735 E.0156
G1 X82.767 Y145.458 E.00894
M204 S1000
G1 X83.166 Y145.508 F10800
M204 S800
;TYPE:External perimeter
G1 F1200
G1 X83.116 Y145.316 E.00622
G1 X83.09 Y144.984 E.01044
G1 X83.122 Y144.652 E.01046
G1 X83.211 Y144.331 E.01044
G1 X83.354 Y144.031 E.01042
G1 X83.547 Y143.76 E.01043
G1 X83.785 Y143.526 E.01046
G1 X84.059 Y143.338 E.01042
G1 X84.362 Y143.199 E.01045
G1 X84.701 Y143.115 E.01095
G1 X85.299 Y143.115 E.01875
G1 X85.669 Y143.211 E.01199
G1 X85.969 Y143.354 E.01042
G1 X86.347 Y143.654 E.01513
G1 X86.656 Y144.046 E.01565
G1 X86.873 Y144.636 E.01971
G1 X86.91 Y145.016 E.01197
G1 X86.878 Y145.348 E.01046
G1 X86.789 Y145.669 E.01044
G1 X86.646 Y145.969 E.01042
G1 X86.474 Y146.215 E.00941
G1 X86.215 Y146.474 E.01148
G1 X85.926 Y146.669 E.01093
G1 X85.364 Y146.873 E.01875
G1 X84.984 Y146.91 E.01197
G1 X84.652 Y146.878 E.01046
G1 X84.331 Y146.789 E.01044
G1 X84.031 Y146.646 E.01042
G1 X83.653 Y146.347 E.01511
G1 X83.338 Y145.941 E.01611
G1 X83.181 Y145.567 E.01272
M204 S1000
G1 X82.97 Y145.473 F10800
;WIPE_START
G1 F8640
G1 X83.116 Y145.316 E-.05987
G1 X83.09 Y144.984 E-.07689
G1 X83.122 Y144.652 E-.07701
G1 X83.211 Y144.331 E-.07692
G1 X83.354 Y144.031 E-.07674
G1 X83.547 Y143.76 E-.07682
G1 X83.785 Y143.526 E-.07707
G1 X84.059 Y143.338 E-.07673
G1 X84.362 Y143.199 E-.07697
G1 X84.701 Y143.115 E-.08064
G1 X84.893 Y143.115 E-.04434
;WIPE_END
G1 Z.6 F720
G1 X165.789 Y147.14 F10800
G1 Z.2 F720
G1 E.8 F2100
M204 S800
;TYPE:Perimeter
G1 F1200
G1 X165.348 Y147.26 E.01433
G1 X164.951 Y147.286 E.01247
G1 X164.555 Y147.242 E.01249
G1 X164.172 Y147.131 E.0125
G1 X163.814 Y146.955 E.01251
G1 X163.493 Y146.719 E.01249
G1 X163.217 Y146.432 E.01248
G1 X162.977 Y146.055 E.01401
G1 X162.772 Y145.493 E.01876
G1 X162.714 Y144.951 E.01709
G1 X162.758 Y144.555 E.01249
G1 X162.869 Y144.172 E.0125
G1 X163.045 Y143.814 E.01251
G1 X163.387 Y143.387 E.01715
G1 X163.814 Y143.045 E.01715
G1 X164.265 Y142.835 E.0156
G1 X164.701 Y142.738 E.014
G1 X165.299 Y142.738 E.01875
G1 X165.828 Y142.869 E.01709
G1 X166.186 Y143.045 E.01251
G1 X166.507 Y143.281 E.01249
G1 X166.783 Y143.568 E.01248
G1 X167.004 Y143.9 E.0125
G1 X167.165 Y144.265 E.01251
G1 X167.26 Y144.652 E.01249
G1 X167.286 Y145.049 E.01247
G1 X167.242 Y145.445 E.01249
G1 X167.131 Y145.828 E.0125
G1 X166.955 Y146.186 E.01251
G1 X166.613 Y146.613 E.01715
G1 X166.186 Y146.955 E.01715
G1 X165.844 Y147.114 E.01183
M204 S1000
G1 X165.542 Y146.825 F10800
M204 S800
;TYPE:External perimeter
G1 F1200
G1 X165.316 Y146.884 E.00732
G1 X164.984 Y146.91 E.01044
G1 X164.652 Y146.878 E.01046
G1 X164.331 Y146.789 E.01044
G1 X164.031 Y146.646 E.01042
G1 X163.76 Y146.453 E.01043
G1 X163.526 Y146.215 E.01046
G1 X163.331 Y145.926 E.01093
G1 X163.127 Y145.364 E.01875
G1 X163.09 Y144.984 E.01197
G1 X163.122 Y144.652 E.01046
G1 X163.211 Y144.331 E.01044
G1 X163.354 Y144.031 E.01042
G1 X163.653 Y143.654 E.01509
G1 X164.046 Y143.344 E.01569
G1 X164.362 Y143.199 E.0109
G1 X164.701 Y143.115 E.01095
G1 X165.299 Y143.115 E.01875
G1 X165.669 Y143.211 E.01199
G1 X165.969 Y143.354 E.01042
G1 X166.24 Y143.547 E.01043
G1 X166.474 Y143.785 E.01046
G1 X166.662 Y144.059 E.01042
G1 X166.801 Y144.362 E.01045
G1 X166.884 Y144.685 E.01046
G1 X166.91 Y145.016 E.01041
G1 X166.878 Y145.348 E.01046
G1 X166.789 Y145.669 E.01044
G1 X166.646 Y145.969 E.01042
G1 X166.346 Y146.347 E.01513
G1 X165.941 Y146.662 E.01609
G1 X165.6 Y146.81 E.01166
M204 S1000
G1 X165.501 Y147.056 F10800
;WIPE_START
G1 F8640
G1 X165.316 Y146.884 E-.06777
G1 X164.984 Y146.91 E-.07689
G1 X164.652 Y146.878 E-.07701
G1 X164.331 Y146.789 E-.07692
G1 X164.031 Y146.646 E-.07674
G1 X163.76 Y146.453 E-.07682
G1 X163.526 Y146.215 E-.07707
G1 X163.331 Y145.926 E-.0805
G1 X163.127 Y145.364 E-.13805
G1 X163.105 Y145.139 E-.05223
;WIPE_END
G1 Z.6 F720
G1 X173.281 Y55.957 F10800
G1 Z.2 F720
G1 E.8 F2100
M204 S800
;TYPE:Solid infill
;WIDTH:0.420008
G1 F1200
G1 X173.874 Y56.549 E.02627
G1 X173.874 Y57.083 E.01674
G1 X172.917 Y56.126 E.04244
G1 X172.384 Y56.126 E.01671
G1 X173.874 Y57.616 E.06607
G1 X173.874 Y58.149 E.01671
G1 X171.851 Y56.126 E.08971
G1 X171.318 Y56.126 E.01671
G1 X173.874 Y58.682 E.11334
G1 X173.874 Y59.216 E.01674
G1 X170.784 Y56.126 E.13702
G1 X170.251 Y56.126 E.01671
G1 X173.874 Y59.749 E.16065
G1 X173.874 Y60.282 E.01671
G1 X169.718 Y56.126 E.18429
G1 X169.184 Y56.126 E.01674
G1 X173.874 Y60.816 E.20797
G1 X173.874 Y61.349 E.01671
G1 X168.651 Y56.126 E.2316
G1 X168.118 Y56.126 E.01671
G1 X173.874 Y61.882 E.25524
G1 X173.874 Y62.415 E.01671
G1 X167.585 Y56.126 E.27887
G1 X167.051 Y56.126 E.01674
G1 X173.874 Y62.949 E.30255
G1 X173.874 Y63.482 E.01671
G1 X166.518 Y56.126 E.32618
G1 X165.985 Y56.126 E.01671
G1 X173.874 Y64.015 E.34982
G1 X173.874 Y64.549 E.01674
G1 X165.451 Y56.126 E.3735
G1 X164.918 Y56.126 E.01671
G1 X173.874 Y65.082 E.39713
G1 X173.874 Y65.615 E.01671
G1 X164.385 Y56.126 E.42077
G1 X163.852 Y56.126 E.01671
G1 X173.874 Y66.148 E.4444
G1 X173.874 Y66.682 E.01674
G1 X163.318 Y56.126 E.46808
G1 X162.785 Y56.126 E.01671
G1 X173.874 Y67.215 E.49172
G1 X173.874 Y67.748 E.01671
G1 X162.252 Y56.126 E.51535
G1 X161.718 Y56.126 E.01674
G1 X173.874 Y68.282 E.53903
G1 X173.874 Y68.815 E.01671
M73 P0 R278
G1 X161.185 Y56.126 E.56266
G1 X160.652 Y56.126 E.01671
G1 X173.874 Y69.348 E.5863
G1 X173.874 Y69.881 E.01671
G1 X160.119 Y56.126 E.60993
G1 X159.585 Y56.126 E.01674
G1 X173.874 Y70.415 E.63361
G1 X173.874 Y70.948 E.01671
G1 X167.593 Y64.668 E.27849
G1 X167.628 Y64.999 E.01044
G1 X167.609 Y65.217 E.00686
G1 X173.874 Y71.481 E.27778
G1 X173.874 Y72.015 E.01674
G1 X167.527 Y65.668 E.28144
G1 X167.443 Y65.963 E.00962
M73 Q0 S285
G1 X167.392 Y66.066 E.0036
G1 X173.874 Y72.548 E.28743
G1 X173.874 Y73.081 E.01671
G1 X167.207 Y66.415 E.29561
G1 X166.98 Y66.721 E.01195
G1 X173.874 Y73.614 E.30568
G1 X173.874 Y74.148 E.01674
G1 X166.71 Y66.984 E.31767
G1 X166.634 Y67.056 E.00328
G1 X166.402 Y67.209 E.00871
G1 X173.874 Y74.681 E.33133
G1 X173.874 Y75.214 E.01671
G1 X166.054 Y67.394 E.34676
G1 X165.834 Y67.49 E.00753
G1 X165.662 Y67.536 E.00558
G1 X173.874 Y75.748 E.36414
G1 X173.874 Y76.281 E.01671
G1 X165.2 Y67.607 E.38463
G1 X164.999 Y67.628 E.00634
G1 X164.659 Y67.599 E.0107
G1 X174.043 Y76.984 E.41613
M204 S1000
;WIPE_START
G1 F8640
G1 X171.593 Y74.534 E-.8
;WIPE_END
G1 Z.6 F720
G1 X158.882 Y55.957 F10800
G1 Z.2 F720
G1 E.8 F2100
M204 S800
G1 F1200
G1 X165.327 Y62.401 E.28577
G1 X164.799 Y62.407 E.01656
G1 X158.519 Y56.126 E.27849
G1 X157.985 Y56.126 E.01674
G1 X164.327 Y62.468 E.28122
G1 X164.166 Y62.51 E.00522
G1 X163.936 Y62.61 E.00786
G1 X157.452 Y56.126 E.28752
G1 X156.919 Y56.126 E.01671
G1 X163.589 Y62.797 E.29579
G1 X163.366 Y62.944 E.00837
G1 X163.283 Y63.024 E.00361
G1 X156.386 Y56.126 E.30585
G1 X155.852 Y56.126 E.01674
G1 X163.013 Y63.287 E.31754
G1 X162.786 Y63.594 E.01197
G1 X155.319 Y56.126 E.33113
G1 X154.786 Y56.126 E.01671
G1 X162.603 Y63.944 E.34665
G1 X162.557 Y64.037 E.00325
G1 X162.469 Y64.343 E.00998
G1 X154.252 Y56.126 E.36436
G1 X153.719 Y56.126 E.01671
G1 X162.39 Y64.797 E.3845
G1 X162.372 Y65.004 E.00651
G1 X162.408 Y65.349 E.01088
G1 X153.186 Y56.126 E.40895
G1 X152.653 Y56.126 E.01671
G1 X173.874 Y77.347 E.941
G1 X173.874 Y77.881 E.01674
G1 X152.119 Y56.126 E.96467
G1 X151.586 Y56.126 E.01671
G1 X173.874 Y78.414 E.98831
G1 X173.874 Y78.947 E.01671
G1 X151.053 Y56.126 E1.01194
G1 X150.519 Y56.126 E.01674
G1 X173.874 Y79.481 E1.03562
G1 X173.874 Y80.014 E.01671
G1 X149.986 Y56.126 E1.05926
G1 X149.453 Y56.126 E.01671
G1 X173.874 Y80.547 E1.08289
G1 X173.874 Y81.08 E.01671
G1 X148.92 Y56.126 E1.10653
G1 X148.386 Y56.126 E.01674
G1 X173.874 Y81.614 E1.13021
G1 X173.874 Y82.147 E.01671
G1 X147.853 Y56.126 E1.15384
G1 X147.32 Y56.126 E.01671
