; generated by PrusaSlicer 2.6.1+win64 on 2023-10-09 at 20:29:57 UTC


;
;
; 

; external perimeters extrusion width = 0.45mm
; perimeters extrusion width = 0.45mm
; infill extrusion width = 0.45mm
; solid infill extrusion width = 0.45mm
; top infill extrusion width = 0.40mm
; first layer extrusion width = 0.42mm

M73 P0 R81
M73 Q0 S82
M201 X1000 Y1000 Z200 E5000 ; sets maximum accelerations, mm/sec^2
M203 X200 Y200 Z12 E120 ; sets maximum feedrates, mm / sec
M204 S1250 T1250 ; sets acceleration (S) and retract acceleration (R), mm/sec^2
M205 X8.00 Y8.00 Z0.40 E4.50 ; sets the jerk limits, mm/sec
M205 S0 T0 ; sets the minimum extruding and travel feed rate, mm/sec
;TYPE:Custom
M862.3 P "MK3S" ; printer model check
M862.1 P0.4 ; nozzle diameter check
M115 U3.12.2 ; tell printer latest fw version
G90 ; use absolute coordinates
M83 ; extruder relative mode
M104 S215 ; set extruder temp
M140 S60 ; set bed temp
M190 S60 ; wait for bed temp
M109 S215 ; wait for extruder temp
G28 W ; home all without mesh bed level
G80 ; mesh bed leveling

G1 Z0.2 F720
G1 Y-3 F1000 ; go outside print area
G92 E0
G1 X60 E9 F1000 ; intro line
G1 X100 E12.5 F1000 ; intro line

G92 E0
M221 S95

; Don't change E values below. Excessive value can damage the printer.

M907 E538 ; set extruder motor current
G21 ; set units to millimeters
G90 ; use absolute coordinates
M83 ; use relative distances for extrusion
M900 K0.05 ; Filament gcode LA 1.5
M900 K30 ; Filament gcode LA 1.0
M107
;LAYER_CHANGE
;Z:0.2
;HEIGHT:0.2
;BEFORE_LAYER_CHANGE
G92 E0.0
;0.2


G1 E-.8 F2100
G1 Z.4 F720
;AFTER_LAYER_CHANGE
;0.2
G1 X93.015 Y81.193 F10800
G1 Z.2 F720
G1 E.8 F2100
M204 S800
;TYPE:Skirt/Brim
;WIDTH:0.42
G1 F1200
G1 X94.06 Y80.317 E.04275
G1 X95 Y80.123 E.03009
G1 X155 Y80.123 E1.88126
G1 X156.307 Y80.515 E.04278
G1 X157.183 Y81.56 E.04275
G1 X157.377 Y82.5 E.03009
G1 X157.377 Y127.5 E1.41094
G1 X156.985 Y128.807 E.04278
G1 X155.94 Y129.683 E.04275
G1 X155 Y129.877 E.03009
G1 X95 Y129.877 E1.88126
G1 X93.693 Y129.485 E.04278
G1 X92.817 Y128.44 E.04275
G1 X92.623 Y127.5 E.03009
G1 X92.623 Y82.5 E1.41094
G1 X92.997 Y81.25 E.04091
M204 S1000
; printing object Laser holder thingy.stl id:0 copy 0
;WIPE_START
G1 F8640
G1 X94.06 Y80.317 E-.32658
G1 X95 Y80.123 E-.22162
G1 X96.091 Y80.123 E-.2518
;WIPE_END
G1 Z.6 F720
G1 X154.213 Y126.713 F10800
G1 Z.2 F720
G1 E.8 F2100
M204 S800
;TYPE:Perimeter
;WIDTH:0.419999
G1 F1200
G1 X95.787 Y126.713 E1.8319
G1 X95.787 Y83.287 E1.36159
G1 X154.213 Y83.287 E1.8319
G1 X154.213 Y126.653 E1.35971
M204 S1000
G1 X154.59 Y127.09 F10800
M204 S800
;TYPE:External perimeter
G1 F1200
G1 X95.41 Y127.09 E1.85554
G1 X95.41 Y82.91 E1.38523
G1 X154.59 Y82.91 E1.85554
G1 X154.59 Y127.03 E1.38335
M204 S1000
M73 P0 R80
G1 X154.199 Y127.005 F10800
;WIPE_START
G1 F8640
G1 X151.125 Y127.034 E-.8
;WIPE_END
G1 Z.6 F720
G1 X153.277 Y83.457 F10800
G1 Z.2 F720
G1 E.8 F2100
M204 S800
;TYPE:Solid infill
;WIDTH:0.421721
G1 F1200
G1 X153.874 Y84.053 E.02657
G1 X153.874 Y84.589 E.01688
G1 X152.911 Y83.626 E.0429
G1 X152.376 Y83.626 E.01685
G1 X153.874 Y85.124 E.06673
G1 X153.874 Y85.66 E.01688
G1 X151.84 Y83.626 E.0906
G1 X151.304 Y83.626 E.01688
G1 X153.874 Y86.196 E.11448
G1 X153.874 Y86.732 E.01688
G1 X150.768 Y83.626 E.13835
G1 X150.233 Y83.626 E.01685
G1 X153.874 Y87.267 E.16219
G1 X153.874 Y87.803 E.01688
G1 X149.697 Y83.626 E.18606
G1 X149.161 Y83.626 E.01688
G1 X153.874 Y88.339 E.20994
G1 X153.874 Y88.874 E.01685
G1 X148.626 Y83.626 E.23377
G1 X148.09 Y83.626 E.01688
G1 X153.874 Y89.41 E.25764
G1 X153.874 Y89.946 E.01688
G1 X147.554 Y83.626 E.28152
G1 X147.019 Y83.626 E.01685
G1 X153.874 Y90.481 E.30535
G1 X153.874 Y91.017 E.01688
G1 X146.483 Y83.626 E.32923
G1 X145.947 Y83.626 E.01688
G1 X153.874 Y91.553 E.3531
G1 X153.874 Y92.089 E.01688
G1 X145.411 Y83.626 E.37698
G1 X144.876 Y83.626 E.01685
G1 X153.874 Y92.624 E.40081
G1 X153.874 Y93.16 E.01688
M73 Q0 S81
G1 X144.34 Y83.626 E.42468
G1 X143.804 Y83.626 E.01688
G1 X153.874 Y93.696 E.44856
G1 X153.874 Y94.231 E.01685
G1 X143.269 Y83.626 E.47239
G1 X142.733 Y83.626 E.01688
M73 P1 R80
M73 Q1 S81
G1 X153.874 Y94.767 E.49627
G1 X153.874 Y95.303 E.01688
G1 X142.197 Y83.626 E.52014
G1 X141.661 Y83.626 E.01688
G1 X153.874 Y95.839 E.54402
G1 X153.874 Y96.374 E.01685
G1 X141.126 Y83.626 E.56785
G1 X140.59 Y83.626 E.01688
G1 X153.874 Y96.91 E.59172
G1 X153.874 Y97.446 E.01688
G1 X140.054 Y83.626 E.6156
G1 X139.519 Y83.626 E.01685
G1 X153.874 Y97.981 E.63943
G1 X153.874 Y98.517 E.01688
G1 X138.983 Y83.626 E.66331
G1 X138.447 Y83.626 E.01688
G1 X153.874 Y99.053 E.68718
G1 X153.874 Y99.588 E.01685
G1 X137.912 Y83.626 E.71101
G1 X137.376 Y83.626 E.01688
G1 X153.874 Y100.124 E.73489
G1 X153.874 Y100.66 E.01688
G1 X136.84 Y83.626 E.75876
G1 X136.304 Y83.626 E.01688
G1 X153.874 Y101.196 E.78264
G1 X153.874 Y101.731 E.01685
G1 X135.769 Y83.626 E.80647
G1 X135.233 Y83.626 E.01688
G1 X153.874 Y102.267 E.83035
G1 X153.874 Y102.803 E.01688
G1 X134.697 Y83.626 E.85422
G1 X134.162 Y83.626 E.01685
G1 X153.874 Y103.338 E.87805
G1 X153.874 Y103.874 E.01688
G1 X133.626 Y83.626 E.90193
G1 X133.09 Y83.626 E.01688
G1 X153.874 Y104.41 E.9258
G1 X153.874 Y104.946 E.01688
G1 X132.554 Y83.626 E.94968
G1 X132.019 Y83.626 E.01685
G1 X153.874 Y105.481 E.97351
G1 X153.874 Y106.017 E.01688
G1 X131.483 Y83.626 E.99739
G1 X130.947 Y83.626 E.01688
G1 X153.874 Y106.553 E1.02126
G1 X153.874 Y107.088 E.01685
G1 X130.412 Y83.626 E1.04509
G1 X129.876 Y83.626 E.01688
G1 X153.874 Y107.624 E1.06897
G1 X153.874 Y108.16 E.01688
G1 X129.34 Y83.626 E1.09284
G1 X128.805 Y83.626 E.01685
G1 X153.874 Y108.695 E1.11668
G1 X153.874 Y109.231 E.01688
G1 X128.269 Y83.626 E1.14055
G1 X127.733 Y83.626 E.01688
G1 X153.874 Y109.767 E1.16443
G1 X153.874 Y110.303 E.01688
G1 X127.197 Y83.626 E1.1883
G1 X126.662 Y83.626 E.01685
G1 X153.874 Y110.838 E1.21213
G1 X153.874 Y111.374 E.01688
G1 X126.126 Y83.626 E1.23601
G1 X125.59 Y83.626 E.01688
G1 X153.874 Y111.91 E1.25989
G1 X153.874 Y112.445 E.01685
M73 P1 R79
G1 X125.055 Y83.626 E1.28372
G1 X124.519 Y83.626 E.01688
M73 P2 R79
G1 X153.874 Y112.981 E1.30759
G1 X153.874 Y113.517 E.01688
M73 Q2 S81
G1 X123.983 Y83.626 E1.33147
G1 X123.447 Y83.626 E.01688
G1 X153.874 Y114.053 E1.35534
G1 X153.874 Y114.588 E.01685
G1 X122.912 Y83.626 E1.37917
G1 X122.376 Y83.626 E.01688
M73 Q2 S80
G1 X153.874 Y115.124 E1.40305
G1 X153.874 Y115.66 E.01688
G1 X121.84 Y83.626 E1.42693
G1 X121.305 Y83.626 E.01685
G1 X153.874 Y116.195 E1.45076
G1 X153.874 Y116.731 E.01688
G1 X120.769 Y83.626 E1.47463
G1 X120.233 Y83.626 E.01688
G1 X153.874 Y117.267 E1.49851
G1 X153.874 Y117.802 E.01685
G1 X119.698 Y83.626 E1.52234
G1 X119.162 Y83.626 E.01688
G1 X153.874 Y118.338 E1.54621
G1 X153.874 Y118.874 E.01688
G1 X118.626 Y83.626 E1.57009
G1 X118.09 Y83.626 E.01688
G1 X153.874 Y119.41 E1.59397
G1 X153.874 Y119.945 E.01685
G1 X117.555 Y83.626 E1.6178
G1 X117.019 Y83.626 E.01688
G1 X153.874 Y120.481 E1.64167
G1 X153.874 Y121.017 E.01688
G1 X116.483 Y83.626 E1.66555
G1 X115.948 Y83.626 E.01685
G1 X153.874 Y121.552 E1.68938
G1 X153.874 Y122.088 E.01688
G1 X115.412 Y83.626 E1.71325
G1 X114.876 Y83.626 E.01688
G1 X153.874 Y122.624 E1.73713
G1 X153.874 Y123.16 E.01688
G1 X114.341 Y83.626 E1.76098
G1 X113.805 Y83.626 E.01688
M73 P3 R79
G1 X153.874 Y123.695 E1.78484
G1 X153.874 Y124.231 E.01688
M73 Q3 S80
G1 X113.269 Y83.626 E1.80871
G1 X112.733 Y83.626 E.01688
G1 X153.874 Y124.767 E1.83259
G1 X153.874 Y125.302 E.01685
M73 P3 R78
G1 X112.198 Y83.626 E1.85642
G1 X111.662 Y83.626 E.01688
G1 X153.874 Y125.838 E1.8803
G1 X153.874 Y126.374 E.01688
G1 X111.126 Y83.626 E1.90417
G1 X110.591 Y83.626 E.01685
G1 X153.338 Y126.374 E1.90415
G1 X152.802 Y126.374 E.01688
M73 Q3 S79
G1 X110.055 Y83.626 E1.90415
G1 X109.519 Y83.626 E.01688
G1 X152.266 Y126.374 E1.90415
G1 X151.731 Y126.374 E.01685
G1 X108.983 Y83.626 E1.90417
G1 X108.448 Y83.626 E.01685
G1 X151.195 Y126.374 E1.90415
G1 X150.659 Y126.374 E.01688
G1 X107.912 Y83.626 E1.90415
G1 X107.376 Y83.626 E.01688
G1 X150.123 Y126.374 E1.90415
G1 X149.588 Y126.374 E.01685
G1 X106.841 Y83.626 E1.90415
G1 X106.305 Y83.626 E.01688
G1 X149.052 Y126.374 E1.90415
G1 X148.516 Y126.374 E.01688
G1 X105.769 Y83.626 E1.90415
G1 X105.234 Y83.626 E.01685
M73 P4 R78
G1 X147.981 Y126.374 E1.90415
G1 X147.445 Y126.374 E.01688
M73 Q4 S79
G1 X104.698 Y83.626 E1.90415
G1 X104.162 Y83.626 E.01688
G1 X146.909 Y126.374 E1.90415
G1 X146.373 Y126.374 E.01688
G1 X103.626 Y83.626 E1.90415
G1 X103.091 Y83.626 E.01685
G1 X145.838 Y126.374 E1.90415
G1 X145.302 Y126.374 E.01688
G1 X102.555 Y83.626 E1.90415
G1 X102.019 Y83.626 E.01688
G1 X144.766 Y126.374 E1.90415
G1 X144.231 Y126.374 E.01685
M73 P4 R77
G1 X101.484 Y83.626 E1.90415
G1 X100.948 Y83.626 E.01688
G1 X143.695 Y126.374 E1.90415
G1 X143.159 Y126.374 E.01688
G1 X100.412 Y83.626 E1.90415
G1 X99.876 Y83.626 E.01688
M73 Q4 S78
G1 X142.624 Y126.374 E1.90417
G1 X142.088 Y126.374 E.01688
G1 X99.341 Y83.626 E1.90415
G1 X98.805 Y83.626 E.01688
G1 X141.552 Y126.374 E1.90415
G1 X141.016 Y126.374 E.01688
G1 X98.269 Y83.626 E1.90415
G1 X97.734 Y83.626 E.01685
G1 X140.481 Y126.374 E1.90415
G1 X139.945 Y126.374 E.01688
G1 X97.198 Y83.626 E1.90415
G1 X96.662 Y83.626 E.01688
M73 P5 R77
G1 X139.409 Y126.374 E1.90415
G1 X138.874 Y126.374 E.01685
M73 Q5 S78
G1 X96.126 Y83.626 E1.90417
G1 X96.126 Y84.162 E.01688
G1 X138.338 Y126.374 E1.8803
G1 X137.802 Y126.374 E.01688
G1 X96.126 Y84.698 E1.85642
G1 X96.126 Y85.234 E.01688
G1 X137.267 Y126.374 E1.83257
G1 X136.731 Y126.374 E.01688
G1 X96.126 Y85.769 E1.80871
G1 X96.126 Y86.305 E.01688
G1 X136.195 Y126.374 E1.78484
G1 X135.659 Y126.374 E.01688
G1 X96.126 Y86.841 E1.76096
G1 X96.126 Y87.376 E.01685
G1 X135.124 Y126.374 E1.73713
G1 X134.588 Y126.374 E.01688
G1 X96.126 Y87.912 E1.71325
G1 X96.126 Y88.448 E.01688
G1 X134.052 Y126.374 E1.68938
G1 X133.517 Y126.374 E.01685
M73 P5 R76
G1 X96.126 Y88.983 E1.66555
G1 X96.126 Y89.519 E.01688
G1 X132.981 Y126.374 E1.64167
G1 X132.445 Y126.374 E.01688
G1 X96.126 Y90.055 E1.6178
G1 X96.126 Y90.591 E.01688
G1 X131.909 Y126.374 E1.59392
G1 X131.374 Y126.374 E.01685
M73 Q5 S77
G1 X96.126 Y91.126 E1.57009
G1 X96.126 Y91.662 E.01688
G1 X130.838 Y126.374 E1.54621
G1 X130.302 Y126.374 E.01688
G1 X96.126 Y92.198 E1.52234
G1 X96.126 Y92.733 E.01685
M73 P6 R76
G1 X129.767 Y126.374 E1.49851
G1 X129.231 Y126.374 E.01688
M73 Q6 S77
G1 X96.126 Y93.269 E1.47463
G1 X96.126 Y93.805 E.01688
G1 X128.695 Y126.374 E1.45076
G1 X128.16 Y126.374 E.01685
G1 X96.126 Y94.34 E1.42693
G1 X96.126 Y94.876 E.01688
G1 X127.624 Y126.374 E1.40305
G1 X127.088 Y126.374 E.01688
G1 X96.126 Y95.412 E1.37917
G1 X96.126 Y95.948 E.01688
G1 X126.552 Y126.374 E1.3553
G1 X126.017 Y126.374 E.01685
G1 X96.126 Y96.483 E1.33147
G1 X96.126 Y97.019 E.01688
G1 X125.481 Y126.374 E1.30759
G1 X124.945 Y126.374 E.01688
G1 X96.126 Y97.555 E1.28372
G1 X96.126 Y98.09 E.01685
G1 X124.41 Y126.374 E1.25989
G1 X123.874 Y126.374 E.01688
G1 X96.126 Y98.626 E1.23601
G1 X96.126 Y99.162 E.01688
G1 X123.338 Y126.374 E1.21213
G1 X122.802 Y126.374 E.01688
G1 X96.126 Y99.698 E1.18826
G1 X96.126 Y100.233 E.01685
G1 X122.267 Y126.374 E1.16443
G1 X121.731 Y126.374 E.01688
G1 X96.126 Y100.769 E1.14055
G1 X96.126 Y101.305 E.01688
G1 X121.195 Y126.374 E1.11668
G1 X120.66 Y126.374 E.01685
G1 X96.126 Y101.84 E1.09284
G1 X96.126 Y102.376 E.01688
G1 X120.124 Y126.374 E1.06897
G1 X119.588 Y126.374 E.01688
G1 X96.126 Y102.912 E1.04509
G1 X96.126 Y103.447 E.01685
M73 P6 R75
G1 X119.053 Y126.374 E1.02126
G1 X118.517 Y126.374 E.01688
G1 X96.126 Y103.983 E.99739
G1 X96.126 Y104.519 E.01688
G1 X117.981 Y126.374 E.97351
G1 X117.445 Y126.374 E.01688
G1 X96.126 Y105.055 E.94964
G1 X96.126 Y105.59 E.01685
M73 P7 R75
G1 X116.91 Y126.374 E.9258
G1 X116.374 Y126.374 E.01688
G1 X96.126 Y106.126 E.90193
G1 X96.126 Y106.662 E.01688
G1 X115.838 Y126.374 E.87805
G1 X115.303 Y126.374 E.01685
M73 Q7 S76
G1 X96.126 Y107.197 E.85422
G1 X96.126 Y107.733 E.01688
G1 X114.767 Y126.374 E.83035
G1 X114.231 Y126.374 E.01688
G1 X96.126 Y108.269 E.80647
G1 X96.126 Y108.805 E.01688
G1 X113.695 Y126.374 E.7826
G1 X113.16 Y126.374 E.01685
G1 X96.126 Y109.34 E.75876
G1 X96.126 Y109.876 E.01688
G1 X112.624 Y126.374 E.73489
G1 X112.088 Y126.374 E.01688
G1 X96.126 Y110.412 E.71101
G1 X96.126 Y110.947 E.01685
G1 X111.553 Y126.374 E.68718
G1 X111.017 Y126.374 E.01688
G1 X96.126 Y111.483 E.66331
G1 X96.126 Y112.019 E.01688
G1 X110.481 Y126.374 E.63943
G1 X109.946 Y126.374 E.01685
G1 X96.126 Y112.554 E.6156
G1 X96.126 Y113.09 E.01688
G1 X109.41 Y126.374 E.59172
G1 X108.874 Y126.374 E.01688
G1 X96.126 Y113.626 E.56785
G1 X96.126 Y114.162 E.01688
G1 X108.338 Y126.374 E.54397
G1 X107.803 Y126.374 E.01685
G1 X96.126 Y114.697 E.52014
G1 X96.126 Y115.233 E.01688
G1 X107.267 Y126.374 E.49627
G1 X106.731 Y126.374 E.01688
G1 X96.126 Y115.769 E.47239
G1 X96.126 Y116.304 E.01685
G1 X106.196 Y126.374 E.44856
G1 X105.66 Y126.374 E.01688
G1 X96.126 Y116.84 E.42468
G1 X96.126 Y117.376 E.01688
G1 X105.124 Y126.374 E.40081
G1 X104.588 Y126.374 E.01688
G1 X96.126 Y117.912 E.37693
G1 X96.126 Y118.447 E.01685
G1 X104.053 Y126.374 E.3531
G1 X103.517 Y126.374 E.01688
G1 X96.126 Y118.983 E.32923
G1 X96.126 Y119.519 E.01688
G1 X102.981 Y126.374 E.30535
G1 X102.446 Y126.374 E.01685
G1 X96.126 Y120.054 E.28152
G1 X96.126 Y120.59 E.01688
G1 X101.91 Y126.374 E.25764
G1 X101.374 Y126.374 E.01688
G1 X96.126 Y121.126 E.23377
G1 X96.126 Y121.661 E.01685
G1 X100.839 Y126.374 E.20994
G1 X100.303 Y126.374 E.01688
G1 X96.126 Y122.197 E.18606
G1 X96.126 Y122.733 E.01688
G1 X99.767 Y126.374 E.16219
G1 X99.231 Y126.374 E.01688
G1 X96.126 Y123.269 E.13831
G1 X96.126 Y123.804 E.01685
G1 X98.696 Y126.374 E.11448
G1 X98.16 Y126.374 E.01688
G1 X96.126 Y124.34 E.0906
G1 X96.126 Y124.876 E.01688
G1 X97.624 Y126.374 E.06673
G1 X97.089 Y126.374 E.01685
G1 X96.126 Y125.411 E.0429
G1 X96.126 Y125.947 E.01688
G1 X96.723 Y126.543 E.02657
M204 S1000
; stop printing object Laser holder thingy.stl id:0 copy 0
M106 S84.15
;LAYER_CHANGE
;Z:0.35
;HEIGHT:0.15
;BEFORE_LAYER_CHANGE
G92 E0.0
;0.35


;WIPE_START
G1 F8640
G1 X96.126 Y125.947 E-.19478
G1 X96.126 Y125.411 E-.12376
G1 X97.089 Y126.374 E-.31446
G1 X97.624 Y126.374 E-.12353
G1 X97.491 Y126.241 E-.04347
;WIPE_END
G1 Z.6 F720
;AFTER_LAYER_CHANGE
;0.35
M104 S210 ; set temperature
G1 X97.491 Y129.877 F10800
G1 Z.35 F720
G1 E.8 F2100
;TYPE:Skirt/Brim
;WIDTH:0.42
G1 F3000
G1 X95 Y129.877 E.06024
G1 X93.693 Y129.485 E.033
G1 X92.817 Y128.44 E.03298
G1 X92.623 Y127.5 E.02321
G1 X92.623 Y82.5 E1.08832
G1 X93.015 Y81.193 E.033
G1 X94.06 Y80.317 E.03298
G1 X95 Y80.123 E.02321
G1 X155 Y80.123 E1.45109
G1 X156.307 Y80.515 E.033
G1 X157.183 Y81.56 E.03298
G1 X157.377 Y82.5 E.02321
G1 X157.377 Y127.5 E1.08832
G1 X156.985 Y128.807 E.033
G1 X155.94 Y129.683 E.03298
G1 X155 Y129.877 E.02321
G1 X97.551 Y129.877 E1.3894
; printing object Laser holder thingy.stl id:0 copy 0
;WIPE_START
G1 F8640
G1 X95 Y129.877 E-.58903
G1 X94.125 Y129.615 E-.21097
;WIPE_END
G1 Z.75 F720
G1 X154.357 Y126.857 F10800
G1 Z.35 F720
G1 E.8 F2100
M204 S800
;TYPE:Perimeter
;WIDTH:0.449999
G1 F3600
G1 X95.643 Y126.857 E1.52984
G1 X95.643 Y83.143 E1.139
G1 X154.357 Y83.143 E1.52984
G1 X154.357 Y126.797 E1.13744
M204 S1000
G1 X154.775 Y127.275 F10800
M204 S800
;TYPE:External perimeter
G1 F2099.997

G1 X154.325 Y127.275 E.01173
G1 X95.675 Y127.275 E1.52817
G1 X95.225 Y127.275 E.01173
G1 X95.225 Y126.825 E.01173
G1 X95.225 Y83.175 E1.13733
G1 X95.225 Y82.725 E.01173
G1 X95.675 Y82.725 E.01173
G1 X154.325 Y82.725 E1.52817
G1 X154.775 Y82.725 E.01173
G1 X154.775 Y83.175 E.01173
G1 X154.775 Y126.765 E1.13577
G1 X154.775 Y127.215 E.01173

M204 S1000
G1 X154.384 Y127.19 F10800
;WIPE_START
G1 F8640
G1 X151.31 Y127.218 E-.8
;WIPE_END
G1 Z.75 F720
G1 X96.132 Y83.553 F10800
G1 Z.35 F720
G1 E.8 F2100
;TYPE:Solid infill
;WIDTH:0.55137
G1 F11556.686
G1 X96.086 Y83.507 E.00211
G1 X96.024 Y83.524 E.00208
G1 X96.007 Y83.586 E.00208
G1 X96.053 Y83.632 E.00211
G1 X96.115 Y83.615 E.00208
;WIDTH:0.449999
G1 F12000
G1 X96.019 Y84.283 E.01758
G1 X96.783 Y83.519 E.02815
G1 X97.374 Y83.519 E.0154
