; generated by PrusaSlicer 2.6.0+win64 on 2023-08-08 at 17:21:49 UTC


;
;
; 

; external perimeters extrusion width = 0.60mm
; perimeters extrusion width = 0.50mm
; infill extrusion width = 0.50mm
; solid infill extrusion width = 0.50mm
; top infill extrusion width = 0.45mm
; first layer extrusion width = 0.42mm

M73 P0 R88
M73 Q0 S89
M201 X1000 Y1000 Z200 E5000 ; sets maximum accelerations, mm/sec^2
M203 X200 Y200 Z12 E120 ; sets maximum feedrates, mm / sec
M204 S1250 T1250 ; sets acceleration (S) and retract acceleration (R), mm/sec^2
M205 X8.00 Y8.00 Z0.40 E4.50 ; sets the jerk limits, mm/sec
M205 S0 T0 ; sets the minimum extruding and travel feed rate, mm/sec
;TYPE:Custom
M862.3 P "MK3S" ; printer model check
M862.1 P0.4 ; nozzle diameter check
M115 U3.12.2 ; tell printer latest fw version
G90 ; use absolute coordinates
M83 ; extruder relative mode
M104 S215 ; set extruder temp
M140 S60 ; set bed temp
M190 S60 ; wait for bed temp
M109 S215 ; wait for extruder temp
G28 W ; home all without mesh bed level
G80 ; mesh bed leveling

G1 Z0.2 F720
G1 Y-3 F1000 ; go outside print area
G92 E0
G1 X60 E9 F1000 ; intro line
G1 X100 E12.5 F1000 ; intro line

G92 E0
M221 S95

; Don't change E values below. Excessive value can damage the printer.

M907 E538 ; set extruder motor current
G21 ; set units to millimeters
G90 ; use absolute coordinates
M83 ; use relative distances for extrusion
M900 K0.05 ; Filament gcode LA 1.5
M900 K30 ; Filament gcode LA 1.0
M107
;LAYER_CHANGE
;Z:0.2
;HEIGHT:0.2
;BEFORE_LAYER_CHANGE
G92 E0.0
;0.2


G1 E-.8 F2100
G1 Z.4 F720
;AFTER_LAYER_CHANGE
;0.2
G1 X87.908 Y55.529 F10800
G1 Z.2 F720
G1 E.8 F2100
M204 S800
;TYPE:Skirt/Brim
;WIDTH:0.42
G1 F1200
G1 X89.025 Y54.744 E.04281
G1 X89.775 Y54.623 E.02382
G1 X160.225 Y54.623 E2.20891
G1 X161.532 Y55.015 E.04278
G1 X162.408 Y56.06 E.04275
G1 X162.593 Y56.798 E.02386
G1 X170.368 Y147.798 E2.86364
G1 X170.377 Y153 E.16311
G1 X169.985 Y154.307 E.04278
G1 X168.94 Y155.183 E.04275
G1 X168 Y155.377 E.03009
G1 X82 Y155.377 E2.69647
G1 X80.693 Y154.985 E.04278
G1 X79.817 Y153.94 E.04275
G1 X79.623 Y153 E.03009
G1 X79.632 Y147.798 E.16311
G1 X87.407 Y56.798 E2.86364
G1 X87.886 Y55.584 E.04092
M204 S1000
; printing object LT Brace.stl id:0 copy 0
;WIPE_START
G1 F8640
G1 X89.025 Y54.744 E-.32678
G1 X89.775 Y54.623 E-.17542
G1 X91.065 Y54.623 E-.2978
;WIPE_END
G1 Z.6 F720
G1 X94.479 Y77.821 F10800
G1 Z.2 F720
G1 E.8 F2100
M204 S800
;TYPE:Perimeter
;WIDTH:0.419999
G1 F1200
G1 X94.554 Y77.837 E.0024
G1 X109.446 Y77.837 E.46693
G1 X109.675 Y77.789 E.00734
G1 X109.852 Y77.666 E.00676
G1 X109.967 Y77.492 E.00654
G1 X110.012 Y77.271 E.00707
G1 X110.012 Y57.787 E.61091
G1 X113.438 Y57.787 E.10742
G1 X113.438 Y81.213 E.7345
G1 X108.906 Y81.221 E.1421
G1 X108.664 Y81.326 E.00827
G1 X108.481 Y81.561 E.00934
G1 X108.438 Y81.779 E.00697
G1 X108.438 Y148.221 E2.08324
G1 X108.447 Y148.323 E.00321
G1 X108.551 Y148.561 E.00814
G1 X108.82 Y148.757 E.01044
G1 X109.004 Y148.787 E.00585
G1 X121.213 Y148.787 E.3828
G1 X121.213 Y152.213 E.10742
G1 X82.787 Y152.213 E1.20482
G1 X82.787 Y148.787 E.10742
G1 X94.996 Y148.787 E.3828
G1 X95.094 Y148.779 E.00308
G1 X95.336 Y148.674 E.00827
G1 X95.519 Y148.439 E.00934
G1 X95.562 Y148.221 E.00697
G1 X95.562 Y81.779 E2.08324
G1 X95.553 Y81.677 E.00321
G1 X95.449 Y81.439 E.00814
G1 X95.18 Y81.243 E.01044
G1 X94.996 Y81.213 E.00585
G1 X90.562 Y81.213 E.13902
G1 X90.562 Y57.787 E.7345
G1 X93.988 Y57.787 E.10742
G1 X93.988 Y77.271 E.61091
G1 X93.996 Y77.369 E.00308
G1 X94.148 Y77.666 E.01046
G1 X94.325 Y77.789 E.00676
G1 X94.42 Y77.809 E.00304
M204 S1000
G1 X94.554 Y77.46 F10800
M204 S800
;TYPE:External perimeter
G1 F1200
G1 X109.446 Y77.46 E.46693
G1 X109.582 Y77.403 E.00462
G1 X109.635 Y77.271 E.00446
G1 X109.635 Y57.41 E.62273
G1 X113.815 Y57.41 E.13106
G1 X113.815 Y81.59 E.75815
G1 X109.004 Y81.59 E.15085
G1 X108.89 Y81.628 E.00377
G1 X108.815 Y81.779 E.00529
G1 X108.815 Y148.221 E2.08324
G1 X108.853 Y148.335 E.00377
G1 X109.004 Y148.41 E.00529
G1 X121.59 Y148.41 E.39462
G1 X121.59 Y152.59 E.13106
G1 X82.41 Y152.59 E1.22846
G1 X82.41 Y148.41 E.13106
M73 P0 R87
G1 X94.996 Y148.41 E.39462
G1 X95.11 Y148.372 E.00377
G1 X95.185 Y148.221 E.00529
G1 X95.185 Y81.779 E2.08324
G1 X95.147 Y81.665 E.00377
M73 P1 R87
M73 Q1 S89
G1 X94.996 Y81.59 E.00529
G1 X90.185 Y81.59 E.15085
G1 X90.185 Y57.41 E.75815
G1 X94.365 Y57.41 E.13106
M73 Q1 S88
G1 X94.365 Y77.271 E.62273
G1 X94.418 Y77.403 E.00446
G1 X94.498 Y77.437 E.00273
M204 S1000
G1 X94.657 Y77.846 F10800
;WIPE_START
G1 F8640
G1 X97.963 Y77.442 E-.8
;WIPE_END
G1 Z.6 F720
G1 X112.505 Y57.957 F10800
G1 Z.2 F720
G1 E.8 F2100
M204 S800
;TYPE:Solid infill
;WIDTH:0.42067
G1 F1200
G1 X113.099 Y58.551 E.02639
G1 X113.099 Y59.085 E.01677
G1 X112.14 Y58.126 E.0426
G1 X111.606 Y58.126 E.01677
G1 X113.099 Y59.619 E.06632
G1 X113.099 Y60.153 E.01677
G1 X111.072 Y58.126 E.09004
G1 X110.537 Y58.126 E.0168
G1 X113.099 Y60.688 E.11381
G1 X113.099 Y61.222 E.01677
G1 X110.351 Y58.475 E.12205
G1 X110.351 Y59.009 E.01677
G1 X113.099 Y61.756 E.12205
G1 X113.099 Y62.29 E.01677
G1 X110.351 Y59.543 E.12205
G1 X110.351 Y60.077 E.01677
G1 X113.099 Y62.825 E.12207
G1 X113.099 Y63.359 E.01677
G1 X110.351 Y60.612 E.12205
G1 X110.351 Y61.146 E.01677
G1 X113.099 Y63.893 E.12205
G1 X113.099 Y64.427 E.01677
G1 X110.351 Y61.68 E.12205
G1 X110.351 Y62.214 E.01677
G1 X113.099 Y64.961 E.12205
G1 X113.099 Y65.496 E.0168
G1 X110.351 Y62.749 E.12205
G1 X110.351 Y63.283 E.01677
G1 X113.099 Y66.03 E.12205
G1 X113.099 Y66.564 E.01677
G1 X110.351 Y63.817 E.12205
G1 X110.351 Y64.351 E.01677
G1 X113.099 Y67.098 E.12205
G1 X113.099 Y67.632 E.01677
G1 X110.351 Y64.885 E.12205
G1 X110.351 Y65.42 E.0168
G1 X113.099 Y68.167 E.12205
G1 X113.099 Y68.701 E.01677
G1 X110.351 Y65.954 E.12205
G1 X110.351 Y66.488 E.01677
G1 X113.099 Y69.235 E.12205
G1 X113.099 Y69.769 E.01677
G1 X110.351 Y67.022 E.12205
G1 X110.351 Y67.556 E.01677
G1 X113.099 Y70.304 E.12207
G1 X113.099 Y70.838 E.01677
G1 X110.351 Y68.091 E.12205
G1 X110.351 Y68.625 E.01677
G1 X113.099 Y71.372 E.12205
G1 X113.099 Y71.906 E.01677
G1 X110.351 Y69.159 E.12205
G1 X110.351 Y69.693 E.01677
G1 X113.099 Y72.44 E.12205
G1 X113.099 Y72.975 E.0168
G1 X110.351 Y70.228 E.12205
G1 X110.351 Y70.762 E.01677
G1 X113.099 Y73.509 E.12205
G1 X113.099 Y74.043 E.01677
G1 X110.351 Y71.296 E.12205
G1 X110.351 Y71.83 E.01677
G1 X113.099 Y74.577 E.12205
G1 X113.099 Y75.112 E.0168
G1 X110.351 Y72.364 E.12207
G1 X110.351 Y72.899 E.0168
G1 X113.099 Y75.646 E.12205
G1 X113.099 Y76.18 E.01677
G1 X110.351 Y73.433 E.12205
G1 X110.351 Y73.967 E.01677
G1 X113.099 Y76.714 E.12205
G1 X113.099 Y77.248 E.01677
G1 X110.351 Y74.501 E.12205
G1 X110.351 Y75.036 E.0168
G1 X113.099 Y77.783 E.12205
G1 X113.099 Y78.317 E.01677
G1 X110.351 Y75.57 E.12205
G1 X110.351 Y76.104 E.01677
G1 X113.099 Y78.851 E.12205
G1 X113.099 Y79.385 E.01677
G1 X110.351 Y76.638 E.12205
G1 X110.351 Y77.172 E.01677
G1 X113.099 Y79.92 E.12207
G1 X113.099 Y80.454 E.01677
G1 X110.277 Y77.633 E.12533
G1 X110.096 Y77.905 E.01026
G1 X110.049 Y77.938 E.0018
G1 X112.985 Y80.874 E.13042
G1 X112.452 Y80.876 E.01674
G1 X109.708 Y78.132 E.12189
G1 X109.606 Y78.163 E.00335
G1 X109.219 Y78.176 E.01216
G1 X111.919 Y80.877 E.11996
G1 X111.386 Y80.878 E.01674
G1 X108.684 Y78.176 E.12002
G1 X108.15 Y78.176 E.01677
G1 X110.853 Y80.88 E.12009
G1 X110.321 Y80.881 E.01671
G1 X107.616 Y78.176 E.12016
G1 X107.082 Y78.176 E.01677
G1 X109.788 Y80.883 E.12022
G1 X109.255 Y80.884 E.01674
G1 X106.548 Y78.176 E.12027
G1 X106.013 Y78.176 E.0168
G1 X108.749 Y80.912 E.12153
G1 X108.46 Y81.053 E.0101
G1 X108.408 Y81.105 E.00231
G1 X105.479 Y78.176 E.13011
G1 X104.945 Y78.176 E.01677
G1 X108.178 Y81.41 E.14363
G1 X108.113 Y81.614 E.00673
G1 X108.099 Y81.864 E.00786
G1 X104.411 Y78.176 E.16382
G1 X103.876 Y78.176 E.0168
G1 X108.099 Y82.399 E.18759
G1 X108.099 Y82.933 E.01677
G1 X103.342 Y78.176 E.21131
G1 X102.808 Y78.176 E.01677
G1 X108.099 Y83.467 E.23503
G1 X108.099 Y84.001 E.01677
G1 X102.274 Y78.176 E.25875
G1 X101.74 Y78.176 E.01677
G1 X108.099 Y84.535 E.28247
G1 X108.099 Y85.07 E.0168
G1 X101.205 Y78.176 E.30623
G1 X100.671 Y78.176 E.01677
G1 X108.099 Y85.604 E.32996
G1 X108.099 Y86.138 E.01677
G1 X100.137 Y78.176 E.35368
G1 X99.603 Y78.176 E.01677
G1 X108.099 Y86.672 E.3774
G1 X108.099 Y87.207 E.0168
G1 X99.068 Y78.176 E.40116
G1 X98.534 Y78.176 E.01677
G1 X108.099 Y87.741 E.42488
G1 X108.099 Y88.275 E.01677
G1 X98 Y78.176 E.4486
G1 X97.466 Y78.176 E.01677
G1 X108.099 Y88.809 E.47232
G1 X108.099 Y89.343 E.01677
G1 X96.932 Y78.176 E.49604
G1 X96.397 Y78.176 E.0168
G1 X108.099 Y89.878 E.51981
G1 X108.099 Y90.412 E.01677
G1 X95.863 Y78.176 E.54353
G1 X95.329 Y78.176 E.01677
G1 X108.099 Y90.946 E.56725
G1 X108.099 Y91.48 E.01677
G1 X94.625 Y78.007 E.5985
M204 S1000
;WIPE_START
G1 F8640
G1 X97.075 Y80.457 E-.8
;WIPE_END
G1 Z.6 F720
G1 X93.818 Y58.502 F10800
G1 Z.2 F720
G1 E.8 F2100
M204 S800
G1 F1200
G1 X93.442 Y58.126 E.0167
G1 X92.908 Y58.126 E.01677
G1 X93.649 Y58.867 E.03292
G1 X93.649 Y59.401 E.01677
G1 X92.374 Y58.126 E.05664
G1 X91.84 Y58.126 E.01677
G1 X93.649 Y59.935 E.08036
G1 X93.649 Y60.47 E.0168
G1 X91.305 Y58.126 E.10412
G1 X90.901 Y58.126 E.01269
G1 X90.901 Y58.257 E.00411
G1 X93.649 Y61.004 E.12205
G1 X93.649 Y61.538 E.01677
G1 X90.901 Y58.791 E.12205
G1 X90.901 Y59.325 E.01677
G1 X93.649 Y62.072 E.12205
G1 X93.649 Y62.606 E.01677
G1 X90.901 Y59.859 E.12205
G1 X90.901 Y60.394 E.0168
G1 X93.649 Y63.141 E.12205
G1 X93.649 Y63.675 E.01677
G1 X90.901 Y60.928 E.12205
G1 X90.901 Y61.462 E.01677
G1 X93.649 Y64.209 E.12205
G1 X93.649 Y64.743 E.01677
G1 X90.901 Y61.996 E.12205
G1 X90.901 Y62.53 E.01677
G1 X93.649 Y65.278 E.12207
G1 X93.649 Y65.812 E.01677
G1 X90.901 Y63.065 E.12205
G1 X90.901 Y63.599 E.01677
G1 X93.649 Y66.346 E.12205
G1 X93.649 Y66.88 E.01677
G1 X90.901 Y64.133 E.12205
G1 X90.901 Y64.667 E.01677
G1 X93.649 Y67.414 E.12205
G1 X93.649 Y67.949 E.0168
G1 X90.901 Y65.202 E.12205
G1 X90.901 Y65.736 E.01677
G1 X93.649 Y68.483 E.12205
G1 X93.649 Y69.017 E.01677
G1 X90.901 Y66.27 E.12205
G1 X90.901 Y66.804 E.01677
G1 X93.649 Y69.551 E.12205
G1 X93.649 Y70.085 E.01677
G1 X90.901 Y67.338 E.12205
G1 X90.901 Y67.873 E.0168
G1 X93.649 Y70.62 E.12205
G1 X93.649 Y71.154 E.01677
G1 X90.901 Y68.407 E.12205
G1 X90.901 Y68.941 E.01677
G1 X93.649 Y71.688 E.12205
G1 X93.649 Y72.222 E.01677
G1 X90.901 Y69.475 E.12205
G1 X90.901 Y70.009 E.01677
G1 X93.649 Y72.757 E.12207
G1 X93.649 Y73.291 E.01677
G1 X90.901 Y70.544 E.12205
G1 X90.901 Y71.078 E.01677
G1 X93.649 Y73.825 E.12205
G1 X93.649 Y74.359 E.01677
G1 X90.901 Y71.612 E.12205
G1 X90.901 Y72.146 E.01677
G1 X93.649 Y74.893 E.12205
G1 X93.649 Y75.428 E.0168
G1 X90.901 Y72.681 E.12205
G1 X90.901 Y73.215 E.01677
G1 X93.649 Y75.962 E.12205
G1 X93.649 Y76.496 E.01677
G1 X90.901 Y73.749 E.12205
G1 X90.901 Y74.283 E.01677
G1 X93.818 Y77.2 E.12957
M204 S1000
;WIPE_START
G1 F8640
G1 X91.368 Y74.75 E-.8
;WIPE_END
G1 Z.6 F720
G1 X90.732 Y74.648 F10800
G1 Z.2 F720
G1 E.8 F2100
M204 S800
G1 F1200
G1 X108.099 Y92.015 E.77145
G1 X108.099 Y92.549 E.01677
G1 X90.901 Y75.352 E.76392
G1 X90.901 Y75.886 E.01677
G1 X108.099 Y93.083 E.76392
G1 X108.099 Y93.617 E.01677
G1 X90.901 Y76.42 E.76392
G1 X90.901 Y76.954 E.01677
G1 X94.821 Y80.874 E.17413
G1 X94.286 Y80.874 E.0168
G1 X90.901 Y77.489 E.15036
G1 X90.901 Y78.023 E.01677
G1 X93.752 Y80.874 E.12664
G1 X93.218 Y80.874 E.01677
G1 X90.901 Y78.557 E.10292
G1 X90.901 Y79.091 E.01677
G1 X92.684 Y80.874 E.0792
G1 X92.15 Y80.874 E.01677
G1 X90.901 Y79.625 E.05548
G1 X90.901 Y80.16 E.0168
G1 X91.615 Y80.874 E.03172
G1 X91.081 Y80.874 E.01677
G1 X90.732 Y80.524 E.01552
M204 S1000
;WIPE_START
G1 F8640
G1 X91.081 Y80.874 E-.11413
G1 X91.615 Y80.874 E-.1233
G1 X90.901 Y80.16 E-.23315
G1 X90.901 Y79.625 E-.12353
G1 X91.532 Y80.256 E-.20589
;WIPE_END
G1 Z.6 F720
G1 X95.732 Y81.785 F10800
G1 Z.2 F720
G1 E.8 F2100
M204 S800
G1 F1200
G1 X108.099 Y94.151 E.54933
G1 X108.099 Y94.686 E.0168
G1 X95.901 Y82.489 E.54182
G1 X95.901 Y83.023 E.01677
G1 X108.099 Y95.22 E.54182
G1 X108.099 Y95.754 E.01677
G1 X95.901 Y83.557 E.54182
G1 X95.901 Y84.091 E.01677
G1 X108.099 Y96.288 E.54182
G1 X108.099 Y96.823 E.0168
G1 X95.901 Y84.625 E.54184
G1 X95.901 Y85.16 E.0168
G1 X108.099 Y97.357 E.54182
G1 X108.099 Y97.891 E.01677
G1 X95.901 Y85.694 E.54182
G1 X95.901 Y86.228 E.01677
G1 X108.099 Y98.425 E.54182
G1 X108.099 Y98.959 E.01677
M73 P2 R87
G1 X95.901 Y86.762 E.54182
G1 X95.901 Y87.297 E.0168
M73 Q2 S88
G1 X108.099 Y99.494 E.54182
G1 X108.099 Y100.028 E.01677
G1 X95.901 Y87.831 E.54182
G1 X95.901 Y88.365 E.01677
G1 X108.099 Y100.562 E.54182
G1 X108.099 Y101.096 E.01677
G1 X95.901 Y88.899 E.54182
G1 X95.901 Y89.433 E.01677
M73 P2 R86
G1 X108.099 Y101.63 E.54182
G1 X108.099 Y102.165 E.0168
G1 X95.901 Y89.968 E.54182
G1 X95.901 Y90.502 E.01677
G1 X108.099 Y102.699 E.54182
G1 X108.099 Y103.233 E.01677
G1 X95.901 Y91.036 E.54182
G1 X95.901 Y91.57 E.01677
G1 X108.099 Y103.767 E.54182
G1 X108.099 Y104.302 E.0168
G1 X95.901 Y92.104 E.54184
G1 X95.901 Y92.639 E.0168
M73 Q2 S87
G1 X108.099 Y104.836 E.54182
G1 X108.099 Y105.37 E.01677
G1 X95.901 Y93.173 E.54182
G1 X95.901 Y93.707 E.01677
G1 X108.099 Y105.904 E.54182
G1 X108.099 Y106.438 E.01677
G1 X95.901 Y94.241 E.54182
G1 X95.901 Y94.776 E.0168
G1 X108.099 Y106.973 E.54182
G1 X108.099 Y107.507 E.01677
G1 X95.901 Y95.31 E.54182
G1 X95.901 Y95.844 E.01677
G1 X108.099 Y108.041 E.54182
G1 X108.099 Y108.575 E.01677
G1 X95.901 Y96.378 E.54182
G1 X95.901 Y96.912 E.01677
G1 X108.099 Y109.11 E.54184
G1 X108.099 Y109.644 E.01677
G1 X95.901 Y97.447 E.54182
G1 X95.901 Y97.981 E.01677
G1 X108.099 Y110.178 E.54182
G1 X108.099 Y110.712 E.01677
G1 X95.901 Y98.515 E.54182
G1 X95.901 Y99.049 E.01677
G1 X108.099 Y111.246 E.54182
G1 X108.099 Y111.781 E.0168
G1 X95.901 Y99.584 E.54182
G1 X95.901 Y100.118 E.01677
G1 X108.099 Y112.315 E.54182
G1 X108.099 Y112.849 E.01677
G1 X95.901 Y100.652 E.54182
G1 X95.901 Y101.186 E.01677
G1 X108.099 Y113.383 E.54182
G1 X108.099 Y113.918 E.0168
G1 X95.901 Y101.72 E.54184
G1 X95.901 Y102.255 E.0168
G1 X108.099 Y114.452 E.54182
G1 X108.099 Y114.986 E.01677
G1 X95.901 Y102.789 E.54182
G1 X95.901 Y103.323 E.01677
G1 X108.099 Y115.52 E.54182
G1 X108.099 Y116.054 E.01677
G1 X95.901 Y103.857 E.54182
G1 X95.901 Y104.392 E.0168
G1 X108.099 Y116.589 E.54182
G1 X108.099 Y117.123 E.01677
G1 X95.901 Y104.926 E.54182
G1 X95.901 Y105.46 E.01677
G1 X108.099 Y117.657 E.54182
G1 X108.099 Y118.191 E.01677
G1 X95.901 Y105.994 E.54182
G1 X95.901 Y106.528 E.01677
G1 X108.099 Y118.726 E.54184
G1 X108.099 Y119.26 E.01677
G1 X95.901 Y107.063 E.54182
G1 X95.901 Y107.597 E.01677
G1 X108.099 Y119.794 E.54182
G1 X108.099 Y120.328 E.01677
G1 X95.901 Y108.131 E.54182
G1 X95.901 Y108.665 E.01677
G1 X108.099 Y120.862 E.54182
G1 X108.099 Y121.397 E.0168
G1 X95.901 Y109.2 E.54182
G1 X95.901 Y109.734 E.01677
G1 X108.099 Y121.931 E.54182
G1 X108.099 Y122.465 E.01677
G1 X95.901 Y110.268 E.54182
G1 X95.901 Y110.802 E.01677
G1 X108.099 Y122.999 E.54182
G1 X108.099 Y123.533 E.01677
G1 X95.901 Y111.336 E.54182
G1 X95.901 Y111.871 E.0168
G1 X108.099 Y124.068 E.54182
G1 X108.099 Y124.602 E.01677
G1 X95.901 Y112.405 E.54182
G1 X95.901 Y112.939 E.01677
G1 X108.099 Y125.136 E.54182
G1 X108.099 Y125.67 E.01677
G1 X95.901 Y113.473 E.54182
G1 X95.901 Y114.007 E.01677
G1 X108.099 Y126.205 E.54184
G1 X108.099 Y126.739 E.01677
G1 X95.901 Y114.542 E.54182
G1 X95.901 Y115.076 E.01677
G1 X108.099 Y127.273 E.54182
G1 X108.099 Y127.807 E.01677
G1 X95.901 Y115.61 E.54182
G1 X95.901 Y116.144 E.01677
G1 X108.099 Y128.341 E.54182
G1 X108.099 Y128.876 E.0168
G1 X95.901 Y116.679 E.54182
G1 X95.901 Y117.213 E.01677
G1 X108.099 Y129.41 E.54182
G1 X108.099 Y129.944 E.01677
G1 X95.901 Y117.747 E.54182
G1 X95.901 Y118.281 E.01677
M73 P3 R86
G1 X108.099 Y130.478 E.54182
G1 X108.099 Y131.013 E.0168
G1 X95.901 Y118.815 E.54184
G1 X95.901 Y119.35 E.0168
M73 Q3 S87
G1 X108.099 Y131.547 E.54182
G1 X108.099 Y132.081 E.01677
G1 X95.901 Y119.884 E.54182
G1 X95.901 Y120.418 E.01677
G1 X108.099 Y132.615 E.54182
G1 X108.099 Y133.149 E.01677
