; generated by PrusaSlicer 2.7.0+win64 on 2024-04-09 at 03:15:29 UTC


;
;
; 

; external perimeters extrusion width = 0.45mm
; perimeters extrusion width = 0.45mm
; infill extrusion width = 0.45mm
; solid infill extrusion width = 0.45mm
; top infill extrusion width = 0.40mm
; support material extrusion width = 0.35mm
; first layer extrusion width = 0.42mm

M73 P0 R75
M73 Q0 S77
M201 X1000 Y1000 Z200 E5000 ; sets maximum accelerations, mm/sec^2
M203 X200 Y200 Z12 E120 ; sets maximum feedrates, mm / sec
M204 S1250 T1250 ; sets acceleration (S) and retract acceleration (R), mm/sec^2
M205 X8.00 Y8.00 Z0.40 E4.50 ; sets the jerk limits, mm/sec
M205 S0 T0 ; sets the minimum extruding and travel feed rate, mm/sec

; printing object Mid.stl id:0 copy 0
; stop printing object Mid.stl id:0 copy 0

;TYPE:Custom
M862.3 P "MK3S" ; printer model check
M862.1 P0.4 ; nozzle diameter check
M115 U3.13.2 ; tell printer latest fw version
G90 ; use absolute coordinates
M83 ; extruder relative mode
M104 S215 ; set extruder temp
M140 S60 ; set bed temp
M190 S60 ; wait for bed temp
M109 S215 ; wait for extruder temp
G28 W ; home all without mesh bed level
G80 X68.4938 Y71.6719 W113.012 H66.6563 ; mesh bed levelling

G1 Z0.2 F720
G1 Y-3 F1000 ; go outside print area
G92 E0
G1 X60 E9 F1000 ; intro line
M73 Q0 S76
G1 X100 E12.5 F1000 ; intro line

G92 E0
M221 S95

; Don't change E values below. Excessive value can damage the printer.

M907 E538 ; set extruder motor current
G21 ; set units to millimeters
G90 ; use absolute coordinates
M83 ; use relative distances for extrusion
M900 K0.05 ; Filament gcode LA 1.5
M900 K30 ; Filament gcode LA 1.0

M107
;LAYER_CHANGE
;Z:0.2
;HEIGHT:0.2
;BEFORE_LAYER_CHANGE
G92 E0.0
;0.2


G1 E-.8 F2100
G1 Z.2 F720
;AFTER_LAYER_CHANGE
;0.2
G1 X72.471 Y75.82 F10800
G1 Z.2 F720
G1 E.8 F2100
M204 S800
;TYPE:Skirt/Brim
;WIDTH:0.42
G1 F1200
G1 X76.488 Y72.414 E.16513
G1 X78.013 Y71.86 E.05087
G1 X171.987 Y71.86 E2.94649
G1 X173.512 Y72.414 E.05087
G1 X177.529 Y75.82 E.16513
G1 X180.76 Y79.661 E.15737
G1 X181.318 Y81.191 E.05106
G1 X181.318 Y128.809 E1.49303
G1 X180.76 Y130.339 E.05106
G1 X177.529 Y134.18 E.15737
G1 X173.512 Y137.586 E.16513
G1 X171.987 Y138.14 E.05087
G1 X78.013 Y138.14 E2.94649
G1 X76.488 Y137.586 E.05087
M73 P0 R74
G1 X72.765 Y134.474 E.15214
G1 X69.24 Y130.339 E.17037
G1 X68.682 Y128.809 E.05106
G1 X68.682 Y81.191 E1.49303
G1 X69.24 Y79.661 E.05106
G1 X72.432 Y75.866 E.15548
M204 S1000
; printing object Mid.stl id:0 copy 0
;WIPE_START
G1 F8640
G1 X72.471 Y75.82 E-.01393
G1 X75.068 Y73.618 E-.78607
;WIPE_END
G1 Z.6 F720
G1 X171.987 Y76.87 F10800
G1 Z.2 F720
G1 E.8 F2100
M204 S800
;TYPE:Support material
G1 F1200
G1 X168.231 Y76.87 E.11777
G1 X167.95 Y77.151 E.01246
G1 X167.95 Y84.829 E.24074
G1 X168.231 Y85.11 E.01246
G1 X175.909 Y85.11 E.24074
G1 X176.19 Y84.829 E.01246
G1 X176.19 Y81.191 E.11407
G1 X178.941 Y81.191 E.08626
G1 X178.941 Y128.809 E1.49303
G1 X176.19 Y128.809 E.08626
G1 X176.19 Y125.171 E.11407
G1 X175.909 Y124.89 E.01246
G1 X168.231 Y124.89 E.24074
G1 X167.95 Y125.171 E.01246
G1 X167.95 Y132.849 E.24074
G1 X168.231 Y133.13 E.01246
G1 X171.987 Y133.13 E.11777
G1 X171.987 Y135.763 E.08256
G1 X78.013 Y135.763 E2.94649
G1 X78.013 Y133.13 E.08256
G1 X81.769 Y133.13 E.11777
G1 X82.05 Y132.849 E.01246
G1 X82.05 Y125.171 E.24074
G1 X81.769 Y124.89 E.01246
G1 X74.091 Y124.89 E.24074
G1 X73.81 Y125.171 E.01246
G1 X73.81 Y128.809 E.11407
G1 X71.059 Y128.809 E.08626
G1 X71.059 Y81.191 E1.49303
G1 X73.81 Y81.191 E.08626
G1 X73.81 Y84.829 E.11407
G1 X74.091 Y85.11 E.01246
G1 X81.769 Y85.11 E.24074
G1 X82.05 Y84.829 E.01246
G1 X82.05 Y77.151 E.24074
G1 X81.769 Y76.87 E.01246
G1 X78.013 Y76.87 E.11777
G1 X78.013 Y74.237 E.08256
G1 X171.987 Y74.237 E2.94649
G1 X171.987 Y76.813 E.08077
M204 S1000
G1 X93.182 Y82.453 F10800
M204 S800
G1 F1200
M73 P1 R74
M73 Q1 S76
G1 X94.237 Y82.453 E.03308
G1 X94.237 Y83.509 E.03311
G1 X93.182 Y83.509 E.03308
G1 X93.182 Y82.509 E.03135
M204 S1000
;WIPE_START
G1 F8640
G1 X93.182 Y83.509 E-.2309
G1 X94.237 Y83.509 E-.2436
G1 X94.237 Y82.453 E-.24383
G1 X93.883 Y82.453 E-.08167
;WIPE_END
G1 Z.6 F720
G1 X178.21 Y128.639 F10800
G1 Z.2 F720
G1 E.8 F2100
M204 S800
G1 F1200
G1 X178.21 Y81.53 E1.47707
G1 X177.791 Y81.53 E.01314
G1 X177.791 Y128.47 E1.47177
G1 X177.372 Y128.47 E.01314
G1 X177.372 Y81.53 E1.47177
G1 X176.953 Y81.53 E.01314
G1 X176.953 Y128.47 E1.47177
G1 X176.534 Y128.47 E.01314
G1 X176.534 Y81.53 E1.47177
G1 X176.529 Y84.969 E.10783
G1 X176.115 Y85.384 E.01838
M73 Q1 S75
G1 X176.115 Y124.616 E1.23009
G1 X176.049 Y124.551 E.0029
G1 X175.696 Y124.551 E.01107
G1 X175.696 Y85.449 E1.22602
G1 X175.277 Y85.449 E.01314
G1 X175.277 Y124.551 E1.22602
G1 X174.858 Y124.551 E.01314
G1 X174.858 Y85.449 E1.22602
G1 X174.439 Y85.449 E.01314
G1 X174.439 Y124.551 E1.22602
G1 X174.02 Y124.551 E.01314
G1 X174.02 Y85.449 E1.22602
G1 X173.601 Y85.449 E.01314
G1 X173.601 Y124.551 E1.22602
G1 X173.182 Y124.551 E.01314
G1 X173.182 Y85.449 E1.22602
G1 X172.763 Y85.449 E.01314
G1 X172.763 Y124.551 E1.22602
G1 X172.344 Y124.551 E.01314
G1 X172.344 Y85.449 E1.22602
G1 X171.925 Y85.449 E.01314
G1 X171.925 Y124.551 E1.22602
G1 X171.506 Y124.551 E.01314
M73 P1 R73
G1 X171.506 Y85.449 E1.22602
G1 X171.087 Y85.449 E.01314
G1 X171.087 Y124.551 E1.22602
G1 X170.668 Y124.551 E.01314
G1 X170.668 Y85.449 E1.22602
G1 X170.25 Y85.449 E.01311
G1 X170.25 Y124.551 E1.22602
G1 X169.831 Y124.551 E.01314
G1 X169.831 Y85.449 E1.22602
G1 X169.412 Y85.449 E.01314
M73 P2 R73
G1 X169.412 Y124.551 E1.22602
G1 X168.993 Y124.551 E.01314
M73 Q2 S75
G1 X168.993 Y85.449 E1.22602
G1 X168.574 Y85.449 E.01314
G1 X168.574 Y124.551 E1.22602
G1 X168.155 Y124.551 E.01314
G1 X168.155 Y85.273 E1.23153
M204 S1000
;WIPE_START
G1 F8640
G1 X168.155 Y88.738 E-.8
;WIPE_END
G1 Z.6 F720
G1 X171.506 Y135.593 F10800
G1 Z.2 F720
G1 E.8 F2100
M204 S800
G1 F1200
G1 X171.506 Y133.469 E.0666
G1 X171.087 Y133.469 E.01314
G1 X171.087 Y135.423 E.06127
G1 X170.668 Y135.423 E.01314
G1 X170.668 Y133.469 E.06127
G1 X170.25 Y133.469 E.01311
G1 X170.25 Y135.423 E.06127
G1 X169.831 Y135.423 E.01314
G1 X169.831 Y133.469 E.06127
G1 X169.412 Y133.469 E.01314
G1 X169.412 Y135.423 E.06127
G1 X168.993 Y135.423 E.01314
G1 X168.993 Y133.469 E.06127
G1 X168.574 Y133.469 E.01314
G1 X168.574 Y135.423 E.06127
G1 X168.155 Y135.423 E.01314
G1 X168.155 Y133.293 E.06678
M204 S1000
;WIPE_START
G1 F8640
G1 X168.155 Y135.423 E-.49182
G1 X168.574 Y135.423 E-.09675
G1 X168.574 Y134.507 E-.21143
;WIPE_END
G1 Z.6 F720
G1 X171.506 Y76.7 F10800
G1 Z.2 F720
G1 E.8 F2100
M204 S800
G1 F1200
G1 X171.506 Y74.577 E.06657
G1 X171.087 Y74.577 E.01314
G1 X171.087 Y76.531 E.06127
G1 X170.668 Y76.531 E.01314
G1 X170.668 Y74.577 E.06127
G1 X170.25 Y74.577 E.01311
G1 X170.25 Y76.531 E.06127
G1 X169.831 Y76.531 E.01314
G1 X169.831 Y74.577 E.06127
G1 X169.412 Y74.577 E.01314
G1 X169.412 Y76.531 E.06127
G1 X168.993 Y76.531 E.01314
G1 X168.993 Y74.577 E.06127
G1 X168.574 Y74.577 E.01314
G1 X168.574 Y76.531 E.06127
G1 X168.155 Y76.531 E.01314
G1 X168.155 Y74.577 E.06127
G1 X167.736 Y74.577 E.01314
G1 X167.736 Y135.423 E1.90778
G1 X167.317 Y135.423 E.01314
G1 X167.317 Y74.577 E1.90778
G1 X166.898 Y74.577 E.01314
G1 X166.898 Y135.423 E1.90778
G1 X166.479 Y135.423 E.01314
G1 X166.479 Y74.577 E1.90778
G1 X166.06 Y74.577 E.01314
G1 X166.06 Y135.423 E1.90778
G1 X165.641 Y135.423 E.01314
G1 X165.641 Y74.577 E1.90778
G1 X165.222 Y74.577 E.01314
M73 Q2 S74
G1 X165.222 Y135.423 E1.90778
G1 X164.803 Y135.423 E.01314
G1 X164.803 Y74.577 E1.90778
G1 X164.384 Y74.577 E.01314
G1 X164.384 Y135.423 E1.90778
G1 X163.965 Y135.423 E.01314
G1 X163.965 Y74.577 E1.90778
G1 X163.546 Y74.577 E.01314
G1 X163.546 Y135.423 E1.90778
G1 X163.127 Y135.423 E.01314
M73 P3 R73
G1 X163.127 Y74.577 E1.90778
G1 X162.708 Y74.577 E.01314
M73 P3 R72
M73 Q3 S74
G1 X162.708 Y135.423 E1.90778
G1 X162.289 Y135.423 E.01314
G1 X162.289 Y74.577 E1.90778
G1 X161.87 Y74.577 E.01314
G1 X161.87 Y135.423 E1.90778
G1 X161.451 Y135.423 E.01314
G1 X161.451 Y74.577 E1.90778
G1 X161.032 Y74.577 E.01314
G1 X161.032 Y135.423 E1.90778
G1 X160.613 Y135.423 E.01314
G1 X160.613 Y74.577 E1.90778
G1 X160.194 Y74.577 E.01314
G1 X160.194 Y135.423 E1.90778
G1 X159.775 Y135.423 E.01314
G1 X159.775 Y74.577 E1.90778
G1 X159.356 Y74.577 E.01314
G1 X159.356 Y135.423 E1.90778
G1 X158.937 Y135.423 E.01314
G1 X158.937 Y74.577 E1.90778
G1 X158.518 Y74.577 E.01314
G1 X158.518 Y135.423 E1.90778
G1 X158.099 Y135.423 E.01314
G1 X158.099 Y74.577 E1.90778
G1 X157.68 Y74.577 E.01314
G1 X157.68 Y135.423 E1.90778
G1 X157.261 Y135.423 E.01314
M73 Q3 S73
G1 X157.261 Y74.577 E1.90778
G1 X156.842 Y74.577 E.01314
M73 P4 R72
G1 X156.842 Y135.423 E1.90778
G1 X156.423 Y135.423 E.01314
M73 Q4 S73
G1 X156.423 Y74.577 E1.90778
G1 X156.004 Y74.577 E.01314
G1 X156.004 Y135.423 E1.90778
G1 X155.585 Y135.423 E.01314
G1 X155.585 Y74.577 E1.90778
G1 X155.166 Y74.577 E.01314
G1 X155.166 Y135.423 E1.90778
G1 X154.747 Y135.423 E.01314
G1 X154.747 Y74.577 E1.90778
G1 X154.328 Y74.577 E.01314
M73 P4 R71
G1 X154.328 Y135.423 E1.90778
G1 X153.909 Y135.423 E.01314
G1 X153.909 Y74.577 E1.90778
G1 X153.49 Y74.577 E.01314
G1 X153.49 Y135.423 E1.90778
G1 X153.071 Y135.423 E.01314
G1 X153.071 Y74.577 E1.90778
G1 X152.652 Y74.577 E.01314
G1 X152.652 Y135.423 E1.90778
G1 X152.234 Y135.423 E.01311
G1 X152.234 Y74.577 E1.90778
G1 X151.815 Y74.577 E.01314
G1 X151.815 Y135.423 E1.90778
G1 X151.396 Y135.423 E.01314
G1 X151.396 Y74.577 E1.90778
G1 X150.977 Y74.577 E.01314
M73 P5 R71
G1 X150.977 Y135.423 E1.90778
G1 X150.558 Y135.423 E.01314
G1 X150.558 Y74.577 E1.90778
G1 X150.139 Y74.577 E.01314
M73 Q5 S73
G1 X150.139 Y135.423 E1.90778
G1 X149.72 Y135.423 E.01314
G1 X149.72 Y74.577 E1.90778
G1 X149.301 Y74.577 E.01314
G1 X149.301 Y135.423 E1.90778
G1 X148.882 Y135.423 E.01314
M73 Q5 S72
G1 X148.882 Y74.577 E1.90778
G1 X148.463 Y74.577 E.01314
G1 X148.463 Y135.423 E1.90778
G1 X148.044 Y135.423 E.01314
G1 X148.044 Y74.577 E1.90778
G1 X147.625 Y74.577 E.01314
G1 X147.625 Y135.423 E1.90778
G1 X147.206 Y135.423 E.01314
G1 X147.206 Y74.577 E1.90778
G1 X146.787 Y74.577 E.01314
G1 X146.787 Y135.423 E1.90778
G1 X146.368 Y135.423 E.01314
M73 P5 R70
G1 X146.368 Y74.577 E1.90778
G1 X145.949 Y74.577 E.01314
G1 X145.949 Y135.423 E1.90778
G1 X145.53 Y135.423 E.01314
G1 X145.53 Y74.577 E1.90778
G1 X145.111 Y74.577 E.01314
G1 X145.111 Y135.423 E1.90778
G1 X144.692 Y135.423 E.01314
M73 P6 R70
G1 X144.692 Y74.577 E1.90778
G1 X144.273 Y74.577 E.01314
G1 X144.273 Y135.423 E1.90778
G1 X143.854 Y135.423 E.01314
M73 Q6 S72
G1 X143.854 Y74.577 E1.90778
G1 X143.435 Y74.577 E.01314
G1 X143.435 Y135.423 E1.90778
G1 X143.016 Y135.423 E.01314
G1 X143.016 Y74.577 E1.90778
G1 X142.597 Y74.577 E.01314
G1 X142.597 Y135.423 E1.90778
G1 X142.178 Y135.423 E.01314
G1 X142.178 Y74.577 E1.90778
G1 X141.759 Y74.577 E.01314
G1 X141.759 Y135.423 E1.90778
G1 X141.34 Y135.423 E.01314
G1 X141.34 Y74.577 E1.90778
G1 X140.921 Y74.577 E.01314
M73 Q6 S71
G1 X140.921 Y135.423 E1.90778
G1 X140.502 Y135.423 E.01314
G1 X140.502 Y74.577 E1.90778
G1 X140.083 Y74.577 E.01314
G1 X140.083 Y135.423 E1.90778
G1 X139.664 Y135.423 E.01314
G1 X139.664 Y74.577 E1.90778
G1 X139.245 Y74.577 E.01314
G1 X139.245 Y135.423 E1.90778
G1 X138.826 Y135.423 E.01314
G1 X138.826 Y74.577 E1.90778
G1 X138.407 Y74.577 E.01314
M73 P7 R70
G1 X138.407 Y135.423 E1.90778
G1 X137.988 Y135.423 E.01314
M73 P7 R69
G1 X137.988 Y74.577 E1.90778
G1 X137.569 Y74.577 E.01314
M73 Q7 S71
G1 X137.569 Y135.423 E1.90778
G1 X137.15 Y135.423 E.01314
G1 X137.15 Y74.577 E1.90778
G1 X136.731 Y74.577 E.01314
G1 X136.731 Y135.423 E1.90778
G1 X136.312 Y135.423 E.01314
G1 X136.312 Y74.577 E1.90778
G1 X135.893 Y74.577 E.01314
G1 X135.893 Y135.423 E1.90778
G1 X135.474 Y135.423 E.01314
G1 X135.474 Y74.577 E1.90778
G1 X135.055 Y74.577 E.01314
G1 X135.055 Y135.423 E1.90778
G1 X134.636 Y135.423 E.01314
G1 X134.636 Y74.577 E1.90778
G1 X134.217 Y74.577 E.01314
G1 X134.217 Y135.423 E1.90778
G1 X133.799 Y135.423 E.01311
G1 X133.799 Y74.577 E1.90778
G1 X133.38 Y74.577 E.01314
G1 X133.38 Y135.423 E1.90778
G1 X132.961 Y135.423 E.01314
M73 Q7 S70
G1 X132.961 Y74.577 E1.90778
G1 X132.542 Y74.577 E.01314
M73 P8 R69
G1 X132.542 Y135.423 E1.90778
G1 X132.123 Y135.423 E.01314
G1 X132.123 Y74.577 E1.90778
G1 X131.704 Y74.577 E.01314
G1 X131.704 Y135.423 E1.90778
G1 X131.285 Y135.423 E.01314
M73 Q8 S70
G1 X131.285 Y74.577 E1.90778
G1 X130.866 Y74.577 E.01314
G1 X130.866 Y135.423 E1.90778
G1 X130.447 Y135.423 E.01314
G1 X130.447 Y74.577 E1.90778
G1 X130.028 Y74.577 E.01314
M73 P8 R68
G1 X130.028 Y135.423 E1.90778
G1 X129.609 Y135.423 E.01314
G1 X129.609 Y74.577 E1.90778
G1 X129.19 Y74.577 E.01314
G1 X129.19 Y135.423 E1.90778
G1 X128.771 Y135.423 E.01314
G1 X128.771 Y74.577 E1.90778
G1 X128.352 Y74.577 E.01314
G1 X128.352 Y135.423 E1.90778
G1 X127.933 Y135.423 E.01314
G1 X127.933 Y74.577 E1.90778
G1 X127.514 Y74.577 E.01314
G1 X127.514 Y135.423 E1.90778
G1 X127.095 Y135.423 E.01314
G1 X127.095 Y74.577 E1.90778
G1 X126.676 Y74.577 E.01314
G1 X126.676 Y135.423 E1.90778
G1 X126.257 Y135.423 E.01314
M73 P9 R68
G1 X126.257 Y74.577 E1.90778
G1 X125.838 Y74.577 E.01314
G1 X125.838 Y135.423 E1.90778
G1 X125.419 Y135.423 E.01314
G1 X125.419 Y74.577 E1.90778
G1 X125 Y74.577 E.01314
M73 Q9 S70
G1 X125 Y135.423 E1.90778
G1 X124.581 Y135.423 E.01314
M73 Q9 S69
G1 X124.581 Y74.577 E1.90778
G1 X124.162 Y74.577 E.01314
G1 X124.162 Y135.423 E1.90778
G1 X123.743 Y135.423 E.01314
G1 X123.743 Y74.577 E1.90778
G1 X123.324 Y74.577 E.01314
G1 X123.324 Y135.423 E1.90778
G1 X122.905 Y135.423 E.01314
G1 X122.905 Y74.577 E1.90778
G1 X122.486 Y74.577 E.01314
G1 X122.486 Y135.423 E1.90778
G1 X122.067 Y135.423 E.01314
G1 X122.067 Y74.577 E1.90778
G1 X121.648 Y74.577 E.01314
M73 P9 R67
G1 X121.648 Y135.423 E1.90778
G1 X121.229 Y135.423 E.01314
G1 X121.229 Y74.577 E1.90778
G1 X120.81 Y74.577 E.01314
G1 X120.81 Y135.423 E1.90778
G1 X120.391 Y135.423 E.01314
G1 X120.391 Y74.577 E1.90778
G1 X119.972 Y74.577 E.01314
M73 P10 R67
G1 X119.972 Y135.423 E1.90778
G1 X119.553 Y135.423 E.01314
G1 X119.553 Y74.577 E1.90778
G1 X119.134 Y74.577 E.01314
G1 X119.134 Y135.423 E1.90778
G1 X118.715 Y135.423 E.01314
M73 Q10 S69
G1 X118.715 Y74.577 E1.90778
G1 X118.296 Y74.577 E.01314
G1 X118.296 Y135.423 E1.90778
G1 X117.877 Y135.423 E.01314
G1 X117.877 Y74.577 E1.90778
G1 X117.458 Y74.577 E.01314
G1 X117.458 Y135.423 E1.90778
G1 X117.039 Y135.423 E.01314
G1 X117.039 Y74.577 E1.90778
G1 X116.62 Y74.577 E.01314
M73 Q10 S68
G1 X116.62 Y135.423 E1.90778
G1 X116.201 Y135.423 E.01314
G1 X116.201 Y74.577 E1.90778
G1 X115.783 Y74.577 E.01311
G1 X115.783 Y135.423 E1.90778
G1 X115.364 Y135.423 E.01314
G1 X115.364 Y74.577 E1.90778
G1 X114.945 Y74.577 E.01314
G1 X114.945 Y135.423 E1.90778
G1 X114.526 Y135.423 E.01314
G1 X114.526 Y74.577 E1.90778
G1 X114.107 Y74.577 E.01314
M73 P11 R67
G1 X114.107 Y135.423 E1.90778
G1 X113.688 Y135.423 E.01314
M73 P11 R66
G1 X113.688 Y74.577 E1.90778
G1 X113.269 Y74.577 E.01314
G1 X113.269 Y135.423 E1.90778
G1 X112.85 Y135.423 E.01314
G1 X112.85 Y74.577 E1.90778
G1 X112.431 Y74.577 E.01314
M73 Q11 S68
G1 X112.431 Y135.423 E1.90778
G1 X112.012 Y135.423 E.01314
G1 X112.012 Y74.577 E1.90778
G1 X111.593 Y74.577 E.01314
G1 X111.593 Y135.423 E1.90778
G1 X111.174 Y135.423 E.01314
G1 X111.174 Y74.577 E1.90778
G1 X110.755 Y74.577 E.01314
G1 X110.755 Y135.423 E1.90778
G1 X110.336 Y135.423 E.01314
G1 X110.336 Y74.577 E1.90778
G1 X109.917 Y74.577 E.01314
G1 X109.917 Y135.423 E1.90778
G1 X109.498 Y135.423 E.01314
G1 X109.498 Y74.577 E1.90778
G1 X109.079 Y74.577 E.01314
G1 X109.079 Y135.423 E1.90778
G1 X108.66 Y135.423 E.01314
G1 X108.66 Y74.577 E1.90778
G1 X108.241 Y74.577 E.01314
M73 Q11 S67
G1 X108.241 Y135.423 E1.90778
G1 X107.822 Y135.423 E.01314
M73 P12 R66
G1 X107.822 Y74.577 E1.90778
G1 X107.403 Y74.577 E.01314
G1 X107.403 Y135.423 E1.90778
G1 X106.984 Y135.423 E.01314
G1 X106.984 Y74.577 E1.90778
G1 X106.565 Y74.577 E.01314
G1 X106.565 Y135.423 E1.90778
G1 X106.146 Y135.423 E.01314
M73 Q12 S67
G1 X106.146 Y74.577 E1.90778
G1 X105.727 Y74.577 E.01314
