; generated by PrusaSlicer 2.7.0+win64 on 2023-12-15 at 21:37:17 UTC


;
;
; 

; external perimeters extrusion width = 0.45mm
; perimeters extrusion width = 0.45mm
; infill extrusion width = 0.45mm
; solid infill extrusion width = 0.45mm
; top infill extrusion width = 0.40mm
; first layer extrusion width = 0.42mm

; external perimeters extrusion width = 0.45mm
; perimeters extrusion width = 0.45mm
; infill extrusion width = 0.45mm
; solid infill extrusion width = 0.45mm
; top infill extrusion width = 0.40mm
; first layer extrusion width = 0.42mm

M73 P0 R225
M73 Q0 S230
M201 X1000 Y1000 Z200 E5000 ; sets maximum accelerations, mm/sec^2
M203 X200 Y200 Z12 E120 ; sets maximum feedrates, mm / sec
M204 S1250 T1250 ; sets acceleration (S) and retract acceleration (R), mm/sec^2
M205 X8.00 Y8.00 Z0.40 E4.50 ; sets the jerk limits, mm/sec
M205 S0 T0 ; sets the minimum extruding and travel feed rate, mm/sec

; printing object MoldBtm.stl id:0 copy 0
; stop printing object MoldBtm.stl id:0 copy 0
; printing object MoldTop.stl id:1 copy 0
; stop printing object MoldTop.stl id:1 copy 0

;TYPE:Custom
M862.3 P "MK3S" ; printer model check
M862.1 P0.4 ; nozzle diameter check
M115 U3.12.2 ; tell printer latest fw version
G90 ; use absolute coordinates
M83 ; extruder relative mode
M104 S215 ; set extruder temp
M140 S60 ; set bed temp
M190 S60 ; wait for bed temp
M109 S215 ; wait for extruder temp
G28 W ; home all without mesh bed level
G80 ; mesh bed leveling

G1 Z0.2 F720
G1 Y-3 F1000 ; go outside print area
G92 E0
G1 X60 E9 F1000 ; intro line
G1 X100 E12.5 F1000 ; intro line

G92 E0
M221 S95

; Don't change E values below. Excessive value can damage the printer.

M907 E538 ; set extruder motor current
G21 ; set units to millimeters
G90 ; use absolute coordinates
M83 ; use relative distances for extrusion
M900 K0.05 ; Filament gcode LA 1.5
M900 K30 ; Filament gcode LA 1.0
M107
;LAYER_CHANGE
;Z:0.2
;HEIGHT:0.2
;BEFORE_LAYER_CHANGE
G92 E0.0
;0.2


G1 E-.8 F2100
M73 Q0 S229
G1 Z.2 F720
;AFTER_LAYER_CHANGE
;0.2
G1 X16.464 Y24.021 F10800
G1 Z.2 F720
G1 E.8 F2100
M204 S800
;TYPE:Skirt/Brim
;WIDTH:0.42
G1 F1200
G1 X18.145 Y23.325 E.05705
G1 X127.97 Y23.325 E3.44349
G1 X129.651 Y24.021 E.05705
G1 X132.638 Y27.009 E.13247
G1 X133.335 Y28.683 E.05685
G1 X133.569 Y113.516 E2.65989
G1 X133.57 Y184.715 E2.23239
G1 X132.873 Y186.396 E.05706
G1 X129.886 Y189.383 E.13245
G1 X128.205 Y190.079 E.05705
G1 X18.38 Y190.079 E3.44349
G1 X16.699 Y189.383 E.05705
M73 P0 R224
G1 X13.712 Y186.396 E.13245
G1 X13.015 Y184.721 E.05688
G1 X12.781 Y99.888 E2.65989
G1 X12.78 Y28.69 E2.23236
G1 X13.477 Y27.009 E.05706
G1 X16.422 Y24.064 E.13059
M204 S1000
;WIPE_START
G1 F8640
G1 X16.464 Y24.021 E-.01388
G1 X18.145 Y23.325 E-.4201
G1 X19.73 Y23.325 E-.36602
;WIPE_END
G1 Z.6 F720
G1 X20.074 Y110.822 F10800
G1 Z.2 F720
G1 E.8 F2100
M204 S800
G1 F1200
G1 X126.482 Y110.826 E3.33635
G1 X127.502 Y111.019 E.03255
G1 X128.48 Y111.435 E.03332
G1 X129.605 Y112.331 E.04509
G1 X130.498 Y113.669 E.05044
G1 X130.906 Y115.214 E.0501
G1 X130.906 Y183.067 E2.12748
G1 X130.175 Y185.199 E.07067
G1 X129.561 Y185.945 E.03029
G1 X128.751 Y186.634 E.03334
G1 X127.824 Y187.099 E.03252
G1 X126.511 Y187.416 E.04235
G1 X20.028 Y187.416 E3.3387
G1 X17.896 Y186.685 E.07067
G1 X17.15 Y186.071 E.03029
G1 X16.46 Y185.261 E.03336
G1 X15.996 Y184.334 E.0325
G1 X15.679 Y183.021 E.04235
G1 X15.679 Y115.171 E2.12739
G1 X16.41 Y113.039 E.07067
G1 X17.023 Y112.293 E.03027
G1 X17.834 Y111.603 E.03339
G1 X18.761 Y111.139 E.0325
G1 X20.015 Y110.836 E.04045
M204 S1000
G1 X20.097 Y111.199 F10800
M204 S800
G1 F1200
G1 X126.463 Y111.203 E3.33503
G1 X127.41 Y111.386 E.03024
G1 X128.307 Y111.771 E.03061
G1 X129.346 Y112.606 E.04179
G1 X130.142 Y113.797 E.04492
G1 X130.529 Y115.239 E.04681
G1 X130.529 Y183.036 E2.12573
G1 X129.862 Y184.986 E.06462
G1 X129.304 Y185.669 E.02765
G1 X128.524 Y186.332 E.0321
G1 X127.714 Y186.738 E.02841
G1 X126.488 Y187.039 E.03958
G1 X20.059 Y187.039 E3.33701
G1 X18.108 Y186.372 E.06465
M73 Q0 S228
G1 X17.426 Y185.814 E.02763
G1 X16.762 Y185.034 E.03212
G1 X16.357 Y184.223 E.02842
G1 X16.056 Y182.998 E.03955
G1 X16.056 Y115.202 E2.1257
G1 X16.723 Y113.251 E.06465
G1 X17.281 Y112.569 E.02763
G1 X18.061 Y111.905 E.03212
G1 X18.871 Y111.5 E.02839
G1 X20.038 Y111.213 E.03768
M204 S1000
G1 X20.12 Y111.576 F10800
M204 S800
G1 F1200
G1 X126.445 Y111.58 E3.33375
G1 X127.316 Y111.751 E.02783
G1 X128.133 Y112.106 E.02793
G1 X129.085 Y112.88 E.03847
G1 X129.81 Y113.978 E.04125
G1 X130.152 Y115.264 E.04172
G1 X130.152 Y183.005 E2.12397
G1 X129.548 Y184.775 E.05864
M73 P0 R223
G1 X129.046 Y185.393 E.02496
G1 X128.297 Y186.03 E.03083
G1 X127.602 Y186.377 E.02436
G1 X126.465 Y186.662 E.03675
G1 X20.09 Y186.662 E3.33531
G1 X18.32 Y186.058 E.05864
G1 X17.702 Y185.556 E.02496
G1 X17.064 Y184.807 E.03085
G1 X16.717 Y184.112 E.02436
G1 X16.433 Y182.975 E.03675
G1 X16.433 Y115.233 E2.124
G1 X17.037 Y113.463 E.05864
G1 X17.539 Y112.845 E.02496
G1 X18.288 Y112.207 E.03085
G1 X18.983 Y111.86 E.02436
G1 X20.062 Y111.591 E.03487
M204 S1000
G1 X20.144 Y111.953 F10800
M204 S800
G1 F1200
G1 X126.425 Y111.957 E3.33237
G1 X127.221 Y112.117 E.02546
G1 X127.956 Y112.44 E.02517
G1 X128.822 Y113.152 E.03515
G1 X129.477 Y114.158 E.03764
G1 X129.775 Y115.288 E.03664
G1 X129.775 Y182.974 E2.12225
G1 X129.233 Y184.565 E.0527
G1 X128.788 Y185.117 E.02223
G1 X128.07 Y185.728 E.02956
G1 X127.489 Y186.017 E.02035
G1 X126.441 Y186.285 E.03392
G1 X20.121 Y186.285 E3.33359
G1 X18.53 Y185.743 E.0527
G1 X17.977 Y185.298 E.02226
G1 X17.367 Y184.58 E.02954
G1 X17.078 Y183.999 E.02035
G1 X16.81 Y182.951 E.03392
G1 X16.81 Y115.264 E2.12228
G1 X17.352 Y113.673 E.0527
G1 X17.797 Y113.12 E.02226
G1 X18.515 Y112.51 E.02954
G1 X19.096 Y112.221 E.02035
G1 X20.086 Y111.968 E.03204
M204 S1000
G1 X20.169 Y112.33 F10800
M204 S800
G1 F1200
G1 X126.407 Y112.334 E3.33102
G1 X127.088 Y112.47 E.02177
G1 X127.78 Y112.775 E.02371
G1 X128.559 Y113.424 E.03179
G1 X129.121 Y114.285 E.03224
G1 X129.398 Y115.313 E.03338
G1 X129.398 Y182.943 E2.12049
G1 X128.918 Y184.356 E.04679
G1 X128.53 Y184.842 E.0195
G1 X127.844 Y185.426 E.02825
G1 X127.375 Y185.657 E.01639
G1 X126.416 Y185.907 E.03107
G1 X20.152 Y185.907 E3.33183
G1 X18.739 Y185.428 E.04678
M73 Q0 S227
G1 X18.252 Y185.039 E.01954
G1 X17.669 Y184.354 E.0282
G1 X17.437 Y183.885 E.01641
G1 X17.187 Y182.926 E.03107
G1 X17.187 Y115.295 E2.12052
G1 X17.667 Y113.882 E.04679
G1 X18.055 Y113.395 E.01952
G1 X18.741 Y112.812 E.02823
G1 X19.21 Y112.58 E.01641
G1 X20.111 Y112.345 E.0292
M204 S1000
G1 X20.194 Y112.707 F10800
M204 S800
G1 F1200
G1 X126.387 Y112.711 E3.32961
G1 X126.991 Y112.835 E.01933
G1 X127.601 Y113.108 E.02095
G1 X128.293 Y113.692 E.02839
G1 X128.787 Y114.463 E.02871
G1 X129.021 Y115.337 E.02837
G1 X129.021 Y182.912 E2.11877
G1 X128.602 Y184.148 E.04092
M73 P1 R223
M73 Q1 S227
G1 X128.269 Y184.569 E.01683
G1 X127.653 Y185.1 E.0255
G1 X127.258 Y185.298 E.01385
G1 X126.391 Y185.53 E.02814
G1 X20.183 Y185.53 E3.33008
G1 X18.947 Y185.111 E.04092
M73 P1 R222
G1 X18.526 Y184.779 E.01681
G1 X17.995 Y184.162 E.02552
G1 X17.796 Y183.768 E.01384
G1 X17.564 Y182.901 E.02814
G1 X17.564 Y115.325 E2.1188
G1 X17.983 Y114.09 E.04089
G1 X18.316 Y113.669 E.01683
G1 X18.932 Y113.138 E.0255
G1 X19.327 Y112.939 E.01387
G1 X20.136 Y112.723 E.02625
M204 S1000
G1 X20.22 Y113.084 F10800
M204 S800
G1 F1200
G1 X126.367 Y113.088 E3.32816
G1 X126.891 Y113.199 E.01679
G1 X127.419 Y113.439 E.01819
G1 X128.027 Y113.96 E.02511
G1 X128.432 Y114.591 E.02351
G1 X128.643 Y115.363 E.02509
G1 X128.643 Y182.881 E2.11698
G1 X128.284 Y183.942 E.03512
G1 X128.007 Y184.298 E.01414
G1 X127.459 Y184.776 E.0228
G1 X127.138 Y184.941 E.01132
G1 X126.365 Y185.153 E.02513
G1 X20.213 Y185.153 E3.32832
G1 X19.153 Y184.794 E.03509
G1 X18.797 Y184.517 E.01414
G1 X18.319 Y183.969 E.0228
G1 X18.154 Y183.647 E.01134
G1 X17.941 Y182.875 E.02511
G1 X17.941 Y115.356 E2.11701
G1 X18.3 Y114.296 E.03509
G1 X18.578 Y113.94 E.01416
G1 X19.126 Y113.462 E.0228
G1 X19.447 Y113.297 E.01132
G1 X20.162 Y113.1 E.02325
M204 S1000
G1 X20.247 Y113.461 F10800
M204 S800
G1 F1200
G1 X126.346 Y113.465 E3.32666
G1 X126.789 Y113.563 E.01423
G1 X127.235 Y113.769 E.0154
G1 X127.758 Y114.226 E.02178
G1 X128.077 Y114.722 E.01849
G1 X128.266 Y115.39 E.02177
G1 X128.266 Y182.851 E2.11519
G1 X127.966 Y183.737 E.02933
G1 X127.262 Y184.453 E.03148
G1 X126.338 Y184.776 E.03069
G1 X20.244 Y184.776 E3.3265
G1 X19.358 Y184.476 E.02933
G1 X18.641 Y183.772 E.03151
G1 X18.318 Y182.848 E.03069
G1 X18.318 Y115.387 E2.11519
G1 X18.618 Y114.501 E.02933
G1 X18.842 Y114.21 E.01151
G1 X19.323 Y113.784 E.02015
G1 X20.19 Y113.481 E.0288
M204 S1000
G1 X20.275 Y113.839 F10800
M204 S800
G1 F1200
G1 X126.323 Y113.842 E3.32506
G1 X127.048 Y114.098 E.02411
M73 Q1 S226
G1 X127.488 Y114.49 E.01848
G1 X127.723 Y114.855 E.01361
G1 X127.889 Y115.418 E.0184
G1 X127.889 Y182.82 E2.11334
G1 X127.647 Y183.535 E.02367
G1 X127.061 Y184.134 E.02627
G1 X126.31 Y184.399 E.02497
G1 X20.275 Y184.399 E3.32465
G1 X19.56 Y184.157 E.02367
G1 X18.961 Y183.571 E.02627
G1 X18.696 Y182.82 E.02497
G1 X18.696 Y115.418 E2.11334
G1 X18.938 Y114.703 E.02367
G1 X19.524 Y114.104 E.02627
G1 X20.219 Y113.859 E.02311
M204 S1000
G1 X20.305 Y114.216 F10800
M204 S800
G1 F1200
G1 X126.302 Y114.219 E3.32346
G1 X126.86 Y114.426 E.01866
M73 P1 R221
G1 X127.372 Y114.992 E.02393
G1 X127.512 Y115.448 E.01496
G1 X127.512 Y182.789 E2.11143
G1 X127.326 Y183.335 E.01809
G1 X126.855 Y183.817 E.02113
G1 X126.28 Y184.022 E.01914
G1 X20.306 Y184.022 E3.32274
G1 X19.76 Y183.836 E.01809
G1 X19.277 Y183.365 E.02115
G1 X19.073 Y182.79 E.01913
G1 X19.073 Y115.449 E2.11143
G1 X19.378 Y114.742 E.02414
G1 X19.73 Y114.42 E.01496
G1 X20.248 Y114.236 E.01724
M204 S1000
G1 X20.337 Y114.593 F10800
M204 S800
G1 F1200
G1 X126.279 Y114.596 E3.32174
G1 X126.67 Y114.753 E.01321
G1 X126.939 Y115.008 E.01162
G1 X127.135 Y115.48 E.01602
G1 X127.135 Y182.757 E2.10942
G1 X127.003 Y183.139 E.01267
G1 X126.64 Y183.507 E.01621
G1 X126.248 Y183.645 E.01303
G1 X20.338 Y183.645 E3.32073
G1 X19.956 Y183.513 E.01267
G1 X19.587 Y183.15 E.01623
G1 X19.45 Y182.758 E.01302
G1 X19.45 Y115.481 E2.10942
G1 X19.582 Y115.099 E.01267
G1 X19.945 Y114.73 E.01623
G1 X20.28 Y114.613 E.01113
M204 S1000
G1 X20.372 Y114.97 F10800
M204 S800
G1 F1200
G1 X126.227 Y114.97 E3.31901
G1 X126.659 Y115.26 E.01631
G1 X126.758 Y115.515 E.00858
G1 X126.758 Y182.723 E2.10726
G1 X126.661 Y182.974 E.00844
M73 Q1 S225
G1 X126.426 Y183.192 E.01005
G1 X126.213 Y183.268 E.00709
G1 X20.372 Y183.268 E3.31857
G1 X20.12 Y183.17 E.00848
G1 X19.903 Y182.936 E.01001
G1 X19.827 Y182.723 E.00709
G1 X19.827 Y115.515 E2.10726
G1 X19.924 Y115.263 E.00847
G1 X20.159 Y115.046 E.01003
G1 X20.315 Y114.99 E.0052
M204 S1000
G1 X20.344 Y115.376 F10800
M204 S800
G1 F1200
G1 X126.241 Y115.376 E3.32033
G1 X126.381 Y115.556 E.00715
G1 X126.381 Y182.681 E2.10466
G1 X126.241 Y182.862 E.00717
M73 P1 R220
G1 X20.414 Y182.891 E3.31813
G1 X20.233 Y182.75 E.00719
G1 X20.204 Y115.556 E2.10682
G1 X20.307 Y115.423 E.00527
M73 P2 R220
M204 S1000
;WIPE_START
G1 F8640
G1 X20.344 Y115.376 E-.01381
G1 X23.749 Y115.376 E-.78619
;WIPE_END
G1 Z.6 F720
G1 X20.307 Y102.582 F10800
G1 Z.2 F720
G1 E.8 F2100
M204 S800
G1 F1200
G1 X19.793 Y102.582 E.01612
G1 X17.661 Y101.851 E.07067
G1 X16.915 Y101.238 E.03027
G1 X16.226 Y100.427 E.03337
G1 X15.761 Y99.501 E.03249
G1 X15.444 Y98.188 E.04235
G1 X15.444 Y30.337 E2.12742
G1 X16.175 Y28.206 E.07064
M73 Q2 S225
G1 X16.789 Y27.46 E.03029
G1 X17.599 Y26.77 E.03336
G1 X18.526 Y26.305 E.03252
G1 X19.839 Y25.989 E.04234
G1 X126.247 Y25.992 E3.33635
G1 X127.267 Y26.186 E.03255
G1 X128.245 Y26.602 E.03332
G1 X129.37 Y27.498 E.04509
G1 X130.263 Y28.836 E.05044
G1 X130.671 Y30.381 E.0501
G1 X130.671 Y98.233 E2.12745
G1 X129.94 Y100.365 E.07067
G1 X129.327 Y101.111 E.03027
G1 X128.516 Y101.801 E.03339
G1 X127.589 Y102.266 E.03252
G1 X126.277 Y102.582 E.04231
G1 X20.367 Y102.582 E3.32073
M204 S1000
G1 X20.367 Y102.205 F10800
M204 S800
G1 F1200
G1 X19.824 Y102.205 E.01703
G1 X17.873 Y101.538 E.06465
G1 X17.191 Y100.98 E.02763
G1 X16.528 Y100.2 E.0321
G1 X16.122 Y99.39 E.02841
G1 X15.821 Y98.165 E.03955
G1 X15.821 Y30.368 E2.12573
G1 X16.488 Y28.418 E.06462
G1 X17.046 Y27.736 E.02763
G1 X17.826 Y27.072 E.03212
G1 X18.636 Y26.666 E.02841
G1 X19.862 Y26.366 E.03957
G1 X126.228 Y26.369 E3.33503
G1 X127.175 Y26.552 E.03024
G1 X128.072 Y26.938 E.03062
G1 X129.111 Y27.773 E.04179
G1 X129.907 Y28.964 E.04492
G1 X130.294 Y30.406 E.04681
G1 X130.294 Y98.202 E2.1257
G1 X129.627 Y100.153 E.06465
G1 X129.069 Y100.835 E.02763
G1 X128.289 Y101.499 E.03212
G1 X127.479 Y101.905 E.02841
G1 X126.253 Y102.205 E.03957
G1 X20.427 Y102.205 E3.3181
M204 S1000
G1 X20.427 Y101.828 F10800
M73 Q2 S224
M204 S800
G1 F1200
G1 X19.855 Y101.828 E.01793
G1 X18.085 Y101.224 E.05864
G1 X17.467 Y100.723 E.02494
G1 X16.83 Y99.973 E.03085
G1 X16.482 Y99.278 E.02437
G1 X16.198 Y98.141 E.03675
G1 X16.198 Y30.399 E2.124
G1 X16.802 Y28.629 E.05864
G1 X17.304 Y28.011 E.02496
G1 X18.053 Y27.374 E.03083
G1 X18.748 Y27.027 E.02436
G1 X19.885 Y26.743 E.03675
G1 X126.21 Y26.746 E3.33375
G1 X127.081 Y26.918 E.02784
G1 X127.898 Y27.273 E.02793
G1 X128.85 Y28.047 E.03847
G1 X129.575 Y29.145 E.04125
G1 X129.917 Y30.43 E.04169
G1 X129.917 Y98.171 E2.12397
G1 X129.313 Y99.942 E.05867
M73 P2 R219
G1 X128.811 Y100.56 E.02496
G1 X128.062 Y101.197 E.03083
G1 X127.367 Y101.544 E.02436
G1 X126.23 Y101.828 E.03675
G1 X20.487 Y101.828 E3.3155
M204 S1000
G1 X20.487 Y101.451 F10800
M204 S800
G1 F1200
G1 X19.886 Y101.451 E.01884
G1 X18.295 Y100.91 E.05269
G1 X17.742 Y100.465 E.02226
G1 X17.132 Y99.747 E.02954
G1 X16.843 Y99.166 E.02035
G1 X16.575 Y98.117 E.03395
G1 X16.575 Y30.43 E2.12228
G1 X17.117 Y28.84 E.05267
G1 X17.562 Y28.287 E.02226
G1 X18.28 Y27.676 E.02956
G1 X18.861 Y27.387 E.02035
G1 X19.909 Y27.12 E.03391
G1 X126.191 Y27.123 E3.3324
G1 X126.986 Y27.283 E.02543
G1 X127.721 Y27.607 E.02519
G1 X128.588 Y28.319 E.03518
G1 X129.242 Y29.325 E.03762
G1 X129.54 Y30.454 E.03661
G1 X129.54 Y98.14 E2.12225
G1 X128.998 Y99.731 E.0527
G1 X128.553 Y100.284 E.02226
G1 X127.835 Y100.895 E.02956
G1 X127.254 Y101.184 E.02035
G1 X126.206 Y101.451 E.03391
G1 X20.547 Y101.451 E3.31286
M204 S1000
G1 X20.547 Y101.074 F10800
M204 S800
G1 F1200
G1 X19.917 Y101.074 E.01975
G1 X18.504 Y100.594 E.04679
G1 X18.018 Y100.206 E.0195
G1 X17.434 Y99.52 E.02825
G1 X17.203 Y99.051 E.01639
G1 X16.952 Y98.093 E.03105
G1 X16.952 Y30.461 E2.12055
G1 X17.432 Y29.049 E.04676
G1 X17.82 Y28.562 E.01952
G1 X18.506 Y27.979 E.02823
G1 X18.975 Y27.747 E.01641
G1 X19.934 Y27.497 E.03107
G1 X126.172 Y27.5 E3.33102
G1 X126.853 Y27.637 E.02178
G1 X127.545 Y27.941 E.0237
G1 X128.324 Y28.59 E.03179
G1 X128.886 Y29.452 E.03226
G1 X129.163 Y30.48 E.03338
G1 X129.163 Y98.11 E2.12049
G1 X128.683 Y99.522 E.04676
G1 X128.295 Y100.009 E.01952
G1 X127.609 Y100.592 E.02823
G1 X127.14 Y100.824 E.01641
G1 X126.181 Y101.074 E.03107
G1 X20.607 Y101.074 E3.3102
M204 S1000
G1 X20.607 Y100.697 F10800
M73 Q2 S223
M204 S800
G1 F1200
G1 X19.948 Y100.697 E.02066
G1 X18.712 Y100.278 E.04092
G1 X18.291 Y99.946 E.01681
G1 X17.76 Y99.329 E.02552
G1 X17.561 Y98.934 E.01387
G1 X17.329 Y98.067 E.02814
G1 X17.329 Y30.492 E2.11877
G1 X17.748 Y29.256 E.04092
G1 X18.081 Y28.835 E.01683
G1 X18.697 Y28.304 E.0255
G1 X19.092 Y28.106 E.01385
G1 X19.959 Y27.874 E.02814
G1 X126.152 Y27.878 E3.32961
G1 X126.756 Y28.002 E.01933
G1 X127.366 Y28.274 E.02094
G1 X128.059 Y28.859 E.02844
G1 X128.553 Y29.63 E.02871
G1 X128.786 Y30.504 E.02836
G1 X128.786 Y98.079 E2.11877
G1 X128.367 Y99.314 E.04089
G1 X128.034 Y99.736 E.01685
G1 X127.418 Y100.266 E.02548
G1 X127.023 Y100.465 E.01387
G1 X126.156 Y100.697 E.02814
G1 X20.667 Y100.697 E3.30753
M204 S1000
G1 X20.667 Y100.32 F10800
M73 P2 R218
M204 S800
G1 F1200
G1 X19.978 Y100.32 E.0216
G1 X18.918 Y99.961 E.03509
G1 X18.562 Y99.683 E.01416
G1 X18.084 Y99.135 E.0228
G1 X17.919 Y98.814 E.01132
G1 X17.707 Y98.041 E.02513
G1 X17.707 Y30.523 E2.11698
G1 X18.066 Y29.463 E.03509
G1 X18.343 Y29.107 E.01414
