; generated by PrusaSlicer 2.7.0+win64 on 2023-12-15 at 21:38:06 UTC


;
;
; 

; external perimeters extrusion width = 0.45mm
; perimeters extrusion width = 0.45mm
; infill extrusion width = 0.45mm
; solid infill extrusion width = 0.45mm
; top infill extrusion width = 0.40mm
; first layer extrusion width = 0.42mm

; external perimeters extrusion width = 0.45mm
; perimeters extrusion width = 0.45mm
; infill extrusion width = 0.45mm
; solid infill extrusion width = 0.45mm
; top infill extrusion width = 0.40mm
; first layer extrusion width = 0.42mm

M73 P0 R211
M73 Q0 S216
M201 X1000 Y1000 Z200 E5000 ; sets maximum accelerations, mm/sec^2
M203 X200 Y200 Z12 E120 ; sets maximum feedrates, mm / sec
M204 S1250 T1250 ; sets acceleration (S) and retract acceleration (R), mm/sec^2
M205 X8.00 Y8.00 Z0.40 E4.50 ; sets the jerk limits, mm/sec
M205 S0 T0 ; sets the minimum extruding and travel feed rate, mm/sec

; printing object MoldCaseBtm.stl id:0 copy 0
; stop printing object MoldCaseBtm.stl id:0 copy 0
; printing object MoldCaseTop.stl id:1 copy 0
; stop printing object MoldCaseTop.stl id:1 copy 0

;TYPE:Custom
M862.3 P "MK3S" ; printer model check
M862.1 P0.4 ; nozzle diameter check
M115 U3.12.2 ; tell printer latest fw version
G90 ; use absolute coordinates
M83 ; extruder relative mode
M104 S215 ; set extruder temp
M140 S60 ; set bed temp
M190 S60 ; wait for bed temp
M109 S215 ; wait for extruder temp
G28 W ; home all without mesh bed level
G80 ; mesh bed leveling

G1 Z0.2 F720
G1 Y-3 F1000 ; go outside print area
G92 E0
G1 X60 E9 F1000 ; intro line
G1 X100 E12.5 F1000 ; intro line
M73 P0 R210

G92 E0
M221 S95

; Don't change E values below. Excessive value can damage the printer.

M907 E538 ; set extruder motor current
G21 ; set units to millimeters
G90 ; use absolute coordinates
M83 ; use relative distances for extrusion
M900 K0.05 ; Filament gcode LA 1.5
M900 K30 ; Filament gcode LA 1.0
M107
;LAYER_CHANGE
;Z:0.2
;HEIGHT:0.2
;BEFORE_LAYER_CHANGE
G92 E0.0
;0.2


G1 E-.8 F2100
M73 Q0 S215
G1 Z.2 F720
;AFTER_LAYER_CHANGE
;0.2
G1 X6.849 Y16.536 F10800
G1 Z.2 F720
G1 E.8 F2100
M204 S800
;TYPE:Skirt/Brim
;WIDTH:0.42
G1 F1200
G1 X7.078 Y16.441 E.00777
G1 X120.903 Y16.441 E3.5689
G1 X122.584 Y17.137 E.05705
G1 X125.571 Y20.125 E.13247
G1 X126.268 Y21.804 E.057
G1 X126.336 Y184.292 E5.0947
G1 X125.64 Y185.972 E.05702
G1 X122.652 Y188.96 E.13249
G1 X120.971 Y189.656 E.05705
G1 X7.146 Y189.656 E3.5689
G1 X5.466 Y188.96 E.05702
G1 X2.478 Y185.972 E.13249
G1 X1.782 Y184.293 E.05699
G1 X1.713 Y21.806 E5.09467
G1 X2.41 Y20.125 E.05706
G1 X5.397 Y17.137 E.13247
G1 X6.794 Y16.559 E.0474
M204 S1000
;WIPE_START
G1 F8640
G1 X6.849 Y16.536 E-.01377
G1 X7.078 Y16.441 E-.05725
G1 X10.235 Y16.441 E-.72898
;WIPE_END
G1 Z.6 F720
G1 X8.84 Y106.399 F10800
G1 Z.2 F720
G1 E.8 F2100
M204 S800
G1 F1200
G1 X119.248 Y106.402 E3.46177
G1 X120.268 Y106.596 E.03255
G1 X121.247 Y107.012 E.03335
G1 X122.371 Y107.908 E.04507
G1 X123.264 Y109.246 E.05044
G1 X123.672 Y110.791 E.0501
G1 X123.672 Y182.644 E2.2529
G1 X122.942 Y184.775 E.07063
G1 X122.333 Y185.517 E.0301
G1 X121.563 Y186.18 E.03186
G1 X120.593 Y186.675 E.03414
G1 X119.278 Y186.993 E.04242
G1 X8.794 Y186.993 E3.46415
G1 X6.663 Y186.262 E.07064
G1 X5.921 Y185.653 E.0301
G1 X5.258 Y184.883 E.03186
G1 X4.763 Y183.913 E.03414
G1 X4.445 Y182.598 E.04242
G1 X4.445 Y110.747 E2.25284
G1 X5.176 Y108.616 E.07064
G1 X5.785 Y107.874 E.0301
G1 X6.555 Y107.211 E.03186
G1 X7.525 Y106.716 E.03414
G1 X8.782 Y106.413 E.04054
M204 S1000
G1 X8.863 Y106.776 F10800
M204 S800
G1 F1200
G1 X119.23 Y106.779 E3.46048
G1 X120.176 Y106.962 E.03021
M73 P0 R209
G1 X121.074 Y107.348 E.03065
G1 X122.112 Y108.183 E.04177
G1 X122.908 Y109.374 E.04492
G1 X123.295 Y110.816 E.04681
G1 X123.295 Y182.613 E2.25114
G1 X122.628 Y184.563 E.06462
M73 Q0 S214
G1 X122.074 Y185.242 E.02748
G1 X121.334 Y185.88 E.03063
G1 X120.482 Y186.314 E.02998
G1 X119.255 Y186.616 E.03962
G1 X8.825 Y186.616 E3.46246
G1 X6.875 Y185.948 E.06463
G1 X6.196 Y185.394 E.02748
G1 X5.558 Y184.654 E.03063
G1 X5.124 Y183.802 E.02998
G1 X4.823 Y182.575 E.03961
G1 X4.823 Y110.779 E2.25111
G1 X5.49 Y108.828 E.06465
G1 X6.044 Y108.149 E.02748
G1 X6.784 Y107.512 E.03061
G1 X7.636 Y107.077 E.02999
G1 X8.805 Y106.79 E.03774
M204 S1000
G1 X8.887 Y107.153 F10800
M204 S800
G1 F1200
G1 X119.211 Y107.156 E3.45913
G1 X120.083 Y107.328 E.02787
G1 X120.899 Y107.683 E.0279
G1 X121.852 Y108.457 E.03849
G1 X122.576 Y109.555 E.04124
G1 X122.918 Y110.84 E.04169
G1 X122.918 Y182.582 E2.24942
G1 X122.314 Y184.352 E.05864
G1 X121.815 Y184.968 E.02486
G1 X121.105 Y185.579 E.02937
G1 X120.369 Y185.954 E.0259
G1 X119.231 Y186.238 E.03678
G1 X8.856 Y186.238 E3.46073
G1 X7.086 Y185.634 E.05864
G1 X6.47 Y185.135 E.02486
G1 X5.859 Y184.425 E.02937
G1 X5.484 Y183.69 E.02587
G1 X5.2 Y182.551 E.03681
G1 X5.2 Y110.81 E2.24939
G1 X5.804 Y109.039 E.05867
G1 X6.303 Y108.423 E.02486
G1 X7.013 Y107.812 E.02937
G1 X7.748 Y107.437 E.02587
G1 X8.828 Y107.167 E.0349
M204 S1000
G1 X8.911 Y107.53 F10800
M204 S800
G1 F1200
G1 X119.192 Y107.533 E3.45778
G1 X119.988 Y107.694 E.02546
G1 X120.723 Y108.017 E.02517
G1 X121.589 Y108.729 E.03515
G1 X122.244 Y109.735 E.03764
G1 X122.541 Y110.864 E.0366
G1 X122.541 Y182.551 E2.2477
G1 X122 Y184.142 E.05269
G1 X121.555 Y184.694 E.02223
G1 X120.876 Y185.278 E.02808
G1 X120.256 Y185.594 E.02182
G1 X119.207 Y185.861 E.03394
G1 X8.887 Y185.861 E3.45901
G1 X7.296 Y185.32 E.05269
G1 X6.744 Y184.876 E.02221
G1 X6.16 Y184.196 E.0281
G1 X5.844 Y183.576 E.02182
G1 X5.577 Y182.527 E.03394
G1 X5.577 Y110.84 E2.2477
G1 X6.118 Y109.25 E.05266
G1 X6.562 Y108.698 E.02221
G1 X7.242 Y108.113 E.02813
G1 X7.862 Y107.797 E.02182
G1 X8.853 Y107.545 E.03206
M204 S1000
G1 X8.935 Y107.907 F10800
M204 S800
G1 F1200
G1 X119.173 Y107.911 E3.45644
G1 X119.855 Y108.047 E.0218
G1 X120.546 Y108.351 E.02367
G1 X121.326 Y109 E.03181
G1 X121.887 Y109.862 E.03225
G1 X122.164 Y110.89 E.03338
G1 X122.164 Y182.52 E2.24591
G1 X121.684 Y183.932 E.04676
M73 P0 R208
M73 Q0 S213
G1 X121.296 Y184.42 E.01955
G1 X120.647 Y184.978 E.02684
G1 X120.141 Y185.234 E.01778
G1 X119.183 Y185.484 E.03104
G1 X8.918 Y185.484 E3.45728
G1 X7.506 Y185.004 E.04676
M73 P1 R208
M73 Q1 S213
G1 X7.018 Y184.616 E.01955
G1 X6.46 Y183.968 E.02681
G1 X6.204 Y183.461 E.01781
G1 X5.954 Y182.503 E.03104
G1 X5.954 Y110.871 E2.24597
G1 X6.434 Y109.459 E.04676
G1 X6.822 Y108.972 E.01952
G1 X7.47 Y108.414 E.02681
G1 X7.977 Y108.157 E.01782
G1 X8.877 Y107.922 E.02916
M204 S1000
G1 X8.961 Y108.284 F10800
M204 S800
G1 F1200
G1 X119.154 Y108.288 E3.45502
G1 X119.757 Y108.412 E.0193
G1 X120.367 Y108.684 E.02094
G1 X121.06 Y109.269 E.02844
G1 X121.554 Y110.04 E.02871
G1 X121.787 Y110.914 E.02836
G1 X121.787 Y182.489 E2.24418
G1 X121.368 Y183.725 E.04092
G1 X121.036 Y184.146 E.01681
G1 X120.419 Y184.677 E.02552
G1 X120.024 Y184.875 E.01385
G1 X119.157 Y185.107 E.02814
G1 X8.949 Y185.107 E3.45549
G1 X7.713 Y184.688 E.04092
G1 X7.292 Y184.356 E.01681
G1 X6.761 Y183.739 E.02552
G1 X6.563 Y183.344 E.01385
G1 X6.331 Y182.478 E.02811
G1 X6.331 Y110.902 E2.24422
G1 X6.75 Y109.667 E.04089
G1 X7.082 Y109.245 E.01684
G1 X7.699 Y108.715 E.0255
G1 X8.094 Y108.516 E.01387
G1 X8.903 Y108.3 E.02625
M204 S1000
G1 X8.987 Y108.661 F10800
M204 S800
G1 F1200
G1 X119.133 Y108.665 E3.45355
G1 X119.658 Y108.776 E.01682
G1 X120.186 Y109.016 E.01819
G1 X120.793 Y109.537 E.02508
G1 X121.198 Y110.168 E.02351
G1 X121.41 Y110.94 E.0251
G1 X121.41 Y182.458 E2.2424
G1 X121.051 Y183.518 E.03509
G1 X120.773 Y183.874 E.01416
G1 X120.225 Y184.352 E.0228
G1 X119.904 Y184.517 E.01132
G1 X119.131 Y184.73 E.02514
G1 X8.98 Y184.73 E3.45371
G1 X7.92 Y184.371 E.03509
G1 X7.564 Y184.094 E.01414
G1 X7.086 Y183.546 E.0228
G1 X6.921 Y183.224 E.01134
G1 X6.708 Y182.451 E.02514
G1 X6.708 Y110.933 E2.2424
G1 X7.067 Y109.873 E.03509
G1 X7.344 Y109.517 E.01414
G1 X7.892 Y109.039 E.0228
G1 X8.214 Y108.874 E.01134
G1 X8.929 Y108.677 E.02325
M204 S1000
G1 X9.014 Y109.038 F10800
M204 S800
G1 F1200
G1 X119.112 Y109.042 E3.45205
G1 X119.556 Y109.14 E.01426
G1 X120.002 Y109.346 E.0154
G1 X120.525 Y109.803 E.02178
G1 X120.843 Y110.298 E.01845
G1 X121.033 Y110.967 E.02181
G1 X121.033 Y182.427 E2.24058
G1 X120.733 Y183.314 E.02936
G1 X120.028 Y184.03 E.03151
G1 X119.104 Y184.353 E.03069
G1 X9.011 Y184.353 E3.45189
G1 X8.124 Y184.053 E.02936
M73 P1 R207
M73 Q1 S212
G1 X7.408 Y183.349 E.03148
G1 X7.085 Y182.424 E.03072
G1 X7.085 Y110.964 E2.24058
G1 X7.385 Y110.077 E.02936
G1 X7.609 Y109.786 E.01151
G1 X8.089 Y109.361 E.0201
G1 X8.957 Y109.058 E.02883
M204 S1000
G1 X9.042 Y109.415 F10800
M204 S800
G1 F1200
G1 X119.09 Y109.419 E3.45048
G1 X119.815 Y109.674 E.0241
G1 X120.254 Y110.067 E.01847
G1 X120.49 Y110.432 E.01363
G1 X120.656 Y110.995 E.0184
G1 X120.656 Y182.396 E2.23873
G1 X120.414 Y183.111 E.02367
G1 X119.828 Y183.711 E.0263
G1 X119.076 Y183.976 E.025
G1 X9.042 Y183.976 E3.45004
G1 X8.327 Y183.734 E.02367
G1 X7.728 Y183.148 E.02627
G1 X7.462 Y182.396 E.02501
G1 X7.462 Y110.995 E2.23873
G1 X7.704 Y110.28 E.02367
G1 X8.29 Y109.681 E.02627
G1 X8.985 Y109.435 E.02312
M204 S1000
G1 X9.071 Y109.792 F10800
M204 S800
G1 F1200
G1 X119.068 Y109.796 E3.44888
G1 X119.627 Y110.003 E.01869
G1 X120.138 Y110.569 E.02391
G1 X120.279 Y111.024 E.01494
G1 X120.279 Y182.365 E2.23685
G1 X120.093 Y182.912 E.01812
G1 X119.621 Y183.394 E.02115
G1 X119.046 Y183.599 E.01914
G1 X9.073 Y183.599 E3.44813
G1 X8.526 Y183.413 E.01812
G1 X8.044 Y182.942 E.02113
G1 X7.839 Y182.367 E.01914
G1 X7.839 Y111.026 E2.23685
G1 X8.144 Y110.318 E.02417
G1 X8.496 Y109.997 E.01494
G1 X9.015 Y109.812 E.01728
M204 S1000
G1 X9.103 Y110.169 F10800
M204 S800
G1 F1200
G1 X119.046 Y110.173 E3.44719
G1 X119.437 Y110.33 E.01321
G1 X119.705 Y110.585 E.0116
G1 X119.902 Y111.056 E.01601
G1 X119.902 Y182.334 E2.23487
G1 X119.77 Y182.716 E.01267
G1 X119.407 Y183.084 E.01621
G1 X119.015 Y183.222 E.01303
G1 X9.104 Y183.222 E3.44618
G1 X8.722 Y183.09 E.01267
M73 P1 R206
G1 X8.354 Y182.727 E.01621
G1 X8.216 Y182.335 E.01303
G1 X8.216 Y111.058 E2.23484
G1 X8.348 Y110.676 E.01267
M73 Q1 S211
G1 X8.711 Y110.307 E.01623
G1 X9.046 Y110.189 E.01114
M204 S1000
G1 X9.138 Y110.546 F10800
M204 S800
G1 F1200
G1 X118.994 Y110.546 E3.44446
G1 X119.425 Y110.837 E.01631
G1 X119.525 Y111.091 E.00856
G1 X119.525 Y182.3 E2.23271
G1 X119.427 Y182.551 E.00845
M73 P2 R206
G1 X119.193 Y182.768 E.01001
G1 X118.98 Y182.845 E.0071
G1 X9.138 Y182.845 E3.44402
G1 X8.887 Y182.747 E.00845
M73 Q2 S211
G1 X8.67 Y182.513 E.01001
G1 X8.593 Y182.3 E.0071
G1 X8.593 Y111.091 E2.23271
G1 X8.691 Y110.84 E.00845
G1 X8.925 Y110.623 E.01001
G1 X9.082 Y110.567 E.00523
M204 S1000
G1 X9.111 Y110.952 F10800
M204 S800
G1 F1200
G1 X119.007 Y110.952 E3.44571
G1 X119.147 Y111.133 E.00717
G1 X119.147 Y182.258 E2.23007
G1 X119.007 Y182.439 E.00717
G1 X9.18 Y182.468 E3.44355
G1 X8.999 Y182.327 E.00719
G1 X8.97 Y111.133 E2.23224
G1 X9.074 Y111 E.00529
M204 S1000
;WIPE_START
G1 F8640
G1 X9.111 Y110.952 E-.01399
G1 X12.515 Y110.952 E-.78601
;WIPE_END
G1 Z.6 F720
G1 X9.074 Y99.699 F10800
G1 Z.2 F720
G1 E.8 F2100
M204 S800
G1 F1200
G1 X8.726 Y99.699 E.01091
G1 X6.594 Y98.968 E.07067
G1 X5.852 Y98.359 E.0301
G1 X5.189 Y97.589 E.03186
G1 X4.694 Y96.62 E.03412
G1 X4.377 Y95.304 E.04244
G1 X4.377 Y23.454 E2.25281
G1 X5.108 Y21.322 E.07067
G1 X5.717 Y20.58 E.0301
G1 X6.487 Y19.917 E.03186
G1 X7.456 Y19.422 E.03412
G1 X8.772 Y19.105 E.04244
G1 X119.18 Y19.108 E3.46177
G1 X120.2 Y19.302 E.03255
G1 X121.178 Y19.718 E.03332
G1 X122.303 Y20.614 E.04509
G1 X123.196 Y21.952 E.05044
G1 X123.604 Y23.497 E.0501
G1 X123.604 Y95.35 E2.2529
G1 X122.873 Y97.481 E.07064
G1 X122.264 Y98.224 E.03012
G1 X121.494 Y98.886 E.03184
G1 X120.525 Y99.382 E.03413
G1 X119.209 Y99.699 E.04244
G1 X9.134 Y99.699 E3.45132
M204 S1000
G1 X9.134 Y99.322 F10800
M73 P2 R205
M204 S800
G1 F1200
G1 X8.757 Y99.322 E.01182
G1 X6.806 Y98.655 E.06465
G1 X6.127 Y98.1 E.0275
G1 X5.49 Y97.36 E.03061
G1 X5.055 Y96.508 E.02999
G1 X4.754 Y95.281 E.03961
G1 X4.754 Y23.485 E2.25111
G1 X5.421 Y21.534 E.06465
M73 Q2 S210
G1 X5.976 Y20.855 E.0275
G1 X6.716 Y20.218 E.03061
G1 X7.568 Y19.783 E.02999
G1 X8.795 Y19.482 E.03961
G1 X119.161 Y19.486 E3.46045
G1 X120.108 Y19.669 E.03024
G1 X121.005 Y20.054 E.03061
G1 X122.044 Y20.889 E.04179
G1 X122.84 Y22.08 E.04492
G1 X123.227 Y23.522 E.04681
G1 X123.227 Y95.319 E2.25114
G1 X122.56 Y97.269 E.06462
G1 X122.005 Y97.949 E.02752
G1 X121.265 Y98.586 E.03061
G1 X120.413 Y99.021 E.02999
G1 X119.186 Y99.322 E.03961
G1 X9.194 Y99.322 E3.44872
M204 S1000
G1 X9.194 Y98.945 F10800
M204 S800
G1 F1200
G1 X8.788 Y98.945 E.01273
G1 X7.018 Y98.341 E.05864
G1 X6.402 Y97.841 E.02488
G1 X5.791 Y97.131 E.02937
G1 X5.416 Y96.396 E.02587
G1 X5.131 Y95.258 E.03678
G1 X5.131 Y23.516 E2.24942
G1 X5.735 Y21.746 E.05864
G1 X6.235 Y21.13 E.02488
G1 X6.945 Y20.518 E.02939
G1 X7.68 Y20.143 E.02587
G1 X8.818 Y19.859 E.03678
G1 X119.143 Y19.863 E3.45916
G1 X120.014 Y20.034 E.02783
G1 X120.831 Y20.389 E.02793
G1 X121.783 Y21.163 E.03847
G1 X122.508 Y22.261 E.04125
G1 X122.85 Y23.547 E.04172
G1 X122.85 Y95.288 E2.24939
G1 X122.246 Y97.058 E.05864
G1 X121.746 Y97.674 E.02488
G1 X121.036 Y98.285 E.02937
G1 X120.301 Y98.66 E.02587
G1 X119.163 Y98.945 E.03678
G1 X9.254 Y98.945 E3.44612
M204 S1000
G1 X9.254 Y98.568 F10800
M204 S800
G1 F1200
G1 X8.819 Y98.568 E.01364
G1 X7.228 Y98.026 E.0527
G1 X6.676 Y97.582 E.02221
G1 X6.091 Y96.902 E.02813
G1 X5.776 Y96.282 E.0218
G1 X5.508 Y95.234 E.03392
G1 X5.508 Y23.547 E2.2477
G1 X6.05 Y21.956 E.0527
G1 X6.494 Y21.404 E.02221
G1 X7.173 Y20.819 E.0281
G1 X7.794 Y20.504 E.02183
G1 X8.842 Y20.236 E.03392
G1 X119.123 Y20.24 E3.45778
G1 X119.919 Y20.4 E.02546
G1 X120.654 Y20.723 E.02517
G1 X121.521 Y21.435 E.03518
G1 X122.175 Y22.441 E.03762
G1 X122.473 Y23.571 E.03664
G1 X122.473 Y95.257 E2.24766
G1 X121.931 Y96.848 E.0527
G1 X121.487 Y97.4 E.02221
G1 X120.808 Y97.985 E.0281
G1 X120.187 Y98.3 E.02183
G1 X119.139 Y98.568 E.03392
G1 X9.314 Y98.568 E3.44349
M204 S1000
G1 X9.314 Y98.191 F10800
M204 S800
G1 F1200
G1 X8.85 Y98.191 E.01455
G1 X7.437 Y97.711 E.04679
G1 X6.95 Y97.322 E.01954
G1 X6.392 Y96.674 E.02681
G1 X6.135 Y96.167 E.01782
G1 X5.885 Y95.209 E.03104
G1 X5.885 Y23.578 E2.24594
G1 X6.365 Y22.165 E.04679
M73 P2 R204
M73 Q2 S209
G1 X6.754 Y21.678 E.01954
G1 X7.402 Y21.12 E.02681
G1 X7.909 Y20.863 E.01782
G1 X8.867 Y20.613 E.03104
G1 X119.105 Y20.617 E3.45644
G1 X119.786 Y20.753 E.02177
G1 X120.478 Y21.058 E.02371
G1 X121.257 Y21.707 E.03179
G1 X121.819 Y22.568 E.03224
G1 X122.096 Y23.596 E.03338
G1 X122.096 Y95.226 E2.24591
G1 X121.616 Y96.639 E.04679
G1 X121.227 Y97.126 E.01954
G1 X120.579 Y97.684 E.02681
G1 X120.072 Y97.941 E.01782
G1 X119.114 Y98.191 E.03104
G1 X9.374 Y98.191 E3.44082
M204 S1000
G1 X9.374 Y97.813 F10800
M73 P3 R204
M204 S800
G1 F1200
G1 X8.881 Y97.813 E.01546
G1 X7.645 Y97.394 E.04092
G1 X7.224 Y97.062 E.01681
G1 X6.693 Y96.446 E.0255
G1 X6.494 Y96.051 E.01387
G1 X6.262 Y95.184 E.02814
G1 X6.262 Y23.608 E2.24422
G1 X6.681 Y22.373 E.04089
G1 X7.014 Y21.952 E.01683
G1 X7.63 Y21.421 E.0255
G1 X8.025 Y21.222 E.01387
G1 X8.892 Y20.99 E.02814
G1 X119.085 Y20.994 E3.45502
G1 X119.689 Y21.118 E.01933
M73 Q3 S209
G1 X120.299 Y21.39 E.02094
G1 X120.992 Y21.975 E.02844
G1 X121.485 Y22.746 E.02869
G1 X121.719 Y23.62 E.02837
G1 X121.719 Y95.195 E2.24418
G1 X121.3 Y96.431 E.04092
G1 X120.967 Y96.852 E.01683
G1 X120.351 Y97.383 E.0255
G1 X119.956 Y97.581 E.01385
G1 X119.089 Y97.813 E.02814
G1 X9.434 Y97.813 E3.43816
M204 S1000
G1 X9.434 Y97.436 F10800
M204 S800
G1 F1200
G1 X8.911 Y97.436 E.0164
G1 X7.851 Y97.077 E.03509
G1 X7.495 Y96.8 E.01414
G1 X7.017 Y96.252 E.0228
G1 X6.852 Y95.931 E.01132
G1 X6.639 Y95.158 E.02514
G1 X6.639 Y23.639 E2.24243
G1 X6.998 Y22.579 E.03509
G1 X7.276 Y22.223 E.01416
G1 X7.824 Y21.745 E.0228
G1 X8.145 Y21.58 E.01132
G1 X8.918 Y21.367 E.02514
G1 X119.065 Y21.371 E3.45358
G1 X119.589 Y21.482 E.01679
G1 X120.117 Y21.722 E.01819
G1 X120.725 Y22.243 E.02511
G1 X121.13 Y22.874 E.02351
G1 X121.341 Y23.646 E.02509
G1 X121.341 Y95.164 E2.2424
G1 X120.983 Y96.225 E.03511
