; generated by PrusaSlicer 2.7.0+win64 on 2024-01-05 at 02:12:15 UTC


;
;
; 

; external perimeters extrusion width = 0.45mm
; perimeters extrusion width = 0.45mm
; infill extrusion width = 0.45mm
; solid infill extrusion width = 0.45mm
; top infill extrusion width = 0.40mm
; first layer extrusion width = 0.42mm

; external perimeters extrusion width = 0.45mm
; perimeters extrusion width = 0.45mm
; infill extrusion width = 0.45mm
; solid infill extrusion width = 0.45mm
; top infill extrusion width = 0.40mm
; first layer extrusion width = 0.42mm

M73 P0 R328
M73 Q0 S342
M201 X1000 Y1000 Z200 E5000 ; sets maximum accelerations, mm/sec^2
M203 X200 Y200 Z12 E120 ; sets maximum feedrates, mm / sec
M204 S1250 T1250 ; sets acceleration (S) and retract acceleration (R), mm/sec^2
M205 X8.00 Y8.00 Z0.40 E4.50 ; sets the jerk limits, mm/sec
M205 S0 T0 ; sets the minimum extruding and travel feed rate, mm/sec

; printing object NewBracketLFT.stl id:1 copy 0
; stop printing object NewBracketLFT.stl id:1 copy 0
; printing object NewBracketBBR.stl id:0 copy 0
; stop printing object NewBracketBBR.stl id:0 copy 0

;TYPE:Custom
M862.3 P "MK3S" ; printer model check
M862.1 P0.4 ; nozzle diameter check
M115 U3.13.2 ; tell printer latest fw version
G90 ; use absolute coordinates
M83 ; extruder relative mode
M104 S215 ; set extruder temp
M140 S60 ; set bed temp
M190 S60 ; wait for bed temp
M109 S215 ; wait for extruder temp
G28 W ; home all without mesh bed level
G80 X7.40868 Y12.4318 W159.926 H146.347 ; mesh bed levelling

G1 Z0.2 F720
G1 Y-3 F1000 ; go outside print area
G92 E0
G1 X60 E9 F1000 ; intro line
G1 X100 E12.5 F1000 ; intro line

G92 E0
M221 S95

; Don't change E values below. Excessive value can damage the printer.

M907 E538 ; set extruder motor current
G21 ; set units to millimeters
G90 ; use absolute coordinates
M83 ; use relative distances for extrusion
M900 K0.05 ; Filament gcode LA 1.5
M900 K30 ; Filament gcode LA 1.0

M107
;LAYER_CHANGE
;Z:0.2
;HEIGHT:0.2
;BEFORE_LAYER_CHANGE
G92 E0.0
;0.2


G1 E-.8 F2100
G1 Z.2 F720
;AFTER_LAYER_CHANGE
;0.2
G1 X8.941 Y13.045 F10800
G1 Z.2 F720
G1 E.8 F2100
M204 S800
;TYPE:Skirt/Brim
;WIDTH:0.42
G1 F1200
G1 X9.472 Y12.681 E.02019
G1 X10.008 Y12.62 E.01691
G1 X118.474 Y12.62 E3.40088
G1 X119.982 Y13.16 E.05022
G1 X166.277 Y51.131 E1.87734
G1 X167.039 Y52.263 E.04279
G1 X167.146 Y52.969 E.02239
G1 X167.146 Y156.213 E3.23714
G1 X166.755 Y157.52 E.04277
G1 X165.709 Y158.396 E.04278
G1 X164.769 Y158.59 E.03009
G1 X47.526 Y158.59 E3.67607
G1 X46.246 Y158.217 E.0418
G1 X8.695 Y134.245 E1.39685
G1 X7.804 Y133.211 E.0428
G1 X7.597 Y132.241 E.0311
G1 X7.597 Y15.005 E3.67585
G1 X7.989 Y13.698 E.04278
G1 X8.891 Y13.079 E.0343
M204 S1000
; printing object NewBracketBBR.stl id:0 copy 0
;WIPE_START
G1 F8640
G1 X8.941 Y13.045 E-.01396
G1 X9.472 Y12.681 E-.14865
G1 X10.008 Y12.62 E-.12456
G1 X12.229 Y12.62 E-.51283
;WIPE_END
G1 Z.6 F720
G1 X100.577 Y141.217 F10800
G1 Z.2 F720
G1 E.8 F2100
M204 S800
;TYPE:Perimeter
;WIDTH:0.419999
G1 F1200
G1 X100.711 Y141.057 E.00654
G1 X100.766 Y140.814 E.00781
G1 X100.766 Y81.38 E1.86351
G1 X150.303 Y81.371 E1.5532
M73 P0 R327
G1 X150.54 Y81.267 E.00811
G1 X150.713 Y81.054 E.0086
G1 X150.766 Y80.814 E.00771
G1 X150.766 Y53.756 E.84838
G1 X163.982 Y53.756 E.41438
G1 X163.982 Y57.153 E.10651
G1 X163.982 Y155.426 E3.08128
G1 X48.313 Y155.426 E3.62671
G1 X48.313 Y141.38 E.4404
M73 Q0 S341
G1 X100.201 Y141.38 E1.62691
G1 X100.26 Y141.377 E.00185
G1 X100.526 Y141.277 E.00891
G1 X100.538 Y141.263 E.00058
M204 S1000
G1 X100.323 Y140.958 F10800
M204 S800
;TYPE:External perimeter
G1 F1200
G1 X100.389 Y140.814 E.00497
G1 X100.389 Y81.003 E1.87533
G1 X150.201 Y81.003 E1.56182
G1 X150.327 Y80.954 E.00424
G1 X150.389 Y80.814 E.0048
G1 X150.389 Y53.379 E.8602
G1 X164.359 Y53.379 E.43802
G1 X164.359 Y57.153 E.11833
G1 X164.359 Y155.803 E3.0931
G1 X47.936 Y155.803 E3.65036
G1 X47.936 Y141.003 E.46404
G1 X100.201 Y141.003 E1.63873
G1 X100.267 Y140.979 E.0022
M204 S1000
;WIPE_START
G1 F8640
G1 X100.323 Y140.958 E-.01381
G1 X100.389 Y140.814 E-.03658
G1 X100.389 Y137.568 E-.74961
;WIPE_END
G1 Z.6 F720
G1 X157.915 Y60.947 F10800
G1 Z.2 F720
G1 E.8 F2100
M204 S800
;TYPE:Perimeter
G1 F1200
G1 X157.9 Y60.997 E.00164
G1 X157.724 Y61.355 E.01251
G1 X157.489 Y61.676 E.01247
G1 X157.201 Y61.952 E.01251
G1 X156.869 Y62.173 E.0125
G1 X156.505 Y62.334 E.01248
G1 X156.118 Y62.429 E.01249
G1 X155.72 Y62.455 E.01251
G1 X155.324 Y62.412 E.01249
G1 X154.941 Y62.3 E.01251
G1 X154.584 Y62.124 E.01248
G1 X154.262 Y61.889 E.0125
G1 X153.987 Y61.601 E.01249
G1 X153.765 Y61.269 E.01252
G1 X153.605 Y60.905 E.01247
G1 X153.51 Y60.518 E.01249
G1 X153.484 Y60.12 E.01251
G1 X153.527 Y59.724 E.01249
G1 X153.638 Y59.341 E.0125
G1 X153.814 Y58.984 E.01248
G1 X154.05 Y58.662 E.01252
G1 X154.338 Y58.387 E.01249
G1 X154.669 Y58.165 E.0125
G1 X155.079 Y57.994 E.01393
G1 X155.641 Y57.892 E.01791
G1 X156.215 Y57.927 E.01803
G1 X156.597 Y58.038 E.01247
G1 X156.955 Y58.214 E.01251
G1 X157.276 Y58.45 E.01249
G1 X157.552 Y58.738 E.01251
G1 X157.773 Y59.069 E.01248
G1 X157.934 Y59.434 E.01251
G1 X158.029 Y59.821 E.01249
G1 X158.055 Y60.218 E.01247
G1 X158.012 Y60.615 E.01252
G1 X157.932 Y60.889 E.00895
M204 S1000
G1 X157.482 Y60.998 F10800
M204 S800
;TYPE:External perimeter
G1 F1200
G1 X157.415 Y61.138 E.00487
G1 X157.222 Y61.41 E.01046
G1 X156.985 Y61.643 E.01042
G1 X156.71 Y61.832 E.01046
G1 X156.407 Y61.97 E.01044
G1 X156.085 Y62.053 E.01043
G1 X155.753 Y62.079 E.01044
G1 X155.421 Y62.047 E.01046
G1 X155.101 Y61.959 E.01041
G1 X154.8 Y61.815 E.01046
G1 X154.529 Y61.622 E.01043
G1 X154.295 Y61.384 E.01046
G1 X154.107 Y61.11 E.01042
G1 X153.969 Y60.807 E.01044
G1 X153.885 Y60.485 E.01043
G1 X153.859 Y60.153 E.01044
G1 X153.891 Y59.821 E.01046
G1 X153.98 Y59.5 E.01044
G1 X154.123 Y59.2 E.01042
G1 X154.317 Y58.929 E.01045
G1 X154.554 Y58.695 E.01044
G1 X154.828 Y58.507 E.01042
G1 X155.147 Y58.365 E.01095
G1 X155.706 Y58.264 E.01781
G1 X156.117 Y58.291 E.01291
G1 X156.438 Y58.38 E.01044
G1 X156.739 Y58.523 E.01045
G1 X157.01 Y58.717 E.01045
G1 X157.243 Y58.954 E.01042
G1 X157.432 Y59.228 E.01044
G1 X157.57 Y59.531 E.01044
G1 X157.653 Y59.854 E.01046
G1 X157.679 Y60.186 E.01044
G1 X157.648 Y60.517 E.01042
G1 X157.559 Y60.838 E.01044
G1 X157.508 Y60.944 E.00369
M204 S1000
;WIPE_START
G1 F8640
G1 X157.482 Y60.998 E-.01384
G1 X157.415 Y61.138 E-.03584
G1 X157.222 Y61.41 E-.07701
G1 X156.985 Y61.643 E-.07674
G1 X156.71 Y61.832 E-.07705
G1 X156.407 Y61.97 E-.07688
G1 X156.085 Y62.053 E-.07678
G1 X155.753 Y62.079 E-.07689
G1 X155.421 Y62.047 E-.07701
G1 X155.101 Y61.959 E-.07663
G1 X154.8 Y61.815 E-.07705
G1 X154.594 Y61.668 E-.05828
;WIPE_END
G1 Z.6 F720
G1 X155.974 Y142.351 F10800
G1 Z.2 F720
G1 E.8 F2100
M204 S800
;TYPE:Perimeter
G1 F1200
G1 X155.924 Y142.336 E.00164
G1 X155.533 Y142.13 E.01386
G1 X155.098 Y141.765 E.0178
G1 X154.78 Y141.341 E.01662
G1 X154.599 Y140.93 E.01408
G1 X154.508 Y140.542 E.0125
G1 X154.485 Y140.144 E.0125
G1 X154.532 Y139.749 E.01247
G1 X154.688 Y139.279 E.01553
G1 X154.825 Y139.011 E.00944
G1 X155.063 Y138.692 E.01248
G1 X155.353 Y138.419 E.01249
G1 X155.686 Y138.2 E.0125
G1 X156.096 Y138.033 E.01388
G1 X156.655 Y137.935 E.01779
G1 X157.233 Y137.975 E.01817
G1 X157.615 Y138.09 E.01251
G1 X157.971 Y138.269 E.01249
G1 X158.29 Y138.507 E.01248
G1 X158.587 Y138.835 E.01387
G1 X158.871 Y139.326 E.01778
G1 X159.031 Y139.884 E.0182
G1 X159.054 Y140.281 E.01247
G1 X159.007 Y140.677 E.0125
G1 X158.892 Y141.059 E.01251
G1 X158.686 Y141.45 E.01386
G1 X158.321 Y141.884 E.01778
G1 X157.852 Y142.225 E.01818
G1 X157.486 Y142.383 E.0125
G1 X156.99 Y142.483 E.01586
G1 X156.402 Y142.469 E.01844
G1 X156.305 Y142.451 E.00309
G1 X156.032 Y142.369 E.00894
M204 S1000
G1 X155.875 Y141.891 F10800
M204 S800
;TYPE:External perimeter
G1 F1200
G1 X155.775 Y141.841 E.00351
G1 X155.34 Y141.476 E.0178
G1 X155.1 Y141.139 E.01297
G1 X154.964 Y140.835 E.01044
G1 X154.884 Y140.512 E.01043
G1 X154.86 Y140.18 E.01044
G1 X154.895 Y139.849 E.01044
G1 X155.028 Y139.442 E.01343
G1 X155.306 Y138.986 E.01675
G1 X155.567 Y138.73 E.01146
G1 X155.843 Y138.543 E.01045
G1 X156.161 Y138.405 E.01087
G1 X156.72 Y138.306 E.0178
G1 X157.133 Y138.339 E.01299
G1 X157.453 Y138.43 E.01043
G1 X157.752 Y138.576 E.01043
G1 X158.021 Y138.771 E.01042
G1 X158.26 Y139.023 E.01089
G1 X158.544 Y139.515 E.01781
G1 X158.655 Y139.913 E.01296
G1 X158.678 Y140.245 E.01043
G1 X158.644 Y140.576 E.01043
G1 X158.552 Y140.896 E.01044
G1 X158.397 Y141.207 E.0109
G1 X158.033 Y141.642 E.01778
G1 X157.696 Y141.882 E.01297
G1 X157.392 Y142.018 E.01044
G1 X156.961 Y142.107 E.0138
G1 X156.406 Y142.087 E.01741
G1 X156.086 Y141.996 E.01043
G1 X155.928 Y141.917 E.00554
M204 S1000
;WIPE_START
G1 F8640
G1 X155.875 Y141.891 E-.01363
G1 X155.775 Y141.841 E-.02582
G1 X155.34 Y141.476 E-.13112
G1 X155.1 Y141.139 E-.09553
G1 X154.964 Y140.835 E-.0769
G1 X154.884 Y140.512 E-.07684
G1 X154.86 Y140.18 E-.07686
G1 X154.895 Y139.849 E-.07685
G1 X155.028 Y139.442 E-.09887
G1 X155.306 Y138.986 E-.12332
G1 X155.319 Y138.973 E-.00426
;WIPE_END
G1 Z.6 F720
G1 X76.72 Y149.929 F10800
G1 Z.2 F720
G1 E.8 F2100
M204 S800
;TYPE:Perimeter
G1 F1200
G1 X76.661 Y149.958 E.00206
G1 X76.274 Y150.053 E.01249
G1 X75.876 Y150.079 E.01251
G1 X75.48 Y150.035 E.01249
G1 X75.097 Y149.924 E.0125
G1 X74.74 Y149.748 E.01248
G1 X74.419 Y149.512 E.01249
G1 X74.143 Y149.224 E.01251
G1 X73.921 Y148.893 E.0125
G1 X73.761 Y148.528 E.0125
G1 X73.666 Y148.141 E.01249
G1 X73.64 Y147.744 E.01247
G1 X73.683 Y147.347 E.01252
G1 X73.794 Y146.965 E.01247
G1 X73.971 Y146.607 E.01252
G1 X74.206 Y146.286 E.01247
G1 X74.494 Y146.01 E.01251
G1 X74.825 Y145.789 E.01248
G1 X75.236 Y145.618 E.01396
G1 X75.797 Y145.516 E.01788
G1 X76.371 Y145.55 E.01803
G1 X76.754 Y145.662 E.01251
G1 X77.111 Y145.838 E.01248
G1 X77.433 Y146.074 E.01252
G1 X77.708 Y146.361 E.01246
G1 X77.93 Y146.693 E.01252
G1 X78.09 Y147.058 E.0125
G1 X78.185 Y147.445 E.01249
G1 X78.211 Y147.842 E.01247
G1 X78.168 Y148.238 E.01249
G1 X78.057 Y148.621 E.0125
G1 X77.88 Y148.979 E.01252
G1 X77.609 Y149.333 E.01398
G1 X77.15 Y149.718 E.01878
G1 X76.774 Y149.902 E.01313
M204 S1000
G1 X76.604 Y149.574 F10800
M204 S800
;TYPE:External perimeter
G1 F1200
G1 X76.563 Y149.594 E.00143
G1 X76.241 Y149.677 E.01043
G1 X75.909 Y149.703 E.01044
G1 X75.578 Y149.671 E.01043
G1 X75.257 Y149.582 E.01044
G1 X74.956 Y149.439 E.01045
G1 X74.685 Y149.246 E.01043
G1 X74.452 Y149.008 E.01044
G1 X74.263 Y148.734 E.01044
G1 X74.125 Y148.431 E.01044
G1 X74.042 Y148.108 E.01046
G1 X74.015 Y147.777 E.01041
G1 X74.047 Y147.445 E.01046
G1 X74.136 Y147.124 E.01044
G1 X74.28 Y146.824 E.01043
G1 X74.473 Y146.553 E.01043
G1 X74.71 Y146.319 E.01044
G1 X74.985 Y146.131 E.01044
G1 X75.303 Y145.989 E.01092
G1 X75.862 Y145.888 E.01781
G1 X76.273 Y145.915 E.01291
G1 X76.594 Y146.004 E.01044
G1 X76.895 Y146.147 E.01045
G1 X77.166 Y146.34 E.01043
G1 X77.399 Y146.578 E.01044
G1 X77.588 Y146.852 E.01044
G1 X77.726 Y147.155 E.01044
G1 X77.81 Y147.477 E.01043
G1 X77.836 Y147.809 E.01044
G1 X77.804 Y148.141 E.01046
G1 X77.715 Y148.462 E.01044
G1 X77.572 Y148.762 E.01042
G1 X77.366 Y149.044 E.01095
G1 X76.908 Y149.429 E.01876
G1 X76.658 Y149.548 E.00868
M204 S1000
;WIPE_START
G1 F8640
G1 X76.604 Y149.574 E-.01384
G1 X76.563 Y149.594 E-.01053
G1 X76.241 Y149.677 E-.07678
G1 X75.909 Y149.703 E-.07689
G1 X75.578 Y149.671 E-.07679
G1 X75.257 Y149.582 E-.07692
G1 X74.956 Y149.439 E-.07695
G1 X74.685 Y149.246 E-.07682
G1 X74.452 Y149.008 E-.07691
G1 X74.263 Y148.734 E-.07686
G1 X74.125 Y148.431 E-.07688
G1 X74.042 Y148.108 E-.077
G1 X74.04 Y148.078 E-.00683
;WIPE_END
G1 Z.6 F720
G1 X163.049 Y53.926 F10800
G1 Z.2 F720
G1 E.8 F2100
M204 S800
;TYPE:Solid infill
;WIDTH:0.420396
G1 F1200
G1 X163.643 Y54.519 E.02634
G1 X163.643 Y55.053 E.01676
G1 X162.685 Y54.096 E.0425
G1 X162.151 Y54.096 E.01676
G1 X163.643 Y55.587 E.06621
G1 X163.643 Y56.121 E.01676
G1 X161.618 Y54.096 E.08989
G1 X161.084 Y54.096 E.01676
G1 X163.643 Y56.655 E.11359
G1 X163.643 Y57.189 E.01676
G1 X160.55 Y54.096 E.13729
G1 X160.016 Y54.096 E.01676
G1 X163.643 Y57.722 E.16097
G1 X163.643 Y58.256 E.01676
G1 X159.482 Y54.096 E.18468
G1 X158.948 Y54.096 E.01676
G1 X163.643 Y58.79 E.20838
G1 X163.643 Y59.324 E.01676
G1 X158.415 Y54.096 E.23206
G1 X157.881 Y54.096 E.01676
G1 X163.643 Y59.858 E.25577
G1 X163.643 Y60.392 E.01676
G1 X157.347 Y54.096 E.27947
G1 X156.813 Y54.096 E.01676
G1 X163.643 Y60.925 E.30315
G1 X163.643 Y61.459 E.01676
G1 X156.279 Y54.096 E.32685
G1 X155.745 Y54.096 E.01676
G1 X163.643 Y61.993 E.35056
G1 X163.643 Y62.527 E.01676
G1 X155.212 Y54.096 E.37424
G1 X154.678 Y54.096 E.01676
G1 X163.643 Y63.061 E.39794
G1 X163.643 Y63.595 E.01676
G1 X154.144 Y54.096 E.42164
G1 X153.61 Y54.096 E.01676
G1 X163.643 Y64.128 E.44533
G1 X163.643 Y64.662 E.01676
G1 X158.223 Y59.242 E.24058
G1 X158.024 Y58.821 E.01462
G1 X157.824 Y58.534 E.01098
G1 X157.51 Y58.203 E.01432
G1 X157.141 Y57.93 E.01441
G1 X156.709 Y57.728 E.01497
G1 X153.076 Y54.096 E.16124
G1 X152.542 Y54.096 E.01676
G1 X156.009 Y57.562 E.15387
G1 X155.737 Y57.544 E.00856
G1 X155.488 Y57.575 E.00788
G1 X152.009 Y54.096 E.15443
G1 X151.475 Y54.096 E.01676
G1 X155.036 Y57.657 E.15807
G1 X154.807 Y57.726 E.00751
G1 X154.646 Y57.801 E.00557
G1 X151.106 Y54.26 E.15716
G1 X151.106 Y54.794 E.01676
G1 X154.31 Y57.998 E.14222
G1 X154.135 Y58.114 E.00659
G1 X154.01 Y58.232 E.0054
G1 X151.106 Y55.328 E.1289
G1 X151.106 Y55.862 E.01676
M73 P0 R326
G1 X153.748 Y58.504 E.11727
G1 X153.523 Y58.813 E.012
G1 X151.106 Y56.396 E.10729
G1 X151.106 Y56.93 E.01676
G1 X153.345 Y59.169 E.09939
G1 X153.217 Y59.575 E.01336
G1 X151.106 Y57.463 E.09373
G1 X151.106 Y57.997 E.01676
G1 X153.16 Y60.052 E.0912
G1 X153.144 Y60.236 E.0058
G1 X153.179 Y60.605 E.01163
G1 X150.936 Y58.361 E.09959
M204 S1000
;WIPE_START
G1 F8640
G1 X153.179 Y60.605 E-.73261
G1 X153.152 Y60.314 E-.06739
;WIPE_END
G1 Z.6 F720
G1 X158.182 Y59.735 F10800
G1 Z.2 F720
G1 E.8 F2100
M204 S800
G1 F1200
G1 X163.643 Y65.196 E.2424
G1 X163.643 Y65.73 E.01676
G1 X158.369 Y60.456 E.2341
G1 X158.358 Y60.623 E.00525
G1 X158.284 Y60.905 E.00915
G1 X163.643 Y66.264 E.23788
G1 X163.643 Y66.798 E.01676
G1 X158.129 Y61.283 E.24478
G1 X158.009 Y61.54 E.0089
G1 X157.942 Y61.631 E.00355
G1 X163.643 Y67.331 E.25304
G1 X163.643 Y67.865 E.01676
G1 X157.711 Y61.933 E.26331
G1 X157.437 Y62.193 E.01186
G1 X163.643 Y68.399 E.27547
G1 X163.643 Y68.933 E.01676
G1 X157.121 Y62.411 E.2895
G1 X156.77 Y62.594 E.01242
G1 X163.643 Y69.467 E.30508
G1 X163.643 Y70.001 E.01676
G1 X156.361 Y62.719 E.32324
G1 X156.234 Y62.756 E.00415
G1 X155.897 Y62.788 E.01063
G1 X163.643 Y70.534 E.34383
G1 X163.643 Y71.068 E.01676
G1 X155.096 Y62.521 E.37939
M204 S1000
;WIPE_START
G1 F8640
G1 X157.546 Y64.971 E-.8
;WIPE_END
G1 Z.6 F720
G1 X163.813 Y71.772 F10800
G1 Z.2 F720
G1 E.8 F2100
M204 S800
G1 F1200
G1 X151.106 Y59.065 E.56404
G1 X151.106 Y59.599 E.01676
G1 X163.643 Y72.136 E.5565
G1 X163.643 Y72.67 E.01676
G1 X151.106 Y60.133 E.5565
G1 X151.106 Y60.666 E.01673
G1 X163.643 Y73.204 E.55652
G1 X163.643 Y73.737 E.01673
G1 X151.106 Y61.2 E.5565
G1 X151.106 Y61.734 E.01676
G1 X163.643 Y74.271 E.5565
G1 X163.643 Y74.805 E.01676
G1 X151.106 Y62.268 E.5565
G1 X151.106 Y62.802 E.01676
G1 X163.643 Y75.339 E.5565
G1 X163.643 Y75.873 E.01676
G1 X151.106 Y63.336 E.5565
G1 X151.106 Y63.869 E.01673
M73 Q0 S340
G1 X163.643 Y76.406 E.5565
G1 X163.643 Y76.94 E.01676
G1 X151.106 Y64.403 E.5565
G1 X151.106 Y64.937 E.01676
G1 X163.643 Y77.474 E.5565
G1 X163.643 Y78.008 E.01676
G1 X151.106 Y65.471 E.5565
G1 X151.106 Y66.005 E.01676
G1 X163.643 Y78.542 E.5565
G1 X163.643 Y79.076 E.01676
G1 X151.106 Y66.539 E.5565
G1 X151.106 Y67.072 E.01673
G1 X163.643 Y79.609 E.5565
G1 X163.643 Y80.143 E.01676
G1 X151.106 Y67.606 E.5565
G1 X151.106 Y68.14 E.01676
G1 X163.643 Y80.677 E.5565
G1 X163.643 Y81.211 E.01676
G1 X151.106 Y68.674 E.5565
G1 X151.106 Y69.208 E.01676
G1 X163.643 Y81.745 E.5565
G1 X163.643 Y82.279 E.01676
G1 X151.106 Y69.742 E.5565
G1 X151.106 Y70.275 E.01673
G1 X163.643 Y82.812 E.5565
G1 X163.643 Y83.346 E.01676
