; generated by PrusaSlicer 2.6.1+win64 on 2023-11-13 at 08:01:10 UTC


;
;
; 

; external perimeters extrusion width = 0.45mm
; perimeters extrusion width = 0.45mm
; infill extrusion width = 0.45mm
; solid infill extrusion width = 0.45mm
; top infill extrusion width = 0.40mm
; first layer extrusion width = 0.42mm

; external perimeters extrusion width = 0.45mm
; perimeters extrusion width = 0.45mm
; infill extrusion width = 0.45mm
; solid infill extrusion width = 0.45mm
; top infill extrusion width = 0.40mm
; first layer extrusion width = 0.42mm

M73 P0 R157
M73 Q0 S160
M201 X1000 Y1000 Z200 E5000 ; sets maximum accelerations, mm/sec^2
M203 X200 Y200 Z12 E120 ; sets maximum feedrates, mm / sec
M204 S1250 T1250 ; sets acceleration (S) and retract acceleration (R), mm/sec^2
M205 X8.00 Y8.00 Z0.40 E4.50 ; sets the jerk limits, mm/sec
M205 S0 T0 ; sets the minimum extruding and travel feed rate, mm/sec
;TYPE:Custom
M862.3 P "MK3S" ; printer model check
M862.1 P0.4 ; nozzle diameter check
M115 U3.12.2 ; tell printer latest fw version
G90 ; use absolute coordinates
M83 ; extruder relative mode
M104 S215 ; set extruder temp
M140 S60 ; set bed temp
M190 S60 ; wait for bed temp
M109 S215 ; wait for extruder temp
G28 W ; home all without mesh bed level
G80 ; mesh bed leveling

G1 Z0.2 F720
G1 Y-3 F1000 ; go outside print area
G92 E0
G1 X60 E9 F1000 ; intro line
G1 X100 E12.5 F1000 ; intro line

G92 E0
M221 S95

; Don't change E values below. Excessive value can damage the printer.
M907 E430 ; set extruder motor current
G21 ; set units to millimeters
G90 ; use absolute coordinates
M83 ; use relative distances for extrusion
M900 K0.05 ; Filament gcode LA 1.5
M900 K30 ; Filament gcode LA 1.0
M107
;LAYER_CHANGE
;Z:0.2
;HEIGHT:0.2
;BEFORE_LAYER_CHANGE
G92 E0.0
;0.2


G1 E-.8 F2100
G1 Z.4 F720
;AFTER_LAYER_CHANGE
;0.2
G1 X67.985 Y37.271 F10800
G1 Z.2 F720
G1 E.8 F2100
M204 S800
;TYPE:Skirt/Brim
;WIDTH:0.42
G1 F1200
G1 X68.313 Y36.892 E.01572
G1 X69.061 Y36.368 E.02864
G1 X69.614 Y36.167 E.01845
G1 X70.311 Y36.079 E.02203
G1 X179.892 Y36.087 E3.43584
G1 X180.86 Y36.331 E.0313
M73 Q0 S159
G1 X181.369 Y36.625 E.01843
G1 X181.748 Y36.953 E.01572
G1 X182.309 Y37.78 E.03133
G1 X182.473 Y38.253 E.0157
G1 X182.561 Y38.948 E.02197
G1 X182.561 Y102.239 E1.98444
G1 X181.561 Y171.283 E2.16505
G1 X181.151 Y172.585 E.0428
G1 X180.092 Y173.446 E.04279
G1 X179.184 Y173.626 E.02902
G1 X70.816 Y173.626 E3.3978
G1 X69.509 Y173.234 E.04278
G1 X68.632 Y172.189 E.04277
G1 X68.439 Y171.283 E.02904
G1 X67.439 Y102.239 E2.16505
G1 X67.438 Y38.955 E1.98423
G1 X67.55 Y38.169 E.02489
G1 X67.959 Y37.325 E.02941
M204 S1000
; printing object NewTop.stl id:0 copy 0
;WIPE_START
G1 F8640
G1 X68.313 Y36.892 E-.12914
G1 X69.061 Y36.368 E-.21088
G1 X69.614 Y36.167 E-.13586
G1 X70.311 Y36.079 E-.16222
G1 X71.012 Y36.079 E-.1619
;WIPE_END
G1 Z.6 F720
G1 X179.397 Y39.243 F10800
G1 Z.2 F720
G1 E.8 F2100
M204 S800
;TYPE:Perimeter
;WIDTH:0.419999
G1 F1200
G1 X179.397 Y101.917 E1.9651
G1 X70.603 Y101.917 E3.41115
G1 X70.603 Y39.242 E1.96513
M73 P0 R156
G1 X179.337 Y39.243 E3.40927
M204 S1000
G1 X179.774 Y39.009 F10800
M204 S800
;TYPE:External perimeter
G1 F1200
G1 X179.774 Y102.151 E1.97977
G1 X179.755 Y102.246 E.00304
G1 X179.649 Y102.294 E.00365
G1 X70.369 Y102.294 E3.42639
G1 X70.274 Y102.274 E.00304
G1 X70.226 Y102.169 E.00362
G1 X70.226 Y39.009 E1.98033
G1 X70.243 Y38.922 E.00278
G1 X70.342 Y38.865 E.00358
G1 X179.631 Y38.865 E3.42667
G1 X179.726 Y38.885 E.00304
G1 X179.753 Y38.953 E.00229
M204 S1000
G1 X179.492 Y39.292 F10800
;WIPE_START
G1 F8640
G1 X179.754 Y42.418 E-.8
;WIPE_END
G1 Z.6 F720
G1 X167.556 Y98.534 F10800
G1 Z.2 F720
M73 Q0 S158
G1 E.8 F2100
M204 S800
;TYPE:Perimeter
G1 F1200
G1 X167.511 Y98.717 E.00591
G1 X167.402 Y98.861 E.00566
G1 X167.109 Y99.008 E.01028
G1 X167.011 Y99.017 E.00309
G1 X82.759 Y99.017 E2.64166
G1 X82.541 Y98.973 E.00697
G1 X82.369 Y98.861 E.00644
G1 X82.207 Y98.575 E.01031
G1 X82.193 Y98.451 E.00391
G1 X82.193 Y42.708 E1.74778
G1 X82.26 Y42.442 E.0086
G1 X82.369 Y42.299 E.00564
G1 X82.541 Y42.186 E.00645
G1 X82.759 Y42.143 E.00697
G1 X167.011 Y42.143 E2.64166
G1 X167.229 Y42.186 E.00697
G1 X167.402 Y42.299 E.00648
G1 X167.563 Y42.584 E.01026
G1 X167.577 Y42.708 E.00391
G1 X167.571 Y98.476 E1.74856
M204 S1000
G1 X167.2 Y98.451 F10800
M204 S800
;TYPE:External perimeter
G1 F1200
G1 X167.141 Y98.588 E.00468
G1 X167.011 Y98.64 E.00439
G1 X82.759 Y98.64 E2.64166
G1 X82.629 Y98.588 E.00439
G1 X82.57 Y98.451 E.00468
G1 X82.57 Y42.708 E1.74778
G1 X82.629 Y42.572 E.00465
G1 X82.686 Y42.534 E.00215
G1 X82.759 Y42.52 E.00233
G1 X167.011 Y42.52 E2.64166
G1 X167.141 Y42.572 E.00439
G1 X167.2 Y42.708 E.00465
G1 X167.2 Y98.391 E1.7459
M204 S1000
G1 X167.304 Y98.557 F10800
;WIPE_START
M73 P1 R156
M73 Q1 S158
G1 F8640
G1 X167.141 Y98.588 E-.04748
G1 X167.011 Y98.64 E-.03233
G1 X163.892 Y98.64 E-.72019
;WIPE_END
G1 Z.6 F720
M73 P1 R155
G1 X79.356 Y52.791 F10800
G1 Z.2 F720
G1 E.8 F2100
M204 S800
;TYPE:Perimeter
G1 F1200
G1 X79.46 Y52.805 E.00329
G1 X79.641 Y52.896 E.00635
G1 X79.801 Y53.082 E.00769
G1 X79.867 Y53.348 E.00859
G1 X79.867 Y57.791 E.13931
G1 X79.801 Y58.057 E.00859
G1 X79.641 Y58.244 E.00772
G1 X79.46 Y58.334 E.00634
G1 X79.301 Y58.357 E.00504
G1 X76.559 Y58.357 E.08597
G1 X76.299 Y58.294 E.00839
G1 X76.126 Y58.156 E.00694
G1 X76.001 Y57.889 E.00924
G1 X75.993 Y57.791 E.00308
G1 X75.993 Y53.348 E.13931
G1 X76.056 Y53.088 E.00839
G1 X76.21 Y52.903 E.00755
G1 X76.469 Y52.79 E.00886
G1 X79.297 Y52.783 E.08867
M204 S1000
G1 X79.301 Y53.16 F10800
M204 S800
;TYPE:External perimeter
G1 F1200
G1 X79.415 Y53.198 E.00377
G1 X79.49 Y53.348 E.00526
G1 X79.49 Y57.791 E.13931
G1 X79.415 Y57.942 E.00529
G1 X79.301 Y57.98 E.00377
G1 X76.559 Y57.98 E.08597
G1 X76.414 Y57.913 E.00501
G1 X76.37 Y57.791 E.00407
G1 X76.37 Y53.348 E.13931
G1 X76.391 Y53.262 E.00278
G1 X76.501 Y53.169 E.00452
G1 X76.559 Y53.16 E.00184
G1 X79.241 Y53.16 E.08409
M204 S1000
G1 X79.382 Y53.072 F10800
;WIPE_START
G1 F8640
G1 X79.415 Y53.198 E-.04112
G1 X79.49 Y53.348 E-.03872
G1 X79.49 Y56.467 E-.72016
;WIPE_END
G1 Z.6 F720
G1 X75.684 Y89.717 F10800
G1 Z.2 F720
G1 E.8 F2100
M204 S800
;TYPE:Perimeter
G1 F1200
G1 X75.322 Y89.71 E.01135
G1 X75.121 Y89.639 E.00668
G1 X74.928 Y89.45 E.00847
G1 X74.843 Y89.151 E.00975
G1 X74.843 Y83.708 E.17066
G1 X74.928 Y83.41 E.00972
G1 X75.121 Y83.221 E.00847
G1 X75.409 Y83.143 E.00936
G1 X80.851 Y83.143 E.17063
G1 X81.191 Y83.256 E.01123
G1 X81.417 Y83.708 E.01584
G1 X81.417 Y89.151 E.17066
G1 X81.409 Y89.249 E.00308
G1 X81.191 Y89.604 E.01306
G1 X80.851 Y89.717 E.01123
G1 X75.744 Y89.717 E.16013
M204 S1000
G1 X75.38 Y89.338 F10800
M204 S800
;TYPE:External perimeter
G1 F1200
G1 X75.248 Y89.251 E.00496
G1 X75.22 Y89.151 E.00326
G1 X75.22 Y83.708 E.17066
G1 X75.279 Y83.572 E.00465
G1 X75.409 Y83.52 E.00439
G1 X80.851 Y83.52 E.17063
G1 X80.965 Y83.558 E.00377
G1 X81.04 Y83.708 E.00526
G1 X81.04 Y89.151 E.17066
G1 X80.965 Y89.302 E.00529
G1 X80.851 Y89.34 E.00377
G1 X75.44 Y89.34 E.16966
M204 S1000
G1 X75.255 Y89.434 F10800
;WIPE_START
G1 F8640
G1 X75.248 Y89.251 E-.04886
G1 X75.22 Y89.151 E-.02398
G1 X75.22 Y86.002 E-.72716
;WIPE_END
G1 Z.6 F720
G1 X178.464 Y39.412 F10800
G1 Z.2 F720
G1 E.8 F2100
M204 S800
;TYPE:Solid infill
;WIDTH:0.420484
G1 F1200
G1 X179.058 Y40.006 E.02637
G1 X179.058 Y40.54 E.01676
G1 X178.1 Y39.582 E.04253
G1 X177.566 Y39.582 E.01676
G1 X179.058 Y41.074 E.06624
G1 X179.058 Y41.608 E.01676
G1 X177.032 Y39.582 E.08995
G1 X176.498 Y39.582 E.01676
G1 X179.058 Y42.142 E.11366
G1 X179.058 Y42.676 E.01676
G1 X175.964 Y39.582 E.13737
G1 X175.43 Y39.582 E.01676
G1 X179.058 Y43.21 E.16108
G1 X179.058 Y43.744 E.01676
G1 X174.896 Y39.582 E.18479
G1 X174.362 Y39.582 E.01676
G1 X179.058 Y44.278 E.2085
G1 X179.058 Y44.811 E.01673
G1 X173.828 Y39.582 E.23218
G1 X173.294 Y39.582 E.01676
G1 X179.058 Y45.345 E.25589
G1 X179.058 Y45.879 E.01676
G1 X172.761 Y39.582 E.27958
G1 X172.227 Y39.582 E.01676
G1 X179.058 Y46.413 E.30329
G1 X179.058 Y46.947 E.01676
G1 X171.693 Y39.582 E.327
G1 X171.159 Y39.582 E.01676
G1 X179.058 Y47.481 E.3507
G1 X179.058 Y48.015 E.01676
G1 X170.625 Y39.582 E.37441
G1 X170.091 Y39.582 E.01676
G1 X179.058 Y48.549 E.39812
G1 X179.058 Y49.083 E.01676
G1 X169.557 Y39.582 E.42183
G1 X169.023 Y39.582 E.01676
G1 X179.058 Y49.617 E.44554
G1 X179.058 Y50.151 E.01676
G1 X168.489 Y39.582 E.46925
G1 X167.955 Y39.582 E.01676
G1 X179.058 Y50.685 E.49296
G1 X179.058 Y51.219 E.01676
G1 X167.421 Y39.582 E.51667
G1 X166.887 Y39.582 E.01676
G1 X179.058 Y51.753 E.54038
G1 X179.058 Y52.287 E.01676
G1 X166.353 Y39.582 E.56408
G1 X165.819 Y39.582 E.01676
G1 X179.058 Y52.821 E.58779
G1 X179.058 Y53.355 E.01676
G1 X165.285 Y39.582 E.6115
G1 X164.751 Y39.582 E.01676
G1 X166.973 Y41.803 E.09863
G1 X167.36 Y41.87 E.01233
G1 X167.636 Y42.05 E.01034
G1 X167.811 Y42.28 E.00907
G1 X167.895 Y42.508 E.00763
G1 X167.916 Y42.747 E.00753
G1 X179.058 Y53.889 E.49469
G1 X179.058 Y54.423 E.01676
G1 X167.916 Y43.281 E.49469
G1 X167.916 Y43.815 E.01676
G1 X179.058 Y54.957 E.49469
G1 X179.058 Y55.491 E.01676
G1 X167.916 Y44.349 E.49469
G1 X167.916 Y44.883 E.01676
G1 X179.058 Y56.025 E.49469
G1 X179.058 Y56.559 E.01676
G1 X167.916 Y45.417 E.49469
G1 X167.916 Y45.951 E.01676
G1 X179.058 Y57.092 E.49467
G1 X179.058 Y57.626 E.01676
G1 X167.916 Y46.485 E.49467
G1 X167.916 Y47.019 E.01676
G1 X179.058 Y58.16 E.49467
G1 X179.058 Y58.694 E.01676
G1 X167.916 Y47.553 E.49467
G1 X167.916 Y48.087 E.01676
G1 X179.058 Y59.228 E.49467
G1 X179.058 Y59.762 E.01676
G1 X167.916 Y48.621 E.49467
G1 X167.916 Y49.155 E.01676
M73 Q1 S157
G1 X179.058 Y60.296 E.49467
G1 X179.058 Y60.83 E.01676
G1 X167.916 Y49.689 E.49467
G1 X167.916 Y50.223 E.01676
G1 X179.058 Y61.364 E.49467
G1 X179.058 Y61.898 E.01676
G1 X167.916 Y50.757 E.49467
G1 X167.916 Y51.29 E.01673
G1 X179.058 Y62.432 E.49469
G1 X179.058 Y62.966 E.01676
G1 X167.916 Y51.824 E.49469
G1 X167.916 Y52.358 E.01676
G1 X179.058 Y63.5 E.49469
G1 X179.058 Y64.034 E.01676
G1 X167.916 Y52.892 E.49469
G1 X167.916 Y53.426 E.01676
G1 X179.058 Y64.568 E.49469
G1 X179.058 Y65.102 E.01676
G1 X167.916 Y53.96 E.49469
G1 X167.916 Y54.494 E.01676
G1 X179.058 Y65.636 E.49469
G1 X179.058 Y66.17 E.01676
G1 X167.916 Y55.028 E.49469
G1 X167.916 Y55.562 E.01676
G1 X179.058 Y66.704 E.49469
G1 X179.058 Y67.238 E.01676
G1 X167.916 Y56.096 E.49469
G1 X167.916 Y56.63 E.01676
G1 X179.058 Y67.772 E.49469
G1 X179.058 Y68.306 E.01676
G1 X167.916 Y57.164 E.49469
G1 X167.916 Y57.698 E.01676
G1 X179.058 Y68.839 E.49467
G1 X179.058 Y69.373 E.01676
G1 X167.916 Y58.232 E.49467
G1 X167.916 Y58.766 E.01676
G1 X179.058 Y69.907 E.49467
G1 X179.058 Y70.441 E.01676
G1 X167.916 Y59.3 E.49467
G1 X167.916 Y59.834 E.01676
G1 X179.058 Y70.975 E.49467
G1 X179.058 Y71.509 E.01676
G1 X167.916 Y60.368 E.49467
G1 X167.916 Y60.902 E.01676
G1 X179.058 Y72.043 E.49467
G1 X179.058 Y72.577 E.01676
G1 X167.916 Y61.436 E.49467
G1 X167.916 Y61.97 E.01676
G1 X179.058 Y73.111 E.49467
G1 X179.058 Y73.645 E.01676
G1 X167.916 Y62.504 E.49467
G1 X167.916 Y63.038 E.01676
G1 X179.058 Y74.179 E.49467
G1 X179.058 Y74.713 E.01676
G1 X167.916 Y63.571 E.49469
G1 X167.916 Y64.105 E.01676
G1 X179.058 Y75.247 E.49469
G1 X179.058 Y75.781 E.01676
G1 X167.916 Y64.639 E.49469
G1 X167.916 Y65.173 E.01676
G1 X179.058 Y76.315 E.49469
G1 X179.058 Y76.849 E.01676
G1 X167.916 Y65.707 E.49469
G1 X167.916 Y66.241 E.01676
G1 X179.058 Y77.383 E.49469
G1 X179.058 Y77.917 E.01676
G1 X167.916 Y66.775 E.49469
G1 X167.916 Y67.309 E.01676
G1 X179.058 Y78.451 E.49469
G1 X179.058 Y78.985 E.01676
M73 P1 R154
G1 X167.916 Y67.843 E.49469
G1 X167.916 Y68.377 E.01676
G1 X179.058 Y79.519 E.49469
G1 X179.058 Y80.053 E.01676
G1 X167.916 Y68.911 E.49469
G1 X167.916 Y69.445 E.01676
G1 X179.058 Y80.587 E.49469
G1 X179.058 Y81.12 E.01673
G1 X167.916 Y69.979 E.49467
G1 X167.916 Y70.513 E.01676
G1 X179.058 Y81.654 E.49467
G1 X179.058 Y82.188 E.01676
G1 X167.916 Y71.047 E.49467
G1 X167.916 Y71.581 E.01676
G1 X179.058 Y82.722 E.49467
G1 X179.058 Y83.256 E.01676
G1 X167.916 Y72.115 E.49467
G1 X167.916 Y72.649 E.01676
G1 X179.058 Y83.79 E.49467
G1 X179.058 Y84.324 E.01676
G1 X167.916 Y73.183 E.49467
G1 X167.916 Y73.717 E.01676
G1 X179.058 Y84.858 E.49467
G1 X179.058 Y85.392 E.01676
G1 X167.916 Y74.251 E.49467
G1 X167.916 Y74.785 E.01676
G1 X179.058 Y85.926 E.49467
G1 X179.058 Y86.46 E.01676
G1 X167.916 Y75.319 E.49467
G1 X167.916 Y75.852 E.01673
G1 X179.058 Y86.994 E.49469
G1 X179.058 Y87.528 E.01676
G1 X167.916 Y76.386 E.49469
G1 X167.916 Y76.92 E.01676
G1 X179.058 Y88.062 E.49469
G1 X179.058 Y88.596 E.01676
G1 X167.916 Y77.454 E.49469
G1 X167.916 Y77.988 E.01676
G1 X179.058 Y89.13 E.49469
G1 X179.058 Y89.664 E.01676
G1 X167.916 Y78.522 E.49469
G1 X167.916 Y79.056 E.01676
G1 X179.058 Y90.198 E.49469
G1 X179.058 Y90.732 E.01676
G1 X167.916 Y79.59 E.49469
G1 X167.916 Y80.124 E.01676
G1 X179.058 Y91.266 E.49469
G1 X179.058 Y91.8 E.01676
G1 X167.916 Y80.658 E.49469
G1 X167.916 Y81.192 E.01676
G1 X179.058 Y92.334 E.49469
G1 X179.058 Y92.868 E.01676
G1 X167.916 Y81.726 E.49469
G1 X167.916 Y82.26 E.01676
G1 X179.058 Y93.401 E.49467
G1 X179.058 Y93.935 E.01676
G1 X167.916 Y82.794 E.49467
G1 X167.916 Y83.328 E.01676
G1 X179.058 Y94.469 E.49467
G1 X179.058 Y95.003 E.01676
G1 X167.916 Y83.862 E.49467
G1 X167.916 Y84.396 E.01676
G1 X179.058 Y95.537 E.49467
G1 X179.058 Y96.071 E.01676
G1 X167.916 Y84.93 E.49467
G1 X167.916 Y85.464 E.01676
G1 X179.058 Y96.605 E.49467
G1 X179.058 Y97.139 E.01676
G1 X167.916 Y85.998 E.49467
G1 X167.916 Y86.532 E.01676
G1 X179.058 Y97.673 E.49467
G1 X179.058 Y98.207 E.01676
G1 X167.916 Y87.066 E.49467
G1 X167.916 Y87.6 E.01676
M73 Q1 S156
G1 X179.058 Y98.741 E.49467
G1 X179.058 Y99.275 E.01676
G1 X167.916 Y88.133 E.49469
G1 X167.916 Y88.667 E.01676
G1 X179.058 Y99.809 E.49469
G1 X179.058 Y100.343 E.01676
M73 P2 R154
G1 X167.916 Y89.201 E.49469
G1 X167.916 Y89.735 E.01676
G1 X179.058 Y100.877 E.49469
G1 X179.058 Y101.411 E.01676
M73 Q2 S156
G1 X167.916 Y90.269 E.49469
G1 X167.916 Y90.803 E.01676
G1 X178.691 Y101.578 E.4784
G1 X178.157 Y101.578 E.01676
G1 X167.916 Y91.337 E.45469
G1 X167.916 Y91.871 E.01676
G1 X177.623 Y101.578 E.43098
G1 X177.089 Y101.578 E.01676
G1 X167.916 Y92.405 E.40727
G1 X167.916 Y92.939 E.01676
G1 X176.555 Y101.578 E.38356
G1 X176.021 Y101.578 E.01676
G1 X167.916 Y93.473 E.35985
G1 X167.916 Y94.007 E.01676
G1 X175.487 Y101.578 E.33614
G1 X174.953 Y101.578 E.01676
G1 X167.916 Y94.541 E.31243
G1 X167.916 Y95.075 E.01676
G1 X174.419 Y101.578 E.28872
G1 X173.885 Y101.578 E.01676
G1 X167.916 Y95.609 E.26502
G1 X167.916 Y96.143 E.01676
G1 X173.351 Y101.578 E.24131
G1 X172.817 Y101.578 E.01676
G1 X167.916 Y96.677 E.2176
G1 X167.916 Y97.211 E.01676
G1 X172.284 Y101.578 E.19391
G1 X171.75 Y101.578 E.01676
G1 X167.916 Y97.745 E.1702
G1 X167.916 Y98.279 E.01676
G1 X171.216 Y101.578 E.14649
G1 X170.682 Y101.578 E.01676
G1 X167.857 Y98.754 E.1254
G1 X167.811 Y98.88 E.00421
G1 X167.655 Y99.085 E.00809
G1 X170.148 Y101.578 E.11069
G1 X169.614 Y101.578 E.01676
G1 X167.332 Y99.296 E.10132
G1 X167.17 Y99.343 E.0053
G1 X166.858 Y99.356 E.0098
G1 X169.08 Y101.578 E.09865
G1 X168.546 Y101.578 E.01676
G1 X166.324 Y99.356 E.09865
G1 X165.79 Y99.356 E.01676
G1 X168.012 Y101.578 E.09865
G1 X167.478 Y101.578 E.01676
G1 X165.256 Y99.356 E.09865
G1 X164.722 Y99.356 E.01676
G1 X166.944 Y101.578 E.09865
G1 X166.41 Y101.578 E.01676
G1 X164.188 Y99.356 E.09865
G1 X163.655 Y99.356 E.01673
G1 X165.876 Y101.578 E.09863
G1 X165.342 Y101.578 E.01676
G1 X163.121 Y99.356 E.09863
G1 X162.587 Y99.356 E.01676
G1 X164.808 Y101.578 E.09863
G1 X164.274 Y101.578 E.01676
G1 X162.053 Y99.356 E.09863
G1 X161.519 Y99.356 E.01676
G1 X163.74 Y101.578 E.09863
G1 X163.206 Y101.578 E.01676
G1 X160.985 Y99.356 E.09863
G1 X160.451 Y99.356 E.01676
G1 X162.672 Y101.578 E.09863
G1 X162.138 Y101.578 E.01676
G1 X159.917 Y99.356 E.09863
G1 X159.383 Y99.356 E.01676
G1 X161.604 Y101.578 E.09863
G1 X161.07 Y101.578 E.01676
G1 X158.849 Y99.356 E.09863
G1 X158.315 Y99.356 E.01676
G1 X160.537 Y101.578 E.09865
G1 X160.003 Y101.578 E.01676
