; generated by PrusaSlicer 2.7.0+win64 on 2024-02-10 at 16:17:56 UTC


;
;
; 

; external perimeters extrusion width = 0.60mm
; perimeters extrusion width = 0.50mm
; infill extrusion width = 0.50mm
; solid infill extrusion width = 0.50mm
; top infill extrusion width = 0.45mm
; first layer extrusion width = 0.42mm

M73 P0 R100
M73 Q0 S102
M201 X1000 Y1000 Z200 E5000 ; sets maximum accelerations, mm/sec^2
M203 X200 Y200 Z12 E120 ; sets maximum feedrates, mm / sec
M204 S1250 T1250 ; sets acceleration (S) and retract acceleration (R), mm/sec^2
M205 X8.00 Y8.00 Z0.40 E4.50 ; sets the jerk limits, mm/sec
M205 S0 T0 ; sets the minimum extruding and travel feed rate, mm/sec

; printing object PanelTest5.stl id:0 copy 0
; stop printing object PanelTest5.stl id:0 copy 0

;TYPE:Custom
M862.3 P "MK3S" ; printer model check
M862.1 P0.4 ; nozzle diameter check
M115 U3.13.2 ; tell printer latest fw version
G90 ; use absolute coordinates
M83 ; extruder relative mode
M104 S215 ; set extruder temp
M140 S60 ; set bed temp
M190 S60 ; wait for bed temp
M109 S215 ; wait for extruder temp
G28 W ; home all without mesh bed level
G80 X26.8794 Y6.64891 W196.241 H196.702 ; mesh bed levelling

G1 Z0.2 F720
G1 Y-3 F1000 ; go outside print area
G92 E0
G1 X60 E9 F1000 ; intro line
G1 X100 E12.5 F1000 ; intro line
M73 Q0 S101

G92 E0
M221 S95

; Don't change E values below. Excessive value can damage the printer.

M907 E538 ; set extruder motor current
G21 ; set units to millimeters
G90 ; use absolute coordinates
M83 ; use relative distances for extrusion
M900 K0.05 ; Filament gcode LA 1.5
M900 K30 ; Filament gcode LA 1.0

M107
;LAYER_CHANGE
;Z:0.2
;HEIGHT:0.2
;BEFORE_LAYER_CHANGE
G92 E0.0
;0.2


G1 E-.8 F2100
G1 Z.2 F720
;AFTER_LAYER_CHANGE
;0.2
G1 X28.334 Y8.691 F10800
G1 Z.2 F720
G1 E.8 F2100
M204 S800
;TYPE:Skirt/Brim
;WIDTH:0.42
G1 F1200
G1 X28.578 Y7.895 E.0261
G1 X29.63 Y7.025 E.0428
G1 X30.559 Y6.837 E.02972
G1 X43.559 Y6.858 E.40761
G1 X219.273 Y8.168 E5.50954
G1 X220.577 Y8.57 E.04278
G1 X221.615 Y10.261 E.06221
G1 X222.932 Y21.325 E.34935
G1 X222.552 Y110.29 E2.78946
G1 X221.632 Y200.55 E2.83019
G1 X221.227 Y201.853 E.04278
G1 X220.172 Y202.718 E.04278
G1 X219.46 Y202.894 E.023
G1 X216.255 Y203.163 E.10084
G1 X30.551 Y202.903 E5.82262
G1 X29.245 Y202.509 E.04277
G1 X28.37 Y201.462 E.04278
G1 X28.189 Y200.757 E.02282
G1 X27.068 Y189.205 E.36391
G1 X27.068 Y179.19 E.31401
G1 X28.178 Y9.199 E5.33006
G1 X28.316 Y8.748 E.01479
M73 P0 R99
M204 S1000
; printing object PanelTest5.stl id:0 copy 0
;WIPE_START
G1 F8640
G1 X28.334 Y8.691 E-.0138
G1 X28.578 Y7.895 E-.19224
G1 X29.63 Y7.025 E-.31521
G1 X30.559 Y6.837 E-.21886
G1 X30.818 Y6.837 E-.05989
;WIPE_END
G1 Z.6 F720
G1 X218.485 Y31.024 F10800
G1 Z.2 F720
G1 E.8 F2100
M204 S800
;TYPE:Perimeter
;WIDTH:0.419999
G1 F1200
G1 X218.468 Y31.104 E.00256
G1 X218.468 Y100.487 E2.17545
G1 X218.539 Y100.761 E.00887
G1 X218.73 Y100.964 E.00874
G1 X219.034 Y101.053 E.00993
G1 X219.388 Y101.053 E.0111
G1 X219.388 Y109.478 E.26416
G1 X219.034 Y109.478 E.0111
G1 X218.73 Y109.567 E.00993
G1 X218.539 Y109.77 E.00874
G1 X218.468 Y110.044 E.00887
G1 X218.468 Y199.738 E2.81229
G1 X216.034 Y199.738 E.07632
G1 X215.928 Y199.748 E.00334
G1 X215.727 Y199.828 E.00678
G1 X215.635 Y199.998 E.00606
G1 X206.867 Y199.998 E.27491
G1 X206.761 Y199.815 E.00663
G1 X206.476 Y199.738 E.00926
G1 X137.828 Y199.738 E2.15241
G1 X136.59 Y199.746 E.03882
G1 X136.513 Y199.818 E.00331
G1 X127.297 Y199.818 E.28896
G1 X127.242 Y199.75 E.00274
M73 Q1 S101
G1 X127.126 Y199.738 E.00366
G1 X31.342 Y199.738 E3.00324
G1 X31.337 Y188.91 E.3395
M73 P1 R99
M73 Q1 S100
G1 X31.249 Y188.673 E.00793
G1 X31.039 Y188.483 E.00888
G1 X30.776 Y188.418 E.00849
G1 X30.232 Y188.418 E.01706
G1 X30.232 Y179.993 E.26416
G1 X30.776 Y179.993 E.01706
G1 X31.039 Y179.928 E.00849
G1 X31.163 Y179.84 E.00477
G1 X31.276 Y179.692 E.00584
G1 X31.342 Y179.427 E.00856
G1 X31.342 Y110.643 E2.15667
G1 X31.332 Y109.94 E.02204
G1 X31.212 Y109.817 E.00539
G1 X31.212 Y100.714 E.28542
G1 X31.324 Y100.627 E.00445
G1 X31.342 Y100.487 E.00443
G1 X31.342 Y10.007 E2.83693
G1 X42.768 Y10.022 E.35825
G1 X42.768 Y10.767 E.02336
G1 X42.817 Y10.998 E.0074
G1 X42.893 Y11.121 E.00453
G1 X43.071 Y11.268 E.00724
G1 X43.334 Y11.333 E.00849
G1 X113.05 Y11.333 E2.18589
G1 X113.357 Y11.284 E.00975
G1 X113.575 Y11.112 E.00871
G1 X113.692 Y10.683 E.01394
G1 X122.118 Y10.683 E.26419
G1 X122.235 Y11.112 E.01394
G1 X122.409 Y11.261 E.00718
G1 X122.684 Y11.333 E.00891
G1 X218.468 Y11.333 E3.00324
G1 X218.468 Y21.46 E.31752
G1 X218.5 Y21.734 E.00865
G1 X218.649 Y21.962 E.00854
G1 X219.034 Y22.113 E.01297
G1 X219.768 Y22.113 E.02301
G1 X219.768 Y22.847 E.02301
G1 X219.768 Y30.538 E.24115
G1 X219.034 Y30.538 E.02301
G1 X218.68 Y30.663 E.01177
G1 X218.519 Y30.87 E.00822
G1 X218.498 Y30.966 E.00308
M204 S1000
G1 X218.845 Y31.104 F10800
M204 S800
;TYPE:External perimeter
G1 F1200
G1 X218.845 Y100.408 E2.17297
G1 X218.877 Y100.592 E.00586
G1 X219.034 Y100.675 E.00557
G1 X219.765 Y100.675 E.02292
G1 X219.765 Y109.855 E.28783
G1 X219.034 Y109.855 E.02292
G1 X218.892 Y109.919 E.00488
G1 X218.845 Y110.044 E.00419
G1 X218.845 Y200.115 E2.82411
G1 X216.034 Y200.115 E.08814
G1 X215.97 Y200.126 E.00204
G1 X215.845 Y200.304 E.00682
G1 X215.845 Y200.375 E.00223
G1 X206.665 Y200.375 E.28783
G1 X206.665 Y200.304 E.00223
G1 X206.571 Y200.141 E.0059
G1 X206.476 Y200.115 E.00309
G1 X136.684 Y200.115 E2.18828
G1 X136.583 Y200.195 E.00404
G1 X127.227 Y200.195 E.29335
G1 X127.126 Y200.115 E.00404
G1 X30.965 Y200.115 E3.01506
G1 X30.965 Y188.984 E.349
G1 X30.924 Y188.867 E.00389
G1 X30.776 Y188.795 E.00516
G1 X29.855 Y188.795 E.02888
G1 X29.855 Y179.615 E.28783
G1 X30.776 Y179.615 E.02888
M73 P1 R98
G1 X30.905 Y179.565 E.00434
G1 X30.965 Y179.427 E.00472
G1 X30.965 Y110.035 E2.17573
G1 X30.835 Y109.901 E.00585
G1 X30.835 Y100.63 E.29069
G1 X30.959 Y100.534 E.00492
G1 X30.965 Y100.487 E.00149
G1 X30.965 Y9.627 E2.84885
G1 X43.145 Y9.645 E.3819
G1 X43.145 Y10.767 E.03518
G1 X43.187 Y10.885 E.00393
G1 X43.334 Y10.955 E.0051
G1 X113.05 Y10.955 E2.18589
G1 X113.234 Y10.922 E.00586
G1 X113.315 Y10.767 E.00548
G1 X113.315 Y10.305 E.01449
G1 X122.495 Y10.305 E.28783
G1 X122.495 Y10.767 E.01449
G1 X122.572 Y10.919 E.00534
G1 X122.684 Y10.955 E.00369
G1 X218.845 Y10.955 E3.01506
G1 X218.845 Y21.46 E.32938
M73 P2 R98
M73 Q2 S99
G1 X218.875 Y21.649 E.006
G1 X219.034 Y21.735 E.00567
G1 X220.145 Y21.735 E.03483
G1 X220.145 Y22.847 E.03487
G1 X220.145 Y30.915 E.25297
G1 X219.034 Y30.915 E.03483
G1 X218.916 Y30.957 E.00393
G1 X218.871 Y31.05 E.00324
M204 S1000
;WIPE_START
G1 F8640
G1 X218.845 Y31.104 E-.01384
G1 X218.845 Y34.509 E-.78616
;WIPE_END
G1 Z.6 F720
G1 X212.976 Y23.894 F10800
G1 Z.2 F720
G1 E.8 F2100
M204 S800
;TYPE:Perimeter
G1 F1200
G1 X213.024 Y23.891 E.00151
G1 X213.476 Y23.935 E.01424
G1 X213.884 Y24.053 E.01332
G1 X214.266 Y24.241 E.01335
G1 X214.608 Y24.491 E.01328
G1 X214.903 Y24.798 E.01335
G1 X215.139 Y25.15 E.01329
G1 X215.311 Y25.539 E.01334
G1 X215.412 Y25.951 E.0133
G1 X215.441 Y26.375 E.01333
G1 X215.395 Y26.797 E.01331
G1 X215.277 Y27.205 E.01332
G1 X215.09 Y27.586 E.01331
G1 X214.839 Y27.929 E.01333
G1 X214.533 Y28.223 E.01331
G1 X214.18 Y28.46 E.01333
G1 X213.792 Y28.631 E.01329
G1 X213.379 Y28.733 E.01334
G1 X212.956 Y28.761 E.01329
G1 X212.533 Y28.716 E.01334
G1 X212.126 Y28.597 E.0133
G1 X211.744 Y28.41 E.01334
G1 X211.402 Y28.16 E.01328
G1 X211.107 Y27.853 E.01335
G1 X210.871 Y27.501 E.01329
G1 X210.699 Y27.112 E.01334
G1 X210.598 Y26.7 E.0133
G1 X210.569 Y26.276 E.01333
G1 X210.615 Y25.854 E.01331
G1 X210.733 Y25.446 E.01332
G1 X210.92 Y25.065 E.01331
G1 X211.171 Y24.722 E.01333
G1 X211.477 Y24.428 E.01331
G1 X211.83 Y24.191 E.01333
G1 X212.218 Y24.02 E.01329
G1 X212.716 Y23.911 E.01598
G1 X212.916 Y23.898 E.00628
M204 S1000
G1 X212.973 Y24.269 F10800
M204 S800
;TYPE:External perimeter
G1 F1200
G1 X212.996 Y24.267 E.00072
G1 X213.379 Y24.299 E.01205
G1 X213.725 Y24.395 E.01126
G1 X214.049 Y24.55 E.01126
G1 X214.342 Y24.758 E.01127
G1 X214.716 Y25.188 E.01787
G1 X214.947 Y25.636 E.0158
G1 X215.037 Y25.984 E.01127
G1 X215.065 Y26.342 E.01126
G1 X215.031 Y26.699 E.01124
G1 X214.935 Y27.046 E.01129
G1 X214.781 Y27.37 E.01125
G1 X214.573 Y27.662 E.01124
G1 X214.317 Y27.914 E.01126
G1 X214.021 Y28.118 E.01127
G1 X213.694 Y28.267 E.01127
G1 X213.347 Y28.357 E.01124
G1 X212.989 Y28.386 E.01126
G1 X212.631 Y28.351 E.01128
G1 X212.285 Y28.256 E.01125
G1 X211.961 Y28.101 E.01126
G1 X211.668 Y27.893 E.01127
G1 X211.416 Y27.637 E.01126
G1 X211.213 Y27.341 E.01125
G1 X211.063 Y27.015 E.01125
G1 X210.973 Y26.667 E.01127
G1 X210.945 Y26.309 E.01126
G1 X210.979 Y25.952 E.01124
G1 X211.075 Y25.605 E.01129
G1 X211.229 Y25.281 E.01125
G1 X211.437 Y24.989 E.01124
G1 X211.693 Y24.737 E.01126
G1 X212.187 Y24.441 E.01806
G1 X212.663 Y24.294 E.01562
G1 X212.913 Y24.274 E.00786
M204 S1000
;WIPE_START
G1 F8640
G1 X212.973 Y24.269 E-.0139
G1 X212.996 Y24.267 E-.00533
G1 X213.379 Y24.299 E-.08874
G1 X213.725 Y24.395 E-.08291
G1 X214.049 Y24.55 E-.08293
G1 X214.342 Y24.758 E-.08297
G1 X214.716 Y25.188 E-.13159
G1 X214.947 Y25.636 E-.11639
G1 X215.037 Y25.984 E-.083
G1 X215.065 Y26.342 E-.08292
G1 X215.053 Y26.469 E-.02932
;WIPE_END
G1 Z.6 F720
G1 X210.434 Y107.553 F10800
G1 Z.2 F720
G1 E.8 F2100
M204 S800
;TYPE:Perimeter
G1 F1200
G1 X210.376 Y107.537 E.00189
G1 X209.994 Y107.35 E.01334
G1 X209.675 Y107.118 E.01237
G1 X209.357 Y106.793 E.01426
G1 X209.121 Y106.441 E.01329
G1 X208.949 Y106.052 E.01334
G1 X208.848 Y105.64 E.0133
G1 X208.819 Y105.315 E.01023
G1 X208.865 Y104.794 E.0164
G1 X208.983 Y104.386 E.01332
G1 X209.17 Y104.005 E.01331
G1 X209.421 Y103.662 E.01333
G1 X209.727 Y103.368 E.01331
G1 X210.08 Y103.131 E.01333
G1 X210.468 Y102.96 E.01329
G1 X210.881 Y102.858 E.01334
G1 X211.274 Y102.831 E.01235
G1 X211.726 Y102.875 E.01424
G1 X212.134 Y102.993 E.01332
G1 X212.516 Y103.181 E.01335
G1 X212.858 Y103.431 E.01328
G1 X213.153 Y103.738 E.01335
G1 X213.457 Y104.235 E.01827
G1 X213.645 Y104.794 E.01849
G1 X213.691 Y105.315 E.0164
G1 X213.645 Y105.737 E.01331
G1 X213.457 Y106.296 E.01849
G1 X213.198 Y106.728 E.01579
G1 X212.858 Y107.1 E.0158
G1 X212.43 Y107.4 E.01639
G1 X212.042 Y107.571 E.01329
G1 X211.449 Y107.687 E.01895
G1 X210.881 Y107.673 E.01781
G1 X210.492 Y107.569 E.01263
M204 S1000
G1 X210.523 Y107.19 F10800
M204 S800
;TYPE:External perimeter
G1 F1200
G1 X210.211 Y107.041 E.01084
G1 X209.939 Y106.848 E.01046
G1 X209.666 Y106.577 E.01206
G1 X209.463 Y106.281 E.01125
G1 X209.313 Y105.955 E.01125
G1 X209.223 Y105.607 E.01127
G1 X209.195 Y105.282 E.01023
G1 X209.229 Y104.892 E.01227
G1 X209.325 Y104.545 E.01129
G1 X209.479 Y104.221 E.01125
G1 X209.687 Y103.929 E.01124
G1 X209.943 Y103.677 E.01126
G1 X210.239 Y103.473 E.01127
G1 X210.566 Y103.324 E.01127
G1 X210.913 Y103.234 E.01124
G1 X211.246 Y103.207 E.01048
G1 X211.629 Y103.239 E.01205
G1 X211.975 Y103.335 E.01126
G1 X212.299 Y103.49 E.01126
G1 X212.592 Y103.698 E.01127
G1 X212.844 Y103.954 E.01126
G1 X213.115 Y104.394 E.0162
G1 X213.281 Y104.892 E.01646
G1 X213.315 Y105.282 E.01227
G1 X213.281 Y105.639 E.01124
G1 X213.115 Y106.137 E.01646
G1 X212.844 Y106.577 E.0162
G1 X212.567 Y106.854 E.01228
G1 X212.271 Y107.058 E.01127
G1 X211.944 Y107.207 E.01127
G1 X211.412 Y107.312 E.017
G1 X210.881 Y107.291 E.01666
G1 X210.58 Y107.208 E.00979
M204 S1000
;WIPE_START
G1 F8640
G1 X210.523 Y107.19 E-.0138
G1 X210.211 Y107.041 E-.07984
G1 X209.939 Y106.848 E-.07701
G1 X209.666 Y106.577 E-.08882
G1 X209.463 Y106.281 E-.08288
G1 X209.313 Y105.955 E-.08286
G1 X209.223 Y105.607 E-.083
G1 X209.195 Y105.282 E-.07532
G1 X209.229 Y104.892 E-.09039
G1 X209.325 Y104.545 E-.08313
G1 X209.405 Y104.377 E-.04295
;WIPE_END
G1 Z.6 F720
G1 X210.419 Y182.421 F10800
G1 Z.2 F720
G1 E.8 F2100
M204 S800
;TYPE:Perimeter
G1 F1200
G1 X210.468 Y182.4 E.00167
G1 X210.881 Y182.298 E.01334
G1 X211.274 Y182.271 E.01235
G1 X211.726 Y182.315 E.01424
G1 X212.134 Y182.433 E.01332
G1 X212.516 Y182.621 E.01335
G1 X212.858 Y182.871 E.01328
G1 X213.153 Y183.178 E.01335
G1 X213.389 Y183.53 E.01329
G1 X213.561 Y183.919 E.01334
G1 X213.662 Y184.331 E.0133
G1 X213.691 Y184.755 E.01333
G1 X213.645 Y185.177 E.01331
G1 X213.527 Y185.585 E.01332
G1 X213.34 Y185.966 E.01331
G1 X213.089 Y186.309 E.01333
G1 X212.783 Y186.603 E.01331
G1 X212.43 Y186.84 E.01333
G1 X212.042 Y187.011 E.01329
G1 X211.458 Y187.128 E.01867
G1 X211.304 Y187.141 E.00485
G1 X210.783 Y187.096 E.0164
G1 X210.376 Y186.977 E.0133
G1 X209.994 Y186.79 E.01334
G1 X209.652 Y186.54 E.01328
G1 X209.357 Y186.233 E.01335
G1 X209.121 Y185.881 E.01329
G1 X208.949 Y185.492 E.01334
G1 X208.848 Y185.08 E.0133
G1 X208.819 Y184.656 E.01333
G1 X208.865 Y184.234 E.01331
G1 X208.983 Y183.826 E.01332
G1 X209.17 Y183.445 E.01331
G1 X209.421 Y183.102 E.01333
G1 X209.727 Y182.808 E.01331
G1 X210.08 Y182.571 E.01333
G1 X210.364 Y182.446 E.00973
M204 S1000
G1 X210.585 Y182.759 F10800
M204 S800
;TYPE:External perimeter
G1 F1200
G1 X210.913 Y182.674 E.01062
G1 X211.246 Y182.647 E.01048
G1 X211.629 Y182.679 E.01205
G1 X211.975 Y182.775 E.01126
G1 X212.299 Y182.93 E.01126
G1 X212.592 Y183.138 E.01127
G1 X212.844 Y183.394 E.01126
G1 X213.047 Y183.69 E.01125
G1 X213.197 Y184.016 E.01125
G1 X213.287 Y184.364 E.01127
G1 X213.315 Y184.722 E.01126
G1 X213.281 Y185.079 E.01124
G1 X213.185 Y185.426 E.01129
G1 X213.031 Y185.75 E.01125
G1 X212.823 Y186.042 E.01124
G1 X212.567 Y186.294 E.01126
G1 X212.271 Y186.498 E.01127
G1 X211.944 Y186.647 E.01127
G1 X211.426 Y186.752 E.01657
G1 X211.271 Y186.766 E.00488
G1 X210.881 Y186.731 E.01228
G1 X210.535 Y186.636 E.01125
G1 X210.211 Y186.481 E.01126
G1 X209.918 Y186.273 E.01127
G1 X209.666 Y186.017 E.01126
G1 X209.463 Y185.721 E.01125
G1 X209.313 Y185.395 E.01125
G1 X209.223 Y185.047 E.01127
G1 X209.195 Y184.689 E.01126
G1 X209.229 Y184.332 E.01124
G1 X209.325 Y183.985 E.01129
G1 X209.479 Y183.661 E.01125
G1 X209.687 Y183.369 E.01124
G1 X209.943 Y183.117 E.01126
G1 X210.239 Y182.913 E.01127
G1 X210.529 Y182.781 E.00999
M204 S1000
;WIPE_START
G1 F8640
G1 X210.585 Y182.759 E-.01389
G1 X210.913 Y182.674 E-.07824
G1 X211.246 Y182.647 E-.07714
G1 X211.629 Y182.679 E-.08874
G1 X211.975 Y182.775 E-.08291
G1 X212.299 Y182.93 E-.08293
G1 X212.592 Y183.138 E-.08297
G1 X212.844 Y183.394 E-.08295
G1 X213.047 Y183.69 E-.08288
G1 X213.197 Y184.016 E-.08286
G1 X213.245 Y184.202 E-.04449
;WIPE_END
G1 Z.6 F720
G1 X133.44 Y194.48 F10800
G1 Z.2 F720
G1 E.8 F2100
M204 S800
;TYPE:Perimeter
G1 F1200
G1 X133.166 Y194.7 E.01102
G1 X132.692 Y194.921 E.0164
G1 X132.279 Y195.023 E.01334
G1 X131.856 Y195.051 E.01329
G1 X131.433 Y195.006 E.01334
G1 X131.026 Y194.887 E.0133
G1 X130.644 Y194.7 E.01334
G1 X130.176 Y194.324 E.01882
G1 X129.82 Y193.876 E.01794
G1 X129.599 Y193.402 E.0164
G1 X129.504 Y193.019 E.01237
G1 X129.469 Y192.566 E.01425
G1 X129.515 Y192.144 E.01331
G1 X129.634 Y191.733 E.01342
G1 X129.889 Y191.256 E.01696
G1 X130.071 Y191.012 E.00954
G1 X130.377 Y190.718 E.01331
G1 X130.73 Y190.481 E.01333
G1 X131.118 Y190.31 E.01329
G1 X131.531 Y190.208 E.01334
G1 X131.924 Y190.181 E.01235
G1 X132.376 Y190.225 E.01424
G1 X132.784 Y190.343 E.01332
G1 X133.166 Y190.531 E.01335
G1 X133.508 Y190.781 E.01328
G1 X133.803 Y191.088 E.01335
G1 X134.039 Y191.44 E.01329
G1 X134.211 Y191.829 E.01334
G1 X134.312 Y192.241 E.0133
G1 X134.341 Y192.665 E.01333
G1 X134.295 Y193.087 E.01331
G1 X134.121 Y193.614 E.0174
G1 X133.99 Y193.876 E.00918
G1 X133.634 Y194.324 E.01794
G1 X133.486 Y194.443 E.00595
M204 S1000
G1 X133.206 Y194.211 F10800
M204 S800
;TYPE:External perimeter
G1 F1200
G1 X132.921 Y194.408 E.01086
G1 X132.594 Y194.557 E.01127
G1 X132.247 Y194.647 E.01124
G1 X131.889 Y194.676 E.01126
G1 X131.531 Y194.641 E.01128
G1 X131.185 Y194.546 E.01125
G1 X130.861 Y194.391 E.01126
G1 X130.443 Y194.058 E.01676
G1 X130.129 Y193.66 E.0159
G1 X129.963 Y193.305 E.01229
G1 X129.88 Y192.982 E.01046
G1 X129.845 Y192.599 E.01206
G1 X129.879 Y192.242 E.01124
G1 X129.976 Y191.892 E.01139
G1 X130.198 Y191.472 E.0149
G1 X130.568 Y191.048 E.01764
G1 X130.889 Y190.823 E.01229
