; generated by PrusaSlicer 2.7.0+win64 on 2024-01-22 at 06:28:07 UTC


;
;
; 

; external perimeters extrusion width = 0.45mm
; perimeters extrusion width = 0.45mm
; infill extrusion width = 0.45mm
; solid infill extrusion width = 0.45mm
; top infill extrusion width = 0.40mm
; first layer extrusion width = 0.42mm

M73 P0 R114
M73 Q0 S115
M201 X1000 Y1000 Z200 E5000 ; sets maximum accelerations, mm/sec^2
M203 X200 Y200 Z12 E120 ; sets maximum feedrates, mm / sec
M204 S1250 T1250 ; sets acceleration (S) and retract acceleration (R), mm/sec^2
M205 X8.00 Y8.00 Z0.40 E4.50 ; sets the jerk limits, mm/sec
M205 S0 T0 ; sets the minimum extruding and travel feed rate, mm/sec

; printing object Body8.stl id:0 copy 0
; stop printing object Body8.stl id:0 copy 0

;TYPE:Custom
M862.3 P "MK3S" ; printer model check
M862.1 P0.4 ; nozzle diameter check
M115 U3.13.2 ; tell printer latest fw version
G90 ; use absolute coordinates
M83 ; extruder relative mode
M104 S215 ; set extruder temp
M140 S60 ; set bed temp
M190 S60 ; wait for bed temp
M109 S215 ; wait for extruder temp
G28 W ; home all without mesh bed level
G80 X14.0705 Y9.93438 W193.831 H190.131 ; mesh bed levelling

G1 Z0.2 F720
G1 Y-3 F1000 ; go outside print area
G92 E0
G1 X60 E9 F1000 ; intro line
G1 X100 E12.5 F1000 ; intro line

G92 E0
M221 S95

; Don't change E values below. Excessive value can damage the printer.

M907 E538 ; set extruder motor current
G21 ; set units to millimeters
G90 ; use absolute coordinates
M83 ; use relative distances for extrusion
M900 K0.05 ; Filament gcode LA 1.5
M900 K30 ; Filament gcode LA 1.0

M107
;LAYER_CHANGE
;Z:0.2
;HEIGHT:0.2
;BEFORE_LAYER_CHANGE
G92 E0.0
;0.2


G1 E-.8 F2100
G1 Z.2 F720
;AFTER_LAYER_CHANGE
;0.2
G1 X14.651 Y11.193 F10800
G1 Z.2 F720
G1 E.8 F2100
M204 S800
;TYPE:Skirt/Brim
;WIDTH:0.42
G1 F1200
G1 X15.696 Y10.317 E.04275
G1 X16.636 Y10.123 E.03009
G1 X205.336 Y10.123 E5.91656
G1 X206.643 Y10.515 E.04278
G1 X207.52 Y11.56 E.04277
G1 X207.713 Y12.5 E.03009
G1 X207.713 Y197.5 E5.80055
G1 X207.322 Y198.807 E.04277
G1 X206.276 Y199.683 E.04278
G1 X205.336 Y199.877 E.03009
G1 X16.636 Y199.877 E5.91656
G1 X15.329 Y199.485 E.04278
M73 P0 R113
M73 Q0 S114
G1 X14.453 Y198.44 E.04275
G1 X14.259 Y197.5 E.03009
G1 X14.259 Y12.5 E5.80055
G1 X14.633 Y11.25 E.04091
M204 S1000
; printing object Body8.stl id:0 copy 0
;WIPE_START
G1 F8640
G1 X14.651 Y11.193 E-.0138
G1 X15.696 Y10.317 E-.31486
G1 X16.636 Y10.123 E-.22162
G1 X17.717 Y10.123 E-.24972
;WIPE_END
G1 Z.6 F720
G1 X204.549 Y196.713 F10800
G1 Z.2 F720
G1 E.8 F2100
M204 S800
;TYPE:Perimeter
;WIDTH:0.419999
G1 F1200
G1 X17.423 Y196.713 E5.86719
G1 X17.423 Y13.287 E5.75118
G1 X204.549 Y13.287 E5.86719
G1 X204.549 Y17.95 E.1462
M73 P1 R113
M73 Q1 S114
G1 X204.549 Y196.653 E5.6031
M204 S1000
G1 X204.926 Y197.09 F10800
M204 S800
;TYPE:External perimeter
G1 F1200
G1 X17.046 Y197.09 E5.89084
G1 X17.046 Y12.91 E5.77482
M73 Q1 S113
G1 X204.926 Y12.91 E5.89084
M73 P1 R112
G1 X204.926 Y17.95 E.15803
G1 X204.926 Y197.03 E5.61492
M204 S1000
;WIPE_START
G1 F8640
G1 X204.926 Y197.09 E-.01385
G1 X201.521 Y197.09 E-.78615
;WIPE_END
G1 Z.6 F720
G1 X201.37 Y24.165 F10800
G1 Z.2 F720
G1 E.8 F2100
M204 S800
;TYPE:Perimeter
G1 F1200
G1 X201.392 Y24.213 E.00166
G1 X201.493 Y24.626 E.01333
G1 X201.522 Y25.049 E.01329
G1 X201.476 Y25.472 E.01334
G1 X201.358 Y25.879 E.01329
G1 X201.171 Y26.261 E.01334
G1 X200.92 Y26.603 E.0133
G1 X200.614 Y26.898 E.01333
G1 X200.261 Y27.134 E.01331
G1 X199.873 Y27.306 E.01331
G1 X199.461 Y27.407 E.0133
G1 X199.037 Y27.436 E.01333
G1 X198.718 Y27.408 E.01004
G1 X198.207 Y27.272 E.01658
G1 X197.826 Y27.085 E.01331
G1 X197.483 Y26.834 E.01333
G1 X197.189 Y26.528 E.01331
G1 X196.952 Y26.175 E.01333
G1 X196.78 Y25.787 E.01331
G1 X196.687 Y25.408 E.01224
G1 X196.65 Y24.951 E.01438
G1 X196.696 Y24.528 E.01334
G1 X196.814 Y24.121 E.01329
G1 X197.001 Y23.739 E.01334
G1 X197.252 Y23.397 E.0133
G1 X197.558 Y23.102 E.01333
G1 X197.911 Y22.866 E.01331
G1 X198.299 Y22.694 E.01331
G1 X198.712 Y22.593 E.01333
G1 X199.101 Y22.566 E.01223
G1 X199.558 Y22.61 E.0144
G1 X199.966 Y22.728 E.01332
G1 X200.347 Y22.915 E.01331
G1 X200.69 Y23.166 E.01333
G1 X200.984 Y23.472 E.01331
G1 X201.22 Y23.825 E.01331
G1 X201.346 Y24.11 E.00977
M204 S1000
G1 X201.031 Y24.326 F10800
M204 S800
;TYPE:External perimeter
G1 F1200
G1 X201.118 Y24.658 E.01076
G1 X201.146 Y25.016 E.01126
G1 X201.112 Y25.374 E.01128
G1 X201.016 Y25.72 E.01126
G1 X200.862 Y26.044 E.01125
G1 X200.654 Y26.337 E.01127
G1 X200.398 Y26.589 E.01126
G1 X200.102 Y26.792 E.01125
G1 X199.775 Y26.942 E.01128
G1 X199.428 Y27.032 E.01124
G1 X199.07 Y27.06 E.01126
G1 X198.751 Y27.032 E.01004
G1 X198.366 Y26.93 E.01249
G1 X198.042 Y26.776 E.01125
G1 X197.749 Y26.568 E.01127
G1 X197.497 Y26.312 E.01126
G1 X197.294 Y26.016 E.01125
G1 X197.145 Y25.689 E.01127
G1 X197.062 Y25.37 E.01034
G1 X197.026 Y24.984 E.01216
G1 X197.06 Y24.626 E.01128
G1 X197.156 Y24.28 E.01126
G1 X197.31 Y23.956 E.01125
G1 X197.519 Y23.663 E.01128
G1 X197.774 Y23.411 E.01124
G1 X198.07 Y23.208 E.01125
G1 X198.397 Y23.058 E.01128
G1 X198.745 Y22.968 E.01127
G1 X199.073 Y22.942 E.01032
G1 X199.46 Y22.974 E.01218
G1 X199.806 Y23.07 E.01126
G1 X200.13 Y23.224 E.01125
G1 X200.423 Y23.432 E.01127
G1 X200.675 Y23.688 E.01126
G1 X200.878 Y23.984 E.01125
G1 X201.009 Y24.27 E.00986
M204 S1000
;WIPE_START
G1 F8640
G1 X201.031 Y24.326 E-.01389
G1 X201.118 Y24.658 E-.07925
G1 X201.146 Y25.016 E-.08292
G1 X201.112 Y25.374 E-.08304
G1 X201.016 Y25.72 E-.08291
G1 X200.862 Y26.044 E-.08283
G1 X200.654 Y26.337 E-.08297
G1 X200.398 Y26.589 E-.08295
G1 X200.102 Y26.792 E-.08288
G1 X199.775 Y26.942 E-.08307
G1 X199.593 Y26.989 E-.04329
;WIPE_END
G1 Z.6 F720
G1 X196.508 Y106.227 F10800
G1 Z.2 F720
G1 E.8 F2100
M204 S800
;TYPE:Perimeter
G1 F1200
G1 X196.457 Y106.212 E.00167
G1 X196.076 Y106.025 E.01331
G1 X195.733 Y105.774 E.01333
G1 X195.439 Y105.468 E.01331
G1 X195.202 Y105.115 E.01333
G1 X195.044 Y104.759 E.01221
G1 X194.929 Y104.315 E.01438
G1 X194.9 Y103.891 E.01333
G1 X194.946 Y103.468 E.01334
G1 X195.064 Y103.061 E.01329
G1 X195.251 Y102.679 E.01334
G1 X195.502 Y102.337 E.0133
G1 X195.808 Y102.042 E.01333
G1 X196.161 Y101.806 E.01331
G1 X196.549 Y101.634 E.01331
G1 X196.962 Y101.533 E.01333
G1 X197.351 Y101.506 E.01223
G1 X197.753 Y101.538 E.01264
G1 X198.216 Y101.668 E.01508
G1 X198.597 Y101.855 E.01331
G1 X198.94 Y102.106 E.01333
G1 X199.234 Y102.412 E.01331
G1 X199.47 Y102.765 E.01331
G1 X199.642 Y103.153 E.01331
G1 X199.743 Y103.566 E.01333
G1 X199.772 Y103.989 E.01329
G1 X199.726 Y104.412 E.01334
G1 X199.608 Y104.819 E.01329
G1 X199.421 Y105.201 E.01334
G1 X199.17 Y105.543 E.0133
G1 X198.864 Y105.838 E.01333
G1 X198.511 Y106.074 E.01331
G1 X198.123 Y106.246 E.01331
G1 X197.604 Y106.357 E.01664
G1 X197.287 Y106.376 E.00996
G1 X196.865 Y106.33 E.01331
G1 X196.565 Y106.244 E.00979
M204 S1000
G1 X196.603 Y105.864 F10800
M204 S800
;TYPE:External perimeter
G1 F1200
G1 X196.292 Y105.716 E.0108
G1 X195.999 Y105.508 E.01127
G1 X195.747 Y105.252 E.01126
G1 X195.544 Y104.956 E.01125
G1 X195.407 Y104.656 E.01034
G1 X195.304 Y104.282 E.01216
G1 X195.276 Y103.924 E.01126
G1 X195.31 Y103.566 E.01128
G1 X195.406 Y103.22 E.01126
G1 X195.56 Y102.896 E.01125
G1 X195.769 Y102.603 E.01128
G1 X196.024 Y102.351 E.01124
G1 X196.32 Y102.148 E.01125
G1 X196.647 Y101.998 E.01128
G1 X196.995 Y101.908 E.01127
G1 X197.323 Y101.882 E.01032
G1 X197.692 Y101.91 E.0116
G1 X198.056 Y102.01 E.01184
G1 X198.38 Y102.164 E.01125
G1 X198.673 Y102.372 E.01127
G1 X198.925 Y102.628 E.01126
G1 X199.128 Y102.924 E.01125
G1 X199.278 Y103.251 E.01128
G1 X199.368 Y103.598 E.01124
G1 X199.396 Y103.956 E.01126
G1 X199.362 Y104.314 E.01128
G1 X199.266 Y104.66 E.01126
G1 X199.112 Y104.984 E.01125
G1 X198.904 Y105.277 E.01127
G1 X198.648 Y105.529 E.01126
G1 X198.352 Y105.732 E.01125
G1 X198.025 Y105.882 E.01128
G1 X197.571 Y105.981 E.01457
G1 X196.995 Y105.972 E.01806
G1 X196.66 Y105.882 E.01088
M204 S1000
;WIPE_START
G1 F8640
G1 X196.603 Y105.864 E-.0138
G1 X196.292 Y105.716 E-.07953
G1 X195.999 Y105.508 E-.08297
G1 X195.747 Y105.252 E-.08295
G1 X195.544 Y104.956 E-.08288
G1 X195.407 Y104.656 E-.07615
G1 X195.304 Y104.282 E-.08957
G1 X195.276 Y103.924 E-.08292
G1 X195.31 Y103.566 E-.08304
G1 X195.406 Y103.22 E-.08291
G1 X195.487 Y103.051 E-.04328
;WIPE_END
G1 Z.6 F720
G1 X196.117 Y181.275 F10800
G1 Z.2 F720
G1 E.8 F2100
M204 S800
;TYPE:Perimeter
G1 F1200
G1 X196.161 Y181.246 E.00165
G1 X196.549 Y181.074 E.01331
G1 X196.962 Y180.973 E.01333
G1 X197.351 Y180.946 E.01223
G1 X197.808 Y180.99 E.0144
G1 X198.216 Y181.108 E.01332
G1 X198.597 Y181.295 E.01331
G1 X198.94 Y181.546 E.01333
G1 X199.234 Y181.852 E.01331
G1 X199.47 Y182.205 E.01331
G1 X199.642 Y182.593 E.01331
G1 X199.743 Y183.006 E.01333
G1 X199.772 Y183.429 E.01329
G1 X199.726 Y183.852 E.01334
G1 X199.608 Y184.259 E.01329
G1 X199.421 Y184.641 E.01334
G1 X199.17 Y184.983 E.0133
G1 X198.864 Y185.278 E.01333
G1 X198.511 Y185.514 E.01331
G1 X198.123 Y185.686 E.01331
G1 X197.711 Y185.787 E.0133
G1 X197.287 Y185.816 E.01333
G1 X196.865 Y185.77 E.01331
G1 X196.457 Y185.652 E.01332
G1 X196.076 Y185.465 E.01331
G1 X195.733 Y185.214 E.01333
G1 X195.439 Y184.908 E.01331
G1 X195.251 Y184.641 E.01024
G1 X195.044 Y184.199 E.0153
G1 X194.929 Y183.755 E.01438
G1 X194.9 Y183.331 E.01333
G1 X194.946 Y182.908 E.01334
G1 X195.064 Y182.501 E.01329
G1 X195.251 Y182.119 E.01334
G1 X195.502 Y181.777 E.0133
G1 X195.808 Y181.482 E.01333
G1 X196.067 Y181.309 E.00977
M204 S1000
G1 X196.334 Y181.581 F10800
M204 S800
;TYPE:External perimeter
G1 F1200
G1 X196.647 Y181.438 E.01079
G1 X196.995 Y181.348 E.01127
G1 X197.323 Y181.322 E.01032
G1 X197.71 Y181.354 E.01218
G1 X198.056 Y181.45 E.01126
G1 X198.38 Y181.604 E.01125
G1 X198.673 Y181.812 E.01127
G1 X198.925 Y182.068 E.01126
G1 X199.128 Y182.364 E.01125
G1 X199.278 Y182.691 E.01128
G1 X199.368 Y183.038 E.01124
G1 X199.396 Y183.396 E.01126
G1 X199.362 Y183.754 E.01128
G1 X199.266 Y184.1 E.01126
G1 X199.112 Y184.424 E.01125
G1 X198.904 Y184.717 E.01127
G1 X198.648 Y184.969 E.01126
G1 X198.352 Y185.172 E.01125
G1 X198.025 Y185.322 E.01128
G1 X197.678 Y185.412 E.01124
G1 X197.32 Y185.44 E.01126
G1 X196.962 Y185.406 E.01128
G1 X196.616 Y185.31 E.01126
G1 X196.292 Y185.156 E.01125
G1 X195.999 Y184.948 E.01127
G1 X195.747 Y184.692 E.01126
G1 X195.56 Y184.424 E.01025
G1 X195.407 Y184.096 E.01135
G1 X195.304 Y183.722 E.01216
G1 X195.276 Y183.364 E.01126
G1 X195.31 Y183.006 E.01128
G1 X195.406 Y182.66 E.01126
G1 X195.56 Y182.336 E.01125
G1 X195.769 Y182.043 E.01128
G1 X196.024 Y181.791 E.01124
G1 X196.283 Y181.613 E.00985
M204 S1000
;WIPE_START
G1 F8640
G1 X196.334 Y181.581 E-.0139
G1 X196.647 Y181.438 E-.07946
G1 X196.995 Y181.348 E-.083
G1 X197.323 Y181.322 E-.07597
G1 X197.71 Y181.354 E-.08966
G1 X198.056 Y181.45 E-.08291
G1 X198.38 Y181.604 E-.08283
G1 X198.673 Y181.812 E-.08297
G1 X198.925 Y182.068 E-.08295
G1 X199.128 Y182.364 E-.08288
G1 X199.206 Y182.535 E-.04347
;WIPE_END
G1 Z.6 F720
G1 X191.255 Y189.799 F10800
G1 Z.2 F720
G1 E.8 F2100
M204 S800
;TYPE:Perimeter
G1 F1200
G1 X191.208 Y189.803 E.00148
G1 X121.09 Y189.803 E2.1985
G1 X119.834 Y189.766 E.0394
G1 X120.096 Y190.102 E.01336
G1 X120.286 Y190.499 E.0138
G1 X120.392 Y190.914 E.01343
G1 X120.422 Y191.339 E.01336
G1 X120.376 Y191.761 E.01331
G1 X120.258 Y192.169 E.01332
G1 X120.071 Y192.551 E.01334
G1 X119.82 Y192.893 E.0133
G1 X119.514 Y193.188 E.01333
G1 X119.161 Y193.424 E.01331
G1 X118.773 Y193.596 E.01331
G1 X118.361 Y193.697 E.0133
G1 X117.937 Y193.726 E.01333
G1 X117.515 Y193.68 E.01331
G1 X117.107 Y193.562 E.01332
G1 X116.726 Y193.375 E.01331
G1 X116.383 Y193.124 E.01333
G1 X116.089 Y192.818 E.01331
G1 X115.852 Y192.465 E.01333
G1 X115.68 Y192.077 E.01331
G1 X115.579 Y191.664 E.01333
G1 X115.551 Y191.239 E.01335
G1 X115.598 Y190.813 E.01344
G1 X115.728 Y190.392 E.01382
G1 X115.945 Y189.999 E.01408
G1 X116.117 Y189.772 E.00893
G1 X114.565 Y189.803 E.04867
G1 X30.003 Y189.803 E2.65138
G1 X29.709 Y189.721 E.00957
M73 P2 R112
M73 Q2 S113
G1 X29.521 Y189.533 E.00834
G1 X29.438 Y189.273 E.00856
G1 X29.437 Y188.65 E.01953
G1 X29.437 Y22.719 E5.20264
G1 X29.505 Y22.451 E.00867
G1 X29.691 Y22.247 E.00866
G1 X29.914 Y22.16 E.00751
G1 X30.003 Y22.153 E.0028
G1 X191.208 Y22.153 E5.05446
G1 X191.459 Y22.212 E.00808
M73 P2 R111
M73 Q2 S112
G1 X191.666 Y22.387 E.0085
G1 X191.763 Y22.613 E.00771
G1 X191.773 Y23.554 E.02951
G1 X191.773 Y189.238 E5.1949
G1 X191.709 Y189.501 E.00849
G1 X191.521 Y189.709 E.00879
G1 X191.314 Y189.791 E.00698
M204 S1000
;WIPE_START
G1 F8640
G1 X191.255 Y189.799 E-.01375
G1 X191.208 Y189.803 E-.01089
G1 X187.85 Y189.803 E-.77536
;WIPE_END
G1 Z.6 F720
G1 X118.169 Y189.336 F10800
G1 Z.2 F720
G1 E.8 F2100
M204 S800
;TYPE:External perimeter
;WIDTH:0.639148
G1 F1200
G1 X117.925 Y189.331 E.0121
M204 S1000
;WIPE_START
G1 F8640
G1 X118.169 Y189.336 E-.05635
;WIPE_END
G1 E-.74365 F2100
G1 Z.6 F720
G1 X191.208 Y189.426 F10800
G1 Z.2 F720
G1 E.8 F2100
M204 S800
;WIDTH:0.419999
G1 F1200
G1 X121.087 Y189.426 E2.19859
G1 X120.087 Y189.411 E.03136
G1 X119.571 Y189.362 E.01625
G1 X118.7 Y189.226 E.02764
;WIDTH:0.386687
G1 X118.57 Y189.206 E.00376
;WIDTH:0.422583
G1 X118.503 Y189.228 E.00223
;WIDTH:0.465896
G1 X118.436 Y189.249 E.00247
;WIDTH:0.509209
G1 X118.369 Y189.271 E.00273
;WIDTH:0.552522
G1 X118.303 Y189.293 E.00295
;WIDTH:0.595835
G1 X118.236 Y189.314 E.00323
;WIDTH:0.639148
G1 X118.169 Y189.336 E.0035
G1 X118.244 Y189.373 E.00415
;WIDTH:0.597072
G1 X118.318 Y189.41 E.00381
;WIDTH:0.554995
G1 X118.393 Y189.447 E.00356
;WIDTH:0.512918
G1 X118.468 Y189.484 E.00327
;WIDTH:0.470841
G1 X118.542 Y189.521 E.00294
;WIDTH:0.428764
G1 X118.617 Y189.558 E.00268
;WIDTH:0.419999
G1 X119.188 Y189.752 E.01891
G1 X119.53 Y189.992 E.0131
G1 X119.76 Y190.275 E.01143
G1 X119.923 Y190.6 E.0114
G1 X120.017 Y190.948 E.0113
G1 X120.046 Y191.306 E.01126
G1 X120.012 Y191.664 E.01128
G1 X119.916 Y192.01 E.01126
G1 X119.762 Y192.334 E.01125
G1 X119.554 Y192.627 E.01127
G1 X119.298 Y192.879 E.01126
G1 X119.002 Y193.082 E.01125
G1 X118.675 Y193.232 E.01128
G1 X118.328 Y193.322 E.01124
G1 X117.97 Y193.35 E.01126
G1 X117.612 Y193.316 E.01128
G1 X117.266 Y193.22 E.01126
G1 X116.942 Y193.066 E.01125
G1 X116.649 Y192.858 E.01127
G1 X116.397 Y192.602 E.01126
G1 X116.194 Y192.306 E.01125
G1 X116.045 Y191.979 E.01127
G1 X115.954 Y191.631 E.01128
G1 X115.926 Y191.273 E.01126
G1 X115.962 Y190.914 E.01131
G1 X116.063 Y190.564 E.01142
G1 X116.235 Y190.24 E.0115
G1 X116.479 Y189.958 E.01169
;WIDTH:0.458658
G1 X116.778 Y189.734 E.01291
G1 X117.349 Y189.541 E.02084
;WIDTH:0.464075
G1 X117.464 Y189.499 E.00429
;WIDTH:0.50528
G1 X117.58 Y189.457 E.00474
;WIDTH:0.546485
G1 X117.695 Y189.415 E.00513
;WIDTH:0.58769
G1 X117.81 Y189.373 E.00555
;WIDTH:0.628894
G1 X117.925 Y189.331 E.00597
G1 X117.811 Y189.31 E.00565
;WIDTH:0.58769
G1 X117.697 Y189.29 E.00524
;WIDTH:0.546485
G1 X117.583 Y189.269 E.00485
;WIDTH:0.50528
G1 X117.469 Y189.248 E.00446
;WIDTH:0.464075
G1 X117.355 Y189.228 E.00405
;WIDTH:0.42287
G1 X117.098 Y189.231 E.00812
;WIDTH:0.448991
G1 X116.57 Y189.345 E.01824
G1 X115.827 Y189.404 E.02517
;WIDTH:0.419999
G1 X115.105 Y189.426 E.02265
G1 X30.003 Y189.426 E2.66831
G1 X29.858 Y189.359 E.00501
G1 X29.814 Y189.238 E.00404
G1 X29.814 Y22.719 E5.22108
G1 X29.884 Y22.572 E.0051
G1 X30.003 Y22.53 E.00396
G1 X191.208 Y22.53 E5.05446
G1 X191.351 Y22.596 E.00494
G1 X191.396 Y22.719 E.00411
G1 X191.396 Y189.238 E5.22108
G1 X191.338 Y189.374 E.00464
G1 X191.263 Y189.404 E.00253
M204 S1000
;WIPE_START
G1 F8640
G1 X191.208 Y189.426 E-.01368
G1 X187.803 Y189.426 E-.78632
;WIPE_END
G1 Z.6 F720
G1 X24.957 Y180.593 F10800
G1 Z.2 F720
G1 E.8 F2100
M204 S800
;TYPE:Perimeter
G1 F1200
G1 X25.016 Y180.608 E.00191
G1 X25.397 Y180.795 E.01331
G1 X25.74 Y181.046 E.01333
G1 X26.034 Y181.352 E.01331
G1 X26.27 Y181.705 E.01331
G1 X26.442 Y182.093 E.01331
G1 X26.543 Y182.506 E.01333
G1 X26.572 Y182.929 E.01329
G1 X26.526 Y183.352 E.01334
G1 X26.408 Y183.759 E.01329
G1 X26.221 Y184.141 E.01334
G1 X25.97 Y184.483 E.0133
G1 X25.664 Y184.778 E.01333
