; generated by PrusaSlicer 2.7.0+win64 on 2024-01-31 at 01:53:38 UTC


;
;
; 

; external perimeters extrusion width = 0.45mm
; perimeters extrusion width = 0.45mm
; infill extrusion width = 0.45mm
; solid infill extrusion width = 0.45mm
; top infill extrusion width = 0.40mm
; first layer extrusion width = 0.42mm

M73 P0 R60
M73 Q0 S60
M201 X1000 Y1000 Z200 E5000 ; sets maximum accelerations, mm/sec^2
M203 X200 Y200 Z12 E120 ; sets maximum feedrates, mm / sec
M204 S1250 T1250 ; sets acceleration (S) and retract acceleration (R), mm/sec^2
M205 X8.00 Y8.00 Z0.40 E4.50 ; sets the jerk limits, mm/sec
M205 S0 T0 ; sets the minimum extruding and travel feed rate, mm/sec

; printing object PanelTest4.stl id:0 copy 0
; stop printing object PanelTest4.stl id:0 copy 0

;TYPE:Custom
M862.3 P "MK3S" ; printer model check
M862.1 P0.4 ; nozzle diameter check
M115 U3.13.2 ; tell printer latest fw version
G90 ; use absolute coordinates
M83 ; extruder relative mode
M104 S215 ; set extruder temp
M140 S60 ; set bed temp
M190 S60 ; wait for bed temp
M109 S215 ; wait for extruder temp
G28 W ; home all without mesh bed level
G80 X26.8794 Y6.65939 W196.241 H196.681 ; mesh bed levelling

G1 Z0.2 F720
G1 Y-3 F1000 ; go outside print area
G92 E0
G1 X60 E9 F1000 ; intro line
G1 X100 E12.5 F1000 ; intro line

G92 E0
M221 S95

; Don't change E values below. Excessive value can damage the printer.

M907 E538 ; set extruder motor current
G21 ; set units to millimeters
G90 ; use absolute coordinates
M83 ; use relative distances for extrusion
M900 K0.05 ; Filament gcode LA 1.5
M900 K30 ; Filament gcode LA 1.0

M107
;LAYER_CHANGE
;Z:0.2
;HEIGHT:0.2
;BEFORE_LAYER_CHANGE
G92 E0.0
;0.2


G1 E-.8 F2100
G1 Z.2 F720
;AFTER_LAYER_CHANGE
;0.2
G1 X28.578 Y9.215 F10800
G1 Z.2 F720
G1 E.8 F2100
M204 S800
;TYPE:Skirt/Brim
;WIDTH:0.42
G1 F1200
G1 X29.604 Y8.357 E.04194
G1 X32.604 Y7.047 E.10264
G1 X33.555 Y6.848 E.03046
G1 X43.573 Y6.848 E.31411
G1 X219.273 Y8.158 E5.5091
G1 X220.577 Y8.559 E.04278
G1 X221.615 Y10.25 E.06221
G1 X222.932 Y21.315 E.34938
G1 X222.552 Y110.279 E2.78943
G1 X221.632 Y200.539 E2.83019
G1 X221.227 Y201.842 E.04278
G1 X220.172 Y202.708 E.0428
G1 X219.46 Y202.883 E.02299
G1 X216.255 Y203.152 E.10084
G1 X30.551 Y202.892 E5.82262
G1 X29.245 Y202.499 E.04276
G1 X28.37 Y201.452 E.04278
G1 X28.189 Y200.747 E.02282
G1 X27.068 Y189.195 E.36391
G1 X27.068 Y179.179 E.31404
M73 P1 R60
M73 Q1 S60
G1 X28.178 Y10.519 E5.28833
G1 X28.561 Y9.272 E.0409
M73 P1 R59
M73 Q1 S59
M204 S1000
; printing object PanelTest4.stl id:0 copy 0
;WIPE_START
G1 F8640
G1 X28.578 Y9.215 E-.01373
G1 X29.604 Y8.357 E-.30883
G1 X31.499 Y7.529 E-.47744
;WIPE_END
G1 Z.6 F720
G1 X218.943 Y109.494 F10800
G1 Z.2 F720
G1 E.8 F2100
M204 S800
;TYPE:Perimeter
;WIDTH:0.419999
G1 F1200
G1 X218.73 Y109.556 E.00696
G1 X218.539 Y109.76 E.00876
G1 X218.468 Y110.034 E.00887
G1 X218.468 Y199.728 E2.81229
G1 X216.034 Y199.728 E.07632
G1 X215.928 Y199.738 E.00334
G1 X215.727 Y199.818 E.00678
G1 X215.635 Y199.988 E.00606
G1 X206.867 Y199.988 E.27491
G1 X206.761 Y199.805 E.00663
G1 X206.476 Y199.728 E.00926
G1 X137.828 Y199.728 E2.15241
G1 X136.59 Y199.736 E.03882
G1 X136.513 Y199.808 E.00331
G1 X127.297 Y199.808 E.28896
G1 X127.242 Y199.74 E.00274
G1 X127.126 Y199.728 E.00366
G1 X31.342 Y199.728 E3.00324
G1 X31.337 Y188.9 E.3395
G1 X31.249 Y188.662 E.00796
G1 X31.039 Y188.472 E.00888
G1 X30.776 Y188.408 E.00849
G1 X30.232 Y188.408 E.01706
G1 X30.232 Y179.982 E.26419
G1 X30.776 Y179.982 E.01706
G1 X31.039 Y179.918 E.00849
G1 X31.163 Y179.83 E.00477
G1 X31.276 Y179.681 E.00586
G1 X31.342 Y179.416 E.00856
G1 X31.342 Y110.632 E2.15667
G1 X31.332 Y109.93 E.02201
G1 X31.212 Y109.806 E.00541
G1 X31.212 Y100.704 E.28539
G1 X31.324 Y100.617 E.00445
G1 X31.342 Y100.476 E.00446
G1 X31.342 Y11.322 E2.79536
G1 X33.894 Y11.31 E.08002
G1 X34.104 Y11.218 E.00719
G1 X34.294 Y10.985 E.00943
G1 X34.342 Y10.756 E.00734
G1 X34.342 Y10.012 E.02333
G1 X42.768 Y10.012 E.26419
G1 X42.768 Y10.756 E.02333
G1 X42.817 Y10.988 E.00743
G1 X42.893 Y11.111 E.00453
G1 X43.062 Y11.252 E.0069
G1 X43.334 Y11.322 E.00881
G1 X113.05 Y11.322 E2.18589
G1 X113.357 Y11.273 E.00975
M73 P2 R59
M73 Q2 S59
G1 X113.575 Y11.101 E.00871
G1 X113.692 Y10.672 E.01394
G1 X122.118 Y10.672 E.26419
G1 X122.235 Y11.101 E.01394
G1 X122.409 Y11.251 E.0072
G1 X122.684 Y11.322 E.00891
G1 X218.468 Y11.322 E3.00324
G1 X218.468 Y21.449 E.31752
G1 X218.5 Y21.724 E.00868
G1 X218.649 Y21.951 E.00851
G1 X219.034 Y22.102 E.01297
G1 X219.768 Y22.102 E.02301
G1 X219.768 Y22.836 E.02301
G1 X219.768 Y30.528 E.24118
G1 X219.034 Y30.528 E.02301
G1 X218.68 Y30.652 E.01176
G1 X218.519 Y30.859 E.00822
G1 X218.468 Y31.094 E.00754
G1 X218.468 Y100.476 E2.17542
G1 X218.539 Y100.75 E.00887
G1 X218.73 Y100.954 E.00876
G1 X219.034 Y101.042 E.00992
G1 X219.388 Y101.042 E.0111
G1 X219.388 Y109.468 E.26419
G1 X219.034 Y109.468 E.0111
G1 X219 Y109.478 E.00111
M204 S1000
G1 X219.034 Y109.845 F10800
M204 S800
;TYPE:External perimeter
G1 F1200
G1 X218.892 Y109.909 E.00488
G1 X218.845 Y110.034 E.00419
G1 X218.845 Y200.105 E2.82411
G1 X216.034 Y200.105 E.08814
G1 X215.97 Y200.116 E.00204
G1 X215.845 Y200.294 E.00682
G1 X215.845 Y200.365 E.00223
G1 X206.665 Y200.365 E.28783
G1 X206.665 Y200.294 E.00223
G1 X206.571 Y200.131 E.0059
G1 X206.476 Y200.105 E.00309
G1 X136.684 Y200.105 E2.18828
G1 X136.583 Y200.185 E.00404
G1 X127.227 Y200.185 E.29335
G1 X127.126 Y200.105 E.00404
G1 X30.965 Y200.105 E3.01506
G1 X30.965 Y188.974 E.349
M73 P2 R58
G1 X30.924 Y188.856 E.00392
G1 X30.776 Y188.785 E.00515
G1 X29.855 Y188.785 E.02888
G1 X29.855 Y179.605 E.28783
G1 X30.776 Y179.605 E.02888
G1 X30.905 Y179.554 E.00435
G1 X30.965 Y179.416 E.00472
G1 X30.965 Y110.025 E2.1757
G1 X30.835 Y109.89 E.00588
M73 Q2 S58
G1 X30.835 Y100.62 E.29065
G1 X30.959 Y100.523 E.00494
G1 X30.965 Y100.476 E.00149
G1 X30.965 Y10.945 E2.80718
G1 X33.776 Y10.945 E.08814
M73 Q3 S58
G1 X33.903 Y10.897 E.00426
G1 X33.965 Y10.756 E.00483
G1 X33.965 Y9.635 E.03515
G1 X43.145 Y9.635 E.28783
M73 P3 R58
G1 X43.145 Y10.756 E.03515
G1 X43.187 Y10.875 E.00396
G1 X43.334 Y10.945 E.0051
G1 X113.05 Y10.945 E2.18589
G1 X113.234 Y10.912 E.00586
G1 X113.315 Y10.756 E.00551
G1 X113.315 Y10.295 E.01445
G1 X122.495 Y10.295 E.28783
G1 X122.495 Y10.756 E.01445
G1 X122.572 Y10.909 E.00537
G1 X122.684 Y10.945 E.00369
G1 X218.845 Y10.945 E3.01506
G1 X218.845 Y21.449 E.32934
G1 X218.875 Y21.639 E.00603
G1 X219.034 Y21.725 E.00567
G1 X220.145 Y21.725 E.03483
G1 X220.145 Y22.836 E.03483
G1 X220.145 Y30.905 E.253
G1 X219.034 Y30.905 E.03483
G1 X218.916 Y30.946 E.00392
G1 X218.845 Y31.094 E.00515
G1 X218.845 Y100.398 E2.17297
G1 X218.877 Y100.582 E.00586
G1 X219.034 Y100.665 E.00557
G1 X219.765 Y100.665 E.02292
G1 X219.765 Y109.845 E.28783
G1 X219.094 Y109.845 E.02104
M204 S1000
;WIPE_START
G1 F8640
G1 X219.034 Y109.845 E-.01385
G1 X218.892 Y109.909 E-.03596
G1 X218.845 Y110.034 E-.03084
G1 X218.845 Y113.149 E-.71935
;WIPE_END
G1 Z.6 F720
G1 X212.592 Y23.925 F10800
G1 Z.2 F720
G1 E.8 F2100
M204 S800
;TYPE:Perimeter
G1 F1200
G1 X212.68 Y23.906 E.00282
G1 X213.33 Y23.905 E.02038
G1 X213.884 Y24.043 E.0179
G1 X214.266 Y24.23 E.01334
G1 X214.608 Y24.481 E.0133
G1 X214.903 Y24.787 E.01333
G1 X215.139 Y25.14 E.01331
G1 X215.311 Y25.528 E.01331
G1 X215.412 Y25.941 E.01333
G1 X215.441 Y26.364 E.01329
G1 X215.395 Y26.787 E.01334
G1 X215.277 Y27.194 E.01329
G1 X215.09 Y27.576 E.01334
G1 X214.839 Y27.918 E.0133
G1 X214.533 Y28.213 E.01333
G1 X214.18 Y28.449 E.01331
G1 X213.792 Y28.621 E.01331
G1 X213.379 Y28.722 E.01333
G1 X212.956 Y28.751 E.01329
G1 X212.533 Y28.705 E.01334
G1 X212.126 Y28.587 E.01329
G1 X211.744 Y28.4 E.01334
G1 X211.402 Y28.149 E.0133
G1 X211.107 Y27.843 E.01333
G1 X210.871 Y27.49 E.01331
G1 X210.699 Y27.102 E.01331
G1 X210.598 Y26.689 E.01333
G1 X210.569 Y26.266 E.01329
G1 X210.615 Y25.843 E.01334
G1 X210.733 Y25.436 E.01329
G1 X210.92 Y25.054 E.01334
G1 X211.171 Y24.712 E.0133
G1 X211.477 Y24.417 E.01333
G1 X211.83 Y24.181 E.01331
G1 X212.218 Y24.009 E.01331
G1 X212.534 Y23.938 E.01015
M204 S1000
G1 X212.792 Y24.283 F10800
M204 S800
;TYPE:External perimeter
G1 F1200
G1 X213.33 Y24.283 E.01687
G1 X213.725 Y24.385 E.01279
G1 X214.049 Y24.539 E.01125
G1 X214.342 Y24.747 E.01127
G1 X214.716 Y25.177 E.01787
G1 X214.947 Y25.626 E.01583
G1 X215.037 Y25.973 E.01124
G1 X215.065 Y26.331 E.01126
G1 X215.031 Y26.689 E.01128
G1 X214.935 Y27.035 E.01126
G1 X214.781 Y27.359 E.01125
G1 X214.573 Y27.652 E.01127
G1 X214.317 Y27.904 E.01126
G1 X214.021 Y28.107 E.01125
G1 X213.694 Y28.257 E.01128
G1 X213.347 Y28.347 E.01124
G1 X212.989 Y28.375 E.01126
G1 X212.631 Y28.341 E.01128
G1 X212.285 Y28.245 E.01126
G1 X211.961 Y28.091 E.01125
G1 X211.668 Y27.883 E.01127
G1 X211.416 Y27.627 E.01126
G1 X211.213 Y27.331 E.01125
G1 X211.063 Y27.004 E.01128
G1 X210.973 Y26.657 E.01124
G1 X210.945 Y26.299 E.01126
G1 X210.979 Y25.941 E.01128
G1 X211.075 Y25.595 E.01126
G1 X211.229 Y25.271 E.01125
G1 X211.437 Y24.978 E.01127
G1 X211.693 Y24.726 E.01126
G1 X212.187 Y24.43 E.01806
G1 X212.666 Y24.283 E.01571
G1 X212.732 Y24.283 E.00207
M204 S1000
;WIPE_START
G1 F8640
G1 X212.792 Y24.283 E-.01385
G1 X213.33 Y24.283 E-.12423
G1 X213.725 Y24.385 E-.0942
G1 X214.049 Y24.539 E-.08283
G1 X214.342 Y24.747 E-.08297
G1 X214.716 Y25.177 E-.13159
G1 X214.947 Y25.626 E-.11659
G1 X215.037 Y25.973 E-.08277
G1 X215.061 Y26.28 E-.07097
;WIPE_END
G1 Z.6 F720
G1 X210.427 Y107.542 F10800
G1 Z.2 F720
G1 E.8 F2100
M204 S800
;TYPE:Perimeter
G1 F1200
G1 X210.376 Y107.527 E.00167
G1 X209.994 Y107.34 E.01334
G1 X209.652 Y107.089 E.0133
G1 X209.357 Y106.783 E.01333
G1 X209.121 Y106.43 E.01331
G1 X208.949 Y106.042 E.01331
G1 X208.848 Y105.629 E.01333
G1 X208.817 Y105.255 E.01177
G1 X208.865 Y104.783 E.01488
G1 X208.983 Y104.376 E.01329
G1 X209.17 Y103.994 E.01334
G1 X209.421 Y103.652 E.0133
G1 X209.727 Y103.357 E.01333
G1 X210.08 Y103.121 E.01331
G1 X210.468 Y102.949 E.01331
G1 X210.93 Y102.846 E.01484
G1 X211.58 Y102.845 E.02038
G1 X212.134 Y102.983 E.0179
G1 X212.516 Y103.17 E.01334
G1 X212.858 Y103.421 E.0133
G1 X213.153 Y103.727 E.01333
G1 X213.457 Y104.224 E.01827
G1 X213.645 Y104.783 E.01849
G1 X213.691 Y105.304 E.0164
G1 X213.645 Y105.727 E.01334
G1 X213.457 Y106.286 E.01849
G1 X213.198 Y106.718 E.01579
G1 X212.858 Y107.089 E.01578
G1 X212.43 Y107.389 E.01639
G1 X212.042 Y107.561 E.01331
G1 X211.523 Y107.672 E.01664
G1 X211.206 Y107.691 E.00996
G1 X210.783 Y107.645 E.01334
G1 X210.485 Y107.559 E.00972
M204 S1000
G1 X210.527 Y107.181 F10800
M204 S800
;TYPE:External perimeter
G1 F1200
G1 X210.211 Y107.031 E.01097
G1 X209.918 Y106.823 E.01127
G1 X209.666 Y106.567 E.01126
G1 X209.463 Y106.271 E.01125
G1 X209.313 Y105.944 E.01128
G1 X209.223 Y105.597 E.01124
G1 X209.194 Y105.255 E.01076
G1 X209.229 Y104.881 E.01178
G1 X209.325 Y104.535 E.01126
G1 X209.479 Y104.211 E.01125
G1 X209.687 Y103.918 E.01127
G1 X209.943 Y103.666 E.01126
G1 X210.239 Y103.463 E.01125
G1 X210.566 Y103.313 E.01128
G1 X210.93 Y103.223 E.01176
G1 X211.58 Y103.223 E.02038
G1 X211.975 Y103.325 E.01279
G1 X212.299 Y103.479 E.01125
G1 X212.592 Y103.687 E.01127
G1 X212.844 Y103.943 E.01126
G1 X213.115 Y104.384 E.01623
G1 X213.281 Y104.881 E.01643
G1 X213.315 Y105.271 E.01227
G1 X213.281 Y105.629 E.01128
G1 X213.115 Y106.126 E.01643
G1 X212.844 Y106.567 E.01623
G1 X212.567 Y106.844 E.01228
G1 X212.271 Y107.047 E.01125
G1 X211.944 Y107.197 E.01128
G1 X211.49 Y107.296 E.01457
G1 X210.913 Y107.287 E.01809
G1 X210.584 Y107.198 E.01069
M204 S1000
;WIPE_START
G1 F8640
G1 X210.527 Y107.181 E-.01373
G1 X210.211 Y107.031 E-.08077
G1 X209.918 Y106.823 E-.08297
G1 X209.666 Y106.567 E-.08295
G1 X209.463 Y106.271 E-.08288
G1 X209.313 Y105.944 E-.08307
G1 X209.223 Y105.597 E-.08277
G1 X209.194 Y105.255 E-.07925
G1 X209.229 Y104.881 E-.08673
G1 X209.325 Y104.535 E-.08291
G1 X209.403 Y104.371 E-.04197
;WIPE_END
G1 Z.6 F720
G1 X212.475 Y186.799 F10800
G1 Z.2 F720
G1 E.8 F2100
M204 S800
;TYPE:Perimeter
G1 F1200
G1 X212.43 Y186.829 E.0017
G1 X212.042 Y187.001 E.01331
G1 X211.458 Y187.117 E.01867
G1 X210.881 Y187.102 E.0181
G1 X210.376 Y186.967 E.01639
G1 X209.994 Y186.78 E.01334
G1 X209.652 Y186.529 E.0133
G1 X209.357 Y186.223 E.01333
G1 X209.121 Y185.87 E.01331
G1 X208.949 Y185.482 E.01331
G1 X208.848 Y185.069 E.01333
G1 X208.819 Y184.646 E.01329
G1 X208.865 Y184.223 E.01334
G1 X208.983 Y183.816 E.01329
G1 X209.17 Y183.434 E.01334
G1 X209.421 Y183.092 E.0133
G1 X209.727 Y182.797 E.01333
G1 X210.08 Y182.561 E.01331
G1 X210.468 Y182.389 E.01331
G1 X210.93 Y182.286 E.01484
G1 X211.58 Y182.285 E.02038
G1 X212.134 Y182.423 E.0179
G1 X212.516 Y182.61 E.01334
G1 X212.858 Y182.861 E.0133
G1 X213.153 Y183.167 E.01333
G1 X213.389 Y183.52 E.01331
G1 X213.561 Y183.908 E.01331
G1 X213.662 Y184.321 E.01333
G1 X213.691 Y184.744 E.01329
G1 X213.645 Y185.167 E.01334
G1 X213.527 Y185.574 E.01329
G1 X213.34 Y185.956 E.01334
G1 X213.089 Y186.298 E.0133
G1 X212.783 Y186.593 E.01333
G1 X212.525 Y186.766 E.00974
M204 S1000
G1 X212.263 Y186.491 F10800
M204 S800
;TYPE:External perimeter
G1 F1200
G1 X211.944 Y186.637 E.011
G1 X211.425 Y186.742 E.0166
G1 X210.913 Y186.727 E.01606
G1 X210.535 Y186.625 E.01228
G1 X210.211 Y186.471 E.01125
G1 X209.918 Y186.263 E.01127
G1 X209.666 Y186.007 E.01126
G1 X209.463 Y185.711 E.01125
G1 X209.313 Y185.384 E.01128
G1 X209.223 Y185.037 E.01124
G1 X209.195 Y184.679 E.01126
G1 X209.229 Y184.321 E.01128
G1 X209.325 Y183.975 E.01126
G1 X209.479 Y183.651 E.01125
G1 X209.687 Y183.358 E.01127
G1 X209.943 Y183.106 E.01126
G1 X210.239 Y182.903 E.01125
G1 X210.566 Y182.753 E.01128
G1 X210.93 Y182.663 E.01176
G1 X211.58 Y182.663 E.02038
G1 X211.975 Y182.765 E.01279
G1 X212.299 Y182.919 E.01125
G1 X212.592 Y183.127 E.01127
G1 X212.844 Y183.383 E.01126
G1 X213.047 Y183.679 E.01125
G1 X213.197 Y184.006 E.01128
G1 X213.287 Y184.353 E.01124
G1 X213.315 Y184.711 E.01126
G1 X213.281 Y185.069 E.01128
G1 X213.185 Y185.415 E.01126
G1 X213.031 Y185.739 E.01125
G1 X212.823 Y186.032 E.01127
G1 X212.567 Y186.284 E.01126
G1 X212.313 Y186.458 E.00965
M204 S1000
;WIPE_START
G1 F8640
G1 X212.263 Y186.491 E-.01383
G1 X211.944 Y186.637 E-.08101
G1 X211.425 Y186.742 E-.12227
G1 X210.913 Y186.727 E-.11827
G1 X210.535 Y186.625 E-.0904
G1 X210.211 Y186.471 E-.08283
G1 X209.918 Y186.263 E-.08297
G1 X209.666 Y186.007 E-.08295
G1 X209.463 Y185.711 E-.08288
G1 X209.386 Y185.543 E-.04259
;WIPE_END
G1 Z.6 F720
G1 X129.511 Y193.032 F10800
G1 Z.2 F720
G1 E.8 F2100
M204 S800
;TYPE:Perimeter
G1 F1200
G1 X129.498 Y192.979 E.00171
G1 X129.469 Y192.556 E.01329
G1 X129.515 Y192.133 E.01334
G1 X129.634 Y191.722 E.01342
G1 X129.889 Y191.246 E.01693
G1 X130.071 Y191.002 E.00954
G1 X130.377 Y190.707 E.01333
G1 X130.73 Y190.471 E.01331
G1 X131.118 Y190.299 E.01331
G1 X131.58 Y190.196 E.01484
G1 X132.23 Y190.195 E.02038
G1 X132.784 Y190.333 E.0179
G1 X133.166 Y190.52 E.01334
G1 X133.508 Y190.771 E.0133
G1 X133.803 Y191.077 E.01333
G1 X134.039 Y191.43 E.01331
G1 X134.211 Y191.818 E.01331
G1 X134.312 Y192.231 E.01333
G1 X134.341 Y192.654 E.01329
G1 X134.295 Y193.077 E.01334
G1 X134.121 Y193.604 E.0174
G1 X133.99 Y193.866 E.00918
G1 X133.634 Y194.314 E.01794
G1 X133.166 Y194.69 E.01882
G1 X132.692 Y194.911 E.0164
G1 X132.279 Y195.012 E.01333
G1 X131.856 Y195.041 E.01329
G1 X131.433 Y194.995 E.01334
G1 X131.026 Y194.877 E.01329
G1 X130.644 Y194.69 E.01334
G1 X130.176 Y194.314 E.01882
G1 X129.82 Y193.866 E.01794
G1 X129.599 Y193.392 E.0164
G1 X129.525 Y193.09 E.00975
M204 S1000
G1 X129.873 Y192.938 F10800
M204 S800
;TYPE:External perimeter
G1 F1200
G1 X129.845 Y192.589 E.01098
G1 X129.879 Y192.231 E.01128
G1 X129.976 Y191.882 E.01136
G1 X130.198 Y191.462 E.0149
G1 X130.568 Y191.037 E.01767
G1 X130.889 Y190.813 E.01227
G1 X131.216 Y190.663 E.01128
G1 X131.58 Y190.573 E.01176
G1 X132.23 Y190.573 E.02038
G1 X132.625 Y190.675 E.01279
G1 X132.949 Y190.829 E.01125
G1 X133.242 Y191.037 E.01127
G1 X133.612 Y191.462 E.01767
G1 X133.847 Y191.916 E.01603
G1 X133.937 Y192.263 E.01124
G1 X133.965 Y192.621 E.01126
G1 X133.931 Y192.979 E.01128
G1 X133.779 Y193.445 E.01537
G1 X133.494 Y193.917 E.01729
