; generated by PrusaSlicer 2.7.0+win64 on 2024-01-22 at 00:05:37 UTC


;
;
; 

; external perimeters extrusion width = 0.45mm
; perimeters extrusion width = 0.45mm
; infill extrusion width = 0.45mm
; solid infill extrusion width = 0.45mm
; top infill extrusion width = 0.40mm
; first layer extrusion width = 0.42mm

M73 P0 R119
M73 Q0 S121
M201 X1000 Y1000 Z200 E5000 ; sets maximum accelerations, mm/sec^2
M203 X200 Y200 Z12 E120 ; sets maximum feedrates, mm / sec
M204 S1250 T1250 ; sets acceleration (S) and retract acceleration (R), mm/sec^2
M205 X8.00 Y8.00 Z0.40 E4.50 ; sets the jerk limits, mm/sec
M205 S0 T0 ; sets the minimum extruding and travel feed rate, mm/sec

; printing object PanelTest.stl id:0 copy 0
; stop printing object PanelTest.stl id:0 copy 0

;TYPE:Custom
M862.3 P "MK3S" ; printer model check
M862.1 P0.4 ; nozzle diameter check
M115 U3.13.2 ; tell printer latest fw version
G90 ; use absolute coordinates
M83 ; extruder relative mode
M104 S215 ; set extruder temp
M140 S60 ; set bed temp
M190 S60 ; wait for bed temp
M109 S215 ; wait for extruder temp
G28 W ; home all without mesh bed level
G80 X7.48076 Y11.9944 W193.831 H186.011 ; mesh bed levelling

G1 Z0.2 F720
G1 Y-3 F1000 ; go outside print area
G92 E0
G1 X60 E9 F1000 ; intro line
G1 X100 E12.5 F1000 ; intro line

G92 E0
M221 S95

; Don't change E values below. Excessive value can damage the printer.

M907 E538 ; set extruder motor current
G21 ; set units to millimeters
G90 ; use absolute coordinates
M83 ; use relative distances for extrusion
M900 K0.05 ; Filament gcode LA 1.5
M900 K30 ; Filament gcode LA 1.0

M107
;LAYER_CHANGE
;Z:0.2
;HEIGHT:0.2
;BEFORE_LAYER_CHANGE
G92 E0.0
;0.2


G1 E-.8 F2100
G1 Z.2 F720
;AFTER_LAYER_CHANGE
;0.2
G1 X9.107 Y12.377 F10800
G1 Z.2 F720
G1 E.8 F2100
M204 S800
;TYPE:Skirt/Brim
;WIDTH:0.42
G1 F1200
G1 X10.046 Y12.183 E.03006
G1 X198.746 Y12.183 E5.91656
G1 X200.053 Y12.575 E.04278
M73 P0 R118
G1 X200.93 Y13.62 E.04277
G1 X201.123 Y14.56 E.03009
G1 X201.123 Y195.44 E5.67137
G1 X200.732 Y196.747 E.04277
G1 X199.686 Y197.623 E.04278
G1 X198.746 Y197.817 E.03009
G1 X10.046 Y197.817 E5.91656
G1 X8.739 Y197.425 E.04278
M73 Q0 S120
G1 X7.863 Y196.38 E.04275
G1 X7.669 Y195.44 E.03009
G1 X7.669 Y14.56 E5.67137
G1 X8.061 Y13.253 E.04278
G1 X9.061 Y12.415 E.04091
M204 S1000
; printing object PanelTest.stl id:0 copy 0
;WIPE_START
G1 F8640
G1 X9.107 Y12.377 E-.01378
G1 X10.046 Y12.183 E-.2214
G1 X12.492 Y12.183 E-.56482
;WIPE_END
G1 Z.6 F720
G1 X197.959 Y194.653 F10800
G1 Z.2 F720
G1 E.8 F2100
M204 S800
;TYPE:Perimeter
;WIDTH:0.419999
G1 F1200
G1 X10.833 Y194.653 E5.86719
G1 X10.833 Y15.347 E5.622
G1 X197.959 Y15.347 E5.86719
G1 X197.959 Y20.001 E.14592
M73 P1 R117
M73 Q1 S120
G1 X197.959 Y194.593 E5.4742
M204 S1000
G1 X198.336 Y195.03 F10800
M204 S800
;TYPE:External perimeter
G1 F1200
G1 X10.456 Y195.03 E5.89084
G1 X10.456 Y14.97 E5.64565
M73 Q1 S119
G1 X198.336 Y14.97 E5.89084
G1 X198.336 Y20.001 E.15774
G1 X198.336 Y194.97 E5.48602
M204 S1000
;WIPE_START
G1 F8640
G1 X198.336 Y195.03 E-.01385
G1 X194.931 Y195.03 E-.78615
;WIPE_END
G1 Z.6 F720
G1 X189.551 Y24.499 F10800
G1 Z.2 F720
G1 E.8 F2100
M204 S800
;TYPE:Perimeter
G1 F1200
G1 X189.596 Y24.469 E.0017
G1 X190.019 Y24.292 E.01438
G1 X190.568 Y24.188 E.01752
G1 X191.093 Y24.201 E.01647
G1 X191.579 Y24.322 E.0157
G1 X191.982 Y24.519 E.01406
G1 X192.318 Y24.764 E.01304
G1 X192.606 Y25.064 E.01304
G1 X192.837 Y25.41 E.01304
G1 X193.005 Y25.79 E.01303
G1 X193.104 Y26.194 E.01304
G1 X193.132 Y26.609 E.01304
G1 X193.087 Y27.023 E.01306
G1 X192.971 Y27.422 E.01303
G1 X192.788 Y27.796 E.01306
G1 X192.542 Y28.131 E.01303
G1 X192.242 Y28.419 E.01304
G1 X191.897 Y28.651 E.01304
G1 X191.516 Y28.819 E.01306
G1 X191.112 Y28.918 E.01304
G1 X190.697 Y28.946 E.01304
G1 X190.284 Y28.901 E.01303
G1 X189.884 Y28.785 E.01306
G1 X189.511 Y28.601 E.01304
G1 X189.175 Y28.356 E.01304
G1 X188.95 Y28.131 E.00998
G1 X188.656 Y27.71 E.0161
G1 X188.488 Y27.33 E.01303
G1 X188.388 Y26.926 E.01305
G1 X188.361 Y26.511 E.01304
G1 X188.405 Y26.097 E.01305
G1 X188.521 Y25.698 E.01303
G1 X188.705 Y25.324 E.01307
G1 X188.95 Y24.989 E.01301
G1 X189.251 Y24.701 E.01306
G1 X189.502 Y24.533 E.00947
M204 S1000
G1 X189.756 Y24.811 F10800
M204 S800
;TYPE:External perimeter
G1 F1200
G1 X190.088 Y24.662 E.01141
G1 X190.64 Y24.558 E.01761
G1 X191.111 Y24.583 E.01479
G1 X191.449 Y24.677 E.011
G1 X191.766 Y24.827 E.011
G1 X192.051 Y25.031 E.01099
G1 X192.297 Y25.281 E.011
G1 X192.495 Y25.569 E.01096
G1 X192.641 Y25.888 E.011
G1 X192.729 Y26.227 E.01098
G1 X192.757 Y26.576 E.01098
G1 X192.723 Y26.925 E.01099
G1 X192.63 Y27.263 E.01099
G1 X192.479 Y27.579 E.01098
G1 X192.276 Y27.865 E.011
G1 X192.026 Y28.11 E.01098
G1 X191.737 Y28.309 E.011
G1 X191.418 Y28.455 E.011
G1 X191.079 Y28.542 E.01097
G1 X190.73 Y28.57 E.01098
G1 X190.381 Y28.537 E.01099
G1 X190.043 Y28.443 E.011
G1 X189.727 Y28.293 E.01097
G1 X189.442 Y28.089 E.01099
G1 X189.217 Y27.865 E.00995
G1 X188.997 Y27.551 E.01202
G1 X188.852 Y27.232 E.01099
G1 X188.764 Y26.893 E.01098
G1 X188.736 Y26.544 E.01098
G1 X188.77 Y26.195 E.01099
G1 X188.863 Y25.857 E.01099
G1 X189.014 Y25.541 E.01098
G1 X189.217 Y25.255 E.011
G1 X189.467 Y25.01 E.01098
G1 X189.706 Y24.845 E.00911
M204 S1000
;WIPE_START
G1 F8640
G1 X189.756 Y24.811 E-.01396
G1 X190.088 Y24.662 E-.08403
G1 X190.64 Y24.558 E-.1297
G1 X191.111 Y24.583 E-.10891
G1 X191.449 Y24.677 E-.08101
G1 X191.766 Y24.827 E-.08098
G1 X192.051 Y25.031 E-.08093
G1 X192.297 Y25.281 E-.08099
G1 X192.495 Y25.569 E-.0807
G1 X192.601 Y25.8 E-.05879
;WIPE_END
G1 Z.6 F720
G1 X188.551 Y102.939 F10800
G1 Z.2 F720
G1 E.8 F2100
M204 S800
;TYPE:Perimeter
G1 F1200
G1 X188.596 Y102.909 E.0017
G1 X189.019 Y102.732 E.01438
G1 X189.568 Y102.628 E.01752
G1 X190.093 Y102.641 E.01647
G1 X190.609 Y102.775 E.01672
G1 X190.982 Y102.959 E.01304
G1 X191.318 Y103.204 E.01304
G1 X191.606 Y103.504 E.01304
G1 X191.837 Y103.85 E.01304
G1 X192.005 Y104.23 E.01303
G1 X192.104 Y104.634 E.01304
G1 X192.132 Y105.049 E.01304
G1 X192.087 Y105.463 E.01306
G1 X191.971 Y105.862 E.01303
G1 X191.788 Y106.236 E.01306
G1 X191.542 Y106.571 E.01303
G1 X191.242 Y106.859 E.01304
G1 X190.897 Y107.091 E.01304
G1 X190.516 Y107.259 E.01306
G1 X190.112 Y107.358 E.01304
G1 X189.697 Y107.386 E.01304
G1 X189.284 Y107.341 E.01303
G1 X188.884 Y107.225 E.01306
G1 X188.511 Y107.041 E.01304
G1 X188.175 Y106.796 E.01304
G1 X187.887 Y106.496 E.01304
G1 X187.656 Y106.15 E.01304
G1 X187.488 Y105.77 E.01303
G1 X187.388 Y105.366 E.01305
G1 X187.361 Y104.951 E.01304
G1 X187.405 Y104.537 E.01305
G1 X187.521 Y104.138 E.01303
G1 X187.705 Y103.764 E.01307
G1 X187.927 Y103.454 E.01196
G1 X188.251 Y103.141 E.01412
G1 X188.502 Y102.973 E.00947
M204 S1000
G1 X188.756 Y103.251 F10800
M204 S800
;TYPE:External perimeter
G1 F1200
G1 X189.088 Y103.102 E.01141
G1 X189.638 Y102.999 E.01754
G1 X190.111 Y103.023 E.01485
G1 X190.449 Y103.117 E.011
G1 X190.766 Y103.267 E.011
G1 X191.051 Y103.471 E.01099
G1 X191.297 Y103.721 E.011
G1 X191.495 Y104.009 E.01096
G1 X191.641 Y104.328 E.011
G1 X191.729 Y104.667 E.01098
G1 X191.757 Y105.016 E.01098
G1 X191.723 Y105.365 E.01099
G1 X191.63 Y105.703 E.01099
G1 X191.479 Y106.019 E.01098
G1 X191.276 Y106.305 E.011
G1 X191.026 Y106.55 E.01098
G1 X190.737 Y106.749 E.011
G1 X190.418 Y106.895 E.011
G1 X190.079 Y106.982 E.01097
G1 X189.73 Y107.01 E.01098
G1 X189.381 Y106.977 E.01099
G1 X189.043 Y106.883 E.011
G1 X188.727 Y106.733 E.01097
G1 X188.442 Y106.529 E.01099
G1 X188.196 Y106.28 E.01097
G1 X187.997 Y105.991 E.011
G1 X187.852 Y105.672 E.01099
G1 X187.764 Y105.333 E.01098
G1 X187.736 Y104.984 E.01098
G1 X187.77 Y104.635 E.01099
G1 X187.863 Y104.297 E.01099
G1 X188.014 Y103.981 E.01098
G1 X188.209 Y103.704 E.01062
G1 X188.467 Y103.45 E.01135
G1 X188.706 Y103.285 E.00911
M204 S1000
;WIPE_START
G1 F8640
G1 X188.756 Y103.251 E-.01396
G1 X189.088 Y103.102 E-.08403
G1 X189.638 Y102.999 E-.1292
G1 X190.111 Y103.023 E-.10936
G1 X190.449 Y103.117 E-.08101
G1 X190.766 Y103.267 E-.08098
G1 X191.051 Y103.471 E-.08093
G1 X191.297 Y103.721 E-.08099
G1 X191.495 Y104.009 E-.0807
G1 X191.601 Y104.241 E-.05884
;WIPE_END
G1 Z.6 F720
G1 X189.551 Y181.379 F10800
G1 Z.2 F720
G1 E.8 F2100
M204 S800
;TYPE:Perimeter
G1 F1200
G1 X189.596 Y181.349 E.0017
G1 X190.019 Y181.172 E.01438
G1 X190.568 Y181.068 E.01752
G1 X191.093 Y181.081 E.01647
G1 X191.209 Y181.099 E.00368
G1 X191.609 Y181.215 E.01306
G1 X191.982 Y181.399 E.01304
G1 X192.318 Y181.644 E.01304
G1 X192.606 Y181.944 E.01304
G1 X192.837 Y182.29 E.01304
G1 X193.005 Y182.67 E.01303
G1 X193.104 Y183.074 E.01304
G1 X193.132 Y183.489 E.01304
G1 X193.087 Y183.903 E.01306
G1 X192.971 Y184.302 E.01303
G1 X192.788 Y184.676 E.01306
G1 X192.542 Y185.011 E.01303
G1 X192.242 Y185.299 E.01304
G1 X191.897 Y185.531 E.01304
G1 X191.516 Y185.699 E.01306
G1 X191.112 Y185.798 E.01304
G1 X190.697 Y185.826 E.01304
G1 X190.284 Y185.781 E.01303
G1 X189.884 Y185.665 E.01306
G1 X189.511 Y185.481 E.01304
G1 X189.175 Y185.236 E.01304
G1 X188.887 Y184.936 E.01304
G1 X188.656 Y184.59 E.01304
G1 X188.488 Y184.21 E.01303
G1 X188.388 Y183.806 E.01305
G1 X188.361 Y183.391 E.01304
G1 X188.405 Y182.977 E.01305
G1 X188.521 Y182.578 E.01303
G1 X188.705 Y182.204 E.01307
G1 X188.95 Y181.869 E.01301
G1 X189.251 Y181.581 E.01306
G1 X189.502 Y181.413 E.00947
M204 S1000
G1 X189.756 Y181.691 F10800
M204 S800
;TYPE:External perimeter
G1 F1200
G1 X190.088 Y181.542 E.01141
G1 X190.638 Y181.439 E.01754
G1 X191.111 Y181.463 E.01485
G1 X191.449 Y181.557 E.011
G1 X191.766 Y181.707 E.011
G1 X192.051 Y181.911 E.01099
G1 X192.297 Y182.161 E.011
G1 X192.495 Y182.449 E.01096
G1 X192.641 Y182.768 E.011
G1 X192.729 Y183.107 E.01098
G1 X192.757 Y183.456 E.01098
G1 X192.723 Y183.805 E.01099
G1 X192.63 Y184.143 E.01099
G1 X192.479 Y184.459 E.01098
G1 X192.276 Y184.745 E.011
G1 X192.026 Y184.99 E.01098
G1 X191.737 Y185.189 E.011
G1 X191.418 Y185.335 E.011
G1 X191.079 Y185.422 E.01097
G1 X190.73 Y185.45 E.01098
G1 X190.381 Y185.417 E.01099
G1 X190.043 Y185.323 E.011
G1 X189.727 Y185.173 E.01097
G1 X189.442 Y184.969 E.01099
G1 X189.196 Y184.72 E.01097
G1 X188.997 Y184.431 E.011
G1 X188.852 Y184.112 E.01099
G1 X188.764 Y183.773 E.01098
G1 X188.736 Y183.424 E.01098
G1 X188.77 Y183.075 E.01099
G1 X188.863 Y182.737 E.01099
G1 X189.014 Y182.421 E.01098
G1 X189.217 Y182.135 E.011
G1 X189.467 Y181.89 E.01098
G1 X189.706 Y181.725 E.00911
M204 S1000
;WIPE_START
G1 F8640
G1 X189.756 Y181.691 E-.01396
G1 X190.088 Y181.542 E-.08403
G1 X190.638 Y181.439 E-.1292
G1 X191.111 Y181.463 E-.10936
G1 X191.449 Y181.557 E-.08101
G1 X191.766 Y181.707 E-.08098
G1 X192.051 Y181.911 E-.08093
G1 X192.297 Y182.161 E-.08099
G1 X192.495 Y182.449 E-.0807
G1 X192.601 Y182.681 E-.05884
;WIPE_END
G1 Z.6 F720
G1 X110.201 Y189.289 F10800
G1 Z.2 F720
G1 E.8 F2100
M204 S800
;TYPE:Perimeter
G1 F1200
G1 X110.246 Y189.259 E.0017
G1 X110.669 Y189.082 E.01438
G1 X111.22 Y188.978 E.01758
G1 X111.743 Y188.991 E.0164
G1 X112.233 Y189.114 E.01584
G1 X112.632 Y189.309 E.01392
G1 X112.968 Y189.554 E.01304
G1 X113.256 Y189.854 E.01304
G1 X113.487 Y190.2 E.01304
G1 X113.655 Y190.58 E.01303
G1 X113.754 Y190.984 E.01304
G1 X113.782 Y191.399 E.01304
G1 X113.737 Y191.813 E.01306
G1 X113.621 Y192.212 E.01303
G1 X113.438 Y192.586 E.01306
G1 X113.192 Y192.921 E.01303
G1 X112.892 Y193.209 E.01304
G1 X112.547 Y193.441 E.01304
G1 X112.166 Y193.609 E.01306
G1 X111.762 Y193.708 E.01304
G1 X111.347 Y193.736 E.01304
G1 X110.934 Y193.691 E.01303
G1 X110.534 Y193.575 E.01306
G1 X110.246 Y193.441 E.00996
G1 X109.825 Y193.146 E.01612
G1 X109.537 Y192.846 E.01304
G1 X109.306 Y192.5 E.01304
G1 X109.138 Y192.12 E.01303
G1 X109.038 Y191.716 E.01305
G1 X109.011 Y191.301 E.01304
G1 X109.055 Y190.887 E.01305
G1 X109.171 Y190.488 E.01303
G1 X109.355 Y190.114 E.01307
G1 X109.6 Y189.779 E.01301
G1 X109.901 Y189.491 E.01306
G1 X110.152 Y189.323 E.00947
M204 S1000
G1 X110.406 Y189.601 F10800
M204 S800
;TYPE:External perimeter
G1 F1200
G1 X110.738 Y189.452 E.01141
G1 X111.289 Y189.349 E.01758
G1 X111.761 Y189.373 E.01482
G1 X112.099 Y189.467 E.011
G1 X112.416 Y189.617 E.011
G1 X112.701 Y189.821 E.01099
G1 X112.947 Y190.071 E.011
G1 X113.145 Y190.359 E.01096
G1 X113.291 Y190.678 E.011
G1 X113.379 Y191.017 E.01098
G1 X113.407 Y191.366 E.01098
G1 X113.373 Y191.715 E.01099
G1 X113.28 Y192.053 E.01099
G1 X113.129 Y192.369 E.01098
G1 X112.926 Y192.655 E.011
G1 X112.676 Y192.9 E.01098
G1 X112.387 Y193.099 E.011
G1 X112.068 Y193.245 E.011
G1 X111.729 Y193.332 E.01097
G1 X111.38 Y193.36 E.01098
G1 X111.031 Y193.327 E.01099
G1 X110.693 Y193.233 E.011
G1 X110.406 Y193.099 E.00993
G1 X110.092 Y192.879 E.01202
G1 X109.846 Y192.63 E.01097
G1 X109.647 Y192.341 E.011
G1 X109.502 Y192.022 E.01099
G1 X109.414 Y191.683 E.01098
G1 X109.386 Y191.334 E.01098
G1 X109.42 Y190.985 E.01099
G1 X109.513 Y190.647 E.01099
G1 X109.664 Y190.331 E.01098
G1 X109.867 Y190.045 E.011
G1 X110.117 Y189.8 E.01098
G1 X110.356 Y189.635 E.00911
M204 S1000
;WIPE_START
G1 F8640
G1 X110.406 Y189.601 E-.01396
G1 X110.738 Y189.452 E-.08403
G1 X111.289 Y189.349 E-.12943
G1 X111.761 Y189.373 E-.10913
G1 X112.099 Y189.467 E-.08101
G1 X112.416 Y189.617 E-.08098
G1 X112.701 Y189.821 E-.08093
G1 X112.947 Y190.071 E-.08099
G1 X113.145 Y190.359 E-.0807
G1 X113.251 Y190.591 E-.05884
;WIPE_END
G1 Z.6 F720
G1 X100.553 Y108.884 F10800
G1 Z.2 F720
G1 E.8 F2100
M204 S800
;TYPE:Perimeter
G1 F1200
G1 X100.577 Y108.879 E.00077
G1 X100.763 Y108.913 E.00593
G1 X100.969 Y109.045 E.00767
G1 X102.184 Y110.266 E.05401
G1 X102.677 Y110.83 E.02349
G1 X102.614 Y110.088 E.02335
G1 X102.609 Y95.775 E.44877
G1 X102.681 Y95.502 E.00885
G1 X102.876 Y95.298 E.00885
G1 X103.151 Y95.213 E.00902
G1 X105.618 Y95.213 E.07735
G1 X105.894 Y95.285 E.00894
G1 X106.098 Y95.479 E.00883
G1 X106.183 Y95.754 E.00902
G1 X106.179 Y110.147 E.45128
G1 X106.136 Y110.788 E.02014
G1 X106.541 Y110.336 E.01903
G1 X107.823 Y109.046 E.05702
G1 X108.03 Y108.913 E.00771
G1 X108.357 Y108.894 E.01027
G1 X108.625 Y109.044 E.00963
G1 X110.352 Y110.772 E.0766
G1 X110.497 Y111.02 E.00901
G1 X110.501 Y111.308 E.00903
G1 X110.352 Y111.572 E.0095
G1 X104.754 Y117.17 E.24822
G1 X104.509 Y117.314 E.00891
G1 X104.23 Y117.322 E.00875
G1 X103.954 Y117.17 E.00988
G1 X98.397 Y111.615 E.24636
G1 X98.253 Y111.37 E.00891
M73 P1 R116
G1 X98.246 Y111.087 E.00888
G1 X98.271 Y111.006 E.00266
G1 X98.397 Y110.815 E.00717
G1 X100.168 Y109.044 E.07853
G1 X100.333 Y108.93 E.00629
G1 X100.494 Y108.896 E.00516
M204 S1000
G1 X100.571 Y109.256 F10800
M204 S800
;TYPE:External perimeter
G1 F1200
G1 X100.702 Y109.311 E.00445
G1 X101.916 Y110.532 E.05399
G1 X102.261 Y110.908 E.016
G1 X102.579 Y111.323 E.01639
G1 X102.853 Y111.746 E.0158
G1 X103.183 Y112.071 E.01452
G1 X103.178 Y111.592 E.01502
G1 X103.084 Y111.124 E.01497
G1 X102.992 Y110.165 E.03021
G1 X102.986 Y95.776 E.45116
G1 X103.058 Y95.631 E.00508
G1 X103.175 Y95.59 E.00389
G1 X105.62 Y95.59 E.07666
G1 X105.766 Y95.662 E.0051
G1 X105.806 Y95.779 E.00388
G1 X105.802 Y110.147 E.4505
G1 X105.774 Y110.669 E.01639
G1 X105.606 Y111.629 E.03056
G1 X105.606 Y112.079 E.01411
G1 X105.919 Y111.742 E.01442
G1 X106.37 Y111.096 E.0247
G1 X106.809 Y110.602 E.02072
G1 X108.091 Y109.311 E.05705
G1 X108.222 Y109.256 E.00445
G1 X108.358 Y109.311 E.0046
G1 X110.086 Y111.038 E.0766
G1 X110.14 Y111.189 E.00503
G1 X110.086 Y111.305 E.00401
G1 X104.485 Y116.906 E.24836
G1 X104.332 Y116.957 E.00506
G1 X104.22 Y116.903 E.0039
G1 X98.662 Y111.346 E.24643
G1 X98.61 Y111.192 E.0051
G1 X98.622 Y111.145 E.00152
G1 X98.664 Y111.082 E.00237
G1 X100.435 Y109.311 E.07853
G1 X100.515 Y109.278 E.00271
M204 S1000
;WIPE_START
G1 F8640
G1 X100.571 Y109.256 E-.01389
G1 X100.702 Y109.311 E-.03281
G1 X101.916 Y110.532 E-.39757
G1 X102.261 Y110.908 E-.11783
G1 X102.579 Y111.323 E-.12072
G1 X102.853 Y111.746 E-.11637
G1 X102.856 Y111.748 E-.00081
;WIPE_END
G1 Z.6 F720
G1 X17.851 Y102.939 F10800
G1 Z.2 F720
G1 E.8 F2100
M204 S800
;TYPE:Perimeter
G1 F1200
G1 X17.896 Y102.909 E.0017
G1 X18.319 Y102.732 E.01438
G1 X18.868 Y102.628 E.01752
G1 X19.393 Y102.641 E.01647
G1 X19.909 Y102.775 E.01672
