; generated by PrusaSlicer 2.7.0+win64 on 2024-01-22 at 03:53:54 UTC


;
;
; 

; external perimeters extrusion width = 0.45mm
; perimeters extrusion width = 0.45mm
; infill extrusion width = 0.45mm
; solid infill extrusion width = 0.45mm
; top infill extrusion width = 0.40mm
; first layer extrusion width = 0.42mm

M73 P0 R84
M73 Q0 S85
M201 X1000 Y1000 Z200 E5000 ; sets maximum accelerations, mm/sec^2
M203 X200 Y200 Z12 E120 ; sets maximum feedrates, mm / sec
M204 S1250 T1250 ; sets acceleration (S) and retract acceleration (R), mm/sec^2
M205 X8.00 Y8.00 Z0.40 E4.50 ; sets the jerk limits, mm/sec
M205 S0 T0 ; sets the minimum extruding and travel feed rate, mm/sec

; printing object PanelTest2.stl id:0 copy 0
; stop printing object PanelTest2.stl id:0 copy 0

;TYPE:Custom
M862.3 P "MK3S" ; printer model check
M862.1 P0.4 ; nozzle diameter check
M115 U3.13.2 ; tell printer latest fw version
G90 ; use absolute coordinates
M83 ; extruder relative mode
M104 S215 ; set extruder temp
M140 S60 ; set bed temp
M190 S60 ; wait for bed temp
M109 S215 ; wait for extruder temp
G28 W ; home all without mesh bed level
G80 X11.7385 Y9.93438 W193.831 H190.131 ; mesh bed levelling

G1 Z0.2 F720
G1 Y-3 F1000 ; go outside print area
G92 E0
G1 X60 E9 F1000 ; intro line
G1 X100 E12.5 F1000 ; intro line

G92 E0
M221 S95

; Don't change E values below. Excessive value can damage the printer.

M907 E538 ; set extruder motor current
G21 ; set units to millimeters
G90 ; use absolute coordinates
M83 ; use relative distances for extrusion
M900 K0.05 ; Filament gcode LA 1.5
M900 K30 ; Filament gcode LA 1.0

M107
;LAYER_CHANGE
;Z:0.2
;HEIGHT:0.2
;BEFORE_LAYER_CHANGE
G92 E0.0
;0.2


G1 E-.8 F2100
G1 Z.2 F720
;AFTER_LAYER_CHANGE
;0.2
G1 X12.319 Y11.193 F10800
G1 Z.2 F720
G1 E.8 F2100
M204 S800
;TYPE:Skirt/Brim
;WIDTH:0.42
G1 F1200
G1 X13.364 Y10.317 E.04275
G1 X14.304 Y10.123 E.03009
G1 X203.004 Y10.123 E5.91656
G1 X204.311 Y10.515 E.04278
M73 Q0 S84
G1 X205.188 Y11.56 E.04277
G1 X205.381 Y12.5 E.03009
G1 X205.381 Y197.5 E5.80055
G1 X204.99 Y198.807 E.04277
M73 P0 R83
G1 X203.944 Y199.683 E.04278
G1 X203.004 Y199.877 E.03009
G1 X14.304 Y199.877 E5.91656
G1 X12.997 Y199.485 E.04278
G1 X12.121 Y198.44 E.04275
G1 X11.927 Y197.5 E.03009
G1 X11.927 Y12.5 E5.80055
G1 X12.301 Y11.25 E.04091
M204 S1000
; printing object PanelTest2.stl id:0 copy 0
;WIPE_START
G1 F8640
G1 X12.319 Y11.193 E-.0138
G1 X13.364 Y10.317 E-.31486
G1 X14.304 Y10.123 E-.22162
G1 X15.385 Y10.123 E-.24972
;WIPE_END
G1 Z.6 F720
G1 X202.217 Y196.713 F10800
G1 Z.2 F720
G1 E.8 F2100
M204 S800
;TYPE:Perimeter
;WIDTH:0.419999
G1 F1200
G1 X15.091 Y196.713 E5.86719
G1 X15.091 Y13.287 E5.75118
M73 P1 R83
M73 Q1 S84
G1 X202.217 Y13.287 E5.86719
G1 X202.217 Y17.7 E.13837
M73 Q1 S83
G1 X202.217 Y196.653 E5.61094
M204 S1000
G1 X202.594 Y197.09 F10800
M73 P1 R82
M204 S800
;TYPE:External perimeter
G1 F1200
G1 X14.714 Y197.09 E5.89084
G1 X14.714 Y12.91 E5.77482
G1 X202.594 Y12.91 E5.89084
M73 P2 R82
M73 Q2 S83
G1 X202.594 Y17.7 E.15019
G1 X202.594 Y197.03 E5.62276
M204 S1000
;WIPE_START
G1 F8640
G1 X202.594 Y197.09 E-.01385
G1 X199.189 Y197.09 E-.78615
;WIPE_END
G1 Z.6 F720
G1 X195.784 Y22.396 F10800
G1 Z.2 F720
G1 E.8 F2100
M204 S800
;TYPE:Perimeter
G1 F1200
G1 X195.829 Y22.366 E.0017
G1 X196.259 Y22.185 E.01463
G1 X196.824 Y22.078 E.01803
G1 X197.36 Y22.091 E.01681
G1 X197.884 Y22.228 E.01698
G1 X198.265 Y22.415 E.01331
G1 X198.608 Y22.666 E.01333
G1 X198.902 Y22.972 E.01331
G1 X199.138 Y23.325 E.01331
G1 X199.31 Y23.713 E.01331
G1 X199.411 Y24.126 E.01333
G1 X199.44 Y24.549 E.01329
G1 X199.394 Y24.972 E.01334
G1 X199.276 Y25.379 E.01329
G1 X199.089 Y25.761 E.01334
G1 X198.838 Y26.103 E.0133
G1 X198.532 Y26.398 E.01333
G1 X198.179 Y26.634 E.01331
G1 X197.791 Y26.806 E.01331
G1 X197.379 Y26.907 E.0133
G1 X196.955 Y26.936 E.01333
G1 X196.533 Y26.89 E.01331
G1 X196.125 Y26.772 E.01332
G1 X195.744 Y26.585 E.01331
G1 X195.401 Y26.334 E.01333
G1 X195.038 Y25.93 E.01703
G1 X194.773 Y25.466 E.01675
G1 X194.607 Y24.94 E.01729
G1 X194.568 Y24.451 E.01538
G1 X194.614 Y24.028 E.01334
G1 X194.732 Y23.621 E.01329
G1 X194.919 Y23.239 E.01334
G1 X195.17 Y22.897 E.0133
G1 X195.476 Y22.602 E.01333
G1 X195.734 Y22.429 E.00974
M204 S1000
G1 X195.988 Y22.708 F10800
M204 S800
;TYPE:External perimeter
G1 F1200
G1 X196.329 Y22.555 E.01172
G1 X196.896 Y22.449 E.01809
G1 X197.378 Y22.474 E.01513
G1 X197.724 Y22.57 E.01126
G1 X198.048 Y22.724 E.01125
G1 X198.341 Y22.932 E.01127
G1 X198.593 Y23.188 E.01126
G1 X198.796 Y23.484 E.01125
G1 X198.946 Y23.811 E.01128
G1 X199.036 Y24.158 E.01124
G1 X199.064 Y24.516 E.01126
G1 X199.03 Y24.874 E.01128
G1 X198.934 Y25.22 E.01126
G1 X198.78 Y25.544 E.01125
G1 X198.572 Y25.837 E.01127
G1 X198.316 Y26.089 E.01126
G1 X198.02 Y26.292 E.01125
G1 X197.693 Y26.442 E.01128
G1 X197.346 Y26.532 E.01124
G1 X196.988 Y26.56 E.01126
G1 X196.63 Y26.526 E.01128
G1 X196.284 Y26.43 E.01126
G1 X195.96 Y26.276 E.01125
G1 X195.667 Y26.068 E.01127
G1 X195.347 Y25.714 E.01496
G1 X195.074 Y25.22 E.0177
G1 X194.976 Y24.864 E.01158
G1 X194.944 Y24.484 E.01196
G1 X194.978 Y24.126 E.01128
G1 X195.074 Y23.78 E.01126
G1 X195.228 Y23.456 E.01125
G1 X195.437 Y23.163 E.01128
G1 X195.693 Y22.911 E.01126
G1 X195.939 Y22.742 E.00936
M204 S1000
;WIPE_START
G1 F8640
G1 X195.988 Y22.708 E-.01377
G1 X196.329 Y22.555 E-.0863
G1 X196.896 Y22.449 E-.13319
G1 X197.378 Y22.474 E-.11144
G1 X197.724 Y22.57 E-.08291
G1 X198.048 Y22.724 E-.08283
G1 X198.341 Y22.932 E-.08297
G1 X198.593 Y23.188 E-.08295
G1 X198.796 Y23.484 E-.08288
G1 X198.869 Y23.644 E-.04076
;WIPE_END
G1 Z.6 F720
G1 X134.771 Y64.237 F10800
G1 Z.2 F720
G1 E.8 F2100
M204 S800
;TYPE:Perimeter
G1 F1200
G1 X134.717 Y62.517 E.05396
G1 X134.77 Y60.776 E.05461
G1 X134.929 Y59.041 E.05463
G1 X135.196 Y57.319 E.05464
G1 X135.256 Y57.037 E.00904
G1 X135.567 Y55.617 E.04558
G1 X136.043 Y53.941 E.05463
G1 X136.622 Y52.296 E.05468
G1 X137.299 Y50.693 E.05456
G1 X138.076 Y49.13 E.05473
G1 X138.945 Y47.624 E.05452
G1 X139.927 Y46.142 E.05574
G1 X140.977 Y44.753 E.05459
G1 X142.088 Y43.456 E.05355
G1 X143.325 Y42.18 E.05572
G1 X144.587 Y41.03 E.05353
G1 X145.944 Y39.937 E.05463
G1 X147.365 Y38.93 E.05461
G1 X148.846 Y38.012 E.05463
G1 X150.411 Y37.171 E.05571
G1 X151.994 Y36.444 E.05462
G1 X153.619 Y35.815 E.05463
G1 X155.246 Y35.298 E.05353
G1 X156.936 Y34.872 E.05465
G1 X158.682 Y34.545 E.0557
G1 X160.412 Y34.332 E.05465
G1 X162.116 Y34.227 E.05353
G1 X163.893 Y34.227 E.05572
G1 X165.631 Y34.335 E.0546
G1 X167.326 Y34.545 E.05355
G1 X169.073 Y34.872 E.05573
G1 X170.728 Y35.288 E.05351
G1 X172.389 Y35.815 E.05464
G1 X174.014 Y36.444 E.05463
G1 X175.597 Y37.171 E.05462
G1 X177.133 Y37.994 E.05464
G1 X178.001 Y38.531 E.032
G1 X178.614 Y38.91 E.0226
G1 X180.037 Y39.916 E.05464
G1 X181.395 Y41.007 E.05462
M73 Q2 S82
G1 X182.052 Y41.605 E.02786
G1 X182.683 Y42.18 E.02677
G1 X183.897 Y43.43 E.05463
G1 X185.053 Y44.78 E.05573
G1 X186.082 Y46.142 E.05352
G1 X187.045 Y47.594 E.05463
G1 X187.917 Y49.102 E.05462
G1 X188.695 Y50.661 E.05463
G1 X189.387 Y52.298 E.05572
G1 X189.955 Y53.908 E.05353
G1 X190.432 Y55.584 E.05464
G1 X190.813 Y57.319 E.0557
G1 X191.075 Y59.007 E.05356
G1 X191.236 Y60.741 E.0546
G1 X191.291 Y62.517 E.05571
G1 X191.236 Y64.259 E.05465
G1 X191.079 Y65.959 E.05353
G1 X190.813 Y67.681 E.05463
G1 X190.441 Y69.383 E.05462
G1 X189.965 Y71.059 E.05463
G1 X189.387 Y72.702 E.05461
G1 X188.695 Y74.339 E.05572
G1 X187.917 Y75.898 E.05463
G1 X187.063 Y77.376 E.05352
G1 X186.082 Y78.858 E.05572
G1 X185.031 Y80.247 E.05461
G1 X183.92 Y81.544 E.05355
G1 X182.706 Y82.798 E.05472
G1 X181.421 Y83.97 E.05453
G1 X180.065 Y85.063 E.05461
G1 X178.643 Y86.07 E.05463
G1 X178.026 Y86.454 E.02279
G1 X177.163 Y86.988 E.03182
G1 X175.628 Y87.814 E.05465
G1 X174.046 Y88.543 E.05462
G1 X172.422 Y89.173 E.05462
G1 X170.728 Y89.712 E.05574
G1 X169.039 Y90.136 E.0546
G1 X167.36 Y90.449 E.05355
G1 X165.597 Y90.668 E.0557
G1 X163.858 Y90.774 E.05463
G1 X162.15 Y90.774 E.05355
G1 X160.377 Y90.665 E.0557
G1 X158.682 Y90.455 E.05355
G1 X156.97 Y90.136 E.0546
G1 X155.28 Y89.712 E.05463
G1 X154.687 Y89.524 E.01951
G1 X153.619 Y89.185 E.03513
G1 X151.994 Y88.556 E.05463
G1 X150.411 Y87.829 E.05462
G1 X148.876 Y87.006 E.05461
G1 X147.394 Y86.09 E.05463
G1 X146.534 Y85.482 E.03302
G1 X145.971 Y85.084 E.02162
G1 X144.613 Y83.993 E.05462
G1 X143.325 Y82.82 E.05462
G1 X142.112 Y81.57 E.05461
G1 X140.955 Y80.22 E.05575
G1 X139.906 Y78.829 E.05463
G1 X138.962 Y77.404 E.05359
G1 X138.075 Y75.867 E.05564
G1 X137.314 Y74.339 E.05352
G1 X136.634 Y72.735 E.05462
G1 X136.054 Y71.092 E.05463
G1 X135.968 Y70.793 E.00976
G1 X135.576 Y69.416 E.04489
G1 X135.202 Y67.715 E.05461
G1 X134.934 Y65.993 E.05464
G1 X134.87 Y65.314 E.02138
G1 X134.775 Y64.296 E.03206
M204 S1000
G1 X135.147 Y64.224 F10800
M204 S800
;TYPE:External perimeter
G1 F1200
G1 X135.094 Y62.506 E.05389
G1 X135.122 Y61.594 E.02861
G1 X135.147 Y60.788 E.02528
G1 X135.305 Y59.076 E.05391
G1 X135.568 Y57.377 E.05391
G1 X135.936 Y55.698 E.05389
G1 X136.406 Y54.045 E.05388
G1 X136.69 Y53.236 E.02688
G1 X136.977 Y52.422 E.02706
G1 X137.646 Y50.84 E.05386
G1 X138.413 Y49.3 E.05394
G1 X139.272 Y47.812 E.05387
G1 X140.227 Y46.37 E.05423
G1 X141.264 Y44.998 E.05392
G1 X142.374 Y43.701 E.05353
G1 X143.579 Y42.459 E.05426
G1 X144.85 Y41.301 E.05391
G1 X146.189 Y40.224 E.05388
G1 X147.592 Y39.231 E.05389
G1 X149.044 Y38.332 E.05355
G1 X150.569 Y37.513 E.05427
G1 X152.131 Y36.795 E.0539
G1 X153.723 Y36.178 E.05353
G1 X155.372 Y35.654 E.05425
G1 X157.028 Y35.237 E.05354
G1 X158.719 Y34.921 E.05394
G1 X160.423 Y34.71 E.05384
G1 X162.139 Y34.603 E.05391
G1 X163.869 Y34.603 E.05424
G1 X165.585 Y34.71 E.05391
G1 X167.28 Y34.919 E.05355
G1 X168.981 Y35.237 E.05426
G1 X170.637 Y35.654 E.05354
G1 X172.275 Y36.175 E.05389
G1 X173.878 Y36.795 E.05389
G1 X175.44 Y37.513 E.0539
G1 X176.954 Y38.326 E.05388
G1 X177.803 Y38.851 E.0313
G1 X178.416 Y39.231 E.02261
G1 X179.819 Y40.224 E.05389
G1 X181.159 Y41.301 E.0539
G1 X181.798 Y41.884 E.02712
G1 X182.431 Y42.461 E.02686
G1 X183.626 Y43.693 E.05381
G1 X184.752 Y45.007 E.05426
G1 X185.781 Y46.37 E.05355
G1 X186.731 Y47.802 E.05388
G1 X187.596 Y49.301 E.05426
G1 X188.357 Y50.829 E.05352
G1 X189.027 Y52.412 E.0539
G1 X189.603 Y54.045 E.05429
G1 X190.073 Y55.698 E.05388
G1 X190.44 Y57.377 E.05389
G1 X190.702 Y59.064 E.05353
G1 X190.861 Y60.776 E.05391
G1 X190.914 Y62.506 E.05427
G1 X190.862 Y64.212 E.05352
G1 X190.703 Y65.924 E.05391
G1 X190.44 Y67.623 E.05391
G1 X190.073 Y69.302 E.05389
G1 X189.603 Y70.955 E.05388
G1 X189.032 Y72.577 E.05392
G1 X188.357 Y74.171 E.05428
G1 X187.596 Y75.699 E.05352
G1 X186.737 Y77.188 E.0539
G1 X185.781 Y78.63 E.05425
G1 X184.745 Y80.002 E.0539
G1 X183.634 Y81.299 E.05355
G1 X182.437 Y82.534 E.05393
G1 X181.167 Y83.691 E.05387
G1 X179.828 Y84.769 E.0539
G1 X178.426 Y85.763 E.05389
G1 X177.827 Y86.134 E.02209
G1 X176.964 Y86.668 E.03182
G1 X175.45 Y87.481 E.05388
G1 X173.888 Y88.2 E.05391
G1 X172.286 Y88.822 E.05388
G1 X170.637 Y89.346 E.05425
G1 X168.969 Y89.765 E.05392
G1 X167.291 Y90.079 E.05353
G1 X165.574 Y90.291 E.05424
G1 X163.858 Y90.397 E.05391
G1 X162.15 Y90.397 E.05355
G1 X160.423 Y90.29 E.05425
M73 P2 R81
G1 X158.729 Y90.081 E.05352
G1 X157.039 Y89.765 E.05391
G1 X155.372 Y89.346 E.05389
G1 X154.801 Y89.165 E.01878
G1 X153.734 Y88.825 E.03511
G1 X152.131 Y88.205 E.05389
G1 X150.569 Y87.487 E.0539
G1 X149.054 Y86.674 E.05391
G1 X147.592 Y85.769 E.05391
G1 X146.752 Y85.174 E.03228
G1 X146.189 Y84.776 E.02162
G1 X144.85 Y83.699 E.05388
G1 X143.579 Y82.541 E.05391
G1 X142.382 Y81.307 E.0539
G1 X141.256 Y79.993 E.05426
G1 X140.221 Y78.621 E.05389
G1 X139.277 Y77.197 E.05357
G1 X138.412 Y75.699 E.05424
G1 X137.65 Y74.169 E.05359
G1 X136.981 Y72.588 E.05383
G1 X136.409 Y70.967 E.0539
G1 X136.33 Y70.69 E.00903
G1 X135.939 Y69.313 E.04488
G1 X135.57 Y67.634 E.0539
G1 X135.306 Y65.936 E.05388
G1 X135.153 Y64.284 E.05202
M204 S1000
;WIPE_START
G1 F8640
G1 X135.147 Y64.224 E-.01392
G1 X135.094 Y62.506 E-.39688
G1 X135.122 Y61.594 E-.21068
G1 X135.146 Y60.821 E-.17852
;WIPE_END
G1 Z.6 F720
G1 X180.054 Y124.93 F10800
G1 Z.2 F720
G1 E.8 F2100
M204 S800
;TYPE:Perimeter
G1 F1200
G1 X181.396 Y126.008 E.05397
G1 X182.683 Y127.18 E.05458
G1 X183.92 Y128.456 E.05572
G1 X185.053 Y129.78 E.05464
G1 X186.082 Y131.142 E.05352
G1 X187.063 Y132.624 E.05572
G1 X187.934 Y134.133 E.05463
G1 X188.695 Y135.661 E.05352
G1 X189.375 Y137.265 E.05462
G1 X189.955 Y138.908 E.05463
G1 X190.441 Y140.617 E.05571
G1 X190.806 Y142.285 E.05354
G1 X191.075 Y144.007 E.05465
G1 X191.238 Y145.776 E.0557
G1 X191.291 Y147.483 E.05355
G1 X191.238 Y149.224 E.05461
G1 X191.079 Y150.959 E.05463
G1 X190.813 Y152.681 E.05463
G1 X190.432 Y154.416 E.0557
G1 X189.965 Y156.059 E.05356
G1 X189.387 Y157.702 E.05461
G1 X188.695 Y159.339 E.05572
G1 X187.917 Y160.898 E.05463
G1 X187.045 Y162.406 E.05462
G1 X186.102 Y163.829 E.05352
G1 X185.053 Y165.22 E.05463
G1 X183.92 Y166.544 E.05464
G1 X183.154 Y167.335 E.03452
G1 X182.708 Y167.795 E.02009
G1 X181.42 Y168.971 E.05469
G1 X180.037 Y170.084 E.05566
G1 X178.643 Y171.07 E.05354
G1 X177.163 Y171.988 E.05461
G1 X175.628 Y172.814 E.05465
G1 X175.045 Y173.083 E.02013
G1 X174.014 Y173.556 E.03557
G1 X172.422 Y174.173 E.05353
G1 X170.762 Y174.702 E.05463
G1 X169.073 Y175.128 E.05462
G1 X167.326 Y175.455 E.05573
G1 X165.631 Y175.665 E.05355
G1 X163.893 Y175.773 E.0546
G1 X162.116 Y175.773 E.05572
G1 X160.412 Y175.668 E.05353
G1 X158.682 Y175.455 E.05465
G1 X156.936 Y175.128 E.0557
G1 X155.246 Y174.702 E.05465
G1 X153.586 Y174.173 E.05463
G1 X151.962 Y173.543 E.05462
G1 X150.411 Y172.829 E.05354
G1 X148.846 Y171.988 E.05571
G1 X147.365 Y171.07 E.05463
G1 X145.944 Y170.063 E.05461
G1 X144.587 Y168.97 E.05463
G1 X143.325 Y167.82 E.05353
G1 X142.112 Y166.57 E.05461
G1 X141.514 Y165.874 E.02877
G1 X140.977 Y165.247 E.02588
G1 X139.927 Y163.858 E.05459
G1 X138.963 Y162.406 E.05465
G1 X138.091 Y160.898 E.05462
G1 X137.314 Y159.339 E.05462
G1 X136.966 Y158.521 E.02787
G1 X136.621 Y157.702 E.02786
G1 X136.054 Y156.092 E.05352
G1 X135.567 Y154.383 E.05572
G1 X135.202 Y152.715 E.05354
G1 X134.934 Y150.993 E.05464
G1 X134.772 Y149.259 E.05461
G1 X134.744 Y148.371 E.02786
G1 X134.717 Y147.517 E.02679
G1 X134.77 Y145.776 E.05461
G1 X134.934 Y144.007 E.0557
G1 X135.196 Y142.319 E.05356
G1 X135.567 Y140.617 E.05462
G1 X136.043 Y138.941 E.05463
G1 X136.621 Y137.298 E.05461
G1 X137.314 Y135.661 E.05574
G1 X138.075 Y134.133 E.05352
G1 X138.945 Y132.624 E.05461
G1 X139.927 Y131.142 E.05574
G1 X140.977 Y129.753 E.05459
G1 X142.088 Y128.456 E.05355
G1 X143.325 Y127.18 E.05572
G1 X144.613 Y126.007 E.05462
G1 X145.944 Y124.937 E.05355
G1 X147.466 Y123.866 E.05835
G1 X148.846 Y123.012 E.05088
G1 X150.38 Y122.186 E.05463
G1 X151.962 Y121.457 E.05462
G1 X153.586 Y120.827 E.05462
G1 X155.246 Y120.298 E.05463
G1 X155.909 Y120.13 E.02144
G1 X156.936 Y119.872 E.0332
G1 X158.682 Y119.545 E.0557
G1 X160.412 Y119.332 E.05465
G1 X162.116 Y119.227 E.05353
M73 Q3 S82
G1 X163.893 Y119.227 E.05572
G1 X165.631 Y119.335 E.0546
G1 X167.36 Y119.551 E.05463
M73 P3 R81
G1 X169.039 Y119.864 E.05355
G1 X170.728 Y120.288 E.0546
G1 X172.389 Y120.815 E.05464
G1 X173.218 Y121.135 E.02786
G1 X174.014 Y121.444 E.02677
G1 X175.597 Y122.171 E.05462
G1 X177.133 Y122.994 E.05464
G1 X177.889 Y123.461 E.02786
G1 X178.615 Y123.91 E.02676
G1 X180.006 Y124.894 E.05342
M204 S1000
G1 X179.819 Y125.224 F10800
M204 S800
;TYPE:External perimeter
G1 F1200
G1 X181.159 Y126.301 E.0539
G1 X181.738 Y126.829 E.02457
G1 X182.437 Y127.467 E.02967
G1 X183.634 Y128.701 E.0539
G1 X184.752 Y130.007 E.0539
G1 X185.781 Y131.37 E.05355
G1 X186.737 Y132.812 E.05425
G1 X187.596 Y134.301 E.0539
G1 X188.362 Y135.84 E.0539
G1 X189.032 Y137.423 E.0539
G1 X189.599 Y139.033 E.05352
G1 X190.073 Y140.698 E.05428
G1 X190.438 Y142.366 E.05354
G1 X190.702 Y144.064 E.05388
G1 X190.862 Y145.788 E.05429
G1 X190.914 Y147.494 E.05352
G1 X190.862 Y149.212 E.05389
G1 X190.703 Y150.924 E.05391
G1 X190.44 Y152.623 E.05391
G1 X190.07 Y154.313 E.05424
G1 X189.603 Y155.955 E.05353
