; generated by PrusaSlicer 2.7.0+win64 on 2024-04-13 at 17:45:28 UTC


;
;
; 

; external perimeters extrusion width = 0.45mm
; perimeters extrusion width = 0.45mm
; infill extrusion width = 0.45mm
; solid infill extrusion width = 0.45mm
; top infill extrusion width = 0.40mm
; first layer extrusion width = 0.42mm

M73 P0 R128
M73 Q0 S129
M201 X1000 Y1000 Z200 E5000 ; sets maximum accelerations, mm/sec^2
M203 X200 Y200 Z12 E120 ; sets maximum feedrates, mm / sec
M204 S1250 T1250 ; sets acceleration (S) and retract acceleration (R), mm/sec^2
M205 X8.00 Y8.00 Z0.40 E4.50 ; sets the jerk limits, mm/sec
M205 S0 T0 ; sets the minimum extruding and travel feed rate, mm/sec

; printing object PI Shit.stl id:0 copy 0
; stop printing object PI Shit.stl id:0 copy 0

;TYPE:Custom
M862.3 P "MK3S" ; printer model check
M862.1 P0.4 ; nozzle diameter check
M115 U3.13.2 ; tell printer latest fw version
G90 ; use absolute coordinates
M83 ; extruder relative mode
M104 S215 ; set extruder temp
M140 S60 ; set bed temp
M190 S60 ; wait for bed temp
M109 S215 ; wait for extruder temp
G28 W ; home all without mesh bed level
G80 X92.4344 Y82.3094 W65.1312 H45.3812 ; mesh bed levelling

G1 Z0.2 F720
G1 Y-3 F1000 ; go outside print area
G92 E0
G1 X60 E9 F1000 ; intro line
M73 P0 R127
G1 X100 E12.5 F1000 ; intro line

G92 E0
M221 S95

; Don't change E values below. Excessive value can damage the printer.
M907 E430 ; set extruder motor current
G21 ; set units to millimeters
G90 ; use absolute coordinates
M83 ; use relative distances for extrusion
M900 K0.05 ; Filament gcode LA 1.5
M900 K30 ; Filament gcode LA 1.0

M107
;LAYER_CHANGE
;Z:0.2
;HEIGHT:0.2
;BEFORE_LAYER_CHANGE
G92 E0.0
;0.2


G1 E-.8 F2100
G1 Z.2 F720
;AFTER_LAYER_CHANGE
;0.2
G1 X93.015 Y83.568 F10800
G1 Z.2 F720
G1 E.8 F2100
M204 S800
;TYPE:Skirt/Brim
;WIDTH:0.42
G1 F1200
G1 X94.06 Y82.692 E.04275
G1 X95 Y82.498 E.03009
G1 X155 Y82.498 E1.88126
G1 X156.307 Y82.89 E.04278
G1 X157.183 Y83.935 E.04275
G1 X157.377 Y84.875 E.03009
G1 X157.377 Y125.125 E1.26201
G1 X156.985 Y126.432 E.04278
G1 X155.94 Y127.308 E.04275
G1 X155 Y127.502 E.03009
G1 X95 Y127.502 E1.88126
G1 X93.693 Y127.11 E.04278
G1 X92.817 Y126.065 E.04275
G1 X92.623 Y125.125 E.03009
G1 X92.623 Y84.875 E1.26201
G1 X92.997 Y83.625 E.04091
M204 S1000
; printing object PI Shit.stl id:0 copy 0
;WIPE_START
G1 F8640
G1 X93.015 Y83.568 E-.0138
G1 X94.06 Y82.692 E-.31486
G1 X95 Y82.498 E-.22162
G1 X96.081 Y82.498 E-.24972
;WIPE_END
G1 Z.6 F720
G1 X154.213 Y124.338 F10800
G1 Z.2 F720
G1 E.8 F2100
M204 S800
;TYPE:Perimeter
;WIDTH:0.419999
G1 F1200
G1 X95.787 Y124.338 E1.8319
G1 X95.787 Y85.662 E1.21266
G1 X154.213 Y85.662 E1.8319
G1 X154.213 Y105 E.60633
G1 X154.213 Y124.278 E.60445
M204 S1000
G1 X154.59 Y124.715 F10800
M204 S800
;TYPE:External perimeter
G1 F1200
G1 X95.41 Y124.715 E1.85554
G1 X95.41 Y85.285 E1.2363
G1 X154.59 Y85.285 E1.85554
G1 X154.59 Y105 E.61815
G1 X154.59 Y124.655 E.61627
M204 S1000
;WIPE_START
G1 F8640
G1 X154.59 Y124.715 E-.01385
G1 X151.185 Y124.715 E-.78615
;WIPE_END
G1 Z.6 F720
G1 X153.277 Y85.832 F10800
G1 Z.2 F720
M73 Q0 S128
G1 E.8 F2100
M204 S800
;TYPE:Solid infill
;WIDTH:0.422001
G1 F1200
G1 X153.874 Y86.429 E.02661
G1 X153.874 Y86.965 E.0169
G1 X152.91 Y86.001 E.04297
G1 X152.374 Y86.001 E.0169
G1 X153.874 Y87.501 E.06687
G1 X153.874 Y88.037 E.0169
G1 X151.838 Y86.001 E.09076
G1 X151.302 Y86.001 E.0169
G1 X153.874 Y88.573 E.11465
G1 X153.874 Y89.109 E.0169
G1 X150.766 Y86.001 E.13855
G1 X150.23 Y86.001 E.0169
G1 X153.874 Y89.645 E.16244
G1 X153.874 Y90.181 E.0169
G1 X149.694 Y86.001 E.18633
G1 X149.158 Y86.001 E.0169
G1 X153.874 Y90.717 E.21023
G1 X153.874 Y91.254 E.01693
G1 X148.621 Y86.001 E.23416
G1 X148.085 Y86.001 E.0169
G1 X153.874 Y91.79 E.25806
G1 X153.874 Y92.326 E.0169
G1 X147.549 Y86.001 E.28195
G1 X147.013 Y86.001 E.0169
G1 X153.874 Y92.862 E.30584
G1 X153.874 Y93.398 E.0169
G1 X146.477 Y86.001 E.32974
G1 X145.941 Y86.001 E.0169
G1 X153.874 Y93.934 E.35363
G1 X153.874 Y94.47 E.0169
G1 X145.405 Y86.001 E.37752
G1 X144.869 Y86.001 E.0169
G1 X153.874 Y95.006 E.40142
G1 X153.874 Y95.542 E.0169
G1 X144.333 Y86.001 E.42531
G1 X143.797 Y86.001 E.0169
G1 X153.874 Y96.078 E.4492
G1 X153.874 Y96.615 E.01693
G1 X143.26 Y86.001 E.47314
G1 X142.724 Y86.001 E.0169
G1 X153.874 Y97.151 E.49703
G1 X153.874 Y97.687 E.0169
G1 X142.188 Y86.001 E.52093
G1 X141.652 Y86.001 E.0169
G1 X153.874 Y98.223 E.54482
G1 X153.874 Y98.759 E.0169
G1 X141.116 Y86.001 E.56871
G1 X140.58 Y86.001 E.0169
G1 X153.874 Y99.295 E.59261
G1 X153.874 Y99.831 E.0169
G1 X140.044 Y86.001 E.6165
G1 X139.508 Y86.001 E.0169
G1 X153.874 Y100.367 E.64039
G1 X153.874 Y100.903 E.0169
G1 X138.972 Y86.001 E.66429
G1 X138.436 Y86.001 E.0169
G1 X153.874 Y101.439 E.68818
G1 X153.874 Y101.976 E.01693
G1 X137.899 Y86.001 E.71212
G1 X137.363 Y86.001 E.0169
G1 X153.874 Y102.512 E.73601
G1 X153.874 Y103.048 E.0169
G1 X136.827 Y86.001 E.7599
G1 X136.291 Y86.001 E.0169
G1 X153.874 Y103.584 E.7838
G1 X153.874 Y104.12 E.0169
M73 P0 R126
G1 X135.755 Y86.001 E.80769
G1 X135.219 Y86.001 E.0169
G1 X153.874 Y104.656 E.83158
G1 X153.874 Y105.192 E.0169
G1 X134.683 Y86.001 E.85548
G1 X134.147 Y86.001 E.0169
G1 X153.874 Y105.728 E.87937
G1 X153.874 Y106.264 E.0169
G1 X133.611 Y86.001 E.90326
G1 X133.075 Y86.001 E.0169
G1 X153.874 Y106.8 E.92716
G1 X153.874 Y107.337 E.01693
G1 X132.538 Y86.001 E.9511
G1 X132.002 Y86.001 E.0169
G1 X153.874 Y107.873 E.97499
G1 X153.874 Y108.409 E.0169
G1 X131.466 Y86.001 E.99888
G1 X130.93 Y86.001 E.0169
G1 X153.874 Y108.945 E1.02278
G1 X153.874 Y109.481 E.0169
G1 X130.394 Y86.001 E1.04667
G1 X129.858 Y86.001 E.0169
M73 P1 R126
M73 Q1 S128
G1 X153.874 Y110.017 E1.07056
G1 X153.874 Y110.553 E.0169
G1 X129.322 Y86.001 E1.09446
G1 X128.786 Y86.001 E.0169
G1 X153.874 Y111.089 E1.11835
G1 X153.874 Y111.625 E.0169
G1 X128.25 Y86.001 E1.14224
G1 X127.714 Y86.001 E.0169
G1 X153.874 Y112.161 E1.16613
G1 X153.874 Y112.698 E.01693
G1 X127.177 Y86.001 E1.19007
G1 X126.641 Y86.001 E.0169
G1 X153.874 Y113.234 E1.21397
G1 X153.874 Y113.77 E.0169
G1 X126.105 Y86.001 E1.23786
G1 X125.569 Y86.001 E.0169
G1 X153.874 Y114.306 E1.26175
G1 X153.874 Y114.842 E.0169
G1 X125.033 Y86.001 E1.28565
G1 X124.497 Y86.001 E.0169
G1 X153.874 Y115.378 E1.30954
G1 X153.874 Y115.914 E.0169
M73 Q1 S127
G1 X123.961 Y86.001 E1.33343
G1 X123.425 Y86.001 E.0169
G1 X153.874 Y116.45 E1.35733
G1 X153.874 Y116.986 E.0169
G1 X122.889 Y86.001 E1.38122
G1 X122.353 Y86.001 E.0169
G1 X153.874 Y117.522 E1.40511
G1 X153.874 Y118.059 E.01693
G1 X121.816 Y86.001 E1.42905
G1 X121.28 Y86.001 E.0169
G1 X153.874 Y118.595 E1.45294
G1 X153.874 Y119.131 E.0169
G1 X120.744 Y86.001 E1.47684
G1 X120.208 Y86.001 E.0169
G1 X153.874 Y119.667 E1.50073
G1 X153.874 Y120.203 E.0169
G1 X119.672 Y86.001 E1.52462
G1 X119.136 Y86.001 E.0169
G1 X153.874 Y120.739 E1.54852
G1 X153.874 Y121.275 E.0169
M73 P1 R125
G1 X118.6 Y86.001 E1.57241
G1 X118.064 Y86.001 E.0169
G1 X153.874 Y121.811 E1.5963
G1 X153.874 Y122.347 E.0169
G1 X117.528 Y86.001 E1.6202
G1 X116.992 Y86.001 E.0169
G1 X153.874 Y122.883 E1.64409
G1 X153.874 Y123.42 E.01693
G1 X116.455 Y86.001 E1.66803
G1 X115.919 Y86.001 E.0169
G1 X153.874 Y123.956 E1.69192
G1 X153.874 Y123.999 E.00136
G1 X153.38 Y123.999 E.01557
G1 X115.383 Y86.001 E1.69382
G1 X114.847 Y86.001 E.0169
G1 X152.844 Y123.999 E1.69382
G1 X152.308 Y123.999 E.0169
G1 X114.311 Y86.001 E1.69382
G1 X113.775 Y86.001 E.0169
G1 X151.772 Y123.999 E1.69382
G1 X151.236 Y123.999 E.0169
G1 X113.239 Y86.001 E1.69382
G1 X112.703 Y86.001 E.0169
G1 X150.7 Y123.999 E1.69382
G1 X150.164 Y123.999 E.0169
M73 P2 R125
G1 X112.167 Y86.001 E1.69382
G1 X111.63 Y86.001 E.01693
M73 Q2 S127
G1 X149.628 Y123.999 E1.69384
G1 X149.091 Y123.999 E.01693
M73 Q2 S126
G1 X111.094 Y86.001 E1.69382
G1 X110.558 Y86.001 E.0169
G1 X148.555 Y123.999 E1.69382
G1 X148.019 Y123.999 E.0169
G1 X110.022 Y86.001 E1.69382
G1 X109.486 Y86.001 E.0169
G1 X147.483 Y123.999 E1.69382
G1 X146.947 Y123.999 E.0169
G1 X108.95 Y86.001 E1.69382
G1 X108.414 Y86.001 E.0169
G1 X146.411 Y123.999 E1.69382
G1 X145.875 Y123.999 E.0169
G1 X107.878 Y86.001 E1.69382
G1 X107.342 Y86.001 E.0169
G1 X145.339 Y123.999 E1.69382
G1 X144.803 Y123.999 E.0169
M73 P2 R124
G1 X106.806 Y86.001 E1.69382
G1 X106.269 Y86.001 E.01693
G1 X144.267 Y123.999 E1.69384
G1 X143.73 Y123.999 E.01693
G1 X105.733 Y86.001 E1.69382
G1 X105.197 Y86.001 E.0169
G1 X143.194 Y123.999 E1.69382
G1 X142.658 Y123.999 E.0169
G1 X104.661 Y86.001 E1.69382
G1 X104.125 Y86.001 E.0169
G1 X142.122 Y123.999 E1.69382
G1 X141.586 Y123.999 E.0169
G1 X103.589 Y86.001 E1.69382
G1 X103.053 Y86.001 E.0169
G1 X141.05 Y123.999 E1.69382
G1 X140.514 Y123.999 E.0169
G1 X102.517 Y86.001 E1.69382
G1 X101.981 Y86.001 E.0169
G1 X139.978 Y123.999 E1.69382
G1 X139.442 Y123.999 E.0169
G1 X101.445 Y86.001 E1.69382
G1 X100.908 Y86.001 E.01693
G1 X138.906 Y123.999 E1.69384
G1 X138.369 Y123.999 E.01693
G1 X100.372 Y86.001 E1.69382
G1 X99.836 Y86.001 E.0169
G1 X137.833 Y123.999 E1.69382
G1 X137.297 Y123.999 E.0169
M73 Q2 S125
G1 X99.3 Y86.001 E1.69382
G1 X98.764 Y86.001 E.0169
G1 X136.761 Y123.999 E1.69382
G1 X136.225 Y123.999 E.0169
G1 X98.228 Y86.001 E1.69382
G1 X97.692 Y86.001 E.0169
G1 X135.689 Y123.999 E1.69382
G1 X135.153 Y123.999 E.0169
M73 P3 R124
G1 X97.156 Y86.001 E1.69382
G1 X96.62 Y86.001 E.0169
M73 Q3 S125
G1 X134.617 Y123.999 E1.69382
G1 X134.081 Y123.999 E.0169
G1 X96.126 Y86.044 E1.69192
G1 X96.126 Y86.58 E.0169
G1 X133.545 Y123.999 E1.66803
G1 X133.008 Y123.999 E.01693
M73 P3 R123
G1 X96.126 Y87.117 E1.64409
G1 X96.126 Y87.653 E.0169
G1 X132.472 Y123.999 E1.6202
G1 X131.936 Y123.999 E.0169
G1 X96.126 Y88.189 E1.5963
G1 X96.126 Y88.725 E.0169
G1 X131.4 Y123.999 E1.57241
G1 X130.864 Y123.999 E.0169
G1 X96.126 Y89.261 E1.54852
G1 X96.126 Y89.797 E.0169
G1 X130.328 Y123.999 E1.52462
G1 X129.792 Y123.999 E.0169
G1 X96.126 Y90.333 E1.50073
G1 X96.126 Y90.869 E.0169
G1 X129.256 Y123.999 E1.47684
G1 X128.72 Y123.999 E.0169
G1 X96.126 Y91.405 E1.45294
G1 X96.126 Y91.941 E.0169
G1 X128.184 Y123.999 E1.42905
G1 X127.647 Y123.999 E.01693
G1 X96.126 Y92.478 E1.40511
G1 X96.126 Y93.014 E.0169
G1 X127.111 Y123.999 E1.38122
G1 X126.575 Y123.999 E.0169
G1 X96.126 Y93.55 E1.35733
G1 X96.126 Y94.086 E.0169
G1 X126.039 Y123.999 E1.33343
G1 X125.503 Y123.999 E.0169
G1 X96.126 Y94.622 E1.30954
G1 X96.126 Y95.158 E.0169
G1 X124.967 Y123.999 E1.28565
G1 X124.431 Y123.999 E.0169
M73 Q3 S124
G1 X96.126 Y95.694 E1.26175
G1 X96.126 Y96.23 E.0169
G1 X123.895 Y123.999 E1.23786
G1 X123.359 Y123.999 E.0169
G1 X96.126 Y96.766 E1.21397
G1 X96.126 Y97.302 E.0169
G1 X122.823 Y123.999 E1.19007
G1 X122.286 Y123.999 E.01693
G1 X96.126 Y97.839 E1.16613
G1 X96.126 Y98.375 E.0169
G1 X121.75 Y123.999 E1.14224
G1 X121.214 Y123.999 E.0169
G1 X96.126 Y98.911 E1.11835
G1 X96.126 Y99.447 E.0169
G1 X120.678 Y123.999 E1.09446
G1 X120.142 Y123.999 E.0169
G1 X96.126 Y99.983 E1.07056
G1 X96.126 Y100.519 E.0169
G1 X119.606 Y123.999 E1.04667
G1 X119.07 Y123.999 E.0169
G1 X96.126 Y101.055 E1.02278
G1 X96.126 Y101.591 E.0169
G1 X118.534 Y123.999 E.99888
G1 X117.998 Y123.999 E.0169
M73 P3 R122
G1 X96.126 Y102.127 E.97499
G1 X96.126 Y102.663 E.0169
G1 X117.462 Y123.999 E.9511
G1 X116.925 Y123.999 E.01693
G1 X96.126 Y103.2 E.92716
G1 X96.126 Y103.736 E.0169
G1 X116.389 Y123.999 E.90326
G1 X115.853 Y123.999 E.0169
M73 P4 R122
G1 X96.126 Y104.272 E.87937
G1 X96.126 Y104.808 E.0169
G1 X115.317 Y123.999 E.85548
G1 X114.781 Y123.999 E.0169
G1 X96.126 Y105.344 E.83158
G1 X96.126 Y105.88 E.0169
M73 Q4 S124
G1 X114.245 Y123.999 E.80769
G1 X113.709 Y123.999 E.0169
G1 X96.126 Y106.416 E.7838
G1 X96.126 Y106.952 E.0169
G1 X113.173 Y123.999 E.7599
G1 X112.637 Y123.999 E.0169
G1 X96.126 Y107.488 E.73601
G1 X96.126 Y108.025 E.01693
G1 X112.1 Y123.999 E.71207
G1 X111.564 Y123.999 E.0169
G1 X96.126 Y108.561 E.68818
G1 X96.126 Y109.097 E.0169
G1 X111.028 Y123.999 E.66429
G1 X110.492 Y123.999 E.0169
G1 X96.126 Y109.633 E.64039
G1 X96.126 Y110.169 E.0169
G1 X109.956 Y123.999 E.6165
G1 X109.42 Y123.999 E.0169
G1 X96.126 Y110.705 E.59261
G1 X96.126 Y111.241 E.0169
G1 X108.884 Y123.999 E.56871
G1 X108.348 Y123.999 E.0169
G1 X96.126 Y111.777 E.54482
G1 X96.126 Y112.313 E.0169
G1 X107.812 Y123.999 E.52093
G1 X107.276 Y123.999 E.0169
G1 X96.126 Y112.849 E.49703
G1 X96.126 Y113.386 E.01693
G1 X106.739 Y123.999 E.4731
G1 X106.203 Y123.999 E.0169
G1 X96.126 Y113.922 E.4492
G1 X96.126 Y114.458 E.0169
G1 X105.667 Y123.999 E.42531
G1 X105.131 Y123.999 E.0169
G1 X96.126 Y114.994 E.40142
G1 X96.126 Y115.53 E.0169
G1 X104.595 Y123.999 E.37752
G1 X104.059 Y123.999 E.0169
G1 X96.126 Y116.066 E.35363
G1 X96.126 Y116.602 E.0169
G1 X103.523 Y123.999 E.32974
G1 X102.987 Y123.999 E.0169
G1 X96.126 Y117.138 E.30584
G1 X96.126 Y117.674 E.0169
G1 X102.451 Y123.999 E.28195
G1 X101.915 Y123.999 E.0169
G1 X96.126 Y118.21 E.25806
G1 X96.126 Y118.747 E.01693
G1 X101.378 Y123.999 E.23412
G1 X100.842 Y123.999 E.0169
G1 X96.126 Y119.283 E.21023
G1 X96.126 Y119.819 E.0169
G1 X100.306 Y123.999 E.18633
G1 X99.77 Y123.999 E.0169
G1 X96.126 Y120.355 E.16244
G1 X96.126 Y120.891 E.0169
G1 X99.234 Y123.999 E.13855
G1 X98.698 Y123.999 E.0169
G1 X96.126 Y121.427 E.11465
G1 X96.126 Y121.963 E.0169
G1 X98.162 Y123.999 E.09076
G1 X97.626 Y123.999 E.0169
G1 X96.126 Y122.499 E.06687
G1 X96.126 Y123.035 E.0169
G1 X97.09 Y123.999 E.04297
G1 X96.554 Y123.999 E.0169
G1 X95.957 Y123.402 E.02661
M204 S1000
; stop printing object PI Shit.stl id:0 copy 0
M106 S84.15
;LAYER_CHANGE
;Z:0.35
;HEIGHT:0.15
;BEFORE_LAYER_CHANGE
G92 E0.0
;0.35


;WIPE_START
G1 F8640
G1 X96.554 Y123.999 E-.19495
G1 X97.09 Y123.999 E-.12376
G1 X96.126 Y123.035 E-.31479
G1 X96.126 Y122.499 E-.12376
G1 X96.257 Y122.63 E-.04274
;WIPE_END
G1 Z.35 F720
;AFTER_LAYER_CHANGE
;0.35
M104 S210 ; set temperature
G1 Z.75
G1 X92.623 Y122.63 F10800
G1 Z.35 F720
G1 E.8 F2100
;TYPE:Skirt/Brim
;WIDTH:0.42
G1 F3000
G1 X92.623 Y84.875 E.9131
G1 X93.015 Y83.568 E.033
G1 X94.06 Y82.692 E.03298
G1 X95 Y82.498 E.02321
G1 X155 Y82.498 E1.45109
G1 X156.307 Y82.89 E.033
G1 X157.183 Y83.935 E.03298
G1 X157.377 Y84.875 E.02321
G1 X157.377 Y125.125 E.97344
G1 X156.985 Y126.432 E.033
M73 Q4 S123
G1 X155.94 Y127.308 E.03298
G1 X155 Y127.502 E.02321
G1 X95 Y127.502 E1.45109
G1 X93.693 Y127.11 E.033
G1 X92.817 Y126.065 E.03298
G1 X92.623 Y125.125 E.02321
G1 X92.623 Y122.69 E.05889
; printing object PI Shit.stl id:0 copy 0
;WIPE_START
G1 F8640
G1 X92.623 Y122.63 E-.01385
G1 X92.623 Y119.225 E-.78615
;WIPE_END
G1 Z.75 F720
G1 X154.357 Y124.482 F10800
G1 Z.35 F720
G1 E.8 F2100
M204 S800
;TYPE:Perimeter
;WIDTH:0.449999
G1 F2700
G1 X95.643 Y124.482 E1.52984
G1 X95.643 Y85.518 E1.01524
G1 X154.357 Y85.518 E1.52984
G1 F2248.359
G1 X154.357 Y105 E.50762
G1 X154.357 Y124.422 E.50605
M204 S1000
G1 X154.775 Y124.9 F10800
M204 S800
;TYPE:External perimeter
G1 F1500
G1 X154.1 Y124.9 E.01759
G1 X95.9 Y124.9 E1.51644
G1 X95.225 Y124.9 E.01759
G1 X95.225 Y124.225 E.01759
G1 X95.225 Y85.775 E1.00184
G1 X95.225 Y85.1 E.01759
G1 X95.9 Y85.1 E.01759
G1 X154.1 Y85.1 E1.51644
G1 X154.775 Y85.1 E.01759
G1 X154.775 Y104.325 E.50092
G1 X154.775 Y105 E.01759
G1 X154.775 Y124.225 E.50092
G1 X154.775 Y124.84 E.01602
M204 S1000
;WIPE_START
G1 F8640
G1 X154.775 Y124.9 E-.01385
G1 X154.1 Y124.9 E-.15586
;WIPE_END
G1 E-.63029 F2100
G1 Z.75 F720
G1 X96.132 Y85.928 F10800
G1 Z.35 F720
G1 E.8 F2100
;TYPE:Solid infill
;WIDTH:0.55137
G1 F4800
G1 X96.086 Y85.882 E.00211
G1 X96.024 Y85.899 E.00208
G1 X96.007 Y85.961 E.00208
G1 X96.053 Y86.007 E.00211
G1 X96.115 Y85.99 E.00208
;WIDTH:0.449999
G1 X96.019 Y86.658 E.01758
G1 X96.783 Y85.894 E.02815
G1 X97.374 Y85.894 E.0154
G1 X96.019 Y87.249 E.04993
G1 X96.019 Y87.84 E.0154
G1 X97.965 Y85.894 E.07171
G1 X98.555 Y85.894 E.01537
G1 X96.019 Y88.43 E.09345
G1 X96.019 Y89.021 E.0154
G1 X99.146 Y85.894 E.11522
G1 X99.737 Y85.894 E.0154
G1 X96.019 Y89.612 E.137
G1 X96.019 Y90.203 E.0154
G1 X100.328 Y85.894 E.15878
G1 X100.919 Y85.894 E.0154
G1 X96.019 Y90.794 E.18056
G1 X96.019 Y91.385 E.0154
G1 X101.51 Y85.894 E.20233
G1 X102.101 Y85.894 E.0154
G1 X96.019 Y91.976 E.22411
