; generated by PrusaSlicer 2.6.1+win64 on 2023-09-19 at 17:43:27 UTC


;
;
; 

; external perimeters extrusion width = 0.45mm
; perimeters extrusion width = 0.45mm
; infill extrusion width = 0.45mm
; solid infill extrusion width = 0.45mm
; top infill extrusion width = 0.40mm
; first layer extrusion width = 0.42mm

M73 P0 R72
M73 Q0 S72
M201 X1000 Y1000 Z200 E5000 ; sets maximum accelerations, mm/sec^2
M203 X200 Y200 Z12 E120 ; sets maximum feedrates, mm / sec
M204 S1250 T1250 ; sets acceleration (S) and retract acceleration (R), mm/sec^2
M205 X8.00 Y8.00 Z0.40 E4.50 ; sets the jerk limits, mm/sec
M205 S0 T0 ; sets the minimum extruding and travel feed rate, mm/sec
;TYPE:Custom
M862.3 P "MK3S" ; printer model check
M862.1 P0.4 ; nozzle diameter check
M115 U3.12.2 ; tell printer latest fw version
G90 ; use absolute coordinates
M83 ; extruder relative mode
M104 S215 ; set extruder temp
M140 S60 ; set bed temp
M190 S60 ; wait for bed temp
M109 S215 ; wait for extruder temp
G28 W ; home all without mesh bed level
G80 ; mesh bed leveling

G1 Z0.2 F720
G1 Y-3 F1000 ; go outside print area
G92 E0
G1 X60 E9 F1000 ; intro line
G1 X100 E12.5 F1000 ; intro line

G92 E0
M221 S95

; Don't change E values below. Excessive value can damage the printer.
M907 E430 ; set extruder motor current
G21 ; set units to millimeters
G90 ; use absolute coordinates
M83 ; use relative distances for extrusion
M900 K0.05 ; Filament gcode LA 1.5
M900 K30 ; Filament gcode LA 1.0
M107
;LAYER_CHANGE
;Z:0.2
;HEIGHT:0.2
;BEFORE_LAYER_CHANGE
G92 E0.0
;0.2


G1 E-.8 F2100
G1 Z.4 F720
;AFTER_LAYER_CHANGE
;0.2
G1 X96.902 Y83.405 F10800
G1 Z.2 F720
G1 E.8 F2100
M204 S800
;TYPE:Skirt/Brim
;WIDTH:0.42
G1 F1200
G1 X102.997 Y76.323 E.29296
G1 X104.128 Y75.166 E.05073
G1 X105.155 Y74.327 E.04158
G1 X106.515 Y73.45 E.05074
G1 X107.972 Y72.747 E.05072
G1 X109.789 Y72.156 E.05991
G1 X111.38 Y71.866 E.05071
G1 X112.865 Y71.77 E.04666
G1 X146.045 Y71.774 E1.04034
G1 X147.659 Y71.881 E.05072
M73 P0 R71
G1 X148.963 Y72.117 E.04155
G1 X150.848 Y72.713 E.06199
G1 X152.254 Y73.369 E.04865
G1 X153.625 Y74.229 E.05074
G1 X154.662 Y75.054 E.04155
G1 X155.807 Y76.197 E.05073
G1 X156.901 Y77.611 E.05606
G1 X168.933 Y95.952 E.68777
G1 X169.323 Y97.256 E.04268
G1 X169.32 Y113.624 E.51321
G1 X168.928 Y114.931 E.04278
G1 X167.874 Y115.81 E.04303
G1 X115.692 Y138.045 E1.77847
G1 X114.76 Y138.236 E.02983
G1 X99.327 Y138.236 E.48389
G1 X97.602 Y137.494 E.05888
G1 X96.543 Y136.353 E.04881
G1 X95.64 Y135.131 E.04764
G1 X82.517 Y113.842 E.78413
G1 X81.704 Y112.224 E.05678
G1 X81.169 Y110.696 E.05076
G1 X80.826 Y109.115 E.05072
G1 X80.681 Y107.503 E.05075
G1 X80.735 Y105.886 E.05073
G1 X80.988 Y104.288 E.05073
G1 X81.435 Y102.733 E.05073
G1 X82.07 Y101.245 E.05073
G1 X82.884 Y99.846 E.05075
G1 X83.781 Y98.65 E.04687
G1 X96.863 Y83.45 E.62879
M204 S1000
; printing object planetary_3.stl id:0 copy 2
;WIPE_START
G1 F8640
G1 X99.123 Y80.824 E-.8
;WIPE_END
G1 Z.6 F720
G1 X156.592 Y94.887 F10800
G1 Z.2 F720
G1 E.8 F2100
M204 S800
;TYPE:Perimeter
;WIDTH:0.419999
G1 F1200
G1 X156.69 Y95.029 E.00541
G1 X156.891 Y95.149 E.00734
G1 X157.138 Y95.176 E.00779
G1 X158.571 Y95.001 E.04526
G1 X159.794 Y94.995 E.03835
G1 X161.009 Y95.133 E.03834
G1 X162.2 Y95.411 E.03835
G1 X163.351 Y95.826 E.03836
G1 X164.445 Y96.373 E.03835
G1 X165.468 Y97.044 E.03836
G1 X166.155 Y97.62 E.02811
G1 X166.155 Y112.836 E.47709
G1 X151.848 Y112.836 E.44859
G1 X151.231 Y112.186 E.0281
G1 X150.503 Y111.213 E.0381
G1 X149.893 Y110.163 E.03807
G1 X149.409 Y109.049 E.03808
G1 X149.055 Y107.88 E.0383
G1 X148.896 Y107.08 E.02557
G1 X148.799 Y106.263 E.0258
G1 X148.689 Y103.646 E.08213
G1 X148.462 Y101.888 E.05558
G1 X148.088 Y100.155 E.05559
G1 X147.585 Y98.504 E.05412
G1 X146.985 Y96.998 E.05083
G1 X146.909 Y96.814 E.00624
G1 X146.261 Y95.522 E.04532
G1 X146.013 Y95.063 E.01636
G1 X145.813 Y94.911 E.00788
G1 X145.643 Y94.864 E.00553
G1 X144.255 Y94.708 E.04379
G1 X143.061 Y94.421 E.0385
G1 X141.911 Y93.989 E.03852
G1 X140.823 Y93.419 E.03851
G1 X139.814 Y92.719 E.0385
G1 X138.898 Y91.901 E.03851
G1 X138.09 Y90.976 E.03851
G1 X137.402 Y89.958 E.03852
G1 X136.844 Y88.864 E.03851
G1 X136.425 Y87.709 E.03852
G1 X136.152 Y86.512 E.03849
G1 X136.028 Y85.29 E.03851
G1 X136.055 Y84.062 E.03851
G1 X136.233 Y82.847 E.0385
G1 X136.56 Y81.663 E.03851
G1 X137.029 Y80.528 E.03851
G1 X137.635 Y79.459 E.03853
G1 X138.368 Y78.474 E.0385
G1 X139.216 Y77.585 E.03852
G1 X140.167 Y76.808 E.0385
G1 X141.207 Y76.154 E.03852
G1 X142.319 Y75.633 E.0385
G1 X143.487 Y75.253 E.03851
G1 X144.691 Y75.019 E.03846
G1 X145.971 Y74.939 E.04021
G1 X147.145 Y75.004 E.03687
G1 X148.353 Y75.222 E.03849
G1 X149.526 Y75.587 E.03852
G1 X150.645 Y76.094 E.03852
G1 X151.692 Y76.735 E.03849
G1 X152.653 Y77.5 E.03851
G1 X153.513 Y78.377 E.03851
G1 X154.258 Y79.354 E.03852
G1 X154.877 Y80.414 E.03849
G1 X155.361 Y81.543 E.03851
G1 X155.703 Y82.723 E.03852
G1 X155.896 Y83.936 E.03851
G1 X155.939 Y85.163 E.0385
G1 X155.831 Y86.387 E.03853
G1 X155.573 Y87.587 E.03848
G1 X155.169 Y88.747 E.03851
G1 X154.54 Y90.023 E.0446
G1 X154.501 Y90.324 E.00952
G1 X154.559 Y90.505 E.00596
G1 X155.304 Y91.934 E.05053
G1 X155.924 Y93.278 E.04641
G1 X156.558 Y94.838 E.0528
M204 S1000
G1 X156.899 Y94.684 F10800
M204 S800
;TYPE:External perimeter
G1 F1200
G1 X156.946 Y94.752 E.00259
G1 X157.095 Y94.801 E.00492
G1 X158.547 Y94.624 E.04586
G1 X159.814 Y94.618 E.03973
G1 X161.074 Y94.761 E.03976
G1 X162.308 Y95.049 E.03973
G1 X163.5 Y95.479 E.03973
G1 X164.633 Y96.046 E.03972
G1 X165.693 Y96.741 E.03974
G1 X166.532 Y97.444 E.03432
G1 X166.532 Y113.213 E.49443
G1 X151.686 Y113.213 E.46549
G1 X150.942 Y112.429 E.03389
G1 X150.188 Y111.422 E.03944
G1 X149.556 Y110.334 E.03945
G1 X149.054 Y109.18 E.03946
G1 X148.689 Y107.972 E.03957
G1 X148.523 Y107.14 E.0266
G1 X148.423 Y106.293 E.02674
G1 X148.315 Y103.694 E.08156
G1 X148.094 Y101.967 E.05459
G1 X147.728 Y100.265 E.05458
G1 X147.224 Y98.614 E.05412
G1 X146.635 Y97.138 E.04983
G1 X146.572 Y96.983 E.00525
G1 X145.724 Y95.305 E.05895
G1 X145.601 Y95.239 E.00438
G1 X144.19 Y95.08 E.04452
G1 X142.95 Y94.782 E.03999
G1 X141.757 Y94.334 E.03996
G1 X140.628 Y93.742 E.03997
G1 X139.58 Y93.016 E.03997
G1 X138.629 Y92.166 E.03999
G1 X137.791 Y91.206 E.03995
G1 X137.076 Y90.15 E.03999
G1 X136.498 Y89.014 E.03996
G1 X136.063 Y87.816 E.03996
G1 X135.779 Y86.573 E.03998
G1 X135.65 Y85.305 E.03996
G1 X135.679 Y84.03 E.03999
G1 X135.864 Y82.769 E.03996
G1 X136.202 Y81.54 E.03997
G1 X136.69 Y80.362 E.03998
G1 X137.319 Y79.253 E.03998
G1 X138.079 Y78.23 E.03996
G1 X138.96 Y77.308 E.03998
G1 X139.947 Y76.502 E.03995
G1 X141.026 Y75.823 E.03997
G1 X142.18 Y75.282 E.03996
G1 X143.392 Y74.887 E.03997
G1 X144.643 Y74.645 E.03995
G1 X145.969 Y74.561 E.04166
G1 X147.189 Y74.628 E.03831
G1 X148.443 Y74.855 E.03996
G1 X149.66 Y75.234 E.03997
G1 X150.821 Y75.76 E.03996
G1 X151.909 Y76.425 E.03998
G1 X152.906 Y77.219 E.03996
G1 X153.799 Y78.13 E.04
G1 X154.572 Y79.143 E.03995
G1 X155.215 Y80.244 E.03998
G1 X155.717 Y81.416 E.03998
G1 X156.072 Y82.64 E.03996
G1 X156.273 Y83.899 E.03997
G1 X156.317 Y85.173 E.03997
G1 X156.204 Y86.443 E.03998
G1 X155.936 Y87.689 E.03996
G1 X155.517 Y88.893 E.03997
G1 X154.887 Y90.17 E.04465
G1 X154.894 Y90.331 E.00505
G1 X155.643 Y91.768 E.05081
G1 X156.271 Y93.128 E.04697
G1 X156.877 Y94.629 E.05075
M204 S1000
G1 X156.859 Y94.756 F10800
;WIPE_START
G1 F8640
G1 X156.946 Y94.752 E-.03256
G1 X157.095 Y94.801 E-.03622
G1 X158.547 Y94.624 E-.33775
G1 X159.814 Y94.618 E-.29256
G1 X160.248 Y94.667 E-.10091
;WIPE_END
G1 Z.6 F720
G1 X162.954 Y108.436 F10800
G1 Z.2 F720
G1 E.8 F2100
M204 S800
;TYPE:Perimeter
G1 F1200
G1 X162.354 Y109.062 E.02719
G1 X161.531 Y109.637 E.03148
G1 X160.639 Y110.015 E.03038
G1 X159.69 Y110.205 E.03035
G1 X158.721 Y110.2 E.03038
G1 X157.774 Y110.001 E.03034
G1 X156.886 Y109.615 E.03036
G1 X156.094 Y109.057 E.03038
G1 X155.43 Y108.352 E.03037
G1 X154.922 Y107.528 E.03035
G1 X154.59 Y106.618 E.03037
G1 X154.448 Y105.661 E.03033
G1 X154.502 Y104.694 E.03037
G1 X154.791 Y103.651 E.03393
G1 X155.18 Y102.89 E.0268
G1 X155.777 Y102.127 E.03038
G1 X156.514 Y101.5 E.03034
G1 X157.363 Y101.035 E.03035
G1 X158.271 Y100.755 E.02979
G1 X158.99 Y100.678 E.02267
G1 X159.343 Y100.667 E.01107
G1 X160.211 Y100.758 E.02736
G1 X161.138 Y101.053 E.0305
G1 X162.075 Y101.594 E.03392
G1 X162.714 Y102.162 E.02681
G1 X163.303 Y102.93 E.03035
G1 X163.725 Y103.802 E.03037
G1 X163.963 Y104.74 E.03034
G1 X164.007 Y105.708 E.03038
G1 X163.856 Y106.664 E.03035
G1 X163.515 Y107.57 E.03035
G1 X162.996 Y108.393 E.03051
M204 S1000
G1 X162.691 Y108.172 F10800
M204 S800
;TYPE:External perimeter
G1 F1200
G1 X162.085 Y108.797 E.0273
G1 X161.321 Y109.324 E.0291
G1 X160.496 Y109.666 E.028
G1 X159.62 Y109.835 E.02797
G1 X158.728 Y109.823 E.02797
G1 X157.856 Y109.633 E.02798
G1 X157.04 Y109.271 E.02799
G1 X156.314 Y108.752 E.02798
G1 X155.708 Y108.097 E.02798
G1 X155.245 Y107.334 E.02798
G1 X154.946 Y106.493 E.02799
G1 X154.822 Y105.61 E.02796
G1 X154.878 Y104.719 E.02799
G1 X155.127 Y103.823 E.02916
G1 X155.516 Y103.062 E.0268
G1 X156.071 Y102.363 E.02798
G1 X156.755 Y101.791 E.02796
G1 X157.541 Y101.367 E.028
G1 X158.378 Y101.116 E.0274
G1 X159.303 Y101.042 E.0291
G1 X160.169 Y101.133 E.0273
G1 X161.019 Y101.411 E.02804
G1 X161.714 Y101.808 E.0251
G1 X162.463 Y102.444 E.03081
G1 X163.001 Y103.156 E.02798
G1 X163.383 Y103.962 E.02797
G1 X163.596 Y104.829 E.02799
G1 X163.63 Y105.72 E.02796
G1 X163.484 Y106.601 E.028
G1 X163.164 Y107.434 E.02798
G1 X162.723 Y108.121 E.0256
M204 S1000
G1 X162.839 Y108.543 F10800
;WIPE_START
G1 F8640
G1 X162.085 Y108.797 E-.21463
G1 X161.321 Y109.324 E-.21431
G1 X160.496 Y109.666 E-.20621
G1 X159.795 Y109.801 E-.16485
;WIPE_END
G1 Z.6 F720
G1 X142.151 Y87.756 F10800
G1 Z.2 F720
G1 E.8 F2100
M204 S800
;TYPE:Perimeter
G1 F1200
G1 X141.626 Y86.88 E.03202
G1 X141.343 Y86.074 E.02678
G1 X141.201 Y85.116 E.03037
G1 X141.274 Y84.036 E.03394
G1 X141.503 Y83.21 E.02688
G1 X141.933 Y82.345 E.03029
G1 X142.378 Y81.771 E.02277
G1 X142.632 Y81.483 E.01204
G1 X143.27 Y80.953 E.02601
G1 X144.116 Y80.49 E.03024
G1 X144.872 Y80.255 E.02482
G1 X145.239 Y80.176 E.01177
G1 X146.005 Y80.111 E.0241
G1 X147.051 Y80.23 E.03301
G1 X147.784 Y80.473 E.02421
G1 X148.132 Y80.635 E.01204
G1 X148.735 Y80.983 E.02183
G1 X149.544 Y81.701 E.03391
G1 X150.055 Y82.386 E.0268
G1 X150.477 Y83.257 E.03035
G1 X150.731 Y84.309 E.03393
G1 X150.76 Y85.166 E.02689
G1 X150.608 Y86.119 E.03026
G1 X150.216 Y87.128 E.03394
G1 X149.751 Y87.845 E.02679
G1 X149.081 Y88.543 E.03034
G1 X148.486 Y88.957 E.02273
G1 X148.182 Y89.146 E.01122
G1 X147.392 Y89.47 E.02677
G1 X146.442 Y89.66 E.03038
G1 X145.474 Y89.656 E.03035
G1 X144.526 Y89.456 E.03038
G1 X143.564 Y89.029 E.033
G1 X142.938 Y88.578 E.02419
G1 X142.654 Y88.32 E.01203
G1 X142.183 Y87.807 E.02184
M204 S1000
G1 X142.474 Y87.567 F10800
M204 S800
;TYPE:External perimeter
G1 F1200
G1 X141.982 Y86.755 E.02977
G1 X141.699 Y85.949 E.02678
G1 X141.575 Y85.065 E.02799
G1 X141.61 Y84.48 E.01838
G1 X141.637 Y84.137 E.01079
G1 X141.866 Y83.312 E.02685
G1 X142.268 Y82.517 E.02793
G1 X142.872 Y81.773 E.03005
G1 X143.509 Y81.245 E.02594
G1 X144.293 Y80.823 E.02792
G1 X144.979 Y80.616 E.02247
G1 X145.271 Y80.552 E.00937
G1 X146.037 Y80.487 E.0241
G1 X146.924 Y80.588 E.02799
G1 X147.666 Y80.831 E.02448
G1 X148.546 Y81.309 E.0314
G1 X149.242 Y81.927 E.02918
G1 X149.753 Y82.611 E.02677
G1 X150.136 Y83.417 E.02798
G1 X150.354 Y84.322 E.02919
G1 X150.383 Y85.177 E.02682
G1 X150.237 Y86.056 E.02794
G1 X149.899 Y86.923 E.02918
G1 X149.435 Y87.64 E.02678
G1 X148.812 Y88.279 E.02798
G1 X148.04 Y88.797 E.02915
G1 X147.249 Y89.121 E.0268
G1 X146.373 Y89.29 E.02797
G1 X145.48 Y89.279 E.028
G1 X144.609 Y89.088 E.02796
G1 X143.793 Y88.726 E.02799
G1 X143.158 Y88.273 E.02446
G1 X142.516 Y87.61 E.02894
M204 S1000
G1 X142.077 Y87.616 F10800
;WIPE_START
G1 F8640
G1 X141.982 Y86.755 E-.23276
G1 X141.699 Y85.949 E-.19725
G1 X141.575 Y85.065 E-.20612
G1 X141.61 Y84.48 E-.13532
G1 X141.62 Y84.357 E-.02855
;WIPE_END
G1 Z.6 F720
G1 X165.986 Y98.351 F10800
G1 Z.2 F720
G1 E.8 F2100
M204 S800
;TYPE:Solid infill
;WIDTH:0.425538
G1 F1200
G1 X164.356 Y96.721 E.07334
G1 X163.249 Y96.155 E.03956
G1 X165.816 Y98.722 E.1155
G1 X165.816 Y99.263 E.01721
M73 Q0 S71
G1 X162.395 Y95.842 E.15392
G1 X162.104 Y95.737 E.00984
G1 X161.641 Y95.629 E.01513
G1 X165.816 Y99.804 E.18785
G1 X165.816 Y100.345 E.01721
G1 X160.937 Y95.466 E.21952
G1 X160.327 Y95.397 E.01953
G1 X165.816 Y100.886 E.24697
G1 X165.816 Y101.427 E.01721
G1 X159.724 Y95.335 E.2741
G1 X159.185 Y95.337 E.01715
G1 X165.816 Y101.969 E.29837
G1 X165.816 Y102.51 E.01721
G1 X158.646 Y95.34 E.3226
G1 X158.158 Y95.393 E.01562
M73 Q1 S71
G1 X165.816 Y103.051 E.34456
G1 X165.816 Y103.592 E.01721
M73 P1 R71
G1 X157.524 Y95.3 E.37308
M204 S1000
;WIPE_START
G1 F8640
G1 X159.974 Y97.75 E-.8
;WIPE_END
G1 Z.6 F720
G1 X151.463 Y76.794 F10800
G1 Z.2 F720
G1 E.8 F2100
M204 S800
G1 F1200
G1 X153.256 Y78.6 E.08097
G1 X153.976 Y79.543 E.03775
G1 X154.403 Y80.274 E.02693
G1 X150.583 Y76.454 E.17187
G1 X150.485 Y76.395 E.00364
G1 X149.565 Y75.978 E.03214
G1 X154.888 Y81.301 E.2395
G1 X155.041 Y81.658 E.01236
G1 X155.179 Y82.132 E.01571
G1 X148.746 Y75.7 E.28942
G1 X148.272 Y75.552 E.0158
G1 X148.01 Y75.505 E.00847
G1 X155.384 Y82.879 E.33178
G1 X155.487 Y83.523 E.02075
G1 X147.349 Y75.385 E.36615
G1 X147.105 Y75.341 E.00789
G1 X146.744 Y75.321 E.0115
G1 X155.564 Y84.141 E.39684
G1 X155.584 Y84.702 E.01786
G1 X146.171 Y75.29 E.4235
G1 X145.972 Y75.279 E.00634
G1 X145.64 Y75.3 E.01058
G1 X155.591 Y85.25 E.4477
G1 X155.547 Y85.747 E.01587
G1 X145.131 Y75.332 E.46862
G1 X144.635 Y75.376 E.01584
G1 X155.503 Y86.244 E.48898
G1 X155.417 Y86.699 E.01473
G1 X144.181 Y75.464 E.50552
G1 X143.728 Y75.552 E.01468
G1 X155.321 Y87.145 E.5216
G1 X155.216 Y87.581 E.01427
G1 X150.811 Y83.176 E.19819
G1 X150.992 Y83.898 E.02368
G1 X155.076 Y87.982 E.18375
G1 X154.936 Y88.383 E.01351
G1 X151.076 Y84.523 E.17367
G1 X151.092 Y85.08 E.01773
G1 X154.78 Y88.768 E.16593
G1 X154.602 Y89.131 E.01286
G1 X151.043 Y85.572 E.16013
G1 X150.963 Y86.034 E.01492
G1 X154.423 Y89.493 E.15565
G1 X154.244 Y89.856 E.01288
G1 X150.849 Y86.46 E.15277
G1 X150.697 Y86.85 E.01332
G1 X154.163 Y90.315 E.15592
G1 X154.164 Y90.376 E.00194
G1 X154.253 Y90.65 E.00917
G1 X154.575 Y91.268 E.02217
G1 X150.543 Y87.237 E.18139
G1 X150.331 Y87.566 E.01245
G1 X155.129 Y92.364 E.21588
G1 X155.592 Y93.368 E.03517
G1 X150.118 Y87.894 E.24629
G1 X149.982 Y88.106 E.00801
G1 X149.886 Y88.203 E.00434
G1 X155.963 Y94.28 E.27342
G1 X156.24 Y94.966 E.02354
G1 X156.369 Y95.184 E.00806
G1 X156.601 Y95.387 E.00981
G1 X156.78 Y95.471 E.00629
G1 X156.961 Y95.512 E.0059
G1 X157.194 Y95.511 E.00741
G1 X165.816 Y104.133 E.38793
G1 X165.816 Y104.674 E.01721
G1 X149.618 Y88.476 E.7288
G1 X149.349 Y88.748 E.01217
G1 X161.404 Y100.803 E.54239
G1 X162.158 Y101.237 E.02768
G1 X162.295 Y101.335 E.00536
G1 X162.945 Y101.913 E.02767
G1 X163.058 Y102.037 E.00534
G1 X163.579 Y102.733 E.02766
G1 X163.831 Y103.231 E.01776
G1 X165.816 Y105.215 E.08929
G1 X165.816 Y105.756 E.01721
G1 X164.157 Y104.097 E.07464
G1 X164.312 Y104.793 E.02269
G1 X165.816 Y106.297 E.06767
G1 X165.816 Y106.838 E.01721
G1 X164.335 Y105.357 E.06663
G1 X164.347 Y105.736 E.01206
G1 X164.323 Y105.887 E.00486
G1 X165.816 Y107.38 E.06717
G1 X165.816 Y107.921 E.01721
G1 X164.249 Y106.354 E.0705
G1 X164.166 Y106.812 E.01481
G1 X165.816 Y108.462 E.07424
G1 X165.816 Y109.003 E.01721
G1 X164.021 Y107.208 E.08076
G1 X163.869 Y107.597 E.01329
G1 X165.816 Y109.544 E.0876
G1 X165.816 Y110.085 E.01721
G1 X163.685 Y107.954 E.09588
G1 X163.472 Y108.283 E.01247
G1 X165.816 Y110.626 E.10544
G1 X165.816 Y111.167 E.01721
G1 X163.257 Y108.608 E.11514
G1 X162.998 Y108.891 E.01221
G1 X165.816 Y111.708 E.12677
G1 X165.816 Y112.25 E.01724
G1 X162.73 Y109.164 E.13885
G1 X162.451 Y109.426 E.01218
G1 X165.522 Y112.497 E.13817
G1 X164.981 Y112.497 E.01721
G1 X162.129 Y109.645 E.12832
G1 X161.805 Y109.862 E.01241
G1 X164.44 Y112.497 E.11856
G1 X163.899 Y112.497 E.01721
