; generated by PrusaSlicer 2.7.0+win64 on 2023-12-25 at 02:57:40 UTC


;
;
; 

; external perimeters extrusion width = 0.45mm
; perimeters extrusion width = 0.45mm
; infill extrusion width = 0.45mm
; solid infill extrusion width = 0.45mm
; top infill extrusion width = 0.40mm
; first layer extrusion width = 0.42mm

; external perimeters extrusion width = 0.45mm
; perimeters extrusion width = 0.45mm
; infill extrusion width = 0.45mm
; solid infill extrusion width = 0.45mm
; top infill extrusion width = 0.40mm
; first layer extrusion width = 0.42mm

; external perimeters extrusion width = 0.45mm
; perimeters extrusion width = 0.45mm
; infill extrusion width = 0.45mm
; solid infill extrusion width = 0.45mm
; top infill extrusion width = 0.40mm
; first layer extrusion width = 0.42mm

M73 P0 R185
M73 Q0 S188
M201 X1000 Y1000 Z200 E5000 ; sets maximum accelerations, mm/sec^2
M203 X200 Y200 Z12 E120 ; sets maximum feedrates, mm / sec
M204 S1250 T1250 ; sets acceleration (S) and retract acceleration (R), mm/sec^2
M205 X8.00 Y8.00 Z0.40 E4.50 ; sets the jerk limits, mm/sec
M205 S0 T0 ; sets the minimum extruding and travel feed rate, mm/sec

; printing object RGYB_Lid_Final.stl id:1 copy 0
; stop printing object RGYB_Lid_Final.stl id:1 copy 0
; printing object PPPP_Lid_Final.stl id:0 copy 0
; stop printing object PPPP_Lid_Final.stl id:0 copy 0
; printing object Box_Bottom.stl id:2 copy 0
; stop printing object Box_Bottom.stl id:2 copy 0

;TYPE:Custom
M862.3 P "MK3S" ; printer model check
M862.1 P0.4 ; nozzle diameter check
M115 U3.13.2 ; tell printer latest fw version
G90 ; use absolute coordinates
M83 ; extruder relative mode
M104 S215 ; set extruder temp
M140 S60 ; set bed temp
M190 S60 ; wait for bed temp
M109 S215 ; wait for extruder temp
G28 W ; home all without mesh bed level
G80 X72.9145 Y37.5289 W104.171 H133.963 ; mesh bed levelling

G1 Z0.2 F720
G1 Y-3 F1000 ; go outside print area
G92 E0
G1 X60 E9 F1000 ; intro line
G1 X100 E12.5 F1000 ; intro line

G92 E0
M221 S95

; Don't change E values below. Excessive value can damage the printer.

M907 E538 ; set extruder motor current
G21 ; set units to millimeters
G90 ; use absolute coordinates
M83 ; use relative distances for extrusion
M900 K0.05 ; Filament gcode LA 1.5
M900 K30 ; Filament gcode LA 1.0

M107
;LAYER_CHANGE
;Z:0.2
;HEIGHT:0.2
;BEFORE_LAYER_CHANGE
G92 E0.0
;0.2


G1 E-.8 F2100
G1 Z.2 F720
;AFTER_LAYER_CHANGE
;0.2
G1 X73.491 Y39.074 F10800
G1 Z.2 F720
G1 E.8 F2100
M204 S800
;TYPE:Skirt/Brim
;WIDTH:0.42
G1 F1200
G1 X74.534 Y38.195 E.04277
G1 X75.473 Y37.998 E.03008
G1 X174.214 Y37.717 E3.09597
G1 X175.522 Y38.105 E.04278
G1 X176.401 Y39.149 E.04279
G1 X176.598 Y40.084 E.02996
G1 X176.897 Y120.892 E2.5337
G1 X175.89 Y167.623 E1.46556
G1 X175.795 Y168.362 E.02336
G1 X175.565 Y169.069 E.02331
G1 X174.935 Y170.049 E.03653
G1 X174.034 Y170.786 E.0365
G1 X173.656 Y170.978 E.01329
G1 X172.949 Y171.208 E.02331
G1 X172.158 Y171.304 E.02498
G1 X78.158 Y171.304 E2.9473
G1 X77.367 Y171.208 E.02498
G1 X76.66 Y170.978 E.02331
G1 X75.681 Y170.349 E.03649
G1 X75.381 Y170.049 E.0133
G1 X74.751 Y169.069 E.03653
G1 X74.521 Y168.362 E.02331
G1 X74.426 Y167.624 E.02333
G1 X73.403 Y121.232 E1.45494
G1 X73.103 Y40.382 E2.53501
G1 X73.474 Y39.132 E.04088
M204 S1000
; printing object Box_Bottom.stl id:2 copy 0
;WIPE_START
G1 F8640
G1 X73.491 Y39.074 E-.01396
G1 X74.534 Y38.195 E-.31495
G1 X75.473 Y37.998 E-.22154
G1 X76.554 Y37.995 E-.24955
;WIPE_END
G1 Z.6 F720
G1 X78.262 Y129.676 F10800
G1 Z.2 F720
G1 E.8 F2100
M204 S800
;TYPE:Perimeter
;WIDTH:0.419999
G1 F1200
G1 X172.053 Y129.676 E2.94075
G1 X172.054 Y167.467 E1.18491
M73 P0 R184
G1 X78.262 Y167.467 E2.94078
M73 Q0 S187
G1 X78.262 Y129.736 E1.18303
M204 S1000
G1 X78.03 Y129.358 F10800
M204 S800
;TYPE:External perimeter
G1 F1200
G1 X78.19 Y129.298 E.00536
G1 X172.053 Y129.298 E2.943
G1 X172.312 Y129.362 E.00837
G1 X172.415 Y129.504 E.0055
G1 X172.431 Y129.628 E.00392
G1 X172.431 Y167.467 E1.18641
G1 X172.368 Y167.725 E.00833
G1 X172.286 Y167.785 E.00319
G1 X172.126 Y167.845 E.00536
G1 X78.262 Y167.845 E2.94303
G1 X78.004 Y167.782 E.00833
G1 X77.944 Y167.699 E.00321
G1 X77.885 Y167.539 E.00535
G1 X77.885 Y129.676 E1.18717
G1 X77.948 Y129.418 E.00833
G1 X77.982 Y129.393 E.00132
M204 S1000
;WIPE_START
G1 F8640
G1 X78.03 Y129.358 E-.01372
G1 X78.19 Y129.298 E-.03946
G1 X81.424 Y129.298 E-.74682
;WIPE_END
G1 Z.6 F720
G1 X171.12 Y129.845 F10800
G1 Z.2 F720
G1 E.8 F2100
M204 S800
;TYPE:Solid infill
;WIDTH:0.420951
G1 F1200
G1 X171.715 Y130.44 E.02645
G1 X171.715 Y130.974 E.01679
G1 X170.755 Y130.015 E.04265
G1 X170.221 Y130.015 E.01679
G1 X171.715 Y131.509 E.06641
G1 X171.715 Y132.043 E.01679
G1 X169.686 Y130.015 E.09017
G1 X169.151 Y130.015 E.01682
G1 X171.715 Y132.578 E.11396
G1 X171.715 Y133.113 E.01682
G1 X168.617 Y130.015 E.13772
G1 X168.082 Y130.015 E.01682
G1 X171.715 Y133.647 E.16148
G1 X171.715 Y134.182 E.01682
G1 X167.547 Y130.015 E.18526
G1 X167.013 Y130.015 E.01679
G1 X171.715 Y134.717 E.20902
G1 X171.715 Y135.251 E.01679
G1 X166.478 Y130.015 E.23278
G1 X165.944 Y130.015 E.01679
G1 X171.715 Y135.786 E.25654
G1 X171.715 Y136.32 E.01679
G1 X165.409 Y130.015 E.2803
G1 X164.874 Y130.015 E.01682
G1 X171.715 Y136.855 E.30408
G1 X171.715 Y137.39 E.01682
G1 X164.34 Y130.015 E.32784
G1 X163.805 Y130.015 E.01682
G1 X171.715 Y137.924 E.35161
G1 X171.715 Y138.459 E.01682
G1 X163.271 Y130.015 E.37537
G1 X162.736 Y130.015 E.01682
G1 X171.715 Y138.993 E.39913
G1 X171.715 Y139.528 E.01682
G1 X162.201 Y130.015 E.42291
G1 X161.667 Y130.015 E.01679
G1 X171.715 Y140.063 E.44667
G1 X171.715 Y140.597 E.01679
G1 X161.132 Y130.015 E.47043
G1 X160.597 Y130.015 E.01682
G1 X171.715 Y141.132 E.49421
G1 X171.715 Y141.667 E.01682
G1 X160.063 Y130.015 E.51797
G1 X159.528 Y130.015 E.01682
G1 X171.715 Y142.201 E.54173
G1 X171.715 Y142.736 E.01682
G1 X158.994 Y130.015 E.56549
G1 X158.459 Y130.015 E.01682
G1 X171.715 Y143.27 E.58925
G1 X171.715 Y143.805 E.01682
G1 X157.924 Y130.015 E.61304
G1 X157.39 Y130.015 E.01679
G1 X171.715 Y144.34 E.6368
G1 X171.715 Y144.874 E.01679
G1 X156.855 Y130.015 E.66056
G1 X156.321 Y130.015 E.01679
G1 X171.715 Y145.409 E.68432
G1 X171.715 Y145.943 E.01679
G1 X155.786 Y130.015 E.70808
G1 X155.251 Y130.015 E.01682
G1 X171.715 Y146.478 E.73186
G1 X171.715 Y147.013 E.01682
G1 X154.717 Y130.015 E.75562
G1 X154.182 Y130.015 E.01682
G1 X171.715 Y147.547 E.77938
G1 X171.715 Y148.082 E.01682
G1 X153.647 Y130.015 E.80316
G1 X153.113 Y130.015 E.01679
G1 X171.715 Y148.617 E.82692
G1 X171.715 Y149.151 E.01679
G1 X152.578 Y130.015 E.85069
G1 X152.044 Y130.015 E.01679
G1 X171.715 Y149.686 E.87445
G1 X171.715 Y150.22 E.01679
G1 X151.509 Y130.015 E.89821
G1 X150.974 Y130.015 E.01682
G1 X171.715 Y150.755 E.92199
G1 X171.715 Y151.29 E.01682
G1 X150.44 Y130.015 E.94575
G1 X149.905 Y130.015 E.01682
G1 X171.715 Y151.824 E.96951
G1 X171.715 Y152.359 E.01682
G1 X149.371 Y130.015 E.99327
G1 X148.836 Y130.015 E.01682
G1 X171.715 Y152.894 E1.01705
G1 X171.715 Y153.428 E.01679
M73 P0 R183
G1 X148.301 Y130.015 E1.04081
G1 X147.767 Y130.015 E.01679
M73 Q0 S186
G1 X171.715 Y153.963 E1.06457
G1 X171.715 Y154.497 E.01679
G1 X147.232 Y130.015 E1.08833
G1 X146.697 Y130.015 E.01682
G1 X171.715 Y155.032 E1.11212
G1 X171.715 Y155.567 E.01682
G1 X146.163 Y130.015 E1.13588
G1 X145.628 Y130.015 E.01682
G1 X171.715 Y156.101 E1.15964
G1 X171.715 Y156.636 E.01682
G1 X145.094 Y130.015 E1.1834
G1 X144.559 Y130.015 E.01682
G1 X171.715 Y157.17 E1.20716
G1 X171.715 Y157.705 E.01682
G1 X144.024 Y130.015 E1.23094
G1 X143.49 Y130.015 E.01679
M73 P1 R183
G1 X171.715 Y158.24 E1.2547
G1 X171.715 Y158.774 E.01679
M73 Q1 S186
G1 X142.955 Y130.015 E1.27846
G1 X142.421 Y130.015 E.01679
G1 X171.715 Y159.309 E1.30222
G1 X171.715 Y159.844 E.01682
G1 X141.886 Y130.015 E1.326
G1 X141.351 Y130.015 E.01682
G1 X171.715 Y160.378 E1.34977
G1 X171.715 Y160.913 E.01682
G1 X140.817 Y130.015 E1.37353
G1 X140.282 Y130.015 E.01682
G1 X171.715 Y161.447 E1.39729
G1 X171.715 Y161.982 E.01682
G1 X139.747 Y130.015 E1.42107
G1 X139.213 Y130.015 E.01679
G1 X171.715 Y162.517 E1.44483
G1 X171.715 Y163.051 E.01679
G1 X138.678 Y130.015 E1.46859
G1 X138.144 Y130.015 E.01679
G1 X171.715 Y163.586 E1.49235
G1 X171.715 Y164.12 E.01679
G1 X137.609 Y130.015 E1.51611
G1 X137.074 Y130.015 E.01682
G1 X171.715 Y164.655 E1.53989
G1 X171.715 Y165.19 E.01682
G1 X136.54 Y130.015 E1.56365
G1 X136.005 Y130.015 E.01682
G1 X171.715 Y165.724 E1.58741
G1 X171.715 Y166.259 E.01682
G1 X135.47 Y130.015 E1.6112
G1 X134.936 Y130.015 E.01679
G1 X171.715 Y166.794 E1.63496
G1 X171.715 Y167.128 E.0105
G1 X171.515 Y167.128 E.00629
G1 X134.401 Y130.015 E1.64983
G1 X133.867 Y130.015 E.01679
M73 P1 R182
G1 X170.98 Y167.128 E1.6498
G1 X170.446 Y167.128 E.01679
M73 Q1 S185
G1 X133.332 Y130.015 E1.64983
G1 X132.797 Y130.015 E.01682
G1 X169.911 Y167.128 E1.64983
G1 X169.376 Y167.128 E.01682
G1 X132.263 Y130.015 E1.6498
G1 X131.728 Y130.015 E.01682
G1 X168.842 Y167.128 E1.64983
G1 X168.307 Y167.128 E.01682
G1 X131.194 Y130.015 E1.6498
G1 X130.659 Y130.015 E.01682
G1 X167.772 Y167.128 E1.6498
G1 X167.238 Y167.128 E.01679
G1 X130.124 Y130.015 E1.64983
G1 X129.59 Y130.015 E.01679
G1 X166.703 Y167.128 E1.6498
G1 X166.169 Y167.128 E.01679
G1 X129.055 Y130.015 E1.64983
G1 X128.52 Y130.015 E.01682
G1 X165.634 Y167.128 E1.64983
G1 X165.099 Y167.128 E.01682
G1 X127.986 Y130.015 E1.6498
G1 X127.451 Y130.015 E.01682
G1 X164.565 Y167.128 E1.64983
G1 X164.03 Y167.128 E.01682
G1 X126.917 Y130.015 E1.6498
G1 X126.382 Y130.015 E.01682
G1 X163.496 Y167.128 E1.64983
G1 X162.961 Y167.128 E.01682
G1 X125.847 Y130.015 E1.64983
G1 X125.313 Y130.015 E.01679
G1 X162.426 Y167.128 E1.6498
G1 X161.892 Y167.128 E.01679
G1 X124.778 Y130.015 E1.64983
G1 X124.244 Y130.015 E.01679
G1 X161.357 Y167.128 E1.6498
G1 X160.822 Y167.128 E.01682
G1 X123.709 Y130.015 E1.6498
G1 X123.174 Y130.015 E.01682
G1 X160.288 Y167.128 E1.64983
G1 X159.753 Y167.128 E.01682
G1 X122.64 Y130.015 E1.6498
G1 X122.105 Y130.015 E.01682
G1 X159.219 Y167.128 E1.64983
G1 X158.684 Y167.128 E.01682
M73 P1 R181
G1 X121.57 Y130.015 E1.64983
G1 X121.036 Y130.015 E.01679
M73 Q1 S184
G1 X158.149 Y167.128 E1.6498
G1 X157.615 Y167.128 E.01679
G1 X120.501 Y130.015 E1.64983
G1 X119.967 Y130.015 E.01679
M73 P2 R181
G1 X157.08 Y167.128 E1.6498
G1 X156.546 Y167.128 E.01679
M73 Q2 S184
G1 X119.432 Y130.015 E1.64983
G1 X118.897 Y130.015 E.01682
G1 X156.011 Y167.128 E1.64983
G1 X155.476 Y167.128 E.01682
G1 X118.363 Y130.015 E1.6498
G1 X117.828 Y130.015 E.01682
G1 X154.942 Y167.128 E1.64983
G1 X154.407 Y167.128 E.01682
G1 X117.294 Y130.015 E1.6498
G1 X116.759 Y130.015 E.01682
G1 X153.872 Y167.128 E1.6498
G1 X153.338 Y167.128 E.01679
G1 X116.224 Y130.015 E1.64983
G1 X115.69 Y130.015 E.01679
G1 X152.803 Y167.128 E1.6498
G1 X152.269 Y167.128 E.01679
G1 X115.155 Y130.015 E1.64983
G1 X114.62 Y130.015 E.01682
G1 X151.734 Y167.128 E1.64983
G1 X151.199 Y167.128 E.01682
G1 X114.086 Y130.015 E1.6498
G1 X113.551 Y130.015 E.01682
G1 X150.665 Y167.128 E1.64983
G1 X150.13 Y167.128 E.01682
G1 X113.017 Y130.015 E1.6498
G1 X112.482 Y130.015 E.01682
G1 X149.596 Y167.128 E1.64983
G1 X149.061 Y167.128 E.01682
G1 X111.947 Y130.015 E1.64983
G1 X111.413 Y130.015 E.01679
G1 X148.526 Y167.128 E1.6498
G1 X147.992 Y167.128 E.01679
G1 X110.878 Y130.015 E1.64983
G1 X110.344 Y130.015 E.01679
G1 X147.457 Y167.128 E1.6498
G1 X146.922 Y167.128 E.01682
M73 P2 R180
G1 X109.809 Y130.015 E1.6498
G1 X109.274 Y130.015 E.01682
M73 Q2 S183
G1 X146.388 Y167.128 E1.64983
G1 X145.853 Y167.128 E.01682
G1 X108.74 Y130.015 E1.6498
G1 X108.205 Y130.015 E.01682
G1 X145.319 Y167.128 E1.64983
G1 X144.784 Y167.128 E.01682
G1 X107.67 Y130.015 E1.64983
G1 X107.136 Y130.015 E.01679
G1 X144.249 Y167.128 E1.6498
G1 X143.715 Y167.128 E.01679
G1 X106.601 Y130.015 E1.64983
G1 X106.067 Y130.015 E.01679
G1 X143.18 Y167.128 E1.6498
G1 X142.645 Y167.128 E.01682
G1 X105.532 Y130.015 E1.6498
G1 X104.997 Y130.015 E.01682
G1 X142.111 Y167.128 E1.64983
G1 X141.576 Y167.128 E.01682
G1 X104.463 Y130.015 E1.6498
G1 X103.928 Y130.015 E.01682
G1 X141.042 Y167.128 E1.64983
G1 X140.507 Y167.128 E.01682
G1 X103.394 Y130.015 E1.6498
G1 X102.859 Y130.015 E.01682
G1 X139.972 Y167.128 E1.6498
G1 X139.438 Y167.128 E.01679
G1 X102.324 Y130.015 E1.64983
G1 X101.79 Y130.015 E.01679
G1 X138.903 Y167.128 E1.6498
G1 X138.369 Y167.128 E.01679
G1 X101.255 Y130.015 E1.64983
G1 X100.72 Y130.015 E.01682
G1 X137.834 Y167.128 E1.64983
G1 X137.299 Y167.128 E.01682
G1 X100.186 Y130.015 E1.6498
G1 X99.651 Y130.015 E.01682
G1 X136.765 Y167.128 E1.64983
G1 X136.23 Y167.128 E.01682
G1 X99.117 Y130.015 E1.6498
G1 X98.582 Y130.015 E.01682
G1 X135.695 Y167.128 E1.6498
G1 X135.161 Y167.128 E.01679
G1 X98.047 Y130.015 E1.64983
G1 X97.513 Y130.015 E.01679
M73 P3 R179
G1 X134.626 Y167.128 E1.6498
G1 X134.092 Y167.128 E.01679
M73 Q2 S182
G1 X96.978 Y130.015 E1.64983
G1 X96.443 Y130.015 E.01682
M73 Q3 S182
G1 X133.557 Y167.128 E1.64983
G1 X133.022 Y167.128 E.01682
G1 X95.909 Y130.015 E1.6498
G1 X95.374 Y130.015 E.01682
G1 X132.488 Y167.128 E1.64983
G1 X131.953 Y167.128 E.01682
G1 X94.84 Y130.015 E1.6498
G1 X94.305 Y130.015 E.01682
G1 X131.419 Y167.128 E1.64983
G1 X130.884 Y167.128 E.01682
G1 X93.77 Y130.015 E1.64983
G1 X93.236 Y130.015 E.01679
G1 X130.349 Y167.128 E1.6498
G1 X129.815 Y167.128 E.01679
G1 X92.701 Y130.015 E1.64983
G1 X92.167 Y130.015 E.01679
G1 X129.28 Y167.128 E1.6498
G1 X128.745 Y167.128 E.01682
G1 X91.632 Y130.015 E1.6498
G1 X91.097 Y130.015 E.01682
G1 X128.211 Y167.128 E1.64983
G1 X127.676 Y167.128 E.01682
G1 X90.563 Y130.015 E1.6498
G1 X90.028 Y130.015 E.01682
G1 X127.142 Y167.128 E1.64983
G1 X126.607 Y167.128 E.01682
G1 X89.493 Y130.015 E1.64983
G1 X88.959 Y130.015 E.01679
G1 X126.072 Y167.128 E1.6498
G1 X125.538 Y167.128 E.01679
G1 X88.424 Y130.015 E1.64983
G1 X87.89 Y130.015 E.01679
G1 X125.003 Y167.128 E1.6498
G1 X124.469 Y167.128 E.01679
G1 X87.355 Y130.015 E1.64983
G1 X86.82 Y130.015 E.01682
G1 X123.934 Y167.128 E1.64983
G1 X123.399 Y167.128 E.01682
G1 X86.286 Y130.015 E1.6498
G1 X85.751 Y130.015 E.01682
M73 P3 R178
G1 X122.865 Y167.128 E1.64983
G1 X122.33 Y167.128 E.01682
M73 Q3 S181
G1 X85.217 Y130.015 E1.6498
G1 X84.682 Y130.015 E.01682
G1 X121.795 Y167.128 E1.6498
G1 X121.261 Y167.128 E.01679
G1 X84.147 Y130.015 E1.64983
G1 X83.613 Y130.015 E.01679
G1 X120.726 Y167.128 E1.6498
G1 X120.192 Y167.128 E.01679
G1 X83.078 Y130.015 E1.64983
G1 X82.543 Y130.015 E.01682
G1 X119.657 Y167.128 E1.64983
G1 X119.122 Y167.128 E.01682
G1 X82.009 Y130.015 E1.6498
G1 X81.474 Y130.015 E.01682
G1 X118.588 Y167.128 E1.64983
G1 X118.053 Y167.128 E.01682
G1 X80.94 Y130.015 E1.6498
G1 X80.405 Y130.015 E.01682
G1 X117.519 Y167.128 E1.64983
G1 X116.984 Y167.128 E.01682
G1 X79.87 Y130.015 E1.64983
G1 X79.336 Y130.015 E.01679
G1 X116.449 Y167.128 E1.6498
G1 X115.915 Y167.128 E.01679
G1 X78.801 Y130.015 E1.64983
G1 X78.601 Y130.015 E.00629
G1 X78.601 Y130.349 E.0105
G1 X115.38 Y167.128 E1.63496
G1 X114.845 Y167.128 E.01682
G1 X78.601 Y130.884 E1.61117
G1 X78.601 Y131.419 E.01682
G1 X114.311 Y167.128 E1.58741
G1 X113.776 Y167.128 E.01682
G1 X78.601 Y131.953 E1.56365
G1 X78.601 Y132.488 E.01682
G1 X113.242 Y167.128 E1.53989
G1 X112.707 Y167.128 E.01682
G1 X78.601 Y133.022 E1.51613
G1 X78.601 Y133.557 E.01682
M73 P4 R178
G1 X112.172 Y167.128 E1.49235
G1 X111.638 Y167.128 E.01679
G1 X78.601 Y134.092 E1.46859
G1 X78.601 Y134.626 E.01679
M73 Q4 S181
G1 X111.103 Y167.128 E1.44483
G1 X110.568 Y167.128 E.01682
G1 X78.601 Y135.161 E1.42105
G1 X78.601 Y135.696 E.01682
M73 P4 R177
M73 Q4 S180
G1 X110.034 Y167.128 E1.39729
G1 X109.499 Y167.128 E.01682
G1 X78.601 Y136.23 E1.37353
G1 X78.601 Y136.765 E.01682
G1 X108.965 Y167.128 E1.34977
G1 X108.43 Y167.128 E.01682
G1 X78.601 Y137.299 E1.326
G1 X78.601 Y137.834 E.01682
G1 X107.895 Y167.128 E1.30222
G1 X107.361 Y167.128 E.01679
G1 X78.601 Y138.369 E1.27846
G1 X78.601 Y138.903 E.01679
G1 X106.826 Y167.128 E1.2547
G1 X106.292 Y167.128 E.01679
G1 X78.601 Y139.438 E1.23094
G1 X78.601 Y139.972 E.01679
G1 X105.757 Y167.128 E1.20718
G1 X105.222 Y167.128 E.01682
