; generated by PrusaSlicer 2.6.1+win64 on 2023-10-03 at 13:38:17 UTC


;
;
; 

; external perimeters extrusion width = 0.45mm
; perimeters extrusion width = 0.45mm
; infill extrusion width = 0.45mm
; solid infill extrusion width = 0.45mm
; top infill extrusion width = 0.40mm
; first layer extrusion width = 0.42mm

M73 P0 R73
M73 Q0 S74
M201 X1000 Y1000 Z200 E5000 ; sets maximum accelerations, mm/sec^2
M203 X200 Y200 Z12 E120 ; sets maximum feedrates, mm / sec
M204 S1250 T1250 ; sets acceleration (S) and retract acceleration (R), mm/sec^2
M205 X8.00 Y8.00 Z0.40 E4.50 ; sets the jerk limits, mm/sec
M205 S0 T0 ; sets the minimum extruding and travel feed rate, mm/sec
;TYPE:Custom
M862.3 P "MK3S" ; printer model check
M862.1 P0.4 ; nozzle diameter check
M115 U3.12.2 ; tell printer latest fw version
G90 ; use absolute coordinates
M83 ; extruder relative mode
M104 S215 ; set extruder temp
M140 S60 ; set bed temp
M190 S60 ; wait for bed temp
M109 S215 ; wait for extruder temp
G28 W ; home all without mesh bed level
G80 ; mesh bed leveling

G1 Z0.2 F720
G1 Y-3 F1000 ; go outside print area
G92 E0
G1 X60 E9 F1000 ; intro line
G1 X100 E12.5 F1000 ; intro line

G92 E0
M221 S95

; Don't change E values below. Excessive value can damage the printer.
M907 E430 ; set extruder motor current
G21 ; set units to millimeters
G90 ; use absolute coordinates
M83 ; use relative distances for extrusion
M900 K0.05 ; Filament gcode LA 1.5
M900 K30 ; Filament gcode LA 1.0
M107
;LAYER_CHANGE
;Z:0.2
;HEIGHT:0.2
;BEFORE_LAYER_CHANGE
G92 E0.0
;0.2


G1 E-.8 F2100
G1 Z.4 F720
;AFTER_LAYER_CHANGE
;0.2
G1 X114.904 Y74.193 F10800
G1 Z.2 F720
G1 E.8 F2100
M204 S800
;TYPE:Skirt/Brim
;WIDTH:0.42
G1 F1200
G1 X116.642 Y73.438 E.05941
G1 X121.642 Y73.438 E.15677
G1 X122.949 Y73.83 E.04278
G1 X123.768 Y74.751 E.03864
G1 X140.804 Y108.807 E1.19395
G1 X141.609 Y110.921 E.07093
G1 X142.15 Y113.227 E.07427
G1 X142.373 Y115.586 E.07429
G1 X142.272 Y117.953 E.07428
G1 X142.005 Y119.618 E.05287
G1 X141.591 Y121.204 E.05139
G1 X140.804 Y123.262 E.06908
G1 X140.03 Y124.759 E.05284
G1 X139.139 Y126.136 E.05142
G1 X137.747 Y127.846 E.06913
G1 X136.545 Y129.023 E.05275
G1 X135.318 Y130.018 E.04953
G1 X134.006 Y130.897 E.04952
G1 X132.71 Y131.608 E.04635
G1 X122.653 Y136.336 E.34844
G1 X121.642 Y136.562 E.03248
G1 X116.642 Y136.562 E.15677
G1 X115.335 Y136.17 E.04278
G1 X114.469 Y135.148 E.042
G1 X108.899 Y122.566 E.43143
G1 X108.189 Y120.424 E.07075
G1 X107.833 Y118.712 E.05483
G1 X107.629 Y116.424 E.07202
G1 X107.732 Y114.116 E.07244
G1 X114.299 Y75.416 E1.23076
G1 X114.878 Y74.247 E.0409
M204 S1000
; printing object Rotate Plat.stl id:0 copy 0
;WIPE_START
G1 F8640
G1 X116.642 Y73.438 E-.4481
G1 X118.166 Y73.438 E-.3519
;WIPE_END
G1 Z.6 F720
G1 X121.455 Y102.242 F10800
G1 Z.2 F720
G1 E.8 F2100
M204 S800
;TYPE:Perimeter
;WIDTH:0.419999
G1 F1200
G1 X121.535 Y102.242 E.00251
G1 X122.485 Y102.048 E.0304
G1 X123.129 Y101.947 E.02044
G1 X123.764 Y101.877 E.02003
G1 X124.507 Y101.833 E.02334
G1 X125.127 Y101.825 E.01944
G1 X125.705 Y101.84 E.01813
G1 X126.341 Y101.886 E.01999
G1 X126.992 Y101.963 E.02055
G1 X127.629 Y102.068 E.02024
G1 X128.357 Y102.226 E.02336
G1 X129.505 Y102.555 E.03744
G1 X130.113 Y102.774 E.02026
G1 X130.711 Y103.02 E.02027
G1 X131.288 Y103.289 E.01996
G1 X131.958 Y103.643 E.02376
G1 X132.972 Y104.268 E.03735
G1 X133.491 Y104.637 E.01997
G1 X134.008 Y105.041 E.02057
G1 X134.498 Y105.461 E.02024
G1 X135.042 Y105.979 E.02355
G1 X135.849 Y106.852 E.03728
G1 X136.255 Y107.354 E.02024
G1 X136.638 Y107.875 E.02027
G1 X136.992 Y108.405 E.01998
G1 X137.383 Y109.061 E.02394
G1 X137.688 Y109.632 E.0203
G1 X137.922 Y110.115 E.01683
G1 X138.174 Y110.7 E.01997
G1 X138.407 Y111.314 E.02059
G1 X138.607 Y111.927 E.02022
G1 X138.805 Y112.658 E.02375
G1 X139.04 Y113.817 E.03708
G1 X139.138 Y114.589 E.0244
G1 X139.182 Y115.092 E.01583
G1 X139.211 Y115.747 E.02056
G1 X139.204 Y116.509 E.02389
G1 X139.118 Y117.682 E.03688
G1 X139.029 Y118.322 E.02026
G1 X138.91 Y118.958 E.02029
G1 X138.762 Y119.589 E.02032
G1 X138.55 Y120.322 E.02392
G1 X138.152 Y121.426 E.0368
G1 X137.893 Y122.018 E.02026
G1 X137.607 Y122.598 E.02028
G1 X137.293 Y123.17 E.02046
G1 X136.891 Y123.817 E.02388
G1 X136.524 Y124.351 E.02032
G1 X136.212 Y124.771 E.0164
G1 X135.803 Y125.272 E.02028
G1 X135.366 Y125.759 E.02052
G1 X134.913 Y126.221 E.02029
G1 X134.351 Y126.736 E.0239
G1 X133.442 Y127.469 E.03661
G1 X132.914 Y127.841 E.02025
G1 X132.369 Y128.189 E.02027
G1 X131.797 Y128.517 E.02067
G1 X131.116 Y128.862 E.02394
G1 X130.527 Y129.127 E.02025
G1 X130.048 Y129.321 E.0162
G1 X129.439 Y129.537 E.02026
G1 X128.82 Y129.724 E.02027
G1 X128.178 Y129.887 E.02077
G1 X127.43 Y130.036 E.02391
G1 X126.28 Y130.189 E.03638
G1 X125.635 Y130.233 E.02027
G1 X124.99 Y130.247 E.02023
G1 X124.323 Y130.23 E.02092
G1 X123.563 Y130.172 E.0239
G1 X122.807 Y130.073 E.02391
G1 X121.493 Y129.821 E.04195
G1 X121.178 Y129.871 E.01
G1 X120.945 Y130.076 E.00973
G1 X120.855 Y130.382 E.01
G1 X120.855 Y133.398 E.09456
G1 X117.429 Y133.398 E.10742
G1 X117.425 Y128.308 E.15959
G1 X117.31 Y128.028 E.00949
G1 X117.189 Y127.912 E.00526
G1 X116.553 Y127.464 E.02439
G1 X116.039 Y127.065 E.0204
G1 X115.548 Y126.647 E.02022
G1 X115.073 Y126.205 E.02034
G1 X114.62 Y125.742 E.02031
G1 X114.189 Y125.259 E.0203
G1 X113.783 Y124.76 E.02017
G1 X113.394 Y124.236 E.02046
G1 X113.035 Y123.703 E.02015
G1 X112.694 Y123.142 E.02058
G1 X112.383 Y122.574 E.0203
G1 X112.102 Y122.001 E.02001
G1 X111.844 Y121.407 E.02031
G1 X111.61 Y120.793 E.0206
G1 X111.409 Y120.187 E.02002
G1 X111.234 Y119.564 E.02029
G1 X111.088 Y118.933 E.02031
G1 X110.969 Y118.287 E.0206
G1 X110.882 Y117.655 E.02
G1 X110.823 Y117.01 E.02031
G1 X110.793 Y116.354 E.02059
G1 X110.793 Y115.707 E.02029
G1 X110.822 Y115.069 E.02002
G1 X110.881 Y114.424 E.02031
G1 X110.97 Y113.774 E.02057
G1 X111.088 Y113.137 E.02031
G1 X111.232 Y112.515 E.02002
G1 X111.409 Y111.883 E.02058
G1 X111.613 Y111.268 E.02032
G1 X111.844 Y110.663 E.02031
G1 X112.098 Y110.077 E.02003
G1 X112.387 Y109.488 E.02057
G1 X112.698 Y108.92 E.0203
G1 X113.03 Y108.375 E.02001
G1 X113.396 Y107.83 E.02058
G1 X113.782 Y107.311 E.02028
G1 X114.191 Y106.809 E.0203
G1 X114.616 Y106.333 E.02001
G1 X115.074 Y105.864 E.02055
G1 X115.548 Y105.423 E.0203
G1 X116.041 Y105.003 E.02031
G1 X116.552 Y104.607 E.02027
G1 X117.189 Y104.158 E.02444
G1 X117.384 Y103.917 E.00972
G1 X117.429 Y103.695 E.0071
G1 X117.429 Y76.602 E.84948
G1 X120.855 Y76.602 E.10742
G1 X120.855 Y101.688 E.78655
G1 X120.879 Y101.85 E.00513
G1 X121.039 Y102.105 E.00944
G1 X121.311 Y102.243 E.00956
G1 X121.395 Y102.242 E.00263
M204 S1000
G1 X121.459 Y101.872 F10800
M204 S800
;TYPE:External perimeter
G1 F1200
G1 X122.426 Y101.675 E.03094
G1 X123.087 Y101.572 E.02098
G1 X123.738 Y101.501 E.02053
G1 X124.499 Y101.456 E.0239
G1 X125.216 Y101.45 E.02248
G1 X125.731 Y101.464 E.01615
G1 X126.384 Y101.512 E.02053
G1 X127.053 Y101.591 E.02112
G1 X127.707 Y101.699 E.02078
G1 X128.451 Y101.861 E.02387
G1 X129.632 Y102.2 E.03852
G1 X130.256 Y102.425 E.0208
G1 X130.869 Y102.678 E.02079
G1 X131.462 Y102.954 E.02051
G1 X132.147 Y103.317 E.02431
G1 X133.189 Y103.96 E.03839
G1 X133.722 Y104.339 E.02051
G1 X134.253 Y104.754 E.02113
G1 X134.756 Y105.186 E.02079
G1 X135.312 Y105.716 E.02408
G1 X136.141 Y106.614 E.03832
G1 X136.558 Y107.13 E.0208
G1 X136.951 Y107.665 E.02081
G1 X137.314 Y108.209 E.02051
G1 X137.714 Y108.88 E.02449
G1 X138.026 Y109.466 E.02082
G1 X138.268 Y109.965 E.01739
G1 X138.527 Y110.565 E.02049
G1 X138.765 Y111.196 E.02115
G1 X138.971 Y111.826 E.02078
G1 X139.172 Y112.573 E.02425
G1 X139.413 Y113.765 E.03813
G1 X139.514 Y114.555 E.02497
G1 X139.559 Y115.074 E.01633
G1 X139.588 Y115.747 E.02112
G1 X139.588 Y116.367 E.01944
G1 X139.557 Y117.039 E.02109
G1 X139.498 Y117.69 E.0205
G1 X139.407 Y118.348 E.02083
G1 X139.287 Y119 E.02079
G1 X139.138 Y119.647 E.02082
G1 X138.959 Y120.286 E.02081
G1 X138.748 Y120.924 E.02107
G1 X138.515 Y121.536 E.02053
G1 X138.251 Y122.145 E.02081
G1 X137.959 Y122.741 E.02081
G1 X137.641 Y123.323 E.02079
G1 X137.296 Y123.89 E.02081
G1 X136.927 Y124.441 E.02079
G1 X136.532 Y124.975 E.02083
G1 X136.114 Y125.49 E.0208
G1 X135.666 Y125.992 E.0211
G1 X135.209 Y126.46 E.02051
G1 X134.724 Y126.914 E.02083
G1 X134.219 Y127.344 E.0208
G1 X133.696 Y127.752 E.0208
G1 X133.154 Y128.135 E.02081
G1 X132.595 Y128.493 E.02081
G1 X132.021 Y128.826 E.02081
G1 X131.432 Y129.131 E.0208
G1 X130.821 Y129.414 E.02111
G1 X130.216 Y129.661 E.02049
G1 X129.591 Y129.884 E.02081
G1 X128.956 Y130.079 E.02083
G1 X128.314 Y130.244 E.02078
G1 X127.664 Y130.38 E.02082
G1 X127.009 Y130.486 E.0208
G1 X126.35 Y130.562 E.0208
G1 X125.688 Y130.609 E.02081
G1 X125.026 Y130.625 E.02076
G1 X124.364 Y130.611 E.02076
G1 X123.699 Y130.566 E.0209
G1 X123.038 Y130.492 E.02085
G1 X122.383 Y130.388 E.02079
G1 X121.459 Y130.197 E.02958
G1 X121.299 Y130.238 E.00518
G1 X121.232 Y130.382 E.00498
G1 X121.232 Y133.775 E.10638
G1 X117.052 Y133.775 E.13106
G1 X117.052 Y129.044 E.14834
G1 X117.037 Y128.301 E.0233
G1 X116.827 Y128.118 E.00873
G1 X116.195 Y127.663 E.02442
G1 X115.265 Y126.899 E.03774
G1 X114.779 Y126.443 E.0209
G1 X114.316 Y125.967 E.02082
G1 X113.87 Y125.465 E.02105
G1 X113.384 Y124.856 E.02443
G1 X112.695 Y123.869 E.03774
G1 X112.346 Y123.292 E.02114
G1 X112.029 Y122.709 E.02081
G1 X111.739 Y122.111 E.02084
G1 X111.435 Y121.393 E.02445
G1 X111.037 Y120.255 E.0378
G1 X110.859 Y119.615 E.02083
G1 X110.711 Y118.967 E.02084
G1 X110.591 Y118.304 E.02113
G1 X110.492 Y117.534 E.02434
G1 X110.416 Y116.319 E.03817
G1 X110.418 Y115.655 E.02082
G1 X110.45 Y115 E.02056
G1 X110.513 Y114.334 E.02098
G1 X110.626 Y113.562 E.02446
G1 X110.878 Y112.379 E.03792
G1 X111.062 Y111.731 E.02112
G1 X111.273 Y111.101 E.02083
G1 X111.512 Y110.481 E.02083
G1 X111.826 Y109.776 E.0242
G1 X112.125 Y109.181 E.02088
G1 X112.394 Y108.694 E.01744
G1 X112.737 Y108.135 E.02056
G1 X113.115 Y107.577 E.02113
G1 X113.512 Y107.045 E.02081
G1 X114.004 Y106.452 E.02416
G1 X114.843 Y105.564 E.0383
G1 X115.33 Y105.113 E.02081
G1 X115.837 Y104.684 E.02082
G1 X116.363 Y104.279 E.02081
G1 X117.006 Y103.819 E.02479
G1 X117.052 Y103.695 E.00415
G1 X117.052 Y76.225 E.8613
G1 X121.232 Y76.225 E.13106
G1 X121.232 Y101.688 E.79837
G1 X121.299 Y101.832 E.00498
G1 X121.4 Y101.858 E.00327
M204 S1000
G1 X121.625 Y102.236 F10800
;WIPE_START
G1 F8640
G1 X122.426 Y101.675 E-.24065
G1 X123.087 Y101.572 E-.15447
G1 X123.738 Y101.501 E-.15121
G1 X124.499 Y101.456 E-.17602
G1 X124.835 Y101.453 E-.07765
;WIPE_END
G1 Z.6 F720
G1 X129.858 Y106.012 F10800
G1 Z.2 F720
G1 E.8 F2100
M204 S800
;TYPE:Perimeter
G1 F1200
G1 X130.381 Y106.282 E.01845
G1 X130.817 Y106.538 E.01585
G1 X131.412 Y106.927 E.02229
G1 X131.9 Y107.291 E.01909
G1 X132.367 Y107.68 E.01906
G1 X132.812 Y108.095 E.01908
G1 X133.234 Y108.533 E.01907
G1 X133.631 Y108.994 E.01908
G1 X134.003 Y109.476 E.01909
G1 X134.348 Y109.977 E.01907
G1 X134.665 Y110.496 E.01907
G1 X134.953 Y111.032 E.01908
G1 X135.211 Y111.583 E.01908
G1 X135.439 Y112.147 E.01907
G1 X135.635 Y112.723 E.01908
G1 X135.799 Y113.304 E.01893
G1 X135.909 Y113.793 E.01572
G1 X136.066 Y114.8 E.03196
G1 X136.134 Y115.704 E.02842
G1 X136.135 Y116.322 E.01938
G1 X136.109 Y116.823 E.01573
G1 X136.037 Y117.536 E.02247
G1 X135.939 Y118.136 E.01906
G1 X135.808 Y118.73 E.01907
G1 X135.646 Y119.312 E.01894
G1 X135.485 Y119.787 E.01573
G1 X135.223 Y120.457 E.02256
G1 X134.966 Y121.009 E.01909
G1 X134.68 Y121.545 E.01905
G1 X134.368 Y122.06 E.01888
G1 X134.021 Y122.568 E.01929
G1 X133.651 Y123.051 E.01908
G1 X133.255 Y123.513 E.01908
G1 X132.834 Y123.952 E.01907
G1 X132.398 Y124.361 E.01874
G1 X131.924 Y124.759 E.01941
G1 X131.437 Y125.124 E.01908
G1 X130.931 Y125.462 E.01908
G1 X130.408 Y125.772 E.01906
G1 X129.881 Y126.046 E.01862
G1 X129.424 Y126.253 E.01573
G1 X128.746 Y126.523 E.02288
G1 X128.168 Y126.712 E.01907
G1 X127.58 Y126.869 E.01908
G1 X127.001 Y126.99 E.01855
G1 X126.383 Y127.085 E.0196
G1 X125.778 Y127.144 E.01906
G1 X125.17 Y127.17 E.01908
G1 X124.561 Y127.163 E.0191
G1 X123.975 Y127.123 E.01842
G1 X123.35 Y127.048 E.01974
G1 X122.751 Y126.941 E.01908
G1 X122.202 Y126.812 E.01768
G1 X121.575 Y126.631 E.02046
G1 X121.002 Y126.428 E.01906
G1 X120.49 Y126.215 E.01739
G1 X119.892 Y125.93 E.02077
G1 X119.359 Y125.636 E.01909
G1 X118.896 Y125.346 E.01713
G1 X118.355 Y124.97 E.02066
G1 X117.868 Y124.587 E.01943
G1 X117.412 Y124.184 E.01908
G1 X116.978 Y123.758 E.01907
G1 X116.568 Y123.308 E.01909
G1 X116.191 Y122.845 E.01872
G1 X115.825 Y122.345 E.01943
G1 X115.495 Y121.834 E.01907
G1 X115.192 Y121.306 E.01909
G1 X114.919 Y120.763 E.01906
G1 X114.679 Y120.213 E.01882
G1 X114.503 Y119.742 E.01577
G1 X114.282 Y119.054 E.02266
G1 X114.133 Y118.464 E.01908
G1 X114.022 Y117.895 E.01818
G1 X113.934 Y117.266 E.01991
G1 X113.883 Y116.658 E.01913
G1 X113.865 Y116.05 E.01907
G1 X113.881 Y115.442 E.01907
G1 X113.93 Y114.835 E.01909
G1 X114.012 Y114.232 E.01908
G1 X114.121 Y113.663 E.01816
G1 X114.274 Y113.046 E.01993
G1 X114.453 Y112.463 E.01912
G1 X114.664 Y111.892 E.01909
G1 X114.905 Y111.335 E.01903
G1 X115.129 Y110.886 E.01573
G1 X115.478 Y110.261 E.02244
G1 X115.793 Y109.773 E.01821
G1 X116.164 Y109.258 E.0199
G1 X116.548 Y108.784 E.01913
G1 X116.957 Y108.333 E.01909
G1 X117.389 Y107.906 E.01905
G1 X117.845 Y107.502 E.0191
G1 X118.321 Y107.124 E.01906
G1 X118.818 Y106.772 E.0191
G1 X119.333 Y106.448 E.01908
G1 X119.865 Y106.153 E.01907
G1 X120.412 Y105.887 E.01907
M73 P0 R72
G1 X120.973 Y105.652 E.01907
G1 X121.546 Y105.447 E.01908
G1 X122.099 Y105.283 E.01809
G1 X122.721 Y105.133 E.02006
G1 X123.32 Y105.025 E.01908
G1 X123.924 Y104.95 E.01908
G1 X124.53 Y104.907 E.01905
G1 X125.044 Y104.9 E.01612
G1 X125.745 Y104.922 E.02199
G1 X126.352 Y104.98 E.01912
G1 X126.954 Y105.07 E.01909
G1 X127.55 Y105.193 E.01908
G1 X128.042 Y105.322 E.01595
G1 X128.717 Y105.535 E.02219
G1 X129.285 Y105.754 E.01909
G1 X129.803 Y105.987 E.01781
M204 S1000
G1 X129.72 Y106.365 F10800
M204 S800
;TYPE:External perimeter
G1 F1200
G1 X130.207 Y106.617 E.01719
G1 X130.714 Y106.915 E.01844
G1 X131.203 Y107.241 E.01843
G1 X131.674 Y107.593 E.01844
G1 X132.125 Y107.969 E.01841
G1 X132.555 Y108.37 E.01844
G1 X132.962 Y108.794 E.01843
G1 X133.346 Y109.24 E.01845
G1 X133.704 Y109.706 E.01842
G1 X134.037 Y110.19 E.01842
G1 X134.342 Y110.692 E.01842
G1 X134.62 Y111.21 E.01843
G1 X134.869 Y111.743 E.01845
G1 X135.089 Y112.288 E.01843
G1 X135.278 Y112.844 E.01841
G1 X135.436 Y113.406 E.0183
G1 X135.565 Y113.984 E.01857
G1 X135.693 Y114.855 E.0276
G1 X135.758 Y115.732 E.02757
G1 X135.758 Y116.322 E.0185
G1 X135.726 Y116.91 E.01846
G1 X135.663 Y117.494 E.01842
G1 X135.567 Y118.074 E.01843
G1 X135.44 Y118.648 E.01843
G1 X135.283 Y119.211 E.01833
G1 X135.093 Y119.771 E.01854
G1 X134.873 Y120.316 E.01843
G1 X134.625 Y120.849 E.01843
G1 X134.348 Y121.367 E.01842
G1 X134.046 Y121.864 E.01823
G1 X133.71 Y122.355 E.01865
G1 X133.352 Y122.821 E.01842
G1 X132.969 Y123.267 E.01843
G1 X132.562 Y123.691 E.01843
G1 X132.14 Y124.085 E.0181
G1 X131.682 Y124.47 E.01876
G1 X131.211 Y124.822 E.01844
G1 X130.722 Y125.148 E.01843
G1 X130.216 Y125.447 E.01843
G1 X129.707 Y125.711 E.01798
G1 X129.159 Y125.959 E.01886
G1 X128.61 Y126.171 E.01845
G1 X128.051 Y126.353 E.01843
G1 X127.483 Y126.504 E.01843
G1 X126.925 Y126.621 E.01788
G1 X126.327 Y126.713 E.01897
G1 X125.742 Y126.769 E.01843
G1 X125.154 Y126.793 E.01845
G1 X124.567 Y126.786 E.01841
G1 X124 Y126.747 E.01782
G1 X123.397 Y126.674 E.01904
G1 X122.818 Y126.57 E.01844
G1 X122.288 Y126.445 E.01707
G1 X121.682 Y126.269 E.01979
G1 X121.128 Y126.073 E.01843
G1 X120.635 Y125.867 E.01675
G1 X120.056 Y125.59 E.02012
G1 X119.542 Y125.306 E.01841
G1 X119.096 Y125.027 E.01649
G1 X118.572 Y124.661 E.02004
G1 X118.102 Y124.291 E.01875
G1 X117.662 Y123.902 E.01841
G1 X117.243 Y123.489 E.01845
G1 X116.847 Y123.054 E.01844
G1 X116.483 Y122.607 E.01807
G1 X116.131 Y122.123 E.01876
G1 X115.811 Y121.629 E.01845
G1 X115.519 Y121.119 E.01843
G1 X115.256 Y120.594 E.01841
G1 X115.025 Y120.063 E.01816
G1 X114.817 Y119.504 E.0187
