; generated by PrusaSlicer 2.7.0+win64 on 2024-02-02 at 17:46:26 UTC


;
;
; 

; external perimeters extrusion width = 0.45mm
; perimeters extrusion width = 0.45mm
; infill extrusion width = 0.45mm
; solid infill extrusion width = 0.45mm
; top infill extrusion width = 0.40mm
; first layer extrusion width = 0.42mm

M73 P0 R59
M73 Q0 S60
M201 X1000 Y1000 Z200 E5000 ; sets maximum accelerations, mm/sec^2
M203 X200 Y200 Z12 E120 ; sets maximum feedrates, mm / sec
M204 S1250 T1250 ; sets acceleration (S) and retract acceleration (R), mm/sec^2
M205 X8.00 Y8.00 Z0.40 E4.50 ; sets the jerk limits, mm/sec
M205 S0 T0 ; sets the minimum extruding and travel feed rate, mm/sec

; printing object Sharpener.stl id:0 copy 0
; stop printing object Sharpener.stl id:0 copy 0

;TYPE:Custom
M862.3 P "MK3S" ; printer model check
M862.1 P0.4 ; nozzle diameter check
M115 U3.13.2 ; tell printer latest fw version
G90 ; use absolute coordinates
M83 ; extruder relative mode
M104 S215 ; set extruder temp
M140 S60 ; set bed temp
M190 S60 ; wait for bed temp
M109 S215 ; wait for extruder temp
G28 W ; home all without mesh bed level
G80 X107.694 Y78.9344 W27.0404 H52.1312 ; mesh bed levelling

G1 Z0.2 F720
G1 Y-3 F1000 ; go outside print area
G92 E0
G1 X60 E9 F1000 ; intro line
G1 X100 E12.5 F1000 ; intro line

G92 E0
M221 S95

; Don't change E values below. Excessive value can damage the printer.

M907 E538 ; set extruder motor current
G21 ; set units to millimeters
G90 ; use absolute coordinates
M83 ; use relative distances for extrusion
M900 K0.05 ; Filament gcode LA 1.5
M900 K30 ; Filament gcode LA 1.0

M107
;LAYER_CHANGE
;Z:0.2
;HEIGHT:0.2
;BEFORE_LAYER_CHANGE
G92 E0.0
;0.2


G1 E-.8 F2100
G1 Z.2 F720
;AFTER_LAYER_CHANGE
;0.2
G1 X108.274 Y80.193 F10800
G1 Z.2 F720
G1 E.8 F2100
M204 S800
;TYPE:Skirt/Brim
;WIDTH:0.42
G1 F1200
G1 X109.32 Y79.317 E.04278
G1 X110.259 Y79.123 E.03006
G1 X132.169 Y79.123 E.68697
G1 X133.476 Y79.515 E.04278
G1 X134.352 Y80.56 E.04275
G1 X134.546 Y81.5 E.03009
G1 X134.546 Y128.5 E1.47365
G1 X134.154 Y129.807 E.04278
G1 X133.108 Y130.683 E.04278
G1 X132.169 Y130.877 E.03006
G1 X110.259 Y130.877 E.68697
G1 X108.952 Y130.485 E.04278
G1 X108.076 Y129.44 E.04275
G1 X107.882 Y128.5 E.03009
G1 X107.882 Y81.5 E1.47365
G1 X108.257 Y80.25 E.04092
M204 S1000
; printing object Sharpener.stl id:0 copy 0
;WIPE_START
G1 F8640
G1 X108.274 Y80.193 E-.01373
G1 X109.32 Y79.317 E-.31504
G1 X110.259 Y79.123 E-.2214
G1 X111.341 Y79.123 E-.24983
;WIPE_END
G1 Z.6 F720
G1 X113.761 Y118.471 F10800
G1 Z.2 F720
G1 E.8 F2100
M204 S800
;TYPE:Perimeter
;WIDTH:0.419999
G1 F1200
G1 X113.761 Y120.038 E.04913
G1 X113.761 Y127.713 E.24064
G1 X111.047 Y127.713 E.0851
G1 X111.047 Y118.883 E.27686
G1 X112.215 Y118.721 E.03697
G1 X113.702 Y118.481 E.04723
M204 S1000
G1 X114.138 Y118.029 F10800
M204 S800
;TYPE:External perimeter
G1 F1200
G1 X114.138 Y120.038 E.06299
G1 X114.138 Y128.09 E.25246
G1 X110.669 Y128.09 E.10877
G1 X110.669 Y118.554 E.29899
G1 X112.152 Y118.349 E.04694
G1 X114.079 Y118.038 E.0612
M204 S1000
;WIPE_START
G1 F8640
G1 X114.138 Y118.029 E-.01378
G1 X114.138 Y120.038 E-.46388
G1 X114.138 Y121.434 E-.32234
;WIPE_END
G1 Z.6 F720
G1 X113.591 Y119.439 F10800
G1 Z.2 F720
G1 E.8 F2100
M204 S800
;TYPE:Solid infill
;WIDTH:0.424295
G1 F1200
G1 X113.078 Y118.925 E.02303
G1 X112.613 Y119 E.01494
G1 X113.422 Y119.808 E.03626
G1 X113.422 Y120.348 E.01712
G1 X112.147 Y119.073 E.05718
G1 X111.673 Y119.139 E.01518
G1 X113.422 Y120.887 E.07841
G1 X113.422 Y121.426 E.01709
G1 X111.386 Y119.391 E.09129
G1 X111.386 Y119.93 E.01709
G1 X113.422 Y121.966 E.09131
G1 X113.422 Y122.505 E.01709
G1 X111.386 Y120.47 E.09129
G1 X111.386 Y121.009 E.01709
G1 X113.422 Y123.044 E.09129
G1 X113.422 Y123.584 E.01712
G1 X111.386 Y121.548 E.09131
G1 X111.386 Y122.088 E.01712
G1 X113.422 Y124.123 E.09129
G1 X113.422 Y124.663 E.01712
G1 X111.386 Y122.627 E.09131
G1 X111.386 Y123.166 E.01709
G1 X113.422 Y125.202 E.09131
G1 X113.422 Y125.741 E.01709
G1 X111.386 Y123.706 E.09129
G1 X111.386 Y124.245 E.01709
G1 X113.422 Y126.281 E.09131
G1 X113.422 Y126.82 E.01709
G1 X111.386 Y124.784 E.09131
G1 X111.386 Y125.324 E.01712
G1 X113.422 Y127.374 E.09162
G1 X112.896 Y127.374 E.01668
G1 X111.386 Y125.863 E.06774
G1 X111.386 Y126.402 E.01709
G1 X112.357 Y127.374 E.04357
G1 X111.818 Y127.374 E.01709
G1 X111.216 Y126.772 E.027
M204 S1000
;WIPE_START
G1 F8640
G1 X111.818 Y127.374 E-.19658
G1 X112.357 Y127.374 E-.12446
G1 X111.386 Y126.402 E-.31724
G1 X111.386 Y125.863 E-.12446
G1 X111.5 Y125.977 E-.03726
;WIPE_END
G1 Z.6 F720
G1 X113.761 Y90.1 F10800
G1 Z.2 F720
G1 E.8 F2100
M204 S800
;TYPE:Perimeter
;WIDTH:0.419999
G1 F1200
G1 X112.207 Y89.849 E.04936
G1 X111.047 Y89.689 E.03672
G1 X111.047 Y82.287 E.23208
G1 X113.761 Y82.287 E.0851
G1 X113.761 Y83.644 E.04255
G1 X113.761 Y90.04 E.20054
M204 S1000
G1 X114.138 Y90.543 F10800
M204 S800
;TYPE:External perimeter
G1 F1200
G1 X112.152 Y90.223 E.06307
G1 X110.669 Y90.017 E.04694
G1 X110.669 Y81.91 E.25419
G1 X114.138 Y81.91 E.10877
G1 X114.138 Y83.644 E.05437
G1 X114.138 Y90.483 E.21443
M204 S1000
;WIPE_START
G1 F8640
G1 X114.138 Y90.543 E-.01385
G1 X112.152 Y90.223 E-.46449
G1 X110.773 Y90.032 E-.32166
;WIPE_END
G1 Z.6 F720
G1 X112.788 Y82.457 F10800
G1 Z.2 F720
G1 E.8 F2100
M204 S800
;TYPE:Solid infill
;WIDTH:0.439404
G1 F1200
G1 X113.422 Y83.091 E.02956
G1 X113.422 Y83.651 E.01846
G1 X112.397 Y82.626 E.04779
G1 X111.836 Y82.626 E.01849
G1 X113.422 Y84.212 E.07394
G1 X113.422 Y84.773 E.01849
G1 X111.386 Y82.737 E.09493
G1 X111.386 Y83.298 E.01849
G1 X113.422 Y85.333 E.0949
G1 X113.422 Y85.894 E.01849
G1 X111.386 Y83.858 E.09493
G1 X111.386 Y84.419 E.01849
G1 X113.422 Y86.455 E.09493
G1 X113.422 Y87.015 E.01846
G1 X111.386 Y84.98 E.0949
G1 X111.386 Y85.541 E.01849
G1 X113.422 Y87.576 E.0949
G1 X113.422 Y88.137 E.01849
G1 X111.386 Y86.101 E.09493
G1 X111.386 Y86.662 E.01849
G1 X113.422 Y88.698 E.09493
G1 X113.422 Y89.258 E.01846
G1 X111.386 Y87.223 E.0949
G1 X111.386 Y87.783 E.01846
G1 X113.282 Y89.679 E.0884
G1 X112.613 Y89.571 E.02234
G1 X111.386 Y88.344 E.05721
G1 X111.386 Y88.905 E.01849
G1 X112.152 Y89.671 E.03571
M204 S1000
;WIPE_START
G1 F8640
G1 X111.386 Y88.905 E-.25013
G1 X111.386 Y88.344 E-.12954
G1 X112.613 Y89.571 E-.40067
G1 X112.697 Y89.585 E-.01966
;WIPE_END
G1 Z.6 F720
G1 X125.482 Y84.2 F10800
G1 Z.2 F720
G1 E.8 F2100
M204 S800
;TYPE:Perimeter
;WIDTH:0.419999
G1 F1200
G1 X125.466 Y84.279 E.00253
G1 X125.466 Y125.721 E1.29938
G1 X125.51 Y125.939 E.00697
G1 X125.692 Y126.174 E.00932
G1 X126.032 Y126.287 E.01123
G1 X131.382 Y126.287 E.16775
G1 X131.382 Y127.713 E.04471
G1 X119.367 Y127.713 E.37672
G1 X119.367 Y117.359 E.32464
G1 X120.843 Y117.006 E.04758
G1 X121.938 Y116.716 E.03552
G1 X122.213 Y116.549 E.01009
G1 X122.318 Y116.379 E.00626
G1 X122.359 Y116.169 E.00671
G1 X122.359 Y92.402 E.7452
G1 X122.318 Y92.192 E.00671
G1 X122.213 Y92.023 E.00624
G1 X122.076 Y91.912 E.00553
G1 X121.635 Y91.775 E.01448
G1 X120.843 Y91.565 E.02569
G1 X119.367 Y91.212 E.04758
G1 X119.367 Y82.287 E.27984
G1 X131.382 Y82.287 E.37672
G1 X131.382 Y83 E.02236
G1 X131.382 Y83.713 E.02236
G1 X126.032 Y83.713 E.16775
G1 X125.692 Y83.826 E.01123
G1 X125.51 Y84.061 E.00932
G1 X125.494 Y84.142 E.00259
M204 S1000
G1 X125.843 Y84.279 F10800
M204 S800
;TYPE:External perimeter
G1 F1200
G1 X125.843 Y125.721 E1.29938
G1 X125.919 Y125.872 E.0053
M73 P1 R59
M73 Q1 S60
G1 X126.032 Y125.91 E.00374
G1 X131.759 Y125.91 E.17957
G1 X131.759 Y128.09 E.06835
G1 X118.99 Y128.09 E.40036
G1 X118.99 Y117.062 E.34577
G1 X120.755 Y116.639 E.05691
G1 X121.539 Y116.432 E.02542
G1 X121.933 Y116.296 E.01307
G1 X121.982 Y116.169 E.00427
G1 X121.982 Y92.402 E.7452
G1 X121.933 Y92.276 E.00424
G1 X121.539 Y92.14 E.01307
G1 X120.755 Y91.932 E.02543
G1 X118.99 Y91.51 E.0569
G1 X118.99 Y81.91 E.301
G1 X131.759 Y81.91 E.40036
G1 X131.759 Y83 E.03418
G1 X131.759 Y84.09 E.03418
G1 X126.032 Y84.09 E.17957
G1 X125.919 Y84.128 E.00374
G1 X125.87 Y84.225 E.00341
M204 S1000
;WIPE_START
G1 F8640
G1 X125.843 Y84.279 E-.01394
G1 X125.843 Y87.683 E-.78606
;WIPE_END
G1 Z.6 F720
G1 X130.445 Y82.457 F10800
G1 Z.2 F720
G1 E.8 F2100
M204 S800
;TYPE:Solid infill
;WIDTH:0.422072
G1 F1200
G1 X131.042 Y83.054 E.02662
G1 X131.042 Y83.374 E.01009
G1 X130.827 Y83.374 E.00678
G1 X130.079 Y82.626 E.03335
G1 X129.543 Y82.626 E.0169
G1 X130.292 Y83.375 E.03339
G1 X129.757 Y83.377 E.01687
G1 X129.006 Y82.626 E.03348
G1 X128.47 Y82.626 E.0169
G1 X129.221 Y83.378 E.03351
G1 X128.686 Y83.379 E.01687
G1 X127.934 Y82.626 E.03355
G1 X127.398 Y82.626 E.0169
G1 X128.151 Y83.38 E.0336
G1 X127.616 Y83.381 E.01687
G1 X126.862 Y82.626 E.03364
G1 X126.325 Y82.626 E.01693
G1 X127.081 Y83.382 E.03371
G1 X126.546 Y83.384 E.01687
G1 X125.789 Y82.626 E.03377
G1 X125.253 Y82.626 E.0169
G1 X126.011 Y83.385 E.03382
G1 X125.87 Y83.385 E.00445
G1 X125.595 Y83.504 E.00945
G1 X124.717 Y82.626 E.03915
G1 X124.181 Y82.626 E.0169
G1 X125.319 Y83.765 E.05076
G1 X125.195 Y83.924 E.00636
G1 X125.153 Y84.135 E.00678
G1 X123.644 Y82.626 E.06728
G1 X123.108 Y82.626 E.0169
G1 X125.127 Y84.645 E.09002
G1 X125.127 Y85.181 E.0169
G1 X122.572 Y82.626 E.11392
G1 X122.036 Y82.626 E.0169
G1 X125.127 Y85.718 E.13784
G1 X125.127 Y86.254 E.0169
G1 X121.499 Y82.626 E.16176
G1 X120.963 Y82.626 E.0169
G1 X125.127 Y86.79 E.18565
G1 X125.127 Y87.326 E.0169
G1 X120.427 Y82.626 E.20955
G1 X119.891 Y82.626 E.0169
G1 X125.127 Y87.862 E.23345
G1 X125.127 Y88.399 E.01693
G1 X119.706 Y82.978 E.2417
G1 X119.706 Y83.514 E.0169
G1 X125.127 Y88.935 E.2417
G1 X125.127 Y89.471 E.0169
G1 X119.706 Y84.05 E.2417
G1 X119.706 Y84.586 E.0169
G1 X125.127 Y90.007 E.2417
G1 X125.127 Y90.543 E.0169
G1 X119.706 Y85.123 E.24167
G1 X119.706 Y85.659 E.0169
G1 X125.127 Y91.08 E.2417
G1 X125.127 Y91.616 E.0169
G1 X119.706 Y86.195 E.2417
G1 X119.706 Y86.731 E.0169
G1 X125.127 Y92.152 E.2417
G1 X125.127 Y92.688 E.0169
G1 X119.706 Y87.267 E.2417
G1 X119.706 Y87.804 E.01693
G1 X125.127 Y93.224 E.24167
G1 X125.127 Y93.761 E.01693
G1 X119.706 Y88.34 E.2417
G1 X119.706 Y88.876 E.0169
M73 Q1 S59
G1 X125.127 Y94.297 E.2417
G1 X125.127 Y94.833 E.0169
G1 X122.698 Y92.404 E.1083
G1 X122.636 Y92.066 E.01083
G1 X122.467 Y91.795 E.01007
G1 X122.248 Y91.618 E.00888
G1 X122.034 Y91.53 E.00729
G1 X121.748 Y91.454 E.00933
G1 X119.706 Y89.412 E.09104
G1 X119.706 Y89.948 E.0169
G1 X121.018 Y91.261 E.05852
G1 X120.311 Y91.089 E.02294
G1 X119.536 Y90.315 E.03453
M204 S1000
;WIPE_START
G1 F8640
G1 X120.311 Y91.089 E-.25291
G1 X121.018 Y91.261 E-.16801
G1 X119.858 Y90.1 E-.37908
;WIPE_END
G1 Z.6 F720
G1 X122.528 Y92.771 F10800
G1 Z.2 F720
G1 E.8 F2100
M204 S800
G1 F1200
G1 X125.127 Y95.369 E.11586
G1 X125.127 Y95.905 E.0169
G1 X122.698 Y93.477 E.10828
G1 X122.698 Y94.013 E.0169
G1 X125.127 Y96.442 E.1083
G1 X125.127 Y96.978 E.0169
G1 X122.698 Y94.549 E.1083
G1 X122.698 Y95.085 E.0169
G1 X125.127 Y97.514 E.1083
G1 X125.127 Y98.05 E.0169
G1 X122.698 Y95.621 E.1083
G1 X122.698 Y96.158 E.01693
G1 X125.127 Y98.586 E.10828
G1 X125.127 Y99.123 E.01693
G1 X122.698 Y96.694 E.1083
G1 X122.698 Y97.23 E.0169
G1 X125.127 Y99.659 E.1083
G1 X125.127 Y100.195 E.0169
G1 X122.698 Y97.766 E.1083
G1 X122.698 Y98.302 E.0169
G1 X125.127 Y100.731 E.1083
G1 X125.127 Y101.267 E.0169
G1 X122.698 Y98.839 E.10828
G1 X122.698 Y99.375 E.0169
G1 X125.127 Y101.804 E.1083
G1 X125.127 Y102.34 E.0169
G1 X122.698 Y99.911 E.1083
G1 X122.698 Y100.447 E.0169
G1 X125.127 Y102.876 E.1083
G1 X125.127 Y103.412 E.0169
G1 X122.698 Y100.983 E.1083
G1 X122.698 Y101.52 E.01693
G1 X125.127 Y103.948 E.10828
G1 X125.127 Y104.485 E.01693
G1 X122.698 Y102.056 E.1083
G1 X122.698 Y102.592 E.0169
G1 X125.127 Y105.021 E.1083
G1 X125.127 Y105.557 E.0169
G1 X122.698 Y103.128 E.1083
G1 X122.698 Y103.664 E.0169
G1 X125.127 Y106.093 E.1083
G1 X125.127 Y106.629 E.0169
G1 X122.698 Y104.201 E.10828
G1 X122.698 Y104.737 E.0169
G1 X125.127 Y107.166 E.1083
G1 X125.127 Y107.702 E.0169
G1 X122.698 Y105.273 E.1083
G1 X122.698 Y105.809 E.0169
G1 X125.127 Y108.238 E.1083
G1 X125.127 Y108.774 E.0169
G1 X122.698 Y106.345 E.1083
G1 X122.698 Y106.882 E.01693
M73 P1 R58
G1 X125.127 Y109.311 E.1083
G1 X125.127 Y109.847 E.0169
G1 X122.698 Y107.418 E.1083
G1 X122.698 Y107.954 E.0169
G1 X125.127 Y110.383 E.1083
G1 X125.127 Y110.919 E.0169
G1 X122.698 Y108.49 E.1083
G1 X122.698 Y109.026 E.0169
G1 X125.127 Y111.455 E.1083
G1 X125.127 Y111.992 E.01693
G1 X122.698 Y109.563 E.1083
G1 X122.698 Y110.099 E.0169
G1 X125.127 Y112.528 E.1083
G1 X125.127 Y113.064 E.0169
G1 X122.698 Y110.635 E.1083
G1 X122.698 Y111.171 E.0169
G1 X125.127 Y113.6 E.1083
G1 X125.127 Y114.136 E.0169
G1 X122.698 Y111.707 E.1083
G1 X122.698 Y112.244 E.01693
G1 X125.127 Y114.673 E.1083
G1 X125.127 Y115.209 E.0169
G1 X122.698 Y112.78 E.1083
G1 X122.698 Y113.316 E.0169
G1 X125.127 Y115.745 E.1083
G1 X125.127 Y116.281 E.0169
G1 X122.698 Y113.852 E.1083
G1 X122.698 Y114.388 E.0169
G1 X125.127 Y116.817 E.1083
G1 X125.127 Y117.354 E.01693
G1 X122.698 Y114.925 E.1083
G1 X122.698 Y115.461 E.0169
G1 X125.127 Y117.89 E.1083
G1 X125.127 Y118.426 E.0169
G1 X122.698 Y115.997 E.1083
G1 X122.685 Y116.327 E.01041
G1 X122.642 Y116.477 E.00492
G1 X125.127 Y118.962 E.11079
G1 X125.127 Y119.498 E.0169
G1 X122.433 Y116.804 E.12011
G1 X122.248 Y116.954 E.00751
G1 X122.105 Y117.013 E.00488
G1 X125.127 Y120.035 E.13474
G1 X125.127 Y120.571 E.0169
G1 X121.689 Y117.133 E.15328
G1 X121.265 Y117.245 E.01383
G1 X125.127 Y121.107 E.17219
G1 X125.127 Y121.643 E.0169
G1 X120.839 Y117.356 E.19116
G1 X120.407 Y117.459 E.014
G1 X125.127 Y122.179 E.21044
G1 X125.127 Y122.716 E.01693
G1 X119.974 Y117.563 E.22975
G1 X119.706 Y117.627 E.00869
G1 X119.706 Y117.831 E.00643
G1 X125.127 Y123.252 E.2417
G1 X125.127 Y123.788 E.0169
G1 X119.706 Y118.367 E.2417
G1 X119.706 Y118.903 E.0169
G1 X125.127 Y124.324 E.2417
G1 X125.127 Y124.86 E.0169
G1 X119.706 Y119.439 E.2417
G1 X119.706 Y119.976 E.01693
G1 X125.297 Y125.566 E.24925
M204 S1000
;WIPE_START
G1 F8640
G1 X122.847 Y123.116 E-.8
;WIPE_END
G1 Z.6 F720
G1 X130.477 Y126.457 F10800
G1 Z.2 F720
G1 E.8 F2100
M204 S800
G1 F1200
G1 X131.042 Y127.022 E.02519
G1 X131.042 Y127.374 E.0111
G1 X130.857 Y127.374 E.00583
G1 X130.11 Y126.626 E.03333
G1 X129.574 Y126.626 E.0169
G1 X130.321 Y127.374 E.03333
G1 X129.785 Y127.374 E.0169
G1 X129.038 Y126.626 E.03333
G1 X128.502 Y126.626 E.0169
G1 X129.249 Y127.374 E.03333
G1 X128.712 Y127.374 E.01693
G1 X127.965 Y126.626 E.03333
G1 X127.429 Y126.626 E.0169
G1 X128.176 Y127.374 E.03333
G1 X127.64 Y127.374 E.0169
G1 X126.893 Y126.626 E.03333
G1 X126.357 Y126.626 E.0169
G1 X127.104 Y127.374 E.03333
G1 X126.568 Y127.374 E.0169
G1 X119.706 Y120.512 E.30594
G1 X119.706 Y121.048 E.0169
G1 X126.031 Y127.374 E.28202
G1 X125.495 Y127.374 E.0169
G1 X119.706 Y121.584 E.25813
G1 X119.706 Y122.12 E.0169
G1 X124.959 Y127.374 E.23423
G1 X124.423 Y127.374 E.0169
G1 X119.706 Y122.657 E.21031
G1 X119.706 Y123.193 E.0169
G1 X123.887 Y127.374 E.18641
G1 X123.35 Y127.374 E.01693
G1 X119.706 Y123.729 E.16249
G1 X119.706 Y124.265 E.0169
G1 X122.814 Y127.374 E.13859
G1 X122.278 Y127.374 E.0169
G1 X119.706 Y124.801 E.1147
G1 X119.706 Y125.338 E.01693
G1 X121.742 Y127.374 E.09078
G1 X121.206 Y127.374 E.0169
G1 X119.706 Y125.874 E.06688
G1 X119.706 Y126.41 E.0169
G1 X120.669 Y127.374 E.04296
G1 X120.133 Y127.374 E.0169
G1 X119.536 Y126.777 E.02662
M204 S1000
; stop printing object Sharpener.stl id:0 copy 0
M106 S84.15
;LAYER_CHANGE
;Z:0.35
;HEIGHT:0.15
;BEFORE_LAYER_CHANGE
G92 E0.0
;0.35


;WIPE_START
G1 F8640
G1 X120.133 Y127.374 E-.19495
G1 X120.669 Y127.374 E-.12376
G1 X119.706 Y126.41 E-.31463
G1 X119.706 Y125.874 E-.12376
G1 X119.837 Y126.005 E-.0429
;WIPE_END
G1 Z.35 F720
;AFTER_LAYER_CHANGE
;0.35
M104 S210 ; set temperature
G1 Z.75
G1 X119.837 Y130.877 F10800
G1 Z.35 F720
G1 E.8 F2100
;TYPE:Skirt/Brim
;WIDTH:0.42
G1 F3000
G1 X110.259 Y130.877 E.23164
G1 X108.952 Y130.485 E.033
G1 X108.076 Y129.44 E.03298
G1 X107.882 Y128.5 E.02321
G1 X107.882 Y81.5 E1.13669
G1 X108.274 Y80.193 E.033
M73 P2 R58
G1 X109.32 Y79.317 E.033
G1 X110.259 Y79.123 E.02319
G1 X132.169 Y79.123 E.52989
G1 X133.476 Y79.515 E.033
