; generated by PrusaSlicer 2.7.0+win64 on 2024-02-10 at 00:53:54 UTC


;
;
; 

; external perimeters extrusion width = 0.45mm
; perimeters extrusion width = 0.45mm
; infill extrusion width = 0.45mm
; solid infill extrusion width = 0.45mm
; top infill extrusion width = 0.40mm
; first layer extrusion width = 0.42mm

M73 P0 R59
M73 Q0 S60
M201 X1000 Y1000 Z200 E5000 ; sets maximum accelerations, mm/sec^2
M203 X200 Y200 Z12 E120 ; sets maximum feedrates, mm / sec
M204 S1250 T1250 ; sets acceleration (S) and retract acceleration (R), mm/sec^2
M205 X8.00 Y8.00 Z0.40 E4.50 ; sets the jerk limits, mm/sec
M205 S0 T0 ; sets the minimum extruding and travel feed rate, mm/sec

; printing object SharpenerV3.stl id:0 copy 0
; stop printing object SharpenerV3.stl id:0 copy 0

;TYPE:Custom
M862.3 P "MK3S" ; printer model check
M862.1 P0.4 ; nozzle diameter check
M115 U3.13.2 ; tell printer latest fw version
G90 ; use absolute coordinates
M83 ; extruder relative mode
M104 S215 ; set extruder temp
M140 S60 ; set bed temp
M190 S60 ; wait for bed temp
M109 S215 ; wait for extruder temp
G28 W ; home all without mesh bed level
G80 X101.403 Y80.2023 W52.1612 H41.7011 ; mesh bed levelling

G1 Z0.2 F720
G1 Y-3 F1000 ; go outside print area
G92 E0
G1 X60 E9 F1000 ; intro line
G1 X100 E12.5 F1000 ; intro line

G92 E0
M221 S95

; Don't change E values below. Excessive value can damage the printer.

M907 E538 ; set extruder motor current
G21 ; set units to millimeters
G90 ; use absolute coordinates
M83 ; use relative distances for extrusion
M900 K0.05 ; Filament gcode LA 1.5
M900 K30 ; Filament gcode LA 1.0

M107
;LAYER_CHANGE
;Z:0.2
;HEIGHT:0.2
;BEFORE_LAYER_CHANGE
G92 E0.0
;0.2


G1 E-.8 F2100
G1 Z.2 F720
;AFTER_LAYER_CHANGE
;0.2
G1 X109.222 Y81.486 F10800
G1 Z.2 F720
G1 E.8 F2100
M204 S800
;TYPE:Skirt/Brim
;WIDTH:0.42
G1 F1200
G1 X110.249 Y80.588 E.04277
G1 X111.601 Y80.403 E.04279
G1 X112.5 Y80.74 E.0301
G1 X152.28 Y105.77 E1.47364
G1 X153.178 Y106.797 E.04277
G1 X153.363 Y108.149 E.04279
G1 X153.026 Y109.048 E.0301
G1 X145.745 Y120.619 E.42865
G1 X144.718 Y121.517 E.04277
G1 X143.366 Y121.702 E.04279
G1 X142.468 Y121.366 E.03006
G1 X102.687 Y96.336 E1.47366
G1 X101.789 Y95.308 E.0428
G1 X101.604 Y93.956 E.04279
G1 X101.941 Y93.058 E.03007
G1 X109.19 Y81.537 E.42679
M204 S1000
; printing object SharpenerV3.stl id:0 copy 0
;WIPE_START
G1 F8640
G1 X109.222 Y81.486 E-.0139
G1 X110.249 Y80.588 E-.31501
G1 X111.601 Y80.403 E-.31509
G1 X112.233 Y80.64 E-.156
;WIPE_END
G1 Z.6 F720
G1 X143.88 Y114.245 F10800
G1 Z.2 F720
G1 E.8 F2100
M204 S800
;TYPE:Perimeter
;WIDTH:0.419999
G1 F1200
G1 X144.028 Y114.299 E.00494
G1 X144.316 Y114.262 E.0091
G1 X144.581 Y114.039 E.01086
G1 X148.807 Y107.323 E.24879
G1 X149.368 Y107.676 E.02078
G1 X149.929 Y108.029 E.02078
G1 X143.486 Y118.268 E.37931
G1 X105.038 Y94.077 E1.42427
G1 X111.481 Y83.837 E.37933
G1 X112.603 Y84.543 E.04156
G1 X108.377 Y91.26 E.24882
G1 X108.291 Y91.595 E.01084
G1 X108.382 Y91.871 E.00911
G1 X108.554 Y92.04 E.00756
G1 X143.801 Y114.217 E1.3057
G1 X143.824 Y114.225 E.00076
M204 S1000
G1 X144.002 Y113.898 F10800
M204 S800
;TYPE:External perimeter
G1 F1200
G1 X144.174 Y113.913 E.00541
G1 X144.262 Y113.839 E.00361
G1 X148.689 Y106.803 E.26064
G1 X149.569 Y107.357 E.0326
G1 X150.449 Y107.91 E.03259
G1 X143.605 Y118.788 E.40296
G1 X104.518 Y94.195 E1.44794
G1 X111.362 Y83.317 E.40296
G1 X113.123 Y84.425 E.06523
G1 X108.696 Y91.461 E.26064
G1 X108.667 Y91.572 E.0036
G1 X108.755 Y91.721 E.00543
G1 X143.951 Y113.866 E1.30381
M204 S1000
;WIPE_START
G1 F8640
G1 X144.002 Y113.898 E-.0139
G1 X144.174 Y113.913 E-.03987
G1 X144.262 Y113.839 E-.02655
G1 X145.922 Y111.201 E-.71968
;WIPE_END
G1 Z.6 F720
G1 X148.683 Y107.839 F10800
G1 Z.2 F720
G1 E.8 F2100
M204 S800
;TYPE:Solid infill
;WIDTH:0.420395
G1 F1200
G1 X149.275 Y108.431 E.02628
G1 X149.069 Y108.759 E.01216
G1 X148.6 Y108.289 E.02084
G1 X148.393 Y108.617 E.01217
G1 X148.863 Y109.086 E.02084
G1 X148.657 Y109.414 E.01216
G1 X148.187 Y108.945 E.02084
G1 X147.981 Y109.272 E.01213
G1 X148.45 Y109.742 E.02084
G1 X148.244 Y110.069 E.01213
G1 X147.775 Y109.6 E.02082
G1 X147.569 Y109.928 E.01216
G1 X148.038 Y110.397 E.02082
G1 X147.832 Y110.725 E.01216
G1 X147.363 Y110.255 E.02084
G1 X147.156 Y110.583 E.01217
G1 X147.626 Y111.052 E.02084
G1 X147.42 Y111.38 E.01216
G1 X146.95 Y110.911 E.02084
G1 X146.744 Y111.238 E.01213
G1 X147.213 Y111.708 E.02084
G1 X147.007 Y112.035 E.01213
G1 X146.538 Y111.566 E.02082
G1 X146.332 Y111.894 E.01216
G1 X146.801 Y112.363 E.02082
G1 X146.595 Y112.691 E.01216
G1 X146.126 Y112.221 E.02084
G1 X145.92 Y112.549 E.01216
G1 X146.389 Y113.018 E.02082
G1 X146.183 Y113.346 E.01216
G1 X145.713 Y112.877 E.02084
G1 X145.507 Y113.204 E.01213
G1 X145.976 Y113.674 E.02084
G1 X145.77 Y114.001 E.01213
G1 X145.301 Y113.532 E.02082
G1 X145.095 Y113.86 E.01216
G1 X145.564 Y114.329 E.02082
G1 X145.358 Y114.657 E.01216
G1 X144.889 Y114.187 E.02084
G1 X144.856 Y114.24 E.00196
G1 X144.612 Y114.445 E.01
G1 X145.152 Y114.984 E.02395
G1 X144.946 Y115.312 E.01216
G1 X144.241 Y114.607 E.03129
G1 X143.987 Y114.64 E.00804
G1 X143.577 Y114.477 E.01385
G1 X144.739 Y115.64 E.0516
G1 X144.533 Y115.967 E.01213
G1 X142.137 Y113.571 E.10635
G1 X140.697 Y112.665 E.0534
G1 X144.327 Y116.295 E.16113
G1 X144.121 Y116.623 E.01216
G1 X139.257 Y111.759 E.2159
G1 X137.818 Y110.853 E.05337
G1 X143.915 Y116.95 E.27063
G1 X143.709 Y117.278 E.01216
G1 X136.378 Y109.947 E.32541
G1 X134.938 Y109.041 E.0534
G1 X143.502 Y117.606 E.38016
G1 X143.38 Y117.8 E.00719
M73 Q0 S59
G1 X142.796 Y117.433 E.02165
G1 X133.499 Y108.135 E.4127
G1 X132.059 Y107.23 E.05338
G1 X141.356 Y116.527 E.41268
G1 X139.916 Y115.621 E.0534
G1 X130.619 Y106.324 E.41268
G1 X129.179 Y105.418 E.0534
G1 X138.477 Y114.715 E.4127
G1 X137.037 Y113.809 E.0534
G1 X127.74 Y104.512 E.41268
G1 X126.3 Y103.606 E.0534
M73 P1 R59
M73 Q1 S59
G1 X135.598 Y112.904 E.41272
G1 X134.158 Y111.998 E.0534
G1 X124.86 Y102.7 E.41272
G1 X123.421 Y101.794 E.05337
G1 X132.718 Y111.092 E.4127
G1 X131.279 Y110.186 E.05337
G1 X121.981 Y100.888 E.41272
G1 X120.541 Y99.983 E.05338
G1 X129.839 Y109.28 E.4127
G1 X128.399 Y108.375 E.05338
G1 X119.101 Y99.077 E.41272
G1 X117.662 Y98.171 E.05337
G1 X126.96 Y107.469 E.41272
G1 X125.52 Y106.563 E.0534
G1 X116.222 Y97.265 E.41272
G1 X114.782 Y96.359 E.0534
G1 X124.08 Y105.657 E.41272
G1 X122.641 Y104.751 E.05337
G1 X113.343 Y95.453 E.41272
G1 X111.903 Y94.547 E.0534
G1 X121.201 Y103.846 E.41274
G1 X119.762 Y102.94 E.05337
G1 X109.922 Y93.101 E.43676
M204 S1000
;WIPE_START
G1 F8640
G1 X112.372 Y95.551 E-.8
;WIPE_END
G1 Z.6 F720
G1 X112.058 Y85.093 F10800
G1 Z.2 F720
G1 E.8 F2100
M204 S800
G1 F1200
G1 X111.465 Y84.5 E.02632
G1 X111.258 Y84.828 E.01217
G1 X111.729 Y85.298 E.02088
G1 X111.523 Y85.626 E.01216
G1 X111.052 Y85.155 E.02091
G1 X110.846 Y85.483 E.01216
G1 X111.317 Y85.954 E.02091
G1 X111.111 Y86.282 E.01216
G1 X110.64 Y85.811 E.02091
G1 X110.434 Y86.138 E.01213
G1 X110.906 Y86.61 E.02095
G1 X110.7 Y86.938 E.01216
G1 X110.228 Y86.466 E.02095
G1 X110.021 Y86.794 E.01217
G1 X110.494 Y87.266 E.02097
G1 X110.288 Y87.594 E.01216
G1 X109.815 Y87.121 E.021
G1 X109.609 Y87.449 E.01216
G1 X110.083 Y87.923 E.02104
G1 X109.877 Y88.251 E.01216
G1 X109.403 Y87.777 E.02104
G1 X109.197 Y88.104 E.01213
G1 X109.671 Y88.579 E.02106
G1 X109.465 Y88.907 E.01216
G1 X108.991 Y88.432 E.02106
G1 X108.784 Y88.76 E.01217
G1 X109.26 Y89.235 E.02111
G1 X109.054 Y89.563 E.01216
G1 X108.578 Y89.087 E.02113
G1 X108.372 Y89.415 E.01216
G1 X108.848 Y89.891 E.02113
G1 X108.642 Y90.219 E.01216
G1 X108.166 Y89.743 E.02113
G1 X107.96 Y90.07 E.01213
G1 X108.437 Y90.547 E.02117
G1 X108.231 Y90.875 E.01216
G1 X107.754 Y90.398 E.02117
G1 X107.547 Y90.726 E.01217
G1 X108.165 Y91.344 E.02743
M204 S1000
;WIPE_START
G1 F8640
G1 X107.547 Y90.726 E-.20181
G1 X107.754 Y90.398 E-.08956
G1 X108.231 Y90.875 E-.15576
G1 X108.437 Y90.547 E-.08943
G1 X107.96 Y90.07 E-.15576
G1 X108.166 Y89.743 E-.08924
G1 X108.223 Y89.799 E-.01844
;WIPE_END
G1 Z.6 F720
G1 X107.218 Y90.93 F10800
G1 Z.2 F720
G1 E.8 F2100
M204 S800
G1 F1200
G1 X107.969 Y91.681 E.03334
G1 X108.092 Y92.054 E.01233
G1 X108.334 Y92.302 E.01088
G1 X109.023 Y92.735 E.02554
G1 X118.322 Y102.034 E.41277
G1 X116.882 Y101.128 E.0534
G1 X107.135 Y91.381 E.43265
G1 X106.929 Y91.709 E.01216
G1 X115.443 Y100.222 E.3779
G1 X114.003 Y99.317 E.05338
G1 X106.723 Y92.036 E.32317
M73 P1 R58
G1 X106.517 Y92.364 E.01216
G1 X112.563 Y98.411 E.26839
G1 X111.124 Y97.505 E.05337
G1 X106.311 Y92.692 E.21364
G1 X106.104 Y93.019 E.01215
G1 X109.684 Y96.599 E.15891
G1 X108.244 Y95.693 E.0534
G1 X105.898 Y93.347 E.10413
G1 X105.692 Y93.675 E.01216
G1 X107.345 Y95.328 E.07337
M204 S1000
; stop printing object SharpenerV3.stl id:0 copy 0
M106 S84.15
;LAYER_CHANGE
;Z:0.35
;HEIGHT:0.15
;BEFORE_LAYER_CHANGE
G92 E0.0
;0.35


;WIPE_START
G1 F8640
G1 X105.692 Y93.675 E-.53978
G1 X105.898 Y93.347 E-.08943
G1 X106.421 Y93.87 E-.17079
;WIPE_END
G1 Z.35 F720
;AFTER_LAYER_CHANGE
;0.35
M104 S210 ; set temperature
G1 Z.75
G1 X104.25 Y97.32 F10800
G1 Z.35 F720
G1 E.8 F2100
;TYPE:Skirt/Brim
;WIDTH:0.42
G1 F3000
G1 X102.687 Y96.336 E.04467
G1 X101.789 Y95.308 E.03301
G1 X101.604 Y93.956 E.033
G1 X101.941 Y93.058 E.0232
G1 X109.222 Y81.486 E.33066
G1 X110.249 Y80.588 E.03299
G1 X111.601 Y80.403 E.033
G1 X112.5 Y80.74 E.02322
G1 X152.28 Y105.77 E1.13668
G1 X153.178 Y106.797 E.03299
G1 X153.363 Y108.149 E.033
G1 X153.026 Y109.048 E.02322
G1 X145.745 Y120.619 E.33064
G1 X144.718 Y121.517 E.03299
G1 X143.366 Y121.702 E.033
G1 X142.468 Y121.366 E.02319
G1 X104.301 Y97.352 E1.09057
; printing object SharpenerV3.stl id:0 copy 0
;WIPE_START
G1 F8640
G1 X104.25 Y97.32 E-.0139
G1 X102.687 Y96.336 E-.42647
G1 X101.789 Y95.308 E-.31518
G1 X101.763 Y95.117 E-.04445
;WIPE_END
G1 Z.75 F720
G1 X143.461 Y113.833 F10800
G1 Z.35 F720
G1 E.8 F2100
M204 S800
;TYPE:Perimeter
;WIDTH:0.449999
G1 F3600
G1 X143.704 Y113.985 E.00747
G1 F3399.099
G1 X143.997 Y114.08 E.00803
G1 F3342.652
G1 X144.299 Y114.024 E.008
G1 F3303.815
G1 X144.568 Y113.788 E.00932
G1 F3291.178
G1 X148.762 Y107.124 E.20516
G1 F2788.305
G1 X149.445 Y107.554 E.02103
G1 F2757.585
G1 X150.128 Y107.983 E.02102
G1 X143.532 Y118.467 E.32274
G1 F3600
G1 X104.839 Y94.122 E1.19113
G1 F2756.734
G1 X111.435 Y83.638 E.32274
G1 X112.802 Y84.498 E.04208
G1 F3291.823
G1 X108.608 Y91.163 E.20518
G1 F3304.434
G1 X108.512 Y91.507 E.00931
G1 F3343.19
G1 X108.593 Y91.804 E.00802
G1 F3399.52
G1 X108.805 Y92.027 E.00802
G1 X143.411 Y113.801 E1.06532
M204 S1000
G1 X143.947 Y113.643 F10800
M204 S800
;TYPE:External perimeter
G1 F2045.455
G1 X144.125 Y113.645 E.00464
G1 F2040.119
G1 X144.215 Y113.566 E.00312
G1 F2039.113
G1 X148.271 Y107.119 E.19846
G1 F1858.873
G1 X148.63 Y106.548 E.01757
G1 F1818.186
G1 X149.667 Y107.2 E.03192
G1 F1807.52
G1 X150.704 Y107.852 E.03192
G1 X143.663 Y119.043 E.3445
G1 F1823.478
G1 X143.092 Y118.684 E.01757
G1 F2099.768
G1 X104.834 Y94.613 E1.17773
G1 F1825.564
G1 X104.263 Y94.253 E.01759
G1 F1807.224
G1 X111.304 Y83.062 E.3445
G1 X113.378 Y84.367 E.06385
G1 F1849.497
G1 X113.018 Y84.938 E.01759
G1 F2039.24
G1 X108.962 Y91.385 E.19846
G1 X108.945 Y91.418 E.00097
G1 F2042.529
G1 X108.957 Y91.599 E.00473
G1 F2048.307
G1 X109.028 Y91.673 E.00267
G1 F2067.306
G1 X109.599 Y92.033 E.01759
G1 F2098.795
G1 X143.355 Y113.272 E1.03915
G1 F2067.237
G1 X143.896 Y113.612 E.01665
M204 S1000
;WIPE_START
G1 F8640
G1 X143.947 Y113.643 E-.01378
G1 X144.125 Y113.645 E-.0411
;WIPE_END
G1 E-.74512 F2100
G1 Z.75 F720
G1 X112.283 Y84.616 F10800
G1 Z.35 F720
G1 E.8 F2100
;TYPE:Solid infill
G1 F12000
G1 X111.553 Y84.157 E.02247
G1 X105.358 Y94.004 E.30312
G1 X141.706 Y116.874 E1.11894
G1 X144.153 Y114.427 E.09017
G1 X143.932 Y114.448 E.00578
G1 X143.58 Y114.345 E.00956
G1 X108.533 Y92.294 E1.07889
G1 X108.247 Y91.941 E.01184
G1 X108.141 Y91.471 E.01255
G1 X108.228 Y91.085 E.01031
G1 X112.172 Y84.793 E.19349
G1 X111.689 Y84.752 E.01263
;WIDTH:0.489264
G1 F11376.714
G1 X107.857 Y90.853 E.20536
;WIDTH:0.49906
G1 F11138.004
G1 X107.802 Y90.95 E.00325
G1 X107.769 Y91.156 E.00607
;WIDTH:0.476273
G1 F11709.534
G1 X107.73 Y91.394 E.00668
;WIDTH:0.449999
G1 F12000
G1 X107.741 Y91.673 E.00728
G1 X107.844 Y92.05 E.01018
G1 X107.971 Y92.292 E.00712
G1 X108.311 Y92.648 E.01283
G1 X143.316 Y114.673 E1.0776
G1 X141.646 Y116.343 E.06154
G1 X105.934 Y93.873 E1.09937
G1 X107.354 Y91.615 E.0695
;WIDTH:0.49906
G1 F11138.004
G1 X107.802 Y90.95 E.02335
;WIPE_START
G1 F8640
G1 X107.354 Y91.615 E-.18514
;WIPE_END
G1 E-.61486 F2100
G1 Z.75 F720
G1 X107.47 Y92.216 F10800
G1 Z.35 F720
G1 E.8 F2100
;WIDTH:0.449999
G1 F12000
G1 X106.51 Y93.742 E.04697
G1 X141.586 Y115.812 E1.07979
G1 X142.65 Y114.748 E.03921
G1 X108.088 Y93.001 E1.06397
G1 X107.849 Y92.794 E.00824
G1 X107.652 Y92.563 E.00791
G1 X107.567 Y92.401 E.00477
G1 X107.473 Y93.102 E.01843
;WIDTH:0.562702
G1 F9801.852
G1 X107.164 Y93.593 E.01919
G1 X107.558 Y93.844 E.01546
;WIDTH:0.556946
G1 F9909.367
G1 X141.342 Y115.101 E1.30623
;WIDTH:0.556763
G1 F9912.824
G1 X141.519 Y115.213 E.00685
G1 X141.9 Y114.832 E.01763
G1 X141.621 Y114.657 E.01077
;WIDTH:0.556946
G1 F9909.367
G1 X107.837 Y93.4 E1.30623
;WIDTH:0.560151
G1 F9849.225
G1 X107.634 Y93.234 E.00863
;WIPE_START
G1 F8640
G1 X107.837 Y93.4 E-.06055
;WIPE_END
G1 E-.73945 F2100
G1 Z.75 F720
G1 X144.436 Y114.272 F10800
G1 Z.35 F720
G1 E.8 F2100
;WIDTH:0.37219
G1 F12000
G1 X144.801 Y113.928 E.01063
;WIPE_START
G1 F8640
G1 X144.436 Y114.272 E-.11581
;WIPE_END
G1 E-.68419 F2100
G1 Z.75 F720
G1 X148.88 Y107.642 F10800
G1 Z.35 F720
G1 E.8 F2100
;WIDTH:0.449999
G1 F12000
G1 X145.303 Y113.327 E.17501
G1 X145.546 Y113.329 E.00633
G1 X145.617 Y113.399 E.0026
G1 X146.233 Y113.285 E.01632
G1 X146.329 Y113.315 E.00262
G1 X149.609 Y108.102 E.16048
G1 X149.056 Y107.754 E.01702
G1 X149.015 Y108.237 E.01263
;WIDTH:0.476716
G1 F11697.854
G1 X146.099 Y112.871 E.15178
;WIPE_START
G1 F8640
G1 X147.944 Y109.938 E-.8
;WIPE_END
G1 Z.75 F720
G1 X145.399 Y113.772 F10800
G1 Z.35 F720
G1 E.8 F2100
;WIDTH:0.449999
G1 F12000
G1 X142.069 Y117.102 E.12271
G1 X142.431 Y117.33 E.01115
G1 X146.124 Y113.638 E.13606
;WIPE_START
G1 F8640
G1 X143.674 Y116.088 E-.8
;WIPE_END
G1 Z.75 F720
G1 X145.404 Y114.919 F10800
G1 Z.35 F720
G1 E.8 F2100
;WIDTH:0.37219
G1 F12000
G1 X145.333 Y114.9 E.00156
G1 X145.352 Y114.971 E.00156
G1 X145.393 Y114.96 E.0009
;WIDTH:0.411095
G1 X145.26 Y115.092 E.00443
;WIDTH:0.449999
G1 X142.794 Y117.559 E.09089
G1 X143.157 Y117.787 E.01117
G1 X144.258 Y116.686 E.04057
;WIDTH:0.411095
G1 X144.391 Y116.553 E.00444
;WIDTH:0.37219
G1 X144.35 Y116.564 E.0009
G1 X144.33 Y116.493 E.00156
G1 X144.402 Y116.512 E.00158
; stop printing object SharpenerV3.stl id:0 copy 0
M106 S170.85
;LAYER_CHANGE
;Z:0.5
;HEIGHT:0.15
;BEFORE_LAYER_CHANGE
G92 E0.0
;0.5


;WIPE_START
G1 F8640
G1 X144.33 Y116.493 E-.01719
G1 X144.35 Y116.564 E-.01703
G1 X144.391 Y116.553 E-.0098
;WIPE_END
G1 E-.75598 F2100
G1 Z.5 F720
;AFTER_LAYER_CHANGE
;0.5
G1 Z.9
G1 X147.194 Y118.317 F10800
G1 Z.5 F720
G1 E.8 F2100
;TYPE:Skirt/Brim
;WIDTH:0.42
G1 F3000
M73 Q2 S59
G1 X145.745 Y120.619 E.06578
G1 X144.718 Y121.517 E.03299
G1 X143.366 Y121.702 E.033
G1 X142.468 Y121.366 E.02319
G1 X102.687 Y96.336 E1.1367
G1 X101.789 Y95.308 E.03301
M73 P2 R58
G1 X101.604 Y93.956 E.033
G1 X101.941 Y93.058 E.0232
G1 X109.222 Y81.486 E.33066
G1 X110.249 Y80.588 E.03299
G1 X111.601 Y80.403 E.033
G1 X112.5 Y80.74 E.02322
G1 X152.28 Y105.77 E1.13668
G1 X153.178 Y106.797 E.03299
G1 X153.363 Y108.149 E.033
G1 X153.026 Y109.048 E.02322
G1 X147.226 Y118.266 E.26339
; printing object SharpenerV3.stl id:0 copy 0
;WIPE_START
G1 F8640
G1 X147.194 Y118.317 E-.0139
G1 X145.745 Y120.619 E-.62807
G1 X145.23 Y121.07 E-.15803
;WIPE_END
G1 Z.9 F720
G1 X143.462 Y113.831 F10800
G1 Z.5 F720
G1 E.8 F2100
M204 S800
;TYPE:Perimeter
;WIDTH:0.449999
G1 F3600
G1 X143.705 Y113.984 E.00748
G1 X143.998 Y114.079 E.00803
G1 X144.3 Y114.023 E.008
G1 X144.569 Y113.787 E.00932
G1 X148.762 Y107.124 E.20512
G1 X149.445 Y107.554 E.02103
G1 X150.128 Y107.983 E.02102
G1 X143.532 Y118.467 E.32274
G1 X104.839 Y94.122 E1.19113
