; generated by PrusaSlicer 2.7.0+win64 on 2024-03-30 at 19:35:05 UTC


;
;
; 

; external perimeters extrusion width = 0.45mm
; perimeters extrusion width = 0.45mm
; infill extrusion width = 0.45mm
; solid infill extrusion width = 0.45mm
; top infill extrusion width = 0.40mm
; first layer extrusion width = 0.42mm

; external perimeters extrusion width = 0.45mm
; perimeters extrusion width = 0.45mm
; infill extrusion width = 0.45mm
; solid infill extrusion width = 0.45mm
; top infill extrusion width = 0.40mm
; first layer extrusion width = 0.42mm

M73 P0 R143
M73 Q0 S144
M201 X1000 Y1000 Z200 E5000 ; sets maximum accelerations, mm/sec^2
M203 X200 Y200 Z12 E120 ; sets maximum feedrates, mm / sec
M204 S1250 T1250 ; sets acceleration (S) and retract acceleration (R), mm/sec^2
M205 X8.00 Y8.00 Z0.40 E4.50 ; sets the jerk limits, mm/sec
M205 S0 T0 ; sets the minimum extruding and travel feed rate, mm/sec

; printing object Spiral_Box_Base_-_Blank.stl id:1 copy 0
; stop printing object Spiral_Box_Base_-_Blank.stl id:1 copy 0
; printing object Spiral_Box_Cap_-_Blank.stl id:0 copy 0
; stop printing object Spiral_Box_Cap_-_Blank.stl id:0 copy 0

;TYPE:Custom
M862.3 P "MK3S" ; printer model check
M862.1 P0.4 ; nozzle diameter check
M115 U3.13.2 ; tell printer latest fw version
G90 ; use absolute coordinates
M83 ; extruder relative mode
M104 S215 ; set extruder temp
M140 S60 ; set bed temp
M190 S60 ; wait for bed temp
M109 S215 ; wait for extruder temp
G28 W ; home all without mesh bed level
G80 X64.5073 Y72.7623 W120.983 H64.1313 ; mesh bed levelling

G1 Z0.2 F720
G1 Y-3 F1000 ; go outside print area
G92 E0
G1 X60 E9 F1000 ; intro line
G1 X100 E12.5 F1000 ; intro line

G92 E0
M221 S95

; Don't change E values below. Excessive value can damage the printer.

M907 E538 ; set extruder motor current
G21 ; set units to millimeters
G90 ; use absolute coordinates
M83 ; use relative distances for extrusion
M900 K0.05 ; Filament gcode LA 1.5
M900 K30 ; Filament gcode LA 1.0

M107
;LAYER_CHANGE
;Z:0.2
;HEIGHT:0.2
;BEFORE_LAYER_CHANGE
G92 E0.0
;0.2


G1 E-.8 F2100
G1 Z.2 F720
;AFTER_LAYER_CHANGE
;0.2
G1 X65.992 Y88.033 F10800
G1 Z.2 F720
G1 E.8 F2100
M204 S800
;TYPE:Skirt/Brim
;WIDTH:0.42
G1 F1200
G1 X67.379 Y87.186 E.05096
G1 X91.064 Y73.282 E.86113
G1 X92.242 Y72.955 E.03833
M73 P0 R142
G1 X92.603 Y72.951 E.01132
G1 X157.262 Y73.295 E2.02737
G1 X158.385 Y73.584 E.03636
M73 Q0 S143
G1 X160.008 Y74.474 E.05804
G1 X183.696 Y87.922 E.85406
G1 X184.561 Y88.768 E.03794
G1 X184.727 Y89.044 E.0101
G1 X185.064 Y90.206 E.03793
G1 X185.302 Y119.295 E.9121
G1 X185.003 Y120.467 E.03792
G1 X184.846 Y120.749 E.01012
G1 X184.009 Y121.622 E.03792
G1 X182.427 Y122.583 E.05804
G1 X158.936 Y136.373 E.85408
G1 X157.771 Y136.7 E.03794
G1 X157.397 Y136.705 E.01173
G1 X92.739 Y136.362 E2.02733
G1 X91.614 Y136.072 E.03643
G1 X90.187 Y135.295 E.05095
G1 X66.302 Y121.735 E.86117
G1 X65.43 Y120.879 E.03831
G1 X65.266 Y120.601 E.01012
G1 X64.935 Y119.449 E.03758
G1 X64.894 Y117.783 E.05225
G1 X64.696 Y90.36 E.85985
G1 X65.001 Y89.177 E.03831
G1 X65.16 Y88.896 E.01012
G1 X65.95 Y88.077 E.03568
M204 S1000
; printing object Spiral_Box_Cap_-_Blank.stl id:0 copy 0
;WIPE_START
G1 F8640
G1 X65.992 Y88.033 E-.01405
G1 X67.379 Y87.186 E-.37526
G1 X68.913 Y86.286 E-.41069
;WIPE_END
G1 Z.6 F720
G1 X117.254 Y90.396 F10800
G1 Z.2 F720
G1 E.8 F2100
M204 S800
;TYPE:Perimeter
;WIDTH:0.419999
G1 F1200
G1 X117.283 Y91.557 E.03641
G1 X117.284 Y117.68 E.81907
G1 X117.312 Y118.816 E.03563
G1 X116.321 Y119.421 E.0364
G1 X93.742 Y132.457 E.81747
G1 X92.729 Y133.076 E.03722
G1 X91.709 Y132.521 E.03641
G1 X69.13 Y119.485 E.81747
G1 X68.087 Y118.917 E.03724
G1 X68.059 Y117.756 E.03641
G1 X68.059 Y91.684 E.81747
G1 X68.029 Y90.497 E.03723
G1 X69.02 Y89.892 E.0364
G1 X91.599 Y76.855 E.81748
G1 X92.612 Y76.237 E.03721
G1 X93.632 Y76.792 E.03641
G1 X116.211 Y89.828 E.81747
G1 X117.201 Y90.367 E.03534
M204 S1000
G1 X117.626 Y90.169 F10800
M204 S800
;TYPE:External perimeter
G1 F1200
G1 X117.66 Y91.552 E.04338
G1 X117.661 Y117.671 E.81894
G1 X117.694 Y119.024 E.04243
G1 X116.514 Y119.745 E.04336
G1 X93.931 Y132.784 E.81762
G1 X92.739 Y133.512 E.04379
G1 X91.525 Y132.85 E.04336
G1 X68.941 Y119.811 E.81765
G1 X67.716 Y119.144 E.04373
G1 X67.681 Y117.761 E.04338
G1 X67.681 Y91.684 E.81762
G1 X67.647 Y90.288 E.04378
G1 X68.827 Y89.567 E.04336
G1 X91.411 Y76.529 E.81763
G1 X92.602 Y75.801 E.04377
G1 X93.816 Y76.463 E.04336
G1 X116.4 Y89.502 E.81765
G1 X117.573 Y90.141 E.04188
M204 S1000
;WIPE_START
G1 F8640
G1 X117.626 Y90.169 E-.01384
G1 X117.66 Y91.552 E-.31944
G1 X117.66 Y93.573 E-.46672
;WIPE_END
G1 Z.6 F720
G1 X117.106 Y91.292 F10800
G1 Z.2 F720
G1 E.8 F2100
M204 S800
;TYPE:Solid infill
;WIDTH:0.422048
G1 F1200
G1 X115.792 Y89.978 E.05858
G1 X114.523 Y89.245 E.0462
G1 X116.943 Y91.665 E.10789
G1 X116.943 Y92.202 E.01693
G1 X113.255 Y88.513 E.16444
G1 X111.986 Y87.781 E.04618
G1 X116.943 Y92.738 E.221
G1 X116.943 Y93.274 E.0169
G1 X110.718 Y87.048 E.27755
G1 X109.449 Y86.316 E.04618
G1 X116.943 Y93.81 E.3341
G1 X116.943 Y94.346 E.0169
G1 X108.181 Y85.584 E.39063
G1 X106.912 Y84.851 E.0462
G1 X116.943 Y94.882 E.44721
G1 X116.943 Y95.419 E.01693
G1 X105.644 Y84.119 E.50376
G1 X104.375 Y83.387 E.04618
G1 X116.943 Y95.955 E.56031
G1 X116.943 Y96.491 E.0169
G1 X103.107 Y82.654 E.61687
G1 X101.838 Y81.922 E.04618
G1 X116.943 Y97.027 E.67342
G1 X116.943 Y97.563 E.0169
G1 X100.57 Y81.19 E.72995
G1 X99.301 Y80.457 E.0462
G1 X116.943 Y98.099 E.78653
G1 X116.943 Y98.636 E.01693
G1 X98.033 Y79.725 E.84308
G1 X96.764 Y78.993 E.04618
G1 X116.943 Y99.172 E.89963
G1 X116.943 Y99.708 E.0169
G1 X95.496 Y78.26 E.95618
G1 X94.227 Y77.528 E.04618
G1 X116.943 Y100.244 E1.01274
G1 X116.943 Y100.78 E.0169
G1 X92.994 Y76.831 E1.06771
G1 X92.622 Y76.628 E.01336
G1 X92.394 Y76.767 E.00842
G1 X116.943 Y101.316 E1.09446
G1 X116.943 Y101.853 E.01693
G1 X92.061 Y76.971 E1.1093
G1 X91.728 Y77.173 E.01228
G1 X116.943 Y102.389 E1.12417
G1 X116.943 Y102.925 E.0169
G1 X91.388 Y77.369 E1.13933
G1 X91.048 Y77.566 E.01239
G1 X116.943 Y103.461 E1.15447
G1 X116.943 Y103.997 E.0169
M73 P0 R141
G1 X90.708 Y77.762 E1.16962
G1 X90.368 Y77.958 E.01237
M73 Q0 S142
G1 X116.943 Y104.534 E1.1848
G1 X116.943 Y105.07 E.0169
G1 X90.028 Y78.154 E1.19996
G1 X89.688 Y78.351 E.01239
G1 X116.943 Y105.606 E1.2151
G1 X116.943 Y106.142 E.0169
G1 X89.348 Y78.547 E1.23026
G1 X89.008 Y78.743 E.01237
G1 X116.943 Y106.678 E1.24541
G1 X116.943 Y107.214 E.0169
G1 X88.668 Y78.939 E1.26057
G1 X88.328 Y79.136 E.01239
G1 X116.943 Y107.751 E1.27573
G1 X116.943 Y108.287 E.0169
G1 X87.989 Y79.332 E1.29087
G1 X87.649 Y79.528 E.01237
M73 P1 R141
M73 Q1 S142
G1 X116.943 Y108.823 E1.30602
G1 X116.943 Y109.359 E.0169
G1 X87.309 Y79.724 E1.32118
G1 X86.969 Y79.921 E.01239
G1 X116.943 Y109.895 E1.33632
G1 X116.943 Y110.431 E.0169
G1 X86.629 Y80.117 E1.35148
G1 X86.289 Y80.313 E.01237
G1 X116.943 Y110.968 E1.36666
G1 X116.943 Y111.504 E.0169
G1 X85.949 Y80.509 E1.38181
G1 X85.609 Y80.706 E.01239
G1 X116.943 Y112.04 E1.39695
G1 X116.943 Y112.576 E.0169
G1 X85.269 Y80.902 E1.41211
G1 X84.929 Y81.098 E.01237
G1 X116.943 Y113.112 E1.42727
G1 X116.943 Y113.648 E.0169
G1 X84.589 Y81.294 E1.44242
G1 X84.249 Y81.491 E.01239
G1 X116.943 Y114.185 E1.45758
G1 X116.943 Y114.721 E.0169
G1 X83.91 Y81.687 E1.47272
G1 X83.57 Y81.883 E.01237
G1 X116.943 Y115.257 E1.48788
G1 X116.943 Y115.793 E.0169
G1 X83.23 Y82.079 E1.50303
G1 X82.89 Y82.276 E.01239
G1 X116.943 Y116.329 E1.51817
G1 X116.943 Y116.865 E.0169
G1 X82.55 Y82.472 E1.53333
G1 X82.21 Y82.668 E.01237
G1 X116.943 Y117.402 E1.54851
G1 X116.951 Y117.945 E.01712
G1 X81.87 Y82.864 E1.564
G1 X81.53 Y83.061 E.01239
M73 P1 R140
G1 X116.965 Y118.495 E1.57976
G1 X116.968 Y118.629 E.00423
M73 Q1 S141
G1 X116.716 Y118.783 E.00931
G1 X81.19 Y83.257 E1.58384
G1 X80.85 Y83.453 E.01237
G1 X116.383 Y118.986 E1.58415
G1 X116.048 Y119.187 E.01232
G1 X80.51 Y83.649 E1.58437
G1 X80.17 Y83.846 E.01239
G1 X115.708 Y119.383 E1.58435
G1 X115.368 Y119.58 E.01239
G1 X79.831 Y84.042 E1.58435
G1 X79.491 Y84.238 E.01237
G1 X115.028 Y119.776 E1.58435
G1 X114.688 Y119.972 E.01237
G1 X79.151 Y84.434 E1.58435
G1 X78.811 Y84.631 E.01239
G1 X114.348 Y120.168 E1.58433
G1 X114.009 Y120.365 E.01236
G1 X78.471 Y84.827 E1.58437
G1 X78.131 Y85.023 E.01237
G1 X113.669 Y120.561 E1.58437
G1 X113.329 Y120.757 E.01237
G1 X77.791 Y85.219 E1.58437
G1 X77.451 Y85.416 E.01239
G1 X112.989 Y120.953 E1.58435
G1 X112.649 Y121.15 E.01239
G1 X77.111 Y85.612 E1.58437
G1 X76.771 Y85.808 E.01237
G1 X112.309 Y121.346 E1.58437
G1 X111.969 Y121.542 E.01237
G1 X76.431 Y86.004 E1.58437
G1 X76.091 Y86.201 E.01239
G1 X111.629 Y121.738 E1.58435
G1 X111.289 Y121.935 E.01239
G1 X75.752 Y86.397 E1.58435
G1 X75.412 Y86.593 E.01237
M73 P2 R140
M73 Q2 S141
G1 X110.949 Y122.131 E1.58435
G1 X110.609 Y122.327 E.01237
G1 X75.072 Y86.789 E1.58435
G1 X74.732 Y86.986 E.01239
G1 X110.269 Y122.523 E1.58433
G1 X109.93 Y122.72 E.01236
G1 X74.392 Y87.182 E1.58437
G1 X74.052 Y87.378 E.01237
G1 X109.59 Y122.916 E1.58437
G1 X109.25 Y123.112 E.01237
G1 X73.712 Y87.574 E1.58437
G1 X73.372 Y87.771 E.01239
M73 P2 R139
G1 X108.91 Y123.308 E1.58435
G1 X108.57 Y123.505 E.01239
M73 Q2 S140
G1 X73.032 Y87.967 E1.58437
G1 X72.692 Y88.163 E.01237
G1 X108.23 Y123.701 E1.58437
G1 X107.89 Y123.897 E.01237
G1 X72.352 Y88.359 E1.58437
G1 X72.012 Y88.556 E.01239
G1 X107.55 Y124.093 E1.58435
G1 X107.21 Y124.29 E.01239
G1 X71.673 Y88.752 E1.58435
G1 X71.333 Y88.948 E.01237
G1 X106.87 Y124.486 E1.58435
G1 X106.53 Y124.682 E.01237
G1 X70.993 Y89.145 E1.58433
G1 X70.653 Y89.341 E.01237
G1 X106.19 Y124.878 E1.58433
G1 X105.851 Y125.075 E.01236
G1 X70.313 Y89.537 E1.58437
G1 X69.973 Y89.733 E.01237
G1 X105.511 Y125.271 E1.58437
G1 X105.171 Y125.467 E.01237
G1 X69.633 Y89.93 E1.58435
G1 X69.293 Y90.126 E.01237
G1 X104.831 Y125.663 E1.58435
G1 X104.491 Y125.86 E.01239
G1 X68.958 Y90.327 E1.58415
G1 X68.625 Y90.53 E.01229
G1 X104.151 Y126.056 E1.58384
G1 X103.811 Y126.252 E.01237
G1 X68.377 Y90.818 E1.57974
G1 X68.39 Y91.367 E.01731
G1 X103.471 Y126.448 E1.564
G1 X103.131 Y126.645 E.01239
G1 X68.398 Y91.911 E1.54851
G1 X68.398 Y92.448 E.01693
G1 X102.791 Y126.841 E1.53333
G1 X102.451 Y127.037 E.01237
G1 X68.398 Y92.984 E1.51817
G1 X68.398 Y93.52 E.0169
G1 X102.111 Y127.233 E1.50301
G1 X101.772 Y127.43 E.01236
G1 X68.398 Y94.056 E1.4879
G1 X68.398 Y94.592 E.0169
G1 X101.432 Y127.626 E1.47274
G1 X101.092 Y127.822 E.01237
G1 X68.398 Y95.128 E1.45758
G1 X68.398 Y95.665 E.01693
M73 P2 R138
G1 X100.752 Y128.018 E1.4424
G1 X100.412 Y128.215 E.01239
M73 Q2 S139
G1 X68.398 Y96.201 E1.42727
G1 X68.398 Y96.737 E.0169
G1 X100.072 Y128.411 E1.41211
G1 X99.732 Y128.607 E.01237
G1 X68.398 Y97.273 E1.39695
G1 X68.398 Y97.809 E.0169
M73 P3 R138
G1 X99.392 Y128.803 E1.38179
G1 X99.052 Y129 E.01239
M73 Q3 S139
G1 X68.398 Y98.345 E1.36666
G1 X68.398 Y98.882 E.01693
G1 X98.712 Y129.196 E1.35148
G1 X98.372 Y129.392 E.01237
G1 X68.398 Y99.418 E1.33632
G1 X68.398 Y99.954 E.0169
G1 X98.032 Y129.588 E1.32116
G1 X97.693 Y129.785 E.01236
G1 X68.398 Y100.49 E1.30605
G1 X68.398 Y101.026 E.0169
G1 X97.353 Y129.981 E1.29089
G1 X97.013 Y130.177 E.01237
G1 X68.398 Y101.562 E1.27573
G1 X68.398 Y102.099 E.01693
G1 X96.673 Y130.373 E1.26055
G1 X96.333 Y130.57 E.01239
G1 X68.398 Y102.635 E1.24541
G1 X68.398 Y103.171 E.0169
G1 X95.993 Y130.766 E1.23026
G1 X95.653 Y130.962 E.01237
G1 X68.398 Y103.707 E1.2151
G1 X68.398 Y104.243 E.0169
G1 X95.313 Y131.158 E1.19994
G1 X94.973 Y131.355 E.01239
G1 X68.398 Y104.779 E1.1848
G1 X68.398 Y105.316 E.01693
G1 X94.633 Y131.551 E1.16962
G1 X94.293 Y131.747 E.01237
G1 X68.398 Y105.852 E1.15447
G1 X68.398 Y106.388 E.0169
G1 X93.953 Y131.943 E1.13931
G1 X93.614 Y132.14 E.01236
G1 X68.398 Y106.924 E1.12419
G1 X68.398 Y107.46 E.0169
G1 X93.28 Y132.342 E1.1093
G1 X92.947 Y132.545 E.01229
G1 X68.398 Y107.996 E1.09446
G1 X68.398 Y108.533 E.01693
G1 X92.348 Y132.482 E1.06773
G1 X91.115 Y131.786 E.04463
G1 X68.398 Y109.069 E1.01278
G1 X68.398 Y109.605 E.0169
G1 X89.847 Y131.054 E.95625
G1 X88.578 Y130.321 E.0462
G1 X68.398 Y110.141 E.89968
G1 X68.398 Y110.677 E.0169
G1 X87.31 Y129.589 E.84315
G1 X86.041 Y128.857 E.04618
G1 X68.398 Y111.213 E.78659
G1 X68.398 Y111.75 E.01693
G1 X84.772 Y128.124 E.72999
G1 X83.504 Y127.392 E.04616
M73 P3 R137
G1 X68.398 Y112.286 E.67346
G1 X68.398 Y112.822 E.0169
M73 Q3 S138
G1 X82.235 Y126.659 E.61689
G1 X80.967 Y125.927 E.04616
G1 X68.398 Y113.358 E.56036
G1 X68.398 Y113.894 E.0169
G1 X79.698 Y125.194 E.50378
G1 X78.43 Y124.462 E.04616
G1 X68.398 Y114.43 E.44725
G1 X68.398 Y114.967 E.01693
G1 X77.161 Y123.73 E.39068
G1 X75.892 Y122.997 E.0462
G1 X68.398 Y115.503 E.3341
G1 X68.398 Y116.039 E.0169
G1 X74.624 Y122.265 E.27757
G1 X73.355 Y121.532 E.0462
G1 X68.398 Y116.575 E.221
G1 X68.398 Y117.111 E.0169
G1 X72.087 Y120.8 E.16447
G1 X70.818 Y120.068 E.04618
G1 X68.398 Y117.647 E.10791
G1 X68.409 Y118.195 E.01728
G1 X70.013 Y119.799 E.07151
M204 S1000
; stop printing object Spiral_Box_Cap_-_Blank.stl id:0 copy 0
; printing object Spiral_Box_Base_-_Blank.stl id:1 copy 0
;WIPE_START
G1 F8640
G1 X68.409 Y118.195 E-.52378
G1 X68.398 Y117.647 E-.12656
G1 X68.856 Y118.105 E-.14966
;WIPE_END
G1 Z.6 F720
G1 X157.269 Y76.58 F10800
G1 Z.2 F720
G1 E.8 F2100
M204 S800
;TYPE:Perimeter
;WIDTH:0.419999
G1 F1200
G1 X158.102 Y77.037 E.02979
G1 X180.681 Y90.063 E.81731
G1 X181.911 Y90.737 E.04398
G1 X181.942 Y92.117 E.04328
G1 X181.943 Y117.803 E.80537
G1 X181.972 Y119.157 E.04246
G1 X180.793 Y119.873 E.04325
G1 X158.59 Y132.692 E.80386
G1 X157.39 Y133.42 E.04401
G1 X156.18 Y132.756 E.04328
G1 X133.978 Y119.938 E.80381
G1 X132.748 Y119.263 E.04399
G1 X132.717 Y117.883 E.04328
G1 X132.717 Y92.245 E.80386
G1 X132.687 Y90.843 E.04397
G1 X133.866 Y90.127 E.04325
G1 X156.069 Y77.308 E.80386
G1 X157.217 Y76.611 E.04211
M204 S1000
G1 X157.259 Y76.145 F10800
M204 S800
;TYPE:External perimeter
G1 F1200
G1 X158.287 Y76.708 E.03675
G1 X180.87 Y89.736 E.81745
G1 X182.284 Y90.512 E.05057
G1 X182.319 Y92.113 E.05021
G1 X182.32 Y117.795 E.80524
G1 X182.354 Y119.367 E.0493
G1 X180.985 Y120.198 E.05021
G1 X158.778 Y133.019 E.804
G1 X157.4 Y133.855 E.05054
G1 X155.996 Y133.085 E.05021
G1 X133.789 Y120.264 E.804
G1 X132.375 Y119.488 E.05057
G1 X132.34 Y117.887 E.05021
G1 X132.34 Y92.245 E.80399
G1 X132.305 Y90.633 E.05055
G1 X133.674 Y89.802 E.05021
G1 X155.881 Y76.981 E.804
G1 X157.208 Y76.176 E.04866
M204 S1000
;WIPE_START
G1 F8640
G1 X157.259 Y76.145 E-.01378
G1 X158.287 Y76.708 E-.27063
G1 X160.221 Y77.824 E-.51559
;WIPE_END
G1 Z.6 F720
G1 X181.761 Y91.631 F10800
G1 Z.2 F720
G1 E.8 F2100
M204 S800
;TYPE:Solid infill
;WIDTH:0.422059
G1 F1200
G1 X180.453 Y90.323 E.05832
G1 X179.186 Y89.592 E.04611
G1 X181.6 Y92.006 E.10763
G1 X181.602 Y92.544 E.01696
G1 X177.919 Y88.861 E.1642
G1 X176.652 Y88.13 E.04611
G1 X181.602 Y93.08 E.22069
G1 X181.602 Y93.617 E.01693
G1 X175.385 Y87.399 E.2772
G1 X174.117 Y86.668 E.04614
G1 X181.602 Y94.153 E.33371
G1 X181.602 Y94.689 E.0169
G1 X172.85 Y85.937 E.3902
G1 X171.583 Y85.206 E.04611
G1 X181.602 Y95.225 E.44669
G1 X181.602 Y95.761 E.0169
G1 X170.316 Y84.475 E.50317
G1 X169.049 Y83.744 E.04611
G1 X181.602 Y96.298 E.55968
G1 X181.602 Y96.834 E.0169
G1 X167.782 Y83.013 E.61617
G1 X166.515 Y82.282 E.04611
G1 X181.602 Y97.37 E.67266
G1 X181.602 Y97.906 E.0169
G1 X165.247 Y81.551 E.72917
G1 X163.98 Y80.82 E.04611
M73 P4 R137
G1 X181.602 Y98.442 E.78566
G1 X181.602 Y98.978 E.0169
M73 Q4 S138
G1 X162.713 Y80.089 E.84214
G1 X161.446 Y79.358 E.04611
G1 X181.602 Y99.515 E.89865
G1 X181.602 Y100.051 E.0169
G1 X160.179 Y78.627 E.95514
G1 X158.912 Y77.896 E.04611
G1 X181.602 Y100.587 E1.01163
G1 X181.602 Y101.123 E.0169
G1 X157.662 Y77.183 E1.06734
G1 X157.277 Y76.972 E.01384
G1 X157.052 Y77.109 E.0083
G1 X181.602 Y101.659 E1.09453
G1 X181.602 Y102.196 E.01693
G1 X156.718 Y77.311 E1.10945
G1 X156.384 Y77.514 E.01232
G1 X181.602 Y102.732 E1.12432
G1 X181.602 Y103.268 E.0169
G1 X156.047 Y77.713 E1.13934
G1 X155.707 Y77.909 E.01237
G1 X181.602 Y103.804 E1.1545
G1 X181.602 Y104.34 E.0169
G1 X155.367 Y78.105 E1.16966
