; generated by PrusaSlicer 2.6.1+win64 on 2023-12-07 at 19:54:45 UTC


;
;
; 

; external perimeters extrusion width = 0.45mm
; perimeters extrusion width = 0.45mm
; infill extrusion width = 0.45mm
; solid infill extrusion width = 0.45mm
; top infill extrusion width = 0.40mm
; support material extrusion width = 0.35mm
; first layer extrusion width = 0.42mm

M73 P0 R31
M73 Q0 S31
M201 X1000 Y1000 Z200 E5000 ; sets maximum accelerations, mm/sec^2
M203 X200 Y200 Z12 E120 ; sets maximum feedrates, mm / sec
M204 S1250 T1250 ; sets acceleration (S) and retract acceleration (R), mm/sec^2
M205 X8.00 Y8.00 Z0.40 E4.50 ; sets the jerk limits, mm/sec
M205 S0 T0 ; sets the minimum extruding and travel feed rate, mm/sec
;TYPE:Custom
M862.3 P "MK3S" ; printer model check
M862.1 P0.4 ; nozzle diameter check
M115 U3.12.2 ; tell printer latest fw version
G90 ; use absolute coordinates
M83 ; extruder relative mode
M104 S215 ; set extruder temp
M140 S60 ; set bed temp
M190 S60 ; wait for bed temp
M109 S215 ; wait for extruder temp
G28 W ; home all without mesh bed level
G80 ; mesh bed leveling

G1 Z0.2 F720
G1 Y-3 F1000 ; go outside print area
G92 E0
G1 X60 E9 F1000 ; intro line
G1 X100 E12.5 F1000 ; intro line

G92 E0
M221 S95

; Don't change E values below. Excessive value can damage the printer.
M907 E430 ; set extruder motor current
G21 ; set units to millimeters
G90 ; use absolute coordinates
M83 ; use relative distances for extrusion
M900 K0.05 ; Filament gcode LA 1.5
M900 K30 ; Filament gcode LA 1.0
M107
;LAYER_CHANGE
;Z:0.2
;HEIGHT:0.2
;BEFORE_LAYER_CHANGE
G92 E0.0
;0.2


M73 P0 R30
G1 E-.8 F2100
G1 Z.4 F720
;AFTER_LAYER_CHANGE
;0.2
G1 X99.307 Y87.862 F10800
G1 Z.2 F720
G1 E.8 F2100
M204 S800
;TYPE:Skirt/Brim
;WIDTH:0.42
G1 F1200
G1 X100.353 Y86.985 E.0428
G1 X101.293 Y86.792 E.03009
G1 X148.707 Y86.792 E1.48663
G1 X150.014 Y87.183 E.04277
G1 X150.891 Y88.229 E.0428
G1 X151.084 Y89.169 E.03009
G1 X151.084 Y120.433 E.98026
G1 X150.388 Y122.114 E.05705
G1 X148.081 Y124.421 E.1023
G1 X147.463 Y124.867 E.0239
G1 X142.849 Y127.174 E.16174
G1 X141.786 Y127.425 E.03425
G1 X108.214 Y127.425 E1.05263
G1 X107.151 Y127.174 E.03425
G1 X102.537 Y124.867 E.16174
G1 X101.919 Y124.421 E.0239
G1 X99.612 Y122.114 E.1023
G1 X98.916 Y120.433 E.05705
G1 X98.916 Y89.169 E.98026
G1 X99.29 Y87.919 E.04091
M204 S1000
; printing object Sunglasses.stl id:0 copy 0
;WIPE_START
G1 F8640
G1 X100.353 Y86.985 E-.32674
G1 X101.293 Y86.792 E-.22158
G1 X102.383 Y86.792 E-.25168
;WIPE_END
G1 Z.6 F720
G1 X111.794 Y105.318 F10800
G1 Z.2 F720
G1 E.8 F2100
M204 S800
;TYPE:Support material
G1 F1200
G1 X138.206 Y105.318 E.82813
G1 X138.206 Y89.169 E.50634
G1 X148.707 Y89.169 E.32925
M73 Q1 S31
G1 X148.707 Y120.433 E.98026
M73 P1 R30
G1 X146.4 Y120.433 E.07233
G1 X146.4 Y122.74 E.07233
G1 X141.786 Y122.74 E.14467
G1 X141.786 Y125.048 E.07237
G1 X128.978 Y125.048 E.40159
G1 X128.978 Y122.74 E.07237
G1 X121.022 Y122.74 E.24945
G1 X121.022 Y125.048 E.07237
G1 X108.214 Y125.048 E.40159
G1 X108.214 Y122.74 E.07237
G1 X103.6 Y122.74 E.14467
G1 X103.6 Y120.433 E.07233
G1 X101.293 Y120.433 E.07233
G1 X101.293 Y89.169 E.98026
G1 X111.794 Y89.169 E.32925
G1 X111.794 Y105.262 E.50458
M204 S1000
G1 X136.172 Y107.898 F10800
M204 S800
M73 Q1 S30
G1 F1200
G1 X146.127 Y107.898 E.31213
G1 X146.127 Y113.239 E.16746
G1 X136.172 Y113.239 E.31213
G1 X136.172 Y110.702 E.07955
G1 X132.285 Y110.702 E.12187
G1 X132.285 Y113.239 E.07955
G1 X126.943 Y113.239 E.16749
G1 X126.943 Y107.898 E.16746
G1 X132.285 Y107.898 E.16749
G1 X132.285 Y109.661 E.05528
G1 X133.213 Y109.581 E.0292
G1 X134.274 Y109.542 E.03329
G1 X136.172 Y109.589 E.05953
G1 X136.172 Y107.955 E.05123
M204 S1000
;WIPE_START
G1 F8640
G1 X136.172 Y109.589 E-.3773
G1 X134.342 Y109.544 E-.4227
;WIPE_END
G1 Z.6 F720
G1 X103.873 Y113.239 F10800
G1 Z.2 F720
G1 E.8 F2100
M204 S800
G1 F1200
G1 X103.873 Y107.898 E.16746
G1 X113.828 Y107.898 E.31213
G1 X113.828 Y109.59 E.05305
G1 X115.751 Y109.542 E.06031
G1 X116.812 Y109.581 E.03329
G1 X117.715 Y109.659 E.02842
G1 X117.715 Y107.898 E.05521
G1 X123.057 Y107.898 E.16749
G1 X123.057 Y113.239 E.16746
G1 X117.715 Y113.239 E.16749
G1 X117.715 Y110.702 E.07955
G1 X116.003 Y110.702 E.05368
G1 X113.828 Y110.702 E.0682
G1 X113.828 Y113.239 E.07955
G1 X103.929 Y113.239 E.31038
M204 S1000
G1 X148.044 Y120.264 F10800
M204 S800
G1 F1200
G1 X148.044 Y89.508 E.96433
G1 X147.625 Y89.508 E.01314
G1 X147.625 Y120.094 E.959
G1 X147.206 Y120.094 E.01314
M73 P2 R30
M73 Q2 S30
G1 X147.206 Y89.508 E.959
G1 X146.787 Y89.508 E.01314
G1 X146.787 Y120.094 E.959
G1 X146.368 Y120.094 E.01314
G1 X146.368 Y89.508 E.959
G1 X145.949 Y89.508 E.01314
G1 X145.949 Y107.559 E.56598
G1 X145.53 Y107.559 E.01314
G1 X145.53 Y89.508 E.56598
G1 X145.111 Y89.508 E.01314
G1 X145.111 Y107.559 E.56598
G1 X144.692 Y107.559 E.01314
G1 X144.692 Y89.508 E.56598
G1 X144.273 Y89.508 E.01314
G1 X144.273 Y107.559 E.56598
G1 X143.854 Y107.559 E.01314
G1 X143.854 Y89.508 E.56598
G1 X143.435 Y89.508 E.01314
G1 X143.435 Y107.559 E.56598
G1 X143.016 Y107.559 E.01314
G1 X143.016 Y89.508 E.56598
G1 X142.597 Y89.508 E.01314
G1 X142.597 Y107.559 E.56598
G1 X142.178 Y107.559 E.01314
G1 X142.178 Y89.508 E.56598
G1 X141.759 Y89.508 E.01314
G1 X141.759 Y107.559 E.56598
G1 X141.34 Y107.559 E.01314
G1 X141.34 Y89.508 E.56598
G1 X140.921 Y89.508 E.01314
G1 X140.921 Y107.559 E.56598
G1 X140.502 Y107.559 E.01314
G1 X140.502 Y89.508 E.56598
G1 X140.083 Y89.508 E.01314
G1 X140.083 Y107.559 E.56598
G1 X139.664 Y107.559 E.01314
M73 P3 R30
M73 Q3 S30
G1 X139.664 Y89.508 E.56598
G1 X139.245 Y89.508 E.01314
G1 X139.245 Y107.559 E.56598
G1 X138.826 Y107.559 E.01314
G1 X138.826 Y89.508 E.56598
G1 X138.545 Y89.508 E.00881
G1 X138.545 Y105.658 E.50637
G1 X138.407 Y105.658 E.00433
G1 X138.407 Y107.559 E.0596
G1 X137.988 Y107.559 E.01314
G1 X137.988 Y105.658 E.0596
G1 X137.569 Y105.658 E.01314
G1 X137.569 Y107.559 E.0596
G1 X137.15 Y107.559 E.01314
G1 X137.15 Y105.658 E.0596
G1 X136.731 Y105.658 E.01314
G1 X136.731 Y107.559 E.0596
G1 X136.312 Y107.559 E.01314
G1 X136.312 Y105.658 E.0596
G1 X135.893 Y105.658 E.01314
G1 X135.893 Y107.559 E.0596
G1 X135.832 Y107.559 E.00191
G1 X135.832 Y109.241 E.05274
G1 X135.474 Y109.232 E.01123
M73 P3 R29
G1 X135.474 Y105.658 E.11206
G1 X135.055 Y105.658 E.01314
G1 X135.055 Y109.222 E.11175
G1 X134.636 Y109.211 E.01314
G1 X134.636 Y105.658 E.1114
G1 X134.217 Y105.658 E.01314
G1 X134.217 Y109.205 E.11121
G1 X133.799 Y109.22 E.01311
G1 X133.799 Y105.658 E.11168
G1 X133.38 Y105.658 E.01314
G1 X133.38 Y109.235 E.11215
G1 X132.961 Y109.262 E.01316
G1 X132.961 Y105.658 E.113
G1 X132.542 Y105.658 E.01314
G1 X132.542 Y107.559 E.0596
G1 X132.123 Y107.559 E.01314
G1 X132.123 Y105.658 E.0596
G1 X131.704 Y105.658 E.01314
G1 X131.704 Y107.559 E.0596
G1 X131.285 Y107.559 E.01314
G1 X131.285 Y105.658 E.0596
G1 X130.866 Y105.658 E.01314
G1 X130.866 Y107.559 E.0596
G1 X130.447 Y107.559 E.01314
G1 X130.447 Y105.658 E.0596
G1 X130.028 Y105.658 E.01314
G1 X130.028 Y107.559 E.0596
G1 X129.609 Y107.559 E.01314
G1 X129.609 Y105.658 E.0596
G1 X129.19 Y105.658 E.01314
G1 X129.19 Y107.559 E.0596
G1 X128.771 Y107.559 E.01314
G1 X128.771 Y105.658 E.0596
G1 X128.352 Y105.658 E.01314
G1 X128.352 Y107.559 E.0596
G1 X127.933 Y107.559 E.01314
G1 X127.933 Y105.658 E.0596
G1 X127.514 Y105.658 E.01314
G1 X127.514 Y107.559 E.0596
G1 X127.095 Y107.559 E.01314
G1 X127.095 Y105.658 E.0596
G1 X126.676 Y105.658 E.01314
G1 X126.676 Y122.401 E.52497
G1 X127.095 Y122.401 E.01314
G1 X127.095 Y113.579 E.27661
G1 X127.514 Y113.579 E.01314
G1 X127.514 Y122.401 E.27661
G1 X127.933 Y122.401 E.01314
G1 X127.933 Y113.579 E.27661
G1 X128.352 Y113.579 E.01314
G1 X128.352 Y122.401 E.27661
G1 X128.771 Y122.401 E.01314
G1 X128.771 Y113.579 E.27661
G1 X129.19 Y113.579 E.01314
G1 X129.19 Y122.401 E.27661
G1 X129.317 Y122.401 E.00398
G1 X129.317 Y124.708 E.07233
G1 X129.609 Y124.708 E.00916
G1 X129.609 Y113.579 E.34894
G1 X130.028 Y113.579 E.01314
G1 X130.028 Y124.708 E.34894
G1 X130.447 Y124.708 E.01314
G1 X130.447 Y113.579 E.34894
G1 X130.866 Y113.579 E.01314
G1 X130.866 Y124.708 E.34894
G1 X131.285 Y124.708 E.01314
G1 X131.285 Y113.579 E.34894
G1 X131.704 Y113.579 E.01314
G1 X131.704 Y124.708 E.34894
G1 X132.123 Y124.708 E.01314
G1 X132.123 Y113.579 E.34894
G1 X132.542 Y113.579 E.01314
G1 X132.542 Y124.708 E.34894
G1 X132.961 Y124.708 E.01314
G1 X132.961 Y111.042 E.42849
G1 X133.38 Y111.042 E.01314
G1 X133.38 Y124.708 E.42849
G1 X133.799 Y124.708 E.01314
G1 X133.799 Y111.042 E.42849
G1 X134.217 Y111.042 E.01311
M73 P4 R29
M73 Q4 S30
G1 X134.217 Y124.708 E.42849
G1 X134.636 Y124.708 E.01314
G1 X134.636 Y111.042 E.42849
G1 X135.055 Y111.042 E.01314
G1 X135.055 Y124.708 E.42849
G1 X135.474 Y124.708 E.01314
G1 X135.474 Y111.042 E.42849
G1 X135.832 Y111.042 E.01122
G1 X135.832 Y113.579 E.07955
G1 X135.893 Y113.579 E.00191
G1 X135.893 Y124.708 E.34894
G1 X136.312 Y124.708 E.01314
G1 X136.312 Y113.579 E.34894
G1 X136.731 Y113.579 E.01314
G1 X136.731 Y124.708 E.34894
G1 X137.15 Y124.708 E.01314
G1 X137.15 Y113.579 E.34894
G1 X137.569 Y113.579 E.01314
G1 X137.569 Y124.708 E.34894
G1 X137.988 Y124.708 E.01314
G1 X137.988 Y113.579 E.34894
G1 X138.407 Y113.579 E.01314
G1 X138.407 Y124.708 E.34894
G1 X138.826 Y124.708 E.01314
G1 X138.826 Y113.579 E.34894
G1 X139.245 Y113.579 E.01314
G1 X139.245 Y124.708 E.34894
G1 X139.664 Y124.708 E.01314
G1 X139.664 Y113.579 E.34894
G1 X140.083 Y113.579 E.01314
G1 X140.083 Y124.708 E.34894
G1 X140.502 Y124.708 E.01314
G1 X140.502 Y113.579 E.34894
G1 X140.921 Y113.579 E.01314
G1 X140.921 Y124.708 E.34894
G1 X141.34 Y124.708 E.01314
G1 X141.34 Y113.579 E.34894
G1 X141.759 Y113.579 E.01314
M73 Q4 S29
G1 X141.759 Y122.401 E.27661
G1 X142.178 Y122.401 E.01314
G1 X142.178 Y113.579 E.27661
G1 X142.597 Y113.579 E.01314
G1 X142.597 Y122.401 E.27661
G1 X143.016 Y122.401 E.01314
G1 X143.016 Y113.579 E.27661
G1 X143.435 Y113.579 E.01314
G1 X143.435 Y122.401 E.27661
G1 X143.854 Y122.401 E.01314
G1 X143.854 Y113.579 E.27661
G1 X144.273 Y113.579 E.01314
G1 X144.273 Y122.401 E.27661
G1 X144.692 Y122.401 E.01314
G1 X144.692 Y113.579 E.27661
G1 X145.111 Y113.579 E.01314
G1 X145.111 Y122.401 E.27661
G1 X145.53 Y122.401 E.01314
G1 X145.53 Y113.579 E.27661
G1 X145.949 Y113.579 E.01314
G1 X145.949 Y122.571 E.28194
M204 S1000
G1 X126.257 Y122.571 F10800
M204 S800
G1 F1200
G1 X126.257 Y105.658 E.5303
G1 X125.838 Y105.658 E.01314
G1 X125.838 Y122.401 E.52497
G1 X125.419 Y122.401 E.01314
M73 P5 R29
G1 X125.419 Y105.658 E.52497
G1 X125 Y105.658 E.01314
M73 Q5 S29
G1 X125 Y122.401 E.52497
G1 X124.581 Y122.401 E.01314
G1 X124.581 Y105.658 E.52497
G1 X124.162 Y105.658 E.01314
G1 X124.162 Y122.401 E.52497
G1 X123.743 Y122.401 E.01314
G1 X123.743 Y105.658 E.52497
G1 X123.324 Y105.658 E.01314
G1 X123.324 Y122.401 E.52497
G1 X122.905 Y122.401 E.01314
G1 X122.905 Y113.579 E.27661
G1 X122.486 Y113.579 E.01314
G1 X122.486 Y122.401 E.27661
G1 X122.067 Y122.401 E.01314
G1 X122.067 Y113.579 E.27661
G1 X121.648 Y113.579 E.01314
G1 X121.648 Y122.401 E.27661
G1 X121.229 Y122.401 E.01314
G1 X121.229 Y113.579 E.27661
G1 X120.81 Y113.579 E.01314
G1 X120.81 Y122.401 E.27661
G1 X120.683 Y122.401 E.00398
G1 X120.683 Y124.708 E.07233
G1 X120.391 Y124.708 E.00916
G1 X120.391 Y113.579 E.34894
G1 X119.972 Y113.579 E.01314
G1 X119.972 Y124.708 E.34894
G1 X119.553 Y124.708 E.01314
G1 X119.553 Y113.579 E.34894
G1 X119.134 Y113.579 E.01314
G1 X119.134 Y124.708 E.34894
G1 X118.715 Y124.708 E.01314
G1 X118.715 Y113.579 E.34894
G1 X118.296 Y113.579 E.01314
G1 X118.296 Y124.708 E.34894
G1 X117.877 Y124.708 E.01314
G1 X117.877 Y113.579 E.34894
G1 X117.458 Y113.579 E.01314
G1 X117.458 Y124.708 E.34894
G1 X117.039 Y124.708 E.01314
G1 X117.039 Y111.042 E.42849
G1 X116.62 Y111.042 E.01314
G1 X116.62 Y124.708 E.42849
G1 X116.201 Y124.708 E.01314
G1 X116.201 Y111.042 E.42849
G1 X115.783 Y111.042 E.01311
G1 X115.783 Y124.708 E.42849
G1 X115.364 Y124.708 E.01314
G1 X115.364 Y111.042 E.42849
G1 X114.945 Y111.042 E.01314
G1 X114.945 Y124.708 E.42849
G1 X114.526 Y124.708 E.01314
G1 X114.526 Y111.042 E.42849
G1 X114.168 Y111.042 E.01122
M73 P6 R29
G1 X114.168 Y113.579 E.07955
G1 X114.107 Y113.579 E.00191
G1 X114.107 Y124.708 E.34894
G1 X113.688 Y124.708 E.01314
G1 X113.688 Y113.579 E.34894
G1 X113.269 Y113.579 E.01314
M73 Q6 S29
G1 X113.269 Y124.708 E.34894
G1 X112.85 Y124.708 E.01314
G1 X112.85 Y113.579 E.34894
G1 X112.431 Y113.579 E.01314
G1 X112.431 Y124.708 E.34894
G1 X112.012 Y124.708 E.01314
G1 X112.012 Y113.579 E.34894
G1 X111.593 Y113.579 E.01314
G1 X111.593 Y124.708 E.34894
G1 X111.174 Y124.708 E.01314
G1 X111.174 Y113.579 E.34894
G1 X110.755 Y113.579 E.01314
G1 X110.755 Y124.708 E.34894
G1 X110.336 Y124.708 E.01314
G1 X110.336 Y113.579 E.34894
G1 X109.917 Y113.579 E.01314
G1 X109.917 Y124.708 E.34894
G1 X109.498 Y124.708 E.01314
G1 X109.498 Y113.579 E.34894
G1 X109.079 Y113.579 E.01314
G1 X109.079 Y124.708 E.34894
G1 X108.66 Y124.708 E.01314
G1 X108.66 Y113.579 E.34894
G1 X108.241 Y113.579 E.01314
G1 X108.241 Y122.401 E.27661
G1 X107.822 Y122.401 E.01314
G1 X107.822 Y113.579 E.27661
G1 X107.403 Y113.579 E.01314
M73 P6 R28
G1 X107.403 Y122.401 E.27661
G1 X106.984 Y122.401 E.01314
G1 X106.984 Y113.579 E.27661
G1 X106.565 Y113.579 E.01314
G1 X106.565 Y122.401 E.27661
G1 X106.146 Y122.401 E.01314
G1 X106.146 Y113.579 E.27661
G1 X105.727 Y113.579 E.01314
G1 X105.727 Y122.401 E.27661
G1 X105.308 Y122.401 E.01314
G1 X105.308 Y113.579 E.27661
G1 X104.889 Y113.579 E.01314
G1 X104.889 Y122.401 E.27661
G1 X104.47 Y122.401 E.01314
G1 X104.47 Y113.579 E.27661
G1 X104.051 Y113.579 E.01314
G1 X104.051 Y122.401 E.27661
G1 X103.939 Y122.401 E.00351
G1 X103.939 Y120.094 E.07233
G1 X103.632 Y120.094 E.00963
G1 X103.632 Y89.508 E.959
G1 X104.051 Y89.508 E.01314
G1 X104.051 Y107.559 E.56598
G1 X104.47 Y107.559 E.01314
G1 X104.47 Y89.508 E.56598
G1 X104.889 Y89.508 E.01314
G1 X104.889 Y107.559 E.56598
G1 X105.308 Y107.559 E.01314
G1 X105.308 Y89.508 E.56598
G1 X105.727 Y89.508 E.01314
M73 P7 R28
G1 X105.727 Y107.559 E.56598
G1 X106.146 Y107.559 E.01314
M73 Q7 S29
G1 X106.146 Y89.508 E.56598
G1 X106.565 Y89.508 E.01314
G1 X106.565 Y107.559 E.56598
G1 X106.984 Y107.559 E.01314
G1 X106.984 Y89.508 E.56598
G1 X107.403 Y89.508 E.01314
G1 X107.403 Y107.559 E.56598
G1 X107.822 Y107.559 E.01314
G1 X107.822 Y89.508 E.56598
G1 X108.241 Y89.508 E.01314
G1 X108.241 Y107.559 E.56598
G1 X108.66 Y107.559 E.01314
G1 X108.66 Y89.508 E.56598
G1 X109.079 Y89.508 E.01314
G1 X109.079 Y107.559 E.56598
G1 X109.498 Y107.559 E.01314
G1 X109.498 Y89.508 E.56598
G1 X109.917 Y89.508 E.01314
G1 X109.917 Y107.559 E.56598
G1 X110.336 Y107.559 E.01314
G1 X110.336 Y89.508 E.56598
G1 X110.755 Y89.508 E.01314
G1 X110.755 Y107.559 E.56598
G1 X111.174 Y107.559 E.01314
G1 X111.174 Y89.508 E.56598
G1 X111.455 Y89.508 E.00881
G1 X111.455 Y105.658 E.50637
G1 X111.593 Y105.658 E.00433
G1 X111.593 Y107.559 E.0596
G1 X112.012 Y107.559 E.01314
G1 X112.012 Y105.658 E.0596
G1 X112.431 Y105.658 E.01314
G1 X112.431 Y107.559 E.0596
G1 X112.85 Y107.559 E.01314
G1 X112.85 Y105.658 E.0596
G1 X113.269 Y105.658 E.01314
G1 X113.269 Y107.559 E.0596
G1 X113.688 Y107.559 E.01314
G1 X113.688 Y105.658 E.0596
G1 X114.107 Y105.658 E.01314
G1 X114.107 Y107.559 E.0596
G1 X114.168 Y107.559 E.00191
G1 X114.168 Y109.242 E.05277
G1 X114.526 Y109.233 E.01123
G1 X114.526 Y105.658 E.11209
G1 X114.945 Y105.658 E.01314
M73 Q7 S28
G1 X114.945 Y109.222 E.11175
G1 X115.364 Y109.212 E.01314
G1 X115.364 Y105.658 E.11143
G1 X115.783 Y105.658 E.01314
G1 X115.783 Y109.204 E.11118
G1 X116.201 Y109.219 E.01311
G1 X116.201 Y105.658 E.11165
G1 X116.62 Y105.658 E.01314
G1 X116.62 Y109.234 E.11212
G1 X117.039 Y109.26 E.01316
G1 X117.039 Y105.658 E.11294
G1 X117.458 Y105.658 E.01314
G1 X117.458 Y107.559 E.0596
G1 X117.877 Y107.559 E.01314
G1 X117.877 Y105.658 E.0596
G1 X118.296 Y105.658 E.01314
G1 X118.296 Y107.559 E.0596
G1 X118.715 Y107.559 E.01314
G1 X118.715 Y105.658 E.0596
G1 X119.134 Y105.658 E.01314
G1 X119.134 Y107.559 E.0596
G1 X119.553 Y107.559 E.01314
G1 X119.553 Y105.658 E.0596
G1 X119.972 Y105.658 E.01314
