; generated by SuperSlicer 2.4 on 2022-10-31 at 15:47:49 UTC


;
;

;
;
; 

; external perimeters extrusion width = 0.45mm
; perimeters extrusion width = 0.45mm
; infill extrusion width = 0.45mm
; solid infill extrusion width = 0.45mm
; top infill extrusion width = 0.40mm
; first layer extrusion width = 0.42mm

; object:{"name":"xyzCalibration_cube","id":"xyzCalibration_cube.stl id:0 copy 0","object_center":[105.000000,105.000000,0.000000],"boundingbox_center":[105.000000,105.000000,7.500000],"boundingbox_size":[15.000000,15.000000,15.000000]}
; Total objects to print: 1
M486 T1
; plater:{"center":[105.000000,105.000000,0.000000],"boundingbox_center":[105.000000,105.000000,7.500000],"boundingbox_size":[15.000000,15.000000,15.000000]}

M73 P0 R31
;TYPE:Custom
G90 ; use absolute coordinates
M83 ; extruder relative mode
M204 S1250 T1250
M104 S215 ; set extruder temp
M140 S65 ; set bed temp
G28 ; home all
G1 Y1.0 Z0.3 F1000 ; move print head up
M190 S65 ; wait for bed temp
M109 S215 ; wait for extruder temp
G92 E0.0
; initial load
G1 X205.0 E19 F1000
M73 P1 R31
G1 Y1.6
M73 P1 R30
G1 X5.0 E19 F1000
G92 E0.0
; intro line
G1 Y2.0 Z0.2 F1000
M73 P2 R30
G1 X65.0 E9.0 F1000
G1 X105.0 E12.5 F1000
G92 E0.0
M107
G21 ; set units to millimeters
G90 ; use absolute coordinates
M83 ; use relative distances for extrusion
; Filament gcode
;_TOOLCHANGE 0
M107
;LAYER_CHANGE
;Z:0.2
;HEIGHT:0.2
;BEFORE_LAYER_CHANGE
G92 E0.0
;0.2
G1 E-6 F2400
G1 Z0.075 F10800
G1 Z0.2
;AFTER_LAYER_CHANGE
;0.2
G1 Z0.275
M204 S800
G1 X95.177 Y96.093
G1 Z0.2
G1 E6 F3000
;TYPE:Skirt
;WIDTH:0.52
G1 F1200
G1 X94.784 Y97.5 E0.05793
G1 X94.784 Y112.5 E0.59504
G1 X95.094 Y113.759 E0.05141
G1 X96.093 Y114.823 E0.05793
G1 X97.5 Y115.216 E0.05793
G1 X112.5 Y115.216 E0.59504
G1 X113.759 Y114.906 E0.05141
G1 X114.823 Y113.907 E0.05793
G1 X115.216 Y112.5 E0.05793
G1 X115.216 Y97.5 E0.59504
G1 X114.906 Y96.241 E0.05141
G1 X113.907 Y95.177 E0.05793
G1 X112.5 Y94.784 E0.05793
G1 X97.5 Y94.784 E0.59504
G1 X96.241 Y95.094 E0.05141
G1 X95.221 Y96.052 E0.05555
G1 X95.653 Y96.236 F10800
G1 F1200
G1 X95.261 Y97.5 E0.05249
G1 X95.261 Y112.5 E0.59504
G1 X95.414 Y113.311 E0.03273
M73 P3 R30
G1 X96.236 Y114.347 E0.05249
G1 X97.5 Y114.739 E0.05249
G1 X112.5 Y114.739 E0.59504
G1 X113.311 Y114.586 E0.03273
G1 X114.347 Y113.764 E0.05249
G1 X114.739 Y112.5 E0.05249
G1 X114.739 Y97.5 E0.59504
G1 X114.586 Y96.689 E0.03273
G1 X113.764 Y95.653 E0.05249
G1 X112.5 Y95.261 E0.05249
G1 X97.5 Y95.261 E0.59504
G1 X96.689 Y95.414 E0.03273
G1 X95.7 Y96.199 E0.05011
G1 E-3.6 F2400
;WIPE_START
G1 F8640
M204 S1000
G1 X95.261 Y97.5 E-0.36235
G1 X95.261 Y104.767 E-1.91765
;WIPE_END
G1 E-0.12 F2400
G1 Z0.275 F10800
; printing object xyzCalibration_cube.stl id:0 copy 0
M486 S0
; acceleration to travel
M204 S1500
G1 X97.627 Y99.174
; decel to extrusion
M204 S800
G1 X98.087 Y98.087
; end travel
G1 Z0.2
G1 E6 F3000
;TYPE:Internal perimeter
;WIDTH:0.42
G1 F1200
G1 X111.913 Y98.087 E0.47685
G1 X111.913 Y111.913 E0.47685
G1 X98.087 Y111.913 E0.47685
G1 X98.087 Y98.147 E0.47478
G1 X97.71 Y97.71 F10800
;TYPE:External perimeter
G1 F1200
G1 X112.29 Y97.71 E0.50286
G1 X112.29 Y112.29 E0.50286
G1 X97.71 Y112.29 E0.50286
G1 X97.71 Y97.77 E0.50079
;WIPE_START
M204 S1000
G1 X98.056 Y97.91 F10800
;WIPE_END
G1 E-3.6 F2400
;WIPE_START
G1 F8640
G1 X106.696 Y97.91 E-2.28
;WIPE_END
G1 E-0.12 F2400
G1 Z0.275 F10800
; acceleration to travel
M204 S1500
G1 X110.331 Y98.153
; decel to extrusion
M204 S800
G1 X111.038 Y98.2
; end travel
G1 Z0.2
G1 E6 F3000
;TYPE:Solid infill
;WIDTH:0.421298
G1 F1200
G1 X111.638 Y98.8 E0.02936
G1 X111.638 Y99.334 E0.01845
G1 X110.666 Y98.362 E0.04752
G1 X110.133 Y98.362 E0.01845
G1 X111.638 Y99.867 E0.07361
G1 X111.638 Y100.4 E0.01845
G1 X109.6 Y98.362 E0.0997
G1 X109.067 Y98.362 E0.01845
G1 X111.638 Y100.933 E0.12579
G1 X111.638 Y101.467 E0.01845
G1 X108.533 Y98.362 E0.15188
G1 X108 Y98.362 E0.01845
G1 X111.638 Y102 E0.17798
G1 X111.638 Y102.533 E0.01845
G1 X107.467 Y98.362 E0.20407
G1 X106.934 Y98.362 E0.01845
G1 X111.638 Y103.066 E0.23016
G1 X111.638 Y103.6 E0.01845
G1 X106.4 Y98.362 E0.25625
G1 X105.867 Y98.362 E0.01845
G1 X111.638 Y104.133 E0.28234
G1 X111.638 Y104.666 E0.01845
G1 X105.334 Y98.362 E0.30843
G1 X104.8 Y98.362 E0.01845
G1 X111.638 Y105.2 E0.33452
G1 X111.638 Y105.733 E0.01845
G1 X104.267 Y98.362 E0.36061
G1 X103.734 Y98.362 E0.01845
G1 X111.638 Y106.266 E0.3867
G1 X111.638 Y106.799 E0.01845
G1 X103.201 Y98.362 E0.4128
G1 X102.667 Y98.362 E0.01845
G1 X111.638 Y107.333 E0.43889
G1 X111.638 Y107.866 E0.01845
G1 X102.134 Y98.362 E0.46498
G1 X101.601 Y98.362 E0.01845
G1 X111.638 Y108.399 E0.49107
G1 X111.638 Y108.932 E0.01845
G1 X101.068 Y98.362 E0.51716
G1 X100.534 Y98.362 E0.01845
M73 P4 R30
G1 X111.638 Y109.466 E0.54325
G1 X111.638 Y109.999 E0.01845
G1 X100.001 Y98.362 E0.56934
G1 X99.468 Y98.362 E0.01845
G1 X111.638 Y110.532 E0.59543
G1 X111.638 Y111.066 E0.01845
G1 X98.934 Y98.362 E0.62152
G1 X98.401 Y98.362 E0.01845
G1 X111.638 Y111.599 E0.64762
G1 X111.638 Y111.638 E0.00135
G1 X111.143 Y111.638 E0.0171
G1 X98.362 Y98.857 E0.62533
G1 X98.362 Y99.39 E0.01845
G1 X110.61 Y111.638 E0.59924
G1 X110.077 Y111.638 E0.01845
M73 P4 R29
G1 X98.362 Y99.923 E0.57315
G1 X98.362 Y100.457 E0.01845
G1 X109.543 Y111.638 E0.54706
G1 X109.01 Y111.638 E0.01845
G1 X98.362 Y100.99 E0.52097
G1 X98.362 Y101.523 E0.01845
G1 X108.477 Y111.638 E0.49487
G1 X107.944 Y111.638 E0.01845
G1 X98.362 Y102.056 E0.46878
G1 X98.362 Y102.59 E0.01845
G1 X107.41 Y111.638 E0.44269
G1 X106.877 Y111.638 E0.01845
G1 X98.362 Y103.123 E0.4166
G1 X98.362 Y103.656 E0.01845
G1 X106.344 Y111.638 E0.39051
G1 X105.811 Y111.638 E0.01845
G1 X98.362 Y104.189 E0.36442
G1 X98.362 Y104.723 E0.01845
G1 X105.277 Y111.638 E0.33833
G1 X104.744 Y111.638 E0.01845
G1 X98.362 Y105.256 E0.31224
G1 X98.362 Y105.789 E0.01845
G1 X104.211 Y111.638 E0.28615
G1 X103.678 Y111.638 E0.01845
G1 X98.362 Y106.322 E0.26005
G1 X98.362 Y106.856 E0.01845
G1 X103.144 Y111.638 E0.23396
G1 X102.611 Y111.638 E0.01845
G1 X98.362 Y107.389 E0.20787
G1 X98.362 Y107.922 E0.01845
G1 X102.078 Y111.638 E0.18178
G1 X101.544 Y111.638 E0.01845
G1 X98.362 Y108.456 E0.15569
G1 X98.362 Y108.989 E0.01845
G1 X101.011 Y111.638 E0.1296
G1 X100.478 Y111.638 E0.01845
G1 X98.362 Y109.522 E0.10351
G1 X98.362 Y110.055 E0.01845
G1 X99.945 Y111.638 E0.07742
G1 X99.411 Y111.638 E0.01845
G1 X98.362 Y110.589 E0.05133
G1 X98.362 Y111.122 E0.01845
G1 X99.04 Y111.8 E0.03317
M106 S84.15
;LAYER_CHANGE
;Z:0.35
;HEIGHT:0.15
;BEFORE_LAYER_CHANGE
G92 E0.0
;0.35
G1 E-3.6 F2400
;WIPE_START
G1 F8640
M204 S1000
G1 X98.362 Y111.122 E-0.25299
G1 X98.362 Y110.589 E-0.14072
G1 X99.411 Y111.638 E-0.39149
G1 X99.945 Y111.638 E-0.14072
G1 X98.362 Y110.055 E-0.5905
G1 X98.362 Y109.522 E-0.14072
G1 X100.031 Y111.191 E-0.62285
;WIPE_END
G1 E-0.12 F2400
G1 Z0.275 F10800
; stop printing object xyzCalibration_cube.stl id:0 copy 0
M486 S-1
G1 Z0.35
;AFTER_LAYER_CHANGE
;0.35
M104 S210 ; set temperature
M140 S60 ; set bed temperature
G1 Z0.425
; acceleration to travel
M204 S1500
G1 X100.031 Y114.424
; decel to extrusion
M204 S1000
G1 X100.031 Y115.216
; end travel
G1 Z0.35
G1 E6 F3000
;TYPE:Skirt
;WIDTH:0.52
G1 F1500
G1 X112.5 Y115.216 E0.37931
G1 X113.759 Y114.906 E0.03943
G1 X114.823 Y113.907 E0.04442
G1 X115.216 Y112.5 E0.04442
G1 X115.216 Y97.5 E0.45632
G1 X114.906 Y96.241 E0.03943
M73 P5 R29
G1 X113.907 Y95.177 E0.04442
G1 X112.5 Y94.784 E0.04442
G1 X97.5 Y94.784 E0.45632
G1 X96.241 Y95.094 E0.03943
G1 X95.177 Y96.093 E0.04442
G1 X94.784 Y97.5 E0.04442
G1 X94.784 Y112.5 E0.45632
G1 X95.094 Y113.759 E0.03943
G1 X96.093 Y114.823 E0.04442
G1 X97.5 Y115.216 E0.04442
G1 X99.971 Y115.216 E0.07518
G1 X99.971 Y114.739 F10800
G1 F1500
G1 X112.5 Y114.739 E0.38114
G1 X113.311 Y114.586 E0.0251
G1 X114.347 Y113.764 E0.04025
G1 X114.739 Y112.5 E0.04025
G1 X114.739 Y97.5 E0.45632
G1 X114.586 Y96.689 E0.0251
G1 X113.764 Y95.653 E0.04025
G1 X112.5 Y95.261 E0.04025
G1 X97.5 Y95.261 E0.45632
G1 X96.689 Y95.414 E0.0251
G1 X95.653 Y96.236 E0.04025
G1 X95.261 Y97.5 E0.04025
G1 X95.261 Y112.5 E0.45632
G1 X95.414 Y113.311 E0.0251
G1 X96.236 Y114.347 E0.04025
G1 X97.5 Y114.739 E0.04025
G1 X99.911 Y114.739 E0.07335
G1 E-3.6 F2400
;WIPE_START
G1 F8640
G1 X108.551 Y114.739 E-2.28
;WIPE_END
G1 E-0.12 F2400
G1 Z0.425 F10800
; printing object xyzCalibration_cube.stl id:0 copy 0
M486 S0
; acceleration to travel
M204 S1500
G1 X101.399 Y112.353
; decel to extrusion
M204 S800
G1 X99.911 Y111.857
; end travel
G1 Z0.35
G1 E6 F3000
;TYPE:Internal perimeter
;WIDTH:0.45
G1 X98.143 Y111.857 E0.04608
G1 X98.143 Y98.143 E0.35734
G1 X111.857 Y98.143 E0.35734
G1 X111.857 Y111.857 E0.35734
G1 X99.971 Y111.857 E0.3097
G1 X99.911 Y112.275 F10800
;TYPE:External perimeter
G1 F2400
G1 X97.725 Y112.275 E0.05697
G1 X97.725 Y97.725 E0.37911
G1 X112.275 Y97.725 E0.37911
G1 X112.275 Y112.275 E0.37911
G1 X99.971 Y112.275 E0.32058
;WIPE_START
M204 S1000
G1 X99.711 Y111.929 F10800
;WIPE_END
G1 E-3.6 F2400
;WIPE_START
G1 F8640
G1 X97.925 Y112.075 E-0.47296
G1 X97.925 Y105.227 E-1.80704
;WIPE_END
G1 E-0.12 F2400
G1 Z0.425 F10800
; acceleration to travel
M204 S1500
G1 X108.212 Y110.389
; decel to extrusion
M204 S1000
G1 X110.887 Y111.732
; end travel
G1 Z0.35
G1 E6 F3000
;TYPE:Solid infill
;WIDTH:0.44991
G1 X111.552 Y111.067 E0.0245
G1 X111.552 Y110.476 E0.01539
G1 X110.476 Y111.552 E0.03965
G1 X109.885 Y111.552 E0.01539
G1 X111.552 Y109.885 E0.06141
G1 X111.552 Y109.294 E0.01539
G1 X109.294 Y111.552 E0.08318
G1 X108.703 Y111.552 E0.01539
G1 X111.552 Y108.703 E0.10495
G1 X111.552 Y108.113 E0.01539
G1 X108.113 Y111.552 E0.12672
G1 X107.522 Y111.552 E0.01539
G1 X111.552 Y107.522 E0.14849
G1 X111.552 Y106.931 E0.01539
G1 X106.931 Y111.552 E0.17026
G1 X106.34 Y111.552 E0.01539
G1 X111.552 Y106.34 E0.19202
G1 X111.552 Y105.749 E0.01539
G1 X105.749 Y111.552 E0.21379
G1 X105.158 Y111.552 E0.01539
G1 X111.552 Y105.158 E0.23556
G1 X111.552 Y104.567 E0.01539
G1 X104.567 Y111.552 E0.25733
G1 X103.976 Y111.552 E0.01539
G1 X111.552 Y103.976 E0.2791
G1 X111.552 Y103.386 E0.01539
G1 X103.386 Y111.552 E0.30087
G1 X102.795 Y111.552 E0.01539
G1 X111.552 Y102.795 E0.32263
G1 X111.552 Y102.204 E0.01539
G1 X102.204 Y111.552 E0.3444
G1 X101.613 Y111.552 E0.01539
G1 X111.552 Y101.613 E0.36617
G1 X111.552 Y101.022 E0.01539
G1 X101.022 Y111.552 E0.38794
G1 X100.431 Y111.552 E0.01539
G1 X111.552 Y100.431 E0.40971
G1 X111.552 Y99.84 E0.01539
G1 X99.84 Y111.552 E0.43148
G1 X99.249 Y111.552 E0.01539
G1 X111.552 Y99.249 E0.45324
G1 X111.552 Y98.659 E0.01539
G1 X98.659 Y111.552 E0.47501
G1 X98.448 Y111.552 E0.00549
G1 X98.448 Y111.172 E0.0099
G1 X111.172 Y98.448 E0.46878
G1 X110.581 Y98.448 E0.01539
G1 X98.448 Y110.581 E0.44701
G1 X98.448 Y109.99 E0.01539
G1 X109.99 Y98.448 E0.42524
G1 X109.4 Y98.448 E0.01539
G1 X98.448 Y109.4 E0.40347
G1 X98.448 Y108.809 E0.01539
G1 X108.809 Y98.448 E0.38171
G1 X108.218 Y98.448 E0.01539
G1 X98.448 Y108.218 E0.35994
G1 X98.448 Y107.627 E0.01539
G1 X107.627 Y98.448 E0.33817
G1 X107.036 Y98.448 E0.01539
G1 X98.448 Y107.036 E0.3164
G1 X98.448 Y106.445 E0.01539
G1 X106.445 Y98.448 E0.29463
G1 X105.854 Y98.448 E0.01539
G1 X98.448 Y105.854 E0.27286
G1 X98.448 Y105.263 E0.01539
G1 X105.263 Y98.448 E0.2511
G1 X104.673 Y98.448 E0.01539
G1 X98.448 Y104.673 E0.22933
G1 X98.448 Y104.082 E0.01539
G1 X104.082 Y98.448 E0.20756
G1 X103.491 Y98.448 E0.01539
M73 P6 R29
G1 X98.448 Y103.491 E0.18579
G1 X98.448 Y102.9 E0.01539
G1 X102.9 Y98.448 E0.16402
G1 X102.309 Y98.448 E0.01539
G1 X98.448 Y102.309 E0.14225
G1 X98.448 Y101.718 E0.01539
G1 X101.718 Y98.448 E0.12049
G1 X101.127 Y98.448 E0.01539
G1 X98.448 Y101.127 E0.09872
G1 X98.448 Y100.536 E0.01539
G1 X100.536 Y98.448 E0.07695
G1 X99.946 Y98.448 E0.01539
G1 X98.448 Y99.946 E0.05518
G1 X98.448 Y99.355 E0.01539
G1 X99.355 Y98.448 E0.03341
G1 X98.764 Y98.448 E0.01539
G1 X98.268 Y98.944 E0.01826
M106 S170.85
;LAYER_CHANGE
;Z:0.5
;HEIGHT:0.15
;BEFORE_LAYER_CHANGE
G92 E0.0
;0.5
G1 E-3.6 F2400
;WIPE_START
G1 F8640
G1 X98.764 Y98.448 E-0.185
G1 X99.355 Y98.448 E-0.15592
G1 X98.448 Y99.355 E-0.33847
G1 X98.448 Y99.946 E-0.15592
G1 X99.946 Y98.448 E-0.55898
G1 X100.536 Y98.448 E-0.15592
G1 X98.581 Y100.403 E-0.72978
;WIPE_END
G1 E-0.12 F2400
G1 Z0.425 F10800
; stop printing object xyzCalibration_cube.stl id:0 copy 0
M486 S-1
G1 Z0.5
;AFTER_LAYER_CHANGE
;0.5
G1 Z0.575
; acceleration to travel
M204 S1500
G1 X95.531 Y100.403
; decel to extrusion
M204 S1000
G1 X94.784 Y100.403
; end travel
G1 Z0.5
G1 E6 F3000
;TYPE:Skirt
;WIDTH:0.52
G1 F1500
G1 X94.784 Y112.5 E0.368
G1 X95.094 Y113.759 E0.03943
G1 X96.093 Y114.823 E0.04442
G1 X97.5 Y115.216 E0.04442
G1 X112.5 Y115.216 E0.45632
G1 X113.759 Y114.906 E0.03943
G1 X114.823 Y113.907 E0.04442
G1 X115.216 Y112.5 E0.04442
G1 X115.216 Y97.5 E0.45632
G1 X114.906 Y96.241 E0.03943
G1 X113.907 Y95.177 E0.04442
G1 X112.5 Y94.784 E0.04442
G1 X97.5 Y94.784 E0.45632
G1 X96.241 Y95.094 E0.03943
G1 X95.177 Y96.093 E0.04442
G1 X94.784 Y97.5 E0.04442
G1 X94.784 Y100.343 E0.0865
G1 X95.261 Y100.343 F10800
G1 F1500
G1 X95.261 Y112.5 E0.36982
G1 X95.414 Y113.311 E0.0251
G1 X96.236 Y114.347 E0.04025
G1 X97.5 Y114.739 E0.04025
G1 X112.5 Y114.739 E0.45632
G1 X113.311 Y114.586 E0.0251
G1 X114.347 Y113.764 E0.04025
G1 X114.739 Y112.5 E0.04025
G1 X114.739 Y97.5 E0.45632
G1 X114.586 Y96.689 E0.0251
G1 X113.764 Y95.653 E0.04025
G1 X112.5 Y95.261 E0.04025
G1 X97.5 Y95.261 E0.45632
G1 X96.689 Y95.414 E0.0251
G1 X95.653 Y96.236 E0.04025
G1 X95.261 Y97.5 E0.04025
G1 X95.261 Y100.283 E0.08467
G1 E-3.6 F2400
;WIPE_START
G1 F8640
G1 X95.261 Y108.923 E-2.28
;WIPE_END
G1 E-0.12 F2400
G1 Z0.575 F10800
; printing object xyzCalibration_cube.stl id:0 copy 0
M486 S0
; acceleration to travel
M204 S1500
G1 X97.647 Y101.771
; decel to extrusion
M204 S800
G1 X98.143 Y100.283
; end travel
G1 Z0.5
G1 E6 F3000
;TYPE:Internal perimeter
;WIDTH:0.45
G1 F2694
G1 X98.143 Y98.143 E0.05577
G1 X111.857 Y98.143 E0.35734
G1 X111.857 Y111.857 E0.35734
G1 X98.143 Y111.857 E0.35734
G1 X98.143 Y100.343 E0.3
G1 X97.725 Y100.283 F10800
;TYPE:External perimeter
G1 F2400
G1 X97.725 Y97.725 E0.06666
G1 X112.275 Y97.725 E0.37911
G1 X112.275 Y112.275 E0.37911
G1 X97.725 Y112.275 E0.37911
G1 X97.725 Y100.343 E0.31089
;WIPE_START
M204 S1000
G1 X98.071 Y100.083 F10800
;WIPE_END
G1 E-3.6 F2400
;WIPE_START
G1 F8640
G1 X97.925 Y97.925 E-0.57085
G1 X104.402 Y97.925 E-1.70915
;WIPE_END
G1 E-0.12 F2400
G1 Z0.575 F10800
; acceleration to travel
M204 S1500
G1 X100.07 Y108.882
; decel to extrusion
M204 S1000
G1 X98.944 Y111.732
; end travel
G1 Z0.5
G1 E6 F3000
;TYPE:Solid infill
;WIDTH:0.44991
G1 F2694
G1 X98.448 Y111.236 E0.01826
G1 X98.448 Y110.645 E0.01539
G1 X99.355 Y111.552 E0.03341
G1 X99.946 Y111.552 E0.01539
G1 X98.448 Y110.054 E0.05518
G1 X98.448 Y109.464 E0.01539
G1 X100.536 Y111.552 E0.07695
G1 X101.127 Y111.552 E0.01539
G1 X98.448 Y108.873 E0.09872
G1 X98.448 Y108.282 E0.01539
G1 X101.718 Y111.552 E0.12049
G1 X102.309 Y111.552 E0.01539
G1 X98.448 Y107.691 E0.14225
G1 X98.448 Y107.1 E0.01539
G1 X102.9 Y111.552 E0.16402
G1 X103.491 Y111.552 E0.01539
G1 X98.448 Y106.509 E0.18579
G1 X98.448 Y105.918 E0.01539
G1 X104.082 Y111.552 E0.20756
G1 X104.673 Y111.552 E0.01539
G1 X98.448 Y105.327 E0.22933
G1 X98.448 Y104.737 E0.01539
G1 X105.263 Y111.552 E0.2511
G1 X105.854 Y111.552 E0.01539
G1 X98.448 Y104.146 E0.27286
G1 X98.448 Y103.555 E0.01539
G1 X106.445 Y111.552 E0.29463
G1 X107.036 Y111.552 E0.01539
G1 X98.448 Y102.964 E0.3164
G1 X98.448 Y102.373 E0.01539
G1 X107.627 Y111.552 E0.33817
G1 X108.218 Y111.552 E0.01539
G1 X98.448 Y101.782 E0.35994
G1 X98.448 Y101.191 E0.01539
G1 X108.809 Y111.552 E0.38171
G1 X109.4 Y111.552 E0.01539
G1 X98.448 Y100.6 E0.40347
G1 X98.448 Y100.01 E0.01539
G1 X109.99 Y111.552 E0.42524
G1 X110.581 Y111.552 E0.01539
G1 X98.448 Y99.419 E0.44701
G1 X98.448 Y98.828 E0.01539
G1 X111.172 Y111.552 E0.46878
G1 X111.552 Y111.552 E0.0099
G1 X111.552 Y111.341 E0.00549
G1 X98.659 Y98.448 E0.47501
G1 X99.249 Y98.448 E0.01539
M73 P7 R29
G1 X111.552 Y110.751 E0.45324
G1 X111.552 Y110.16 E0.01539
G1 X99.84 Y98.448 E0.43148
G1 X100.431 Y98.448 E0.01539
