; generated by PrusaSlicer 2.6.1+win64 on 2023-10-08 at 01:38:44 UTC


;
;
; 

; external perimeters extrusion width = 0.45mm
; perimeters extrusion width = 0.45mm
; infill extrusion width = 0.45mm
; solid infill extrusion width = 0.45mm
; top infill extrusion width = 0.40mm
; support material extrusion width = 0.35mm
; first layer extrusion width = 0.42mm

M73 P0 R44
M73 Q0 S44
M201 X1000 Y1000 Z200 E5000 ; sets maximum accelerations, mm/sec^2
M203 X200 Y200 Z12 E120 ; sets maximum feedrates, mm / sec
M204 S1250 T1250 ; sets acceleration (S) and retract acceleration (R), mm/sec^2
M205 X8.00 Y8.00 Z0.40 E4.50 ; sets the jerk limits, mm/sec
M205 S0 T0 ; sets the minimum extruding and travel feed rate, mm/sec
;TYPE:Custom
M862.3 P "MK3S" ; printer model check
M862.1 P0.4 ; nozzle diameter check
M115 U3.12.2 ; tell printer latest fw version
G90 ; use absolute coordinates
M83 ; extruder relative mode
M104 S215 ; set extruder temp
M140 S60 ; set bed temp
M190 S60 ; wait for bed temp
M109 S215 ; wait for extruder temp
G28 W ; home all without mesh bed level
G80 ; mesh bed leveling

G1 Z0.2 F720
G1 Y-3 F1000 ; go outside print area
G92 E0
G1 X60 E9 F1000 ; intro line
G1 X100 E12.5 F1000 ; intro line

G92 E0
M221 S95

; Don't change E values below. Excessive value can damage the printer.
M907 E430 ; set extruder motor current
G21 ; set units to millimeters
G90 ; use absolute coordinates
M83 ; use relative distances for extrusion
M900 K0.05 ; Filament gcode LA 1.5
M900 K30 ; Filament gcode LA 1.0
M107
;LAYER_CHANGE
;Z:0.2
;HEIGHT:0.2
;BEFORE_LAYER_CHANGE
G92 E0.0
;0.2


M73 P0 R43
G1 E-.8 F2100
G1 Z.4 F720
;AFTER_LAYER_CHANGE
;0.2
G1 X116.122 Y98.688 F10800
G1 Z.2 F720
G1 E.8 F2100
M204 S800
;TYPE:Skirt/Brim
;WIDTH:0.42
G1 F1200
G1 X117.442 Y97.156 E.06341
G1 X118.125 Y96.552 E.02859
G1 X119.108 Y95.839 E.03808
G1 X120.072 Y95.286 E.03485
G1 X120.969 Y94.882 E.03085
G1 X122.051 Y94.514 E.03583
G1 X123.136 Y94.268 E.03488
G1 X124.111 Y94.145 E.03081
G1 X125.254 Y94.111 E.03585
G1 X126.363 Y94.193 E.03487
G1 X127.557 Y94.412 E.03806
G1 X129.47 Y95.067 E.0634
G1 X131.229 Y96.064 E.0634
G1 X131.954 Y96.617 E.02859
G1 X132.844 Y97.443 E.03807
G1 X134.106 Y99.024 E.06343
G1 X134.715 Y100.073 E.03803
G1 X135.166 Y101.09 E.03488
G1 X135.458 Y101.954 E.0286
G1 X135.732 Y103.137 E.03807
G1 X135.891 Y105.152 E.06338
G1 X135.819 Y106.262 E.03488
G1 X135.66 Y107.233 E.03085
G1 X135.368 Y108.338 E.03584
G1 X134.974 Y109.377 E.03484
G1 X134.538 Y110.259 E.03085
G1 X133.935 Y111.23 E.03584
G1 X133.253 Y112.108 E.03486
G1 X132.578 Y112.823 E.03083
G1 X131.717 Y113.575 E.03584
G1 X130.808 Y114.215 E.03486
G1 X130.017 Y114.668 E.02858
G1 X128.909 Y115.167 E.0381
G1 X127.852 Y115.512 E.03486
G1 X126.892 Y115.726 E.03084
G1 X125.758 Y115.866 E.03583
G1 X124.646 Y115.887 E.03487
G1 X122.64 Y115.634 E.06339
G1 X121.759 Y115.399 E.02859
G1 X120.622 Y114.974 E.03806
G1 X118.854 Y113.993 E.0634
G1 X117.969 Y113.319 E.03488
G1 X117.087 Y112.485 E.03806
G1 X115.84 Y110.893 E.06341
G1 X115.379 Y110.106 E.0286
G1 X114.87 Y109.004 E.03806
G1 X114.515 Y107.95 E.03487
G1 X114.264 Y106.835 E.03583
G1 X114.141 Y105.859 E.03084
G1 X114.11 Y104.747 E.03488
G1 X114.345 Y102.739 E.06339
G1 X114.662 Y101.568 E.03804
G1 X114.986 Y100.715 E.02861
G1 X115.475 Y99.716 E.03487
G1 X116.091 Y98.739 E.03621
M204 S1000
G1 X116.409 Y98.94 F10800
M204 S800
G1 F1200
G1 X117.707 Y97.424 E.06258
G1 X119.307 Y96.159 E.06395
G1 X121.106 Y95.233 E.06344
G1 X122.148 Y94.879 E.03451
G1 X123.205 Y94.639 E.03399
G1 X125.24 Y94.487 E.06398
G1 X127.248 Y94.729 E.06342
G1 X128.31 Y95.019 E.03452
G1 X129.32 Y95.413 E.03399
G1 X131.017 Y96.377 E.06119
G1 X132.569 Y97.701 E.06396
G1 X133.788 Y99.226 E.06121
G1 X134.376 Y100.239 E.03672
G1 X134.816 Y101.23 E.034
G1 X135.36 Y103.196 E.06396
G1 X135.514 Y105.142 E.06121
M73 Q0 S43
G1 X135.292 Y107.153 E.06344
G1 X135.011 Y108.217 E.0345
G1 X134.627 Y109.231 E.034
G1 X133.629 Y111.01 E.06396
G1 X132.318 Y112.55 E.06341
G1 X131.489 Y113.275 E.03453
G1 X130.602 Y113.899 E.034
G1 X128.779 Y114.813 E.06394
G1 X126.829 Y115.354 E.06345
G1 X125.737 Y115.49 E.0345
G1 X124.653 Y115.51 E.03399
G1 X122.717 Y115.265 E.06119
G1 X120.778 Y114.631 E.06396
G1 X119.071 Y113.684 E.06121
G1 X118.208 Y113.028 E.03399
G1 X117.357 Y112.222 E.03675
G1 X116.106 Y110.61 E.06398
G1 X115.223 Y108.87 E.06118
G1 X114.876 Y107.843 E.03399
G1 X114.635 Y106.769 E.03451
G1 X114.488 Y104.751 E.06344
G1 X114.715 Y102.812 E.06121
G1 X115.331 Y100.868 E.06394
G1 X115.807 Y99.894 E.03399
G1 X116.377 Y98.991 E.03348
M204 S1000
; printing object Swasti-Hub.stl id:0 copy 0
;WIPE_START
G1 F8640
G1 X117.707 Y97.424 E-.47458
G1 X118.813 Y96.55 E-.32542
;WIPE_END
G1 Z.6 F720
G1 X129.389 Y100.025 F10800
G1 Z.2 F720
G1 E.8 F2100
M204 S800
;TYPE:Perimeter
;WIDTH:0.419999
G1 F1200
G1 X129.637 Y100.251 E.01052
G1 X130.088 Y100.727 E.02056
G1 X130.421 Y101.169 E.01735
G1 X130.758 Y101.685 E.01932
G1 X131.026 Y102.215 E.01862
G1 X131.251 Y102.745 E.01805
G1 X131.431 Y103.353 E.01988
G1 X131.558 Y103.942 E.01889
G1 X131.635 Y104.678 E.0232
G1 X131.641 Y105.314 E.01994
G1 X131.59 Y105.866 E.01738
G1 X131.469 Y106.529 E.02113
G1 X131.282 Y107.162 E.0207
G1 X131.079 Y107.692 E.01779
G1 X130.774 Y108.286 E.02094
G1 X130.476 Y108.769 E.01779
G1 X130.017 Y109.362 E.02351
G1 X129.5 Y109.893 E.02324
G1 X128.991 Y110.311 E.02065
G1 X128.579 Y110.6 E.01578
G1 X128.097 Y110.882 E.01751
G1 X127.415 Y111.193 E.0235
G1 X126.711 Y111.424 E.02323
G1 X126.066 Y111.557 E.02065
G1 X125.503 Y111.629 E.0178
G1 X124.753 Y111.643 E.02352
G1 X124.097 Y111.582 E.02066
G1 X123.601 Y111.497 E.01578
G1 X123.06 Y111.359 E.01751
G1 X122.351 Y111.097 E.0237
G1 X121.853 Y110.855 E.01736
G1 X121.276 Y110.507 E.02113
G1 X120.685 Y110.057 E.02329
G1 X120.145 Y109.541 E.02342
G1 X119.784 Y109.121 E.01736
G1 X119.439 Y108.636 E.01866
G1 X119.147 Y108.152 E.01772
G1 X118.829 Y107.472 E.02354
G1 X118.592 Y106.77 E.02323
G1 X118.453 Y106.127 E.02063
G1 X118.376 Y105.564 E.01782
G1 X118.357 Y104.897 E.02092
G1 X118.386 Y104.33 E.0178
G1 X118.504 Y103.59 E.0235
G1 X118.701 Y102.876 E.02322
G1 X118.977 Y102.187 E.02327
G1 X119.288 Y101.607 E.02063
G1 X119.559 Y101.183 E.01578
G1 X119.897 Y100.739 E.0175
G1 X120.353 Y100.252 E.02092
G1 X120.773 Y99.869 E.01782
G1 X121.378 Y99.426 E.02351
G1 X122.021 Y99.057 E.02324
G1 X122.625 Y98.796 E.02063
G1 X123.162 Y98.611 E.01781
G1 X123.893 Y98.445 E.0235
G1 X124.635 Y98.362 E.02341
G1 X125.189 Y98.356 E.01737
G1 X125.861 Y98.408 E.02113
G1 X126.51 Y98.53 E.02071
G1 X127.058 Y98.678 E.0178
G1 X127.756 Y98.951 E.0235
G1 X128.33 Y99.252 E.02032
G1 X128.806 Y99.554 E.01768
G1 X129.345 Y99.985 E.02164
M204 S1000
G1 X129.658 Y99.741 F10800
M204 S800
G1 F1200
G1 X130.219 Y100.297 E.02477
G1 X130.547 Y100.689 E.01603
G1 X130.998 Y101.342 E.02488
G1 X131.248 Y101.788 E.01603
G1 X131.571 Y102.514 E.02491
G1 X131.734 Y102.998 E.01601
G1 X131.886 Y103.638 E.02062
G1 X131.962 Y104.142 E.01598
G1 X132.012 Y104.674 E.01675
G1 X132.018 Y105.33 E.02057
G1 X131.964 Y105.917 E.01848
G1 X131.837 Y106.617 E.02231
G1 X131.612 Y107.374 E.02476
G1 X131.422 Y107.849 E.01604
G1 X131.06 Y108.555 E.02488
G1 X130.785 Y108.987 E.01606
G1 X130.302 Y109.61 E.02472
G1 X129.756 Y110.171 E.02455
G1 X129.146 Y110.672 E.02475
G1 X128.718 Y110.961 E.01619
G1 X128.27 Y111.218 E.01619
G1 X127.552 Y111.545 E.02474
G1 X126.808 Y111.789 E.02455
G1 X126.036 Y111.949 E.02472
G1 X125.527 Y112.006 E.01606
G1 X124.739 Y112.02 E.02471
G1 X123.954 Y111.947 E.02472
G1 X123.446 Y111.852 E.0162
G1 X122.946 Y111.719 E.01622
G1 X122.203 Y111.445 E.02483
G1 X121.673 Y111.187 E.01848
G1 X121.064 Y110.819 E.02231
G1 X120.44 Y110.344 E.02459
G1 X119.871 Y109.801 E.02466
G1 X119.487 Y109.353 E.0185
G1 X119.071 Y108.77 E.02246
G1 X118.812 Y108.327 E.01609
G1 X118.479 Y107.613 E.0247
G1 X118.228 Y106.871 E.02456
G1 X118.061 Y106.1 E.02473
G1 X117.999 Y105.592 E.01605
G1 X117.977 Y104.799 E.02487
G1 X118.011 Y104.288 E.01606
G1 X118.135 Y103.51 E.0247
G1 X118.343 Y102.755 E.02455
G1 X118.634 Y102.028 E.02455
G1 X119.007 Y101.333 E.02473
G1 X119.293 Y100.902 E.01622
G1 X119.61 Y100.494 E.0162
G1 X120.153 Y99.914 E.02491
G1 X120.536 Y99.575 E.01604
G1 X121.172 Y99.109 E.02472
G1 X121.851 Y98.72 E.02454
G1 X122.575 Y98.406 E.02474
G1 X123.061 Y98.247 E.01603
G1 X123.83 Y98.073 E.02472
G1 X124.612 Y97.985 E.02467
G1 X125.202 Y97.978 E.0185
G1 X125.91 Y98.034 E.02227
G1 X126.687 Y98.18 E.02479
G1 X127.178 Y98.321 E.01602
G1 X127.913 Y98.607 E.02473
G1 X128.61 Y98.973 E.02468
G1 X129.102 Y99.297 E.01847
G1 X129.611 Y99.703 E.02041
M204 S1000
G1 X129.909 Y99.459 F10800
M204 S800
;TYPE:External perimeter
G1 F1200
G1 X130.497 Y100.041 E.02594
G1 X130.848 Y100.46 E.01714
G1 X131.319 Y101.142 E.02599
G1 X131.586 Y101.619 E.01714
G1 X131.923 Y102.377 E.02601
G1 X132.097 Y102.894 E.0171
G1 X132.253 Y103.551 E.02117
G1 X132.336 Y104.097 E.01732
G1 X132.389 Y104.671 E.01807
G1 X132.395 Y105.345 E.02113
G1 X132.338 Y105.968 E.01962
G1 X132.204 Y106.704 E.02346
G1 X131.969 Y107.498 E.02596
G1 X131.766 Y108.005 E.01712
G1 X131.387 Y108.743 E.02601
G1 X131.094 Y109.204 E.01713
G1 X130.587 Y109.857 E.02592
G1 X130.011 Y110.449 E.0259
G1 X129.372 Y110.974 E.02593
G1 X128.918 Y111.281 E.01718
G1 X128.442 Y111.554 E.01721
G1 X127.689 Y111.897 E.02594
G1 X126.905 Y112.154 E.02587
G1 X126.095 Y112.322 E.02594
G1 X125.552 Y112.382 E.01713
G1 X124.725 Y112.398 E.02593
G1 X123.901 Y112.321 E.02595
G1 X123.362 Y112.22 E.01719
G1 X122.832 Y112.079 E.0172
G1 X122.055 Y111.792 E.02597
G1 X121.492 Y111.518 E.01963
G1 X120.852 Y111.132 E.02343
G1 X120.195 Y110.632 E.02589
G1 X119.597 Y110.061 E.02592
G1 X119.19 Y109.586 E.01961
G1 X118.754 Y108.975 E.02353
G1 X118.478 Y108.503 E.01714
G1 X118.128 Y107.753 E.02595
G1 X117.864 Y106.971 E.02588
G1 X117.689 Y106.163 E.02592
G1 X117.623 Y105.62 E.01715
G1 X117.6 Y104.792 E.02597
G1 X117.635 Y104.246 E.01715
G1 X117.766 Y103.429 E.02594
G1 X117.985 Y102.634 E.02586
G1 X118.292 Y101.868 E.02587
G1 X118.683 Y101.139 E.02594
G1 X118.987 Y100.682 E.01721
G1 X119.323 Y100.249 E.01718
G1 X119.89 Y99.644 E.026
G1 X120.299 Y99.281 E.01715
G1 X120.966 Y98.793 E.02591
G1 X121.682 Y98.382 E.02589
G1 X122.441 Y98.053 E.02594
G1 X122.961 Y97.883 E.01715
G1 X123.767 Y97.7 E.02591
G1 X124.589 Y97.608 E.02593
G1 X125.214 Y97.601 E.0196
G1 X125.96 Y97.66 E.02346
G1 X126.774 Y97.813 E.02597
G1 X127.299 Y97.963 E.01712
G1 X128.07 Y98.263 E.02594
G1 X128.801 Y98.648 E.0259
G1 X129.324 Y98.992 E.01963
G1 X129.862 Y99.421 E.02157
M204 S1000
G1 X129.826 Y99.85 F10800
;WIPE_START
G1 F8640
G1 X130.497 Y100.041 E-.20492
G1 X130.848 Y100.46 E-.12621
G1 X131.319 Y101.142 E-.19138
G1 X131.586 Y101.619 E-.12622
G1 X131.852 Y102.218 E-.15127
;WIPE_END
G1 Z.6 F720
G1 X126.513 Y102.77 F10800
G1 Z.2 F720
G1 E.8 F2100
M204 S800
;TYPE:Perimeter
G1 F1200
G1 X126.792 Y102.97 E.01076
G1 X127.145 Y103.346 E.01617
G1 X127.434 Y103.812 E.01719
G1 X127.616 Y104.314 E.01674
G1 X127.701 Y104.811 E.01581
G1 X127.668 Y105.435 E.01959
G1 X127.538 Y105.942 E.01641
G1 X127.315 Y106.407 E.01617
G1 X126.99 Y106.838 E.01693
G1 X126.577 Y107.197 E.01716
G1 X126.093 Y107.479 E.01756
G1 X125.606 Y107.641 E.01609
G1 X125.094 Y107.706 E.01618
G1 X124.629 Y107.682 E.0146
G1 X124.138 Y107.563 E.01584
G1 X123.674 Y107.361 E.01587
G1 X123.238 Y107.058 E.01665
G1 X122.868 Y106.669 E.01683
G1 X122.59 Y106.23 E.01629
G1 X122.399 Y105.752 E.01614
G1 X122.301 Y105.238 E.01641
G1 X122.309 Y104.7 E.01687
G1 X122.412 Y104.212 E.01564
G1 X122.633 Y103.682 E.018
G1 X122.948 Y103.233 E.0172
G1 X123.323 Y102.879 E.01617
G1 X123.746 Y102.601 E.01587
G1 X124.22 Y102.406 E.01607
G1 X124.803 Y102.303 E.01856
G1 X125.32 Y102.312 E.01621
G1 X125.819 Y102.418 E.01599
G1 X126.381 Y102.675 E.01938
G1 X126.464 Y102.735 E.00321
M204 S1000
G1 X126.277 Y103.057 F10800
M204 S800
G1 F1200
G1 X126.741 Y103.457 E.01921
G1 X127.052 Y103.894 E.01682
G1 X127.244 Y104.378 E.01633
G1 X127.329 Y104.88 E.01596
G1 X127.293 Y105.404 E.01647
G1 X127.151 Y105.902 E.01624
G1 X126.949 Y106.278 E.01338
G1 X126.558 Y106.727 E.01867
G1 X126.266 Y106.943 E.01139
G1 X125.882 Y107.158 E.0138
G1 X125.313 Y107.305 E.01843
G1 X124.798 Y107.322 E.01616
G1 X124.288 Y107.217 E.01633
G1 X123.803 Y107.001 E.01665
G1 X123.444 Y106.735 E.01401
G1 X123.157 Y106.424 E.01327
G1 X122.888 Y105.989 E.01604
G1 X122.735 Y105.548 E.01464
G1 X122.674 Y105.152 E.01256
G1 X122.683 Y104.751 E.01258
G1 X122.764 Y104.347 E.01292
G1 X122.965 Y103.86 E.01652
G1 X123.249 Y103.465 E.01525
G1 X123.634 Y103.11 E.01642
G1 X124.026 Y102.882 E.01422
G1 X124.426 Y102.743 E.01328
G1 X124.941 Y102.669 E.01631
G1 X125.398 Y102.703 E.01437
G1 X125.91 Y102.866 E.01685
G1 X126.224 Y103.029 E.01109
M204 S1000
G1 X126.31 Y103.575 F10800
M204 S800
;TYPE:External perimeter
G1 F1200
G1 X126.46 Y103.709 E.00631
G1 X126.747 Y104.123 E.01579
G1 X126.873 Y104.443 E.01078
G1 X126.953 Y104.94 E.01578
G1 X126.909 Y105.418 E.01505
G1 X126.804 Y105.753 E.01101
G1 X126.648 Y106.051 E.01055
G1 X126.3 Y106.452 E.01665
G1 X125.799 Y106.783 E.01883
G1 X125.443 Y106.904 E.01179
G1 X124.885 Y106.947 E.01755
G1 X124.438 Y106.871 E.01422
G1 X123.977 Y106.664 E.01584
G1 X123.714 Y106.472 E.01021
G1 X123.476 Y106.223 E.0108
G1 X123.22 Y105.804 E.0154
G1 X123.106 Y105.484 E.01065
G1 X123.051 Y105.152 E.01055
G1 X123.054 Y104.816 E.01054
G1 X123.116 Y104.482 E.01065
G1 X123.308 Y104.021 E.01566
G1 X123.507 Y103.74 E.0108
G1 X123.871 Y103.404 E.01553
G1 X124.383 Y103.149 E.01793
G1 X124.919 Y103.048 E.0171
G1 X125.309 Y103.07 E.01225
G1 X125.746 Y103.205 E.01434
G1 X126.086 Y103.375 E.01192
G1 X126.265 Y103.535 E.00753
M204 S1000
G1 X126.498 Y103.503 F10800
;WIPE_START
G1 F8640
G1 X126.46 Y103.709 E-.06035
G1 X126.747 Y104.123 E-.11632
G1 X126.873 Y104.443 E-.07941
G1 X126.953 Y104.94 E-.11624
G1 X126.909 Y105.418 E-.11084
G1 X126.804 Y105.753 E-.08106
G1 X126.648 Y106.051 E-.07767
G1 X126.3 Y106.452 E-.1226
G1 X126.172 Y106.537 E-.03551
;WIPE_END
G1 Z.6 F720
G1 X128.385 Y99.48 F10800
G1 Z.2 F720
G1 E.8 F2100
M204 S800
;TYPE:Solid infill
;WIDTH:0.424725
G1 F1200
G1 X129.708 Y100.803 E.0594
G1 X129.976 Y101.123 E.01325
G1 X130.39 Y101.722 E.02312
G1 X130.607 Y102.11 E.01411
G1 X130.713 Y102.347 E.00824
G1 X127.637 Y99.271 E.1381
G1 X126.949 Y99 E.02348
G1 X126.776 Y98.951 E.00571
G1 X131.052 Y103.227 E.19198
G1 X131.214 Y103.928 E.02284
G1 X126.081 Y98.795 E.23046
G1 X125.816 Y98.745 E.00856
G1 X125.463 Y98.717 E.01124
G1 X131.289 Y104.543 E.26157
G1 X131.299 Y105.093 E.01746
G1 X124.907 Y98.701 E.28698
G1 X124.655 Y98.701 E.008
M73 P1 R43
M73 Q1 S43
G1 X124.396 Y98.73 E.00827
G1 X131.273 Y105.607 E.30876
G1 X131.206 Y106.08 E.01517
G1 X123.914 Y98.788 E.32739
G1 X123.474 Y98.888 E.01432
G1 X131.115 Y106.529 E.34306
G1 X130.992 Y106.946 E.0138
G1 X127.759 Y103.713 E.14515
G1 X127.413 Y103.136 E.02136
G1 X127.044 Y102.738 E.01723
G1 X126.61 Y102.412 E.01723
G1 X126.315 Y102.269 E.01041
G1 X123.05 Y99.005 E.14657
G1 X122.657 Y99.151 E.01331
G1 X125.508 Y102.002 E.128
G1 X125.417 Y101.98 E.00297
G1 X124.923 Y101.957 E.0157
G1 X122.281 Y99.315 E.11862
G1 X121.928 Y99.502 E.01268
G1 X124.444 Y102.018 E.11296
G1 X124.224 Y102.052 E.00707
G1 X124.016 Y102.13 E.00705
G1 X121.585 Y99.699 E.10915
G1 X121.271 Y99.925 E.01228
G1 X123.626 Y102.28 E.10573
G1 X123.29 Y102.483 E.01246
G1 X120.961 Y100.155 E.10454
G1 X120.675 Y100.409 E.01214
G1 X122.995 Y102.729 E.10416
G1 X122.714 Y102.988 E.01213
G1 X120.412 Y100.686 E.10335
G1 X120.151 Y100.965 E.01213
G1 X122.487 Y103.301 E.10488
G1 X122.334 Y103.519 E.00846
G1 X122.284 Y103.638 E.0041
G1 X119.915 Y101.269 E.10636
G1 X119.697 Y101.59 E.01232
G1 X122.125 Y104.018 E.10901
G1 X122.033 Y104.306 E.0096
G1 X122.01 Y104.443 E.00441
G1 X119.499 Y101.932 E.11274
G1 X119.31 Y102.284 E.01268
G1 X121.961 Y104.935 E.11902
G1 X121.958 Y105.195 E.00825
G1 X122.012 Y105.526 E.01065
G1 X119.021 Y102.534 E.13431
M204 S1000
;WIPE_START
G1 F8640
G1 X121.47 Y104.984 E-.8
;WIPE_END
G1 Z.6 F720
G1 X127.778 Y104.272 F10800
G1 Z.2 F720
G1 E.8 F2100
M204 S800
G1 F1200
