; generated by PrusaSlicer 2.7.0+win64 on 2024-03-18 at 15:33:09 UTC


;
;
; 

; external perimeters extrusion width = 0.45mm
; perimeters extrusion width = 0.45mm
; infill extrusion width = 0.45mm
; solid infill extrusion width = 0.45mm
; top infill extrusion width = 0.40mm
; first layer extrusion width = 0.42mm

M73 P0 R153
M73 Q0 S155
M201 X1000 Y1000 Z200 E5000 ; sets maximum accelerations, mm/sec^2
M203 X200 Y200 Z12 E120 ; sets maximum feedrates, mm / sec
M204 S1250 T1250 ; sets acceleration (S) and retract acceleration (R), mm/sec^2
M205 X8.00 Y8.00 Z0.40 E4.50 ; sets the jerk limits, mm/sec
M205 S0 T0 ; sets the minimum extruding and travel feed rate, mm/sec

; printing object switch_lock2.stl id:0 copy 0
; stop printing object switch_lock2.stl id:0 copy 0
; printing object switch_lock2.stl id:0 copy 1
; stop printing object switch_lock2.stl id:0 copy 1
; printing object switch_lock2.stl id:0 copy 2
; stop printing object switch_lock2.stl id:0 copy 2
; printing object switch_lock2.stl id:0 copy 3
; stop printing object switch_lock2.stl id:0 copy 3
; printing object switch_lock2.stl id:0 copy 4
; stop printing object switch_lock2.stl id:0 copy 4
; printing object switch_lock2.stl id:0 copy 5
; stop printing object switch_lock2.stl id:0 copy 5
; printing object switch_lock2.stl id:0 copy 6
; stop printing object switch_lock2.stl id:0 copy 6

;TYPE:Custom
M862.3 P "MK3S" ; printer model check
M862.1 P0.4 ; nozzle diameter check
M115 U3.13.2 ; tell printer latest fw version
G90 ; use absolute coordinates
M83 ; extruder relative mode
M104 S215 ; set extruder temp
M140 S60 ; set bed temp
M190 S60 ; wait for bed temp
M109 S215 ; wait for extruder temp
G28 W ; home all without mesh bed level
G80 X73.4344 Y19.4344 W103.131 H171.131 ; mesh bed levelling

G1 Z0.2 F720
G1 Y-3 F1000 ; go outside print area
G92 E0
G1 X60 E9 F1000 ; intro line
G1 X100 E12.5 F1000 ; intro line

G92 E0
M221 S95

; Don't change E values below. Excessive value can damage the printer.
M907 E430 ; set extruder motor current
G21 ; set units to millimeters
G90 ; use absolute coordinates
M83 ; use relative distances for extrusion
M900 K0.05 ; Filament gcode LA 1.5
M900 K30 ; Filament gcode LA 1.0

M107
;LAYER_CHANGE
;Z:0.2
;HEIGHT:0.2
;BEFORE_LAYER_CHANGE
G92 E0.0
;0.2


G1 E-.8 F2100
G1 Z.2 F720
;AFTER_LAYER_CHANGE
;0.2
G1 X82.399 Y49.823 F10800
G1 Z.2 F720
M73 Q0 S154
G1 E.8 F2100
M204 S800
;TYPE:Skirt/Brim
;WIDTH:0.42
G1 F1200
G1 X99.966 Y20.77 E1.06451
G1 X100.977 Y19.854 E.04278
G1 X102 Y19.623 E.03288
G1 X174 Y19.623 E2.25751
G1 X175.307 Y20.015 E.04278
G1 X176.183 Y21.06 E.04275
G1 X176.377 Y22 E.03009
G1 X176.377 Y188 E5.20481
G1 X175.985 Y189.307 E.04278
G1 X174.94 Y190.183 E.04275
G1 X174 Y190.377 E.03009
G1 X102 Y190.377 E2.25751
G1 X100.693 Y189.985 E.04278
G1 X99.966 Y189.23 E.03286
G1 X73.966 Y146.23 E1.57553
G1 X73.623 Y145 E.04004
G1 X73.623 Y65 E2.50834
G1 X73.966 Y63.77 E.04004
G1 X82.368 Y49.874 E.50915
M204 S1000
; printing object switch_lock2.stl id:0 copy 0
;WIPE_START
G1 F8640
G1 X82.399 Y49.823 E-.01378
G1 X84.161 Y46.909 E-.78622
;WIPE_END
G1 Z.6 F720
G1 X173.213 Y187.213 F10800
G1 Z.2 F720
G1 E.8 F2100
M204 S800
;TYPE:Perimeter
;WIDTH:0.419999
G1 F1200
G1 X154.787 Y187.213 E.57773
G1 X154.787 Y108.787 E2.45899
G1 X173.213 Y108.787 E.57773
G1 X173.213 Y112.833 E.12686
G1 X173.213 Y187.153 E2.33025
M204 S1000
G1 X173.59 Y187.59 F10800
M204 S800
;TYPE:External perimeter
G1 F1200
G1 X154.41 Y187.59 E.60137
G1 X154.41 Y108.41 E2.48263
G1 X173.59 Y108.41 E.60137
G1 X173.59 Y112.833 E.13868
G1 X173.59 Y187.53 E2.34207
M204 S1000
;WIPE_START
G1 F8640
G1 X173.59 Y187.59 E-.01385
G1 X170.185 Y187.59 E-.78615
;WIPE_END
G1 Z.6 F720
G1 X166.921 Y119.616 F10800
G1 Z.2 F720
G1 E.8 F2100
M204 S800
;TYPE:Perimeter
G1 F1200
G1 X166.817 Y119.796 E.00652
G1 X165.796 Y120.817 E.04527
G1 X165.542 Y120.964 E.0092
G1 X164.146 Y121.337 E.04531
G1 X163.902 Y121.348 E.00766
G1 X162.458 Y120.964 E.04685
G1 X162.204 Y120.817 E.0092
G1 X161.183 Y119.796 E.04527
G1 X161.072 Y119.639 E.00603
G1 X160.663 Y118.146 E.04854
G1 X160.663 Y117.854 E.00916
G1 X161.036 Y116.458 E.04531
G1 X161.183 Y116.204 E.0092
G1 X162.204 Y115.183 E.04527
G1 X162.458 Y115.036 E.0092
G1 X163.854 Y114.663 E.04531
G1 X164.146 Y114.663 E.00916
G1 X165.542 Y115.036 E.04531
G1 X165.795 Y115.183 E.00917
G1 X166.817 Y116.204 E.04529
G1 X166.964 Y116.458 E.0092
G1 X167.337 Y117.854 E.04531
G1 X167.337 Y118.146 E.00916
G1 X166.964 Y119.542 E.04531
G1 X166.951 Y119.564 E.0008
M73 P0 R152
M204 S1000
G1 X166.607 Y119.415 F10800
M204 S800
;TYPE:External perimeter
G1 F1200
G1 X166.599 Y119.444 E.00094
G1 X166.551 Y119.529 E.00306
G1 X165.529 Y120.55 E.04529
G1 X165.444 Y120.599 E.00308
G1 X164.049 Y120.973 E.04528
G1 X163.864 Y120.95 E.00585
G1 X162.556 Y120.599 E.04246
G1 X162.471 Y120.55 E.00308
G1 X161.413 Y119.477 E.04725
G1 X161.027 Y118.049 E.04638
G1 X161.027 Y117.951 E.00307
G1 X161.401 Y116.556 E.04528
G1 X161.96 Y115.96 E.02562
G1 X162.471 Y115.45 E.02264
G1 X162.556 Y115.401 E.00308
G1 X163.951 Y115.027 E.04528
G1 X164.049 Y115.027 E.00307
G1 X165.444 Y115.401 E.04528
G1 X166.551 Y116.471 E.04827
G1 X166.599 Y116.556 E.00306
G1 X166.973 Y117.951 E.04528
G1 X166.973 Y118.049 E.00307
G1 X166.623 Y119.357 E.04245
M204 S1000
;WIPE_START
G1 F8640
G1 X166.607 Y119.415 E-.01389
G1 X166.599 Y119.444 E-.00695
G1 X166.551 Y119.529 E-.02254
G1 X165.529 Y120.55 E-.33357
G1 X165.444 Y120.599 E-.02265
G1 X164.049 Y120.973 E-.33348
G1 X163.864 Y120.95 E-.04305
G1 X163.764 Y120.923 E-.02387
;WIPE_END
G1 Z.6 F720
G1 X169.264 Y160.658 F10800
G1 Z.2 F720
G1 E.8 F2100
M204 S800
;TYPE:Perimeter
G1 F1200
G1 X169.221 Y160.662 E.00135
G1 X158.779 Y160.662 E.3274
G1 X158.561 Y160.619 E.00697
G1 X158.326 Y160.436 E.00934
G1 X158.221 Y160.194 E.00827
G1 X158.213 Y160.096 E.00308
G1 X158.213 Y135.904 E.75852
G1 X158.243 Y135.72 E.00585
G1 X158.439 Y135.451 E.01044
G1 X158.677 Y135.347 E.00814
G1 X158.779 Y135.338 E.00321
G1 X169.221 Y135.338 E.3274
G1 X169.439 Y135.381 E.00697
G1 X169.674 Y135.564 E.00934
G1 X169.757 Y135.72 E.00554
G1 X169.787 Y135.904 E.00585
G1 X169.787 Y160.096 E.75852
G1 X169.757 Y160.28 E.00585
G1 X169.561 Y160.549 E.01044
G1 X169.324 Y160.653 E.00811
M204 S1000
G1 X169.221 Y160.285 F10800
M204 S800
;TYPE:External perimeter
G1 F1200
G1 X158.779 Y160.285 E.3274
G1 X158.628 Y160.21 E.00529
G1 X158.59 Y160.096 E.00377
G1 X158.59 Y135.904 E.75852
G1 X158.665 Y135.753 E.00529
G1 X158.779 Y135.715 E.00377
G1 X169.221 Y135.715 E.3274
G1 X169.372 Y135.79 E.00529
G1 X169.41 Y135.904 E.00377
G1 X169.41 Y160.096 E.75852
G1 X169.335 Y160.247 E.00529
G1 X169.278 Y160.266 E.00188
M204 S1000
;WIPE_START
G1 F8640
G1 X169.221 Y160.285 E-.01387
G1 X165.816 Y160.285 E-.78613
;WIPE_END
G1 Z.6 F720
G1 X165.721 Y175.14 F10800
G1 Z.2 F720
G1 E.8 F2100
M204 S800
;TYPE:Perimeter
G1 F1200
G1 X165.795 Y175.183 E.00268
G1 X166.817 Y176.204 E.04529
G1 X166.964 Y176.458 E.0092
G1 X167.337 Y177.854 E.04531
G1 X167.337 Y178.146 E.00916
G1 X166.964 Y179.542 E.04531
G1 X166.817 Y179.796 E.0092
G1 X165.796 Y180.817 E.04527
G1 X165.542 Y180.964 E.0092
G1 X164.146 Y181.337 E.04531
G1 X163.902 Y181.348 E.00766
G1 X162.458 Y180.964 E.04685
G1 X162.204 Y180.817 E.0092
G1 X161.183 Y179.796 E.04527
G1 X161.036 Y179.542 E.0092
G1 X160.663 Y178.146 E.04531
G1 X160.663 Y177.854 E.00916
G1 X161.036 Y176.458 E.04531
G1 X161.183 Y176.204 E.0092
G1 X162.204 Y175.183 E.04527
G1 X162.458 Y175.036 E.0092
G1 X163.854 Y174.663 E.04531
G1 X164.098 Y174.652 E.00766
G1 X165.542 Y175.036 E.04685
G1 X165.669 Y175.11 E.00461
M204 S1000
G1 X165.55 Y175.471 F10800
M204 S800
;TYPE:External perimeter
G1 F1200
G1 X166.551 Y176.471 E.04436
G1 X166.599 Y176.556 E.00306
G1 X166.973 Y177.951 E.04528
G1 X166.973 Y178.049 E.00307
G1 X166.599 Y179.444 E.04528
G1 X166.04 Y180.04 E.02562
G1 X165.529 Y180.55 E.02264
G1 X165.444 Y180.599 E.00308
G1 X164.049 Y180.973 E.04528
G1 X163.967 Y180.977 E.00257
G1 X162.556 Y180.599 E.0458
G1 X161.96 Y180.04 E.02562
G1 X161.449 Y179.529 E.02266
G1 X161.401 Y179.444 E.00306
M73 Q0 S153
G1 X161.027 Y178.049 E.04528
G1 X161.027 Y177.951 E.00307
G1 X161.401 Y176.556 E.04528
G1 X161.449 Y176.471 E.00306
G1 X162.471 Y175.45 E.04529
G1 X162.556 Y175.401 E.00308
G1 X163.951 Y175.027 E.04528
G1 X164.136 Y175.05 E.00585
G1 X165.444 Y175.401 E.04246
G1 X165.503 Y175.434 E.00212
M204 S1000
;WIPE_START
G1 F8640
G1 X165.55 Y175.471 E-.01381
G1 X166.551 Y176.471 E-.32671
G1 X166.599 Y176.556 E-.02254
G1 X166.973 Y177.951 E-.33348
G1 X166.973 Y178.049 E-.02263
G1 X166.882 Y178.387 E-.08083
;WIPE_END
G1 Z.6 F720
G1 X173.043 Y109.721 F10800
G1 Z.2 F720
G1 E.8 F2100
M204 S800
;TYPE:Solid infill
;WIDTH:0.421019
G1 F1200
G1 X172.448 Y109.126 E.02645
G1 X171.914 Y109.126 E.01679
G1 X172.874 Y110.086 E.04268
G1 X172.874 Y110.621 E.01682
G1 X171.379 Y109.126 E.06647
G1 X170.844 Y109.126 E.01682
G1 X172.874 Y111.156 E.09026
G1 X172.874 Y111.69 E.01679
G1 X170.31 Y109.126 E.114
G1 X169.775 Y109.126 E.01682
G1 X172.874 Y112.225 E.13779
G1 X172.874 Y112.76 E.01682
G1 X169.24 Y109.126 E.16157
G1 X168.706 Y109.126 E.01679
G1 X172.874 Y113.295 E.18534
G1 X172.874 Y113.829 E.01679
G1 X168.171 Y109.126 E.2091
G1 X167.636 Y109.126 E.01682
G1 X172.874 Y114.364 E.23289
G1 X172.874 Y114.899 E.01682
G1 X167.101 Y109.126 E.25668
G1 X166.567 Y109.126 E.01679
G1 X172.874 Y115.433 E.28042
G1 X172.874 Y115.968 E.01682
G1 X166.032 Y109.126 E.30421
G1 X165.497 Y109.126 E.01682
G1 X172.874 Y116.503 E.32799
G1 X172.874 Y117.037 E.01679
G1 X164.963 Y109.126 E.35174
G1 X164.428 Y109.126 E.01682
G1 X172.874 Y117.572 E.37552
G1 X172.874 Y118.107 E.01682
G1 X163.893 Y109.126 E.39931
G1 X163.358 Y109.126 E.01682
G1 X172.874 Y118.642 E.4231
G1 X172.874 Y119.176 E.01679
G1 X162.824 Y109.126 E.44684
G1 X162.289 Y109.126 E.01682
G1 X172.874 Y119.711 E.47063
G1 X172.874 Y120.246 E.01682
G1 X161.754 Y109.126 E.49441
G1 X161.22 Y109.126 E.01679
G1 X172.874 Y120.78 E.51815
G1 X172.874 Y121.315 E.01682
G1 X160.685 Y109.126 E.54194
G1 X160.15 Y109.126 E.01682
G1 X172.874 Y121.85 E.56573
G1 X172.874 Y122.385 E.01682
G1 X167.45 Y116.961 E.24116
G1 X167.645 Y117.691 E.02376
G1 X172.874 Y122.919 E.23247
G1 X172.874 Y123.454 E.01682
G1 X167.663 Y118.243 E.23169
G1 X167.55 Y118.665 E.01373
G1 X172.874 Y123.989 E.23671
G1 X172.874 Y124.523 E.01679
G1 X167.437 Y119.087 E.24172
G1 X167.324 Y119.508 E.0137
G1 X172.874 Y125.058 E.24676
G1 X172.874 Y125.593 E.01682
G1 X167.166 Y119.885 E.25379
G1 X167.066 Y120.026 E.00543
G1 X166.919 Y120.173 E.00654
G1 X172.874 Y126.128 E.26477
G1 X172.874 Y126.662 E.01679
G1 X166.652 Y120.441 E.27662
G1 X166.385 Y120.708 E.01187
G1 X172.874 Y127.197 E.28851
G1 X172.874 Y127.732 E.01682
G1 X166.117 Y120.975 E.30043
G1 X166.028 Y121.065 E.00398
G1 X165.822 Y121.215 E.00801
G1 X172.874 Y128.266 E.31352
G1 X172.874 Y128.801 E.01682
G1 X165.42 Y121.348 E.33139
G1 X164.998 Y121.461 E.01373
G1 X172.874 Y129.336 E.35016
G1 X172.874 Y129.871 E.01682
G1 X164.577 Y121.574 E.3689
G1 X164.146 Y121.678 E.01394
G1 X172.874 Y130.405 E.38804
G1 X172.874 Y130.94 E.01682
G1 X163.298 Y121.364 E.42576
M204 S1000
;WIPE_START
G1 F8640
G1 X165.748 Y123.814 E-.8
;WIPE_END
G1 Z.6 F720
G1 X165.292 Y114.803 F10800
G1 Z.2 F720
G1 E.8 F2100
M204 S800
G1 F1200
G1 X159.615 Y109.126 E.25241
G1 X159.081 Y109.126 E.01679
G1 X164.31 Y114.356 E.23251
G1 X164 Y114.303 E.00989
G1 X163.757 Y114.337 E.00771
G1 X158.546 Y109.126 E.23169
G1 X158.011 Y109.126 E.01682
G1 X163.338 Y114.453 E.23685
G1 X162.919 Y114.569 E.01367
G1 X157.477 Y109.126 E.24198
G1 X156.942 Y109.126 E.01682
G1 X162.5 Y114.685 E.24714
G1 X162.215 Y114.764 E.0093
G1 X162.115 Y114.834 E.00384
G1 X156.407 Y109.126 E.25379
G1 X155.872 Y109.126 E.01682
G1 X161.827 Y115.081 E.26477
G1 X161.559 Y115.348 E.01189
G1 X155.338 Y109.126 E.27662
G1 X155.126 Y109.126 E.00667
M73 Q1 S153
G1 X155.126 Y109.45 E.01019
G1 X161.292 Y115.615 E.27413
G1 X161.025 Y115.883 E.01189
M73 P1 R152
G1 X155.126 Y109.985 E.26226
G1 X155.126 Y110.519 E.01679
G1 X160.788 Y116.181 E.25174
G1 X160.71 Y116.364 E.00625
G1 X160.652 Y116.58 E.00703
G1 X155.126 Y111.054 E.24569
G1 X155.126 Y111.589 E.01682
G1 X160.539 Y117.002 E.24067
G1 X160.426 Y117.423 E.0137
G1 X155.126 Y112.123 E.23565
G1 X155.126 Y112.658 E.01682
G1 X160.322 Y117.854 E.23102
G1 X160.303 Y118 E.00463
G1 X160.332 Y118.225 E.00713
G1 X160.396 Y118.462 E.00772
G1 X155.126 Y113.193 E.23429
G1 X155.126 Y113.728 E.01682
G1 X160.592 Y119.193 E.243
G1 X160.767 Y119.79 E.01956
G1 X160.934 Y120.026 E.00909
G1 X161.972 Y121.065 E.04617
G1 X162.166 Y121.21 E.00761
G1 X162.361 Y121.289 E.00661
G1 X162.807 Y121.408 E.01451
G1 X172.874 Y131.475 E.44759
G1 X172.874 Y132.009 E.01679
G1 X155.126 Y114.262 E.78908
G1 X155.126 Y114.797 E.01682
G1 X172.874 Y132.544 E.78908
G1 X172.874 Y133.079 E.01682
G1 X155.126 Y115.332 E.78908
G1 X155.126 Y115.866 E.01679
G1 X172.874 Y133.614 E.7891
G1 X172.874 Y134.148 E.01679
G1 X155.126 Y116.401 E.78908
G1 X155.126 Y116.936 E.01682
G1 X172.874 Y134.683 E.78908
G1 X172.874 Y135.218 E.01682
G1 X155.126 Y117.471 E.78908
G1 X155.126 Y118.005 E.01679
G1 X172.874 Y135.752 E.78908
G1 X172.874 Y136.287 E.01682
G1 X155.126 Y118.54 E.78908
G1 X155.126 Y119.075 E.01682
G1 X172.874 Y136.822 E.78908
G1 X172.874 Y137.357 E.01682
G1 X155.126 Y119.609 E.7891
G1 X155.126 Y120.144 E.01682
G1 X172.874 Y137.891 E.78908
G1 X172.874 Y138.426 E.01682
G1 X155.126 Y120.679 E.78908
G1 X155.126 Y121.214 E.01682
G1 X168.911 Y134.999 E.6129
G1 X168.377 Y134.999 E.01679
G1 X155.126 Y121.748 E.58916
G1 X155.126 Y122.283 E.01682
M73 P1 R151
G1 X167.842 Y134.999 E.56537
G1 X167.307 Y134.999 E.01682
G1 X155.126 Y122.818 E.54159
G1 X155.126 Y123.352 E.01679
G1 X166.773 Y134.999 E.51784
G1 X166.238 Y134.999 E.01682
G1 X155.126 Y123.887 E.49406
G1 X155.126 Y124.422 E.01682
G1 X165.703 Y134.999 E.47027
G1 X165.168 Y134.999 E.01682
G1 X155.126 Y124.957 E.44648
G1 X155.126 Y125.491 E.01679
G1 X164.634 Y134.999 E.42274
G1 X164.099 Y134.999 E.01682
G1 X155.126 Y126.026 E.39895
G1 X155.126 Y126.561 E.01682
G1 X163.564 Y134.999 E.37517
G1 X163.03 Y134.999 E.01679
G1 X155.126 Y127.095 E.35142
G1 X155.126 Y127.63 E.01682
G1 X162.495 Y134.999 E.32764
G1 X161.96 Y134.999 E.01682
G1 X155.126 Y128.165 E.30385
G1 X155.126 Y128.7 E.01682
G1 X161.427 Y135 E.28013
G1 X160.895 Y135.002 E.01673
G1 X155.126 Y129.234 E.25648
G1 X155.126 Y129.769 E.01682
G1 X160.362 Y135.004 E.23278
G1 X159.829 Y135.006 E.01676
M73 Q1 S152
G1 X155.126 Y130.304 E.20908
G1 X155.126 Y130.838 E.01679
G1 X159.296 Y135.008 E.1854
G1 X158.764 Y135.01 E.01673
G1 X155.126 Y131.373 E.16173
G1 X155.126 Y131.908 E.01682
G1 X158.338 Y135.12 E.14281
G1 X158.234 Y135.179 E.00376
G1 X158.05 Y135.366 E.00825
G1 X155.126 Y132.443 E.12998
G1 X155.126 Y132.977 E.01679
G1 X157.897 Y135.748 E.1232
G1 X157.874 Y135.891 E.00455
G1 X157.874 Y136.259 E.01157
G1 X155.126 Y133.512 E.12216
G1 X155.126 Y134.047 E.01682
G1 X157.874 Y136.794 E.12216
G1 X157.874 Y137.329 E.01682
G1 X155.126 Y134.581 E.12218
G1 X155.126 Y135.116 E.01682
G1 X157.874 Y137.863 E.12216
G1 X157.874 Y138.398 E.01682
G1 X155.126 Y135.651 E.12216
G1 X155.126 Y136.186 E.01682
G1 X157.874 Y138.933 E.12216
G1 X157.874 Y139.467 E.01679
G1 X155.126 Y136.72 E.12216
G1 X155.126 Y137.255 E.01682
G1 X157.874 Y140.002 E.12216
G1 X157.874 Y140.537 E.01682
G1 X155.126 Y137.79 E.12216
G1 X155.126 Y138.324 E.01679
G1 X157.874 Y141.072 E.12218
G1 X157.874 Y141.606 E.01679
G1 X155.126 Y138.859 E.12216
G1 X155.126 Y139.394 E.01682
G1 X157.874 Y142.141 E.12216
G1 X157.874 Y142.676 E.01682
G1 X155.126 Y139.929 E.12216
G1 X155.126 Y140.463 E.01679
G1 X157.874 Y143.21 E.12216
G1 X157.874 Y143.745 E.01682
G1 X155.126 Y140.998 E.12216
G1 X155.126 Y141.533 E.01682
G1 X157.874 Y144.28 E.12216
G1 X157.874 Y144.815 E.01682
G1 X155.126 Y142.067 E.12218
G1 X155.126 Y142.602 E.01682
G1 X157.874 Y145.349 E.12216
G1 X157.874 Y145.884 E.01682
G1 X155.126 Y143.137 E.12216
G1 X155.126 Y143.672 E.01682
G1 X157.874 Y146.419 E.12216
G1 X157.874 Y146.953 E.01679
G1 X155.126 Y144.206 E.12216
G1 X155.126 Y144.741 E.01682
