; generated by PrusaSlicer 2.7.0+win64 on 2024-06-21 at 00:16:43 UTC


;
;
; 

; external perimeters extrusion width = 0.45mm
; perimeters extrusion width = 0.45mm
; infill extrusion width = 0.45mm
; solid infill extrusion width = 0.45mm
; top infill extrusion width = 0.40mm
; first layer extrusion width = 0.42mm

M73 P0 R14
M73 Q0 S14
M201 X1000 Y1000 Z200 E5000 ; sets maximum accelerations, mm/sec^2
M203 X200 Y200 Z12 E120 ; sets maximum feedrates, mm / sec
M204 S1250 T1250 ; sets acceleration (S) and retract acceleration (R), mm/sec^2
M205 X8.00 Y8.00 Z0.40 E4.50 ; sets the jerk limits, mm/sec
M205 S0 T0 ; sets the minimum extruding and travel feed rate, mm/sec

; printing object V1_STL.stl id:0 copy 0
; stop printing object V1_STL.stl id:0 copy 0

;TYPE:Custom
M862.3 P "MK3S" ; printer model check
M862.1 P0.4 ; nozzle diameter check
M115 U3.13.2 ; tell printer latest fw version
G90 ; use absolute coordinates
M83 ; extruder relative mode
M104 S215 ; set extruder temp
M140 S60 ; set bed temp
M190 S60 ; wait for bed temp
M109 S215 ; wait for extruder temp
G28 W ; home all without mesh bed level
G80 X109.058 Y88.8432 W31.8843 H31.8807 ; mesh bed levelling

G1 Z0.2 F720
G1 Y-3 F1000 ; go outside print area
G92 E0
G1 X60 E9 F1000 ; intro line
G1 X100 E12.5 F1000 ; intro line

G92 E0
M221 S95

; Don't change E values below. Excessive value can damage the printer.

M907 E538 ; set extruder motor current
G21 ; set units to millimeters
G90 ; use absolute coordinates
M83 ; use relative distances for extrusion
M900 K0.05 ; Filament gcode LA 1.5
M900 K30 ; Filament gcode LA 1.0

M107
;LAYER_CHANGE
;Z:0.2
;HEIGHT:0.2
;BEFORE_LAYER_CHANGE
G92 E0.0
;0.2


G1 E-.8 F2100
G1 Z.2 F720
;AFTER_LAYER_CHANGE
;0.2
G1 X113.114 Y94.445 F10800
G1 Z.2 F720
G1 E.8 F2100
M204 S800
;TYPE:Skirt/Brim
;WIDTH:0.42
G1 F1200
G1 X114.04 Y93.469 E.04218
G1 X115.353 Y92.329 E.05452
G1 X116.738 Y91.371 E.0528
G1 X117.868 Y90.737 E.04063
G1 X119.408 Y90.056 E.0528
G1 X120.685 Y89.633 E.04218
G1 X122.382 Y89.249 E.05455
G1 X124.055 Y89.058 E.0528
M73 P0 R13
G1 X125.351 Y89.034 E.04064
G1 X127.03 Y89.161 E.05279
G1 X128.307 Y89.381 E.04063
G1 X129.933 Y89.822 E.05282
G1 X131.38 Y90.381 E.04864
G1 X132.75 Y91.068 E.04805
G1 X134.17 Y91.973 E.0528
G1 X135.192 Y92.77 E.04064
G1 X136.416 Y93.927 E.05281
G1 X137.27 Y94.902 E.04064
G1 X138.255 Y96.268 E.0528
G1 X138.91 Y97.387 E.04065
M73 P1 R13
G1 X139.658 Y99.011 E.05606
G1 X140.191 Y100.608 E.05279
M73 Q1 S14
G1 X140.483 Y101.871 E.04065
G1 X140.705 Y103.54 E.05279
G1 X140.745 Y105.328 E.05608
G1 X140.647 Y106.62 E.04063
G1 X140.362 Y108.28 E.05281
G1 X140.022 Y109.531 E.04065
G1 X139.387 Y111.203 E.05608
G1 X138.62 Y112.701 E.05277
G1 X137.923 Y113.794 E.04065
G1 X136.887 Y115.122 E.05281
G1 X135.639 Y116.402 E.05605
G1 X134.648 Y117.238 E.04065
G1 X133.264 Y118.196 E.05278
G1 X132.133 Y118.83 E.04065
G1 X130.593 Y119.511 E.0528
G1 X129.363 Y119.921 E.04065
G1 X127.722 Y120.3 E.05281
G1 X126.437 Y120.472 E.04065
G1 X124.65 Y120.533 E.05606
G1 X122.971 Y120.406 E.05279
G1 X121.694 Y120.186 E.04063
G1 X120.069 Y119.745 E.05279
G1 X118.855 Y119.289 E.04066
G1 X117.342 Y118.55 E.0528
G1 X116.236 Y117.874 E.04064
G1 X114.889 Y116.864 E.05279
G1 X113.585 Y115.64 E.05608
G1 X112.731 Y114.665 E.04064
G1 X111.747 Y113.299 E.05279
G1 X111.091 Y112.18 E.04067
G1 X110.343 Y110.557 E.05603
G1 X109.81 Y108.959 E.05282
G1 X109.493 Y107.546 E.0454
G1 X109.288 Y105.923 E.05129
G1 X109.256 Y104.24 E.05278
G1 X109.354 Y102.947 E.04066
G1 X109.663 Y101.186 E.05606
G1 X110.135 Y99.569 E.05282
G1 X110.614 Y98.365 E.04063
G1 X111.381 Y96.866 E.0528
G1 X112.078 Y95.773 E.04065
G1 X113.077 Y94.492 E.05093
M204 S1000
G1 X113.374 Y94.724 F10800
M204 S800
G1 F1200
G1 X113.402 Y94.688 E.00143
G1 X114.298 Y93.743 E.04083
G1 X115.579 Y92.631 E.05319
G1 X116.94 Y91.689 E.0519
G1 X118.034 Y91.076 E.03932
G1 X119.548 Y90.406 E.05191
G1 X120.737 Y90.01 E.03929
G1 X122.35 Y89.637 E.05191
G1 X123.593 Y89.471 E.03932
G1 X125.337 Y89.411 E.05471
G1 X126.987 Y89.536 E.05188
G1 X128.223 Y89.748 E.03932
G1 X129.82 Y90.182 E.05189
G1 X131.228 Y90.726 E.04733
G1 X132.56 Y91.393 E.04671
G1 X133.955 Y92.283 E.05188
G1 X134.944 Y93.054 E.03932
G1 X136.147 Y94.191 E.0519
G1 X136.973 Y95.134 E.03931
G1 X137.941 Y96.477 E.05191
G1 X138.574 Y97.559 E.0393
G1 X139.306 Y99.143 E.05471
G1 X139.829 Y100.714 E.05192
G1 X140.111 Y101.935 E.03929
G1 X140.337 Y103.666 E.05473
G1 X140.368 Y105.321 E.0519
G1 X140.273 Y106.571 E.03931
G1 X139.993 Y108.202 E.05189
G1 X139.664 Y109.412 E.03932
G1 X139.045 Y111.044 E.05473
G1 X138.291 Y112.517 E.05188
G1 X137.617 Y113.574 E.03931
G1 X136.599 Y114.879 E.05189
G1 X135.38 Y116.128 E.05472
G1 X134.422 Y116.936 E.03929
G1 X133.061 Y117.878 E.0519
G1 X131.525 Y118.707 E.05473
G1 X130.369 Y119.193 E.03932
G1 X128.789 Y119.686 E.0519
G1 X127.563 Y119.945 E.03929
G1 X125.918 Y120.133 E.05191
G1 X124.665 Y120.157 E.03929
G1 X123.014 Y120.031 E.05192
G1 X121.779 Y119.819 E.03929
G1 X120.181 Y119.385 E.05192
G1 X119.008 Y118.944 E.03929
G1 X117.52 Y118.218 E.05191
G1 X116.24 Y117.419 E.04731
G1 X115.058 Y116.513 E.0467
G1 X113.854 Y115.376 E.05192
G1 X113.029 Y114.433 E.03929
G1 X112.012 Y113.014 E.05474
G1 X111.203 Y111.571 E.05187
G1 X110.696 Y110.424 E.03932
G1 X110.172 Y108.854 E.0519
G1 X109.847 Y107.38 E.04733
G1 X109.665 Y105.902 E.04669
G1 X109.633 Y104.247 E.0519
G1 X109.735 Y102.948 E.04085
G1 X110.029 Y101.278 E.05317
G1 X110.493 Y99.689 E.0519
G1 X110.956 Y98.524 E.03931
G1 X111.71 Y97.05 E.05191
G1 X112.384 Y95.993 E.03931
G1 X113.337 Y94.771 E.04859
M204 S1000
; printing object V1_STL.stl id:0 copy 0
;WIPE_START
G1 F8640
G1 X113.374 Y94.724 E-.01381
G1 X113.402 Y94.688 E-.01053
G1 X114.298 Y93.743 E-.30069
G1 X115.579 Y92.631 E-.39169
G1 X115.876 Y92.426 E-.08328
;WIPE_END
G1 Z.6 F720
G1 X136.277 Y109.435 F10800
M73 P2 R13
G1 Z.2 F720
G1 E.8 F2100
M204 S800
;TYPE:Perimeter
;WIDTH:0.419999
G1 F1200
G1 X136.169 Y109.723 E.00964
G1 X135.535 Y110.961 E.04361
G1 X135.041 Y111.736 E.02882
M73 Q2 S14
G1 X134.487 Y112.475 E.02896
G1 X133.878 Y113.17 E.02897
G1 X133.218 Y113.818 E.029
G1 X132.515 Y114.41 E.02882
G1 X131.371 Y115.202 E.04363
G1 X130.145 Y115.859 E.04361
G1 X129.298 Y116.215 E.02881
G1 X128.426 Y116.506 E.02882
G1 X127.065 Y116.82 E.04379
G1 X126.16 Y116.941 E.02863
G1 X124.764 Y116.994 E.0438
G1 X123.847 Y116.941 E.0288
G1 X122.936 Y116.82 E.02881
G1 X121.575 Y116.506 E.04379
G1 X120.708 Y116.217 E.02865
G1 X119.436 Y115.654 E.04361
G1 X118.235 Y114.951 E.04363
G1 X117.49 Y114.413 E.02881
G1 X116.783 Y113.818 E.02897
G1 X116.124 Y113.171 E.02896
G1 X115.515 Y112.475 E.029
G1 X115.089 Y111.907 E.02226
G1 X114.707 Y111.356 E.02102
G1 X114.217 Y110.514 E.03055
G1 X113.834 Y109.728 E.02741
G1 X113.342 Y108.42 E.04382
G1 X113.102 Y107.534 E.02878
G1 X112.922 Y106.582 E.03038
G1 X112.824 Y105.713 E.02742
G1 X112.797 Y104.316 E.04381
G1 X112.866 Y103.405 E.02865
G1 X113.103 Y102.029 E.04378
G1 X113.342 Y101.147 E.02865
G1 X113.733 Y100.107 E.03484
G1 X114.044 Y99.391 E.02448
G1 X114.463 Y98.611 E.02776
G1 X114.957 Y97.836 E.02882
G1 X115.813 Y96.739 E.04363
G1 X116.787 Y95.746 E.04361
G1 X117.486 Y95.157 E.02866
G1 X118.634 Y94.362 E.04378
G1 X119.213 Y94.037 E.02082
G1 X119.886 Y93.694 E.02368
G1 X120.702 Y93.353 E.02773
G1 X121.622 Y93.048 E.03039
G1 X122.477 Y92.835 E.02763
G1 X123.387 Y92.678 E.02895
G1 X124.307 Y92.591 E.02897
G1 X125.275 Y92.575 E.03036
G1 X126.154 Y92.626 E.02761
G1 X127.071 Y92.748 E.02901
G1 X127.97 Y92.938 E.02881
G1 X129.303 Y93.354 E.04378
G1 X130.15 Y93.71 E.02881
G1 X130.968 Y94.129 E.02882
G1 X132.141 Y94.877 E.04362
G1 X133.222 Y95.753 E.04363
G1 X133.878 Y96.397 E.02882
G1 X134.487 Y97.092 E.02897
G1 X135.038 Y97.827 E.0288
G1 X135.767 Y99.019 E.04381
G1 X136.168 Y99.84 E.02865
G1 X136.659 Y101.147 E.04378
G1 X136.9 Y102.034 E.02882
G1 X137.073 Y102.941 E.02895
G1 X137.178 Y103.855 E.02885
G1 X137.187 Y104.366 E.01602
G1 X137.204 Y105.251 E.02775
G1 X137.135 Y106.162 E.02865
G1 X136.898 Y107.538 E.04378
G1 X136.659 Y108.42 E.02865
G1 X136.299 Y109.379 E.03212
M204 S1000
G1 X136.63 Y109.568 F10800
M204 S800
;TYPE:External perimeter
G1 F1200
G1 X136.515 Y109.875 E.01028
G1 X135.863 Y111.149 E.04487
G1 X135.351 Y111.95 E.02981
G1 X134.78 Y112.713 E.02988
G1 X134.152 Y113.43 E.02988
G1 X133.472 Y114.097 E.02987
G1 X132.745 Y114.71 E.02982
G1 X131.568 Y115.524 E.04487
G1 X130.308 Y116.2 E.04483
G1 X129.431 Y116.568 E.02982
G1 X128.528 Y116.869 E.02984
G1 X127.133 Y117.191 E.04489
G1 X126.192 Y117.317 E.02977
G1 X124.761 Y117.371 E.0449
G1 X123.811 Y117.317 E.02983
G1 X122.868 Y117.191 E.02983
G1 X121.473 Y116.869 E.04489
G1 X120.572 Y116.569 E.02977
G1 X119.264 Y115.99 E.04485
G1 X118.029 Y115.267 E.04487
G1 X117.258 Y114.711 E.0298
G1 X116.529 Y114.097 E.02988
G1 X115.849 Y113.43 E.02987
G1 X115.222 Y112.713 E.02986
G1 X114.787 Y112.134 E.02271
G1 X114.387 Y111.556 E.02204
G1 X113.884 Y110.692 E.03135
G1 X113.487 Y109.877 E.02842
G1 X112.983 Y108.536 E.04492
G1 X112.734 Y107.618 E.02982
G1 X112.549 Y106.639 E.03124
G1 X112.447 Y105.737 E.02846
G1 X112.42 Y104.305 E.04491
G1 X112.492 Y103.359 E.02975
G1 X112.735 Y101.947 E.04492
G1 X112.983 Y101.031 E.02975
G1 X113.488 Y99.689 E.04496
G1 X113.707 Y99.222 E.01617
G1 X114.137 Y98.42 E.02853
G1 X114.649 Y97.618 E.02983
G1 X115.529 Y96.49 E.04486
G1 X116.531 Y95.469 E.04485
G1 X117.257 Y94.857 E.02977
G1 X118.434 Y94.042 E.04489
G1 X119.265 Y93.576 E.02987
G1 X119.731 Y93.351 E.01623
G1 X120.57 Y92.999 E.02853
G1 X121.517 Y92.686 E.03127
G1 X122.399 Y92.466 E.0285
G1 X123.337 Y92.304 E.02985
G1 X124.286 Y92.214 E.02989
G1 X125.283 Y92.198 E.03126
G1 X126.19 Y92.25 E.02848
G1 X127.134 Y92.376 E.02986
G1 X128.065 Y92.573 E.02984
G1 X129.432 Y93 E.0449
G1 X130.309 Y93.368 E.02982
G1 X131.156 Y93.801 E.02983
G1 X132.362 Y94.571 E.04486
G1 X133.473 Y95.471 E.04483
G1 X134.152 Y96.137 E.02982
G1 X134.78 Y96.854 E.02988
G1 X135.35 Y97.615 E.02981
G1 X136.098 Y98.837 E.04492
G1 X136.514 Y99.69 E.02976
G1 X137.018 Y101.031 E.04492
G1 X137.267 Y101.949 E.02982
G1 X137.446 Y102.885 E.02988
G1 X137.554 Y103.83 E.02982
G1 X137.564 Y104.358 E.01656
G1 X137.581 Y105.262 E.02835
G1 X137.509 Y106.209 E.02978
G1 X137.267 Y107.62 E.04489
G1 X137.018 Y108.536 E.02976
G1 X136.652 Y109.511 E.03265
M204 S1000
;WIPE_START
G1 F8640
G1 X136.63 Y109.568 E-.01411
G1 X136.515 Y109.875 E-.0757
G1 X135.863 Y111.149 E-.33046
G1 X135.351 Y111.95 E-.21951
G1 X134.935 Y112.506 E-.16022
;WIPE_END
G1 Z.6 F720
G1 X131.959 Y94.962 F10800
M73 P3 R13
G1 Z.2 F720
G1 E.8 F2100
M204 S800
;TYPE:Solid infill
;WIDTH:0.425671
G1 F1200
G1 X133.659 Y96.662 E.07651
G1 X134.223 Y97.306 E.02724
G1 X134.757 Y98.018 E.02833
G1 X135.202 Y98.747 E.02718
G1 X131.02 Y94.564 E.18825
G1 X130.799 Y94.423 E.00834
G1 X129.878 Y93.964 E.03275
G1 X135.824 Y99.909 E.2676
M73 Q3 S14
G1 X136.161 Y100.788 E.02996
G1 X128.983 Y93.61 E.32307
G1 X128.196 Y93.364 E.02624
G1 X136.43 Y101.598 E.3706
G1 X136.608 Y102.318 E.0236
G1 X127.47 Y93.179 E.41131
G1 X126.804 Y93.055 E.02156
G1 X136.737 Y102.987 E.44705
G1 X136.807 Y103.599 E.0196
G1 X126.179 Y92.971 E.47835
G1 X125.6 Y92.934 E.01846
G1 X136.844 Y104.178 E.50608
G1 X136.855 Y104.729 E.01754
G1 X125.044 Y92.918 E.5316
G1 X124.511 Y92.927 E.01697
G1 X136.862 Y105.277 E.55588
G1 X136.823 Y105.781 E.01609
G1 X124.003 Y92.961 E.57701
G1 X123.509 Y93.007 E.01579
G1 X136.772 Y106.27 E.59695
G1 X136.692 Y106.732 E.01492
M73 P4 R13
G1 X123.042 Y93.082 E.61437
G1 X122.58 Y93.161 E.01492
M73 Q4 S14
G1 X136.613 Y107.194 E.63161
G1 X136.519 Y107.641 E.01454
G1 X122.145 Y93.268 E.64693
G1 X121.712 Y93.376 E.0142
G1 X136.403 Y108.067 E.66122
G1 X136.274 Y108.479 E.01374
G1 X121.306 Y93.511 E.67369
G1 X120.899 Y93.645 E.01364
G1 X136.126 Y108.873 E.68537
G1 X135.978 Y109.266 E.01337
G1 X120.512 Y93.8 E.6961
G1 X120.131 Y93.96 E.01315
G1 X135.824 Y109.653 E.70632
G1 X135.641 Y110.011 E.0128
M73 P5 R13
G1 X119.762 Y94.132 E.71469
G1 X119.407 Y94.318 E.01276
M73 Q5 S14
G1 X135.457 Y110.369 E.72241
G1 X135.274 Y110.727 E.0128
G1 X119.06 Y94.513 E.72977
G1 X118.721 Y94.715 E.01256
G1 X135.068 Y111.062 E.73576
G1 X134.857 Y111.393 E.01249
G1 X118.401 Y94.936 E.74068
G1 X118.081 Y95.158 E.0124
G1 X134.635 Y111.712 E.74507
G1 X134.403 Y112.021 E.0123
G1 X117.761 Y95.379 E.74903
G1 X117.462 Y95.621 E.01224
M73 P6 R13
G1 X134.166 Y112.326 E.75185
G1 X133.914 Y112.614 E.01218
G1 X117.168 Y95.869 E.75369
G1 X116.887 Y96.129 E.01218
M73 Q6 S13
G1 X133.661 Y112.903 E.75497
G1 X133.39 Y113.173 E.01217
G1 X116.619 Y96.402 E.75484
G1 X116.351 Y96.675 E.01218
G1 X133.117 Y113.441 E.75461
G1 X132.833 Y113.699 E.01221
G1 X116.083 Y96.948 E.75392
G1 X115.844 Y97.251 E.01228
G1 X132.539 Y113.946 E.75142
G1 X132.24 Y114.188 E.01224
M73 P7 R13
G1 X115.607 Y97.555 E.74863
G1 X115.37 Y97.859 E.01227
G1 X131.92 Y114.409 E.74489
G1 X131.6 Y114.631 E.0124
M73 Q7 S13
G1 X115.144 Y98.175 E.74066
G1 X114.933 Y98.505 E.01247
G1 X131.28 Y114.852 E.73576
G1 X130.937 Y115.05 E.0126
G1 X114.726 Y98.839 E.72963
G1 X114.536 Y99.191 E.01273
G1 X130.584 Y115.239 E.7223
G1 X130.232 Y115.428 E.01272
G1 X114.347 Y99.543 E.71496
G1 X114.174 Y99.912 E.01297
M73 P8 R12
G1 X129.87 Y115.607 E.70643
G1 X129.488 Y115.767 E.01318
G1 X114.023 Y100.301 E.69608
G1 X113.875 Y100.695 E.01339
G1 X129.103 Y115.922 E.68537
G1 X128.697 Y116.058 E.01363
M73 Q8 S13
G1 X113.727 Y101.088 E.67378
G1 X113.598 Y101.501 E.01377
G1 X128.287 Y116.189 E.66111
G1 X127.847 Y116.291 E.01437
G1 X113.483 Y101.926 E.64653
G1 X113.388 Y102.373 E.01454
G1 X127.408 Y116.393 E.63102
G1 X126.965 Y116.491 E.01444
G1 X113.309 Y102.835 E.61464
G1 X113.229 Y103.297 E.01492
M73 P9 R12
G1 X126.487 Y116.555 E.59672
G1 X125.998 Y116.607 E.01565
G1 X113.178 Y103.787 E.57701
G1 X113.14 Y104.29 E.01605
G1 X125.477 Y116.627 E.55527
G1 X124.955 Y116.647 E.01663
G1 X113.147 Y104.838 E.53148
M73 Q9 S13
G1 X113.157 Y105.39 E.01757
G1 X124.4 Y116.633 E.50603
G1 X123.822 Y116.596 E.01843
G1 X113.194 Y105.968 E.47835
G1 X113.268 Y106.583 E.01971
G1 X123.197 Y116.512 E.44689
G1 X122.996 Y116.486 E.00645
G1 X122.519 Y116.375 E.01559
G1 X113.394 Y107.25 E.4107
G1 X113.572 Y107.97 E.0236
G1 X121.815 Y116.213 E.37101
G1 X121.025 Y115.965 E.02635
G1 X113.84 Y108.779 E.32341
G1 X114.177 Y109.658 E.02996
M73 P10 R12
G1 X120.093 Y115.574 E.26627
G1 X119.591 Y115.351 E.01748
G1 X118.96 Y114.982 E.02326
G1 X114.773 Y110.795 E.18845
G1 X114.996 Y111.177 E.01408
G1 X115.234 Y111.535 E.01368
G1 X115.778 Y112.261 E.02887
G1 X116.343 Y112.906 E.02729
G1 X118.032 Y114.595 E.07602
M204 S1000
; stop printing object V1_STL.stl id:0 copy 0
M106 S84.15
;LAYER_CHANGE
;Z:0.4
;HEIGHT:0.2
;BEFORE_LAYER_CHANGE
G92 E0.0
;0.4


;WIPE_START
G1 F8640
G1 X116.343 Y112.906 E-.55154
G1 X115.778 Y112.261 E-.19799
G1 X115.647 Y112.086 E-.05047
;WIPE_END
G1 Z.4 F720
;AFTER_LAYER_CHANGE
;0.4
M104 S210 ; set temperature
G1 Z.8
G1 X112.505 Y114.351 F10800
G1 Z.4 F720
G1 E.8 F2100
;TYPE:Skirt/Brim
;WIDTH:0.42
G1 F3000
G1 X111.747 Y113.299 E.04066
G1 X111.091 Y112.18 E.04067
G1 X110.343 Y110.557 E.05603
G1 X109.81 Y108.959 E.05282
G1 X109.493 Y107.546 E.0454
G1 X109.288 Y105.923 E.05129
G1 X109.256 Y104.24 E.05278
G1 X109.354 Y102.947 E.04066
G1 X109.663 Y101.186 E.05606
G1 X110.135 Y99.569 E.05282
G1 X110.614 Y98.365 E.04063
G1 X111.381 Y96.866 E.0528
G1 X112.078 Y95.773 E.04065
G1 X113.114 Y94.445 E.05281
G1 X114.04 Y93.469 E.04218
G1 X115.353 Y92.329 E.05452
G1 X116.738 Y91.371 E.0528
G1 X117.868 Y90.737 E.04063
G1 X119.408 Y90.056 E.0528
G1 X120.685 Y89.633 E.04218
G1 X122.382 Y89.249 E.05455
G1 X124.055 Y89.058 E.0528
G1 X125.351 Y89.034 E.04064
G1 X127.03 Y89.161 E.05279
G1 X128.307 Y89.381 E.04063
G1 X129.933 Y89.822 E.05282
G1 X131.38 Y90.381 E.04864
G1 X132.75 Y91.068 E.04805
G1 X134.17 Y91.973 E.0528
G1 X135.192 Y92.77 E.04064
G1 X136.416 Y93.927 E.05281
G1 X137.27 Y94.902 E.04064
G1 X138.255 Y96.268 E.0528
G1 X138.91 Y97.387 E.04065
G1 X139.658 Y99.011 E.05606
G1 X140.191 Y100.608 E.05279
G1 X140.483 Y101.871 E.04065
G1 X140.705 Y103.54 E.05279
G1 X140.745 Y105.328 E.05608
