; generated by SuperSlicer 2.4 on 2022-10-25 at 06:50:58 UTC


;
;

;
;
; 

; external perimeters extrusion width = 0.45mm
; perimeters extrusion width = 0.45mm
; infill extrusion width = 0.45mm
; solid infill extrusion width = 0.45mm
; top infill extrusion width = 0.40mm
; first layer extrusion width = 0.42mm

; object:{"name":"xyzCalibration_cube","id":"xyzCalibration_cube.stl id:0 copy 0","object_center":[105.000000,105.000000,0.000000],"boundingbox_center":[105.000000,105.000000,10.000000],"boundingbox_size":[20.000000,20.000000,20.000000]}
; Total objects to print: 1
M486 T1
; plater:{"center":[105.000000,105.000000,0.000000],"boundingbox_center":[105.000000,105.000000,10.000000],"boundingbox_size":[20.000000,20.000000,20.000000]}

M73 P0 R38
;TYPE:Custom
G90 ; use absolute coordinates
M83 ; extruder relative mode
M204 S1250 T1250
M104 S215 ; set extruder temp
M140 S65 ; set bed temp
G28 ; home all
G1 Y1.0 Z0.3 F1000 ; move print head up
M190 S65 ; wait for bed temp
M109 S215 ; wait for extruder temp
G92 E0.0
; initial load
G1 X205.0 E19 F1000
G1 Y1.6
M73 P1 R37
G1 X5.0 E19 F1000
G92 E0.0
; intro line
G1 Y2.0 Z0.2 F1000
G1 X65.0 E9.0 F1000
G1 X105.0 E12.5 F1000
G92 E0.0
M107
G21 ; set units to millimeters
G90 ; use absolute coordinates
M83 ; use relative distances for extrusion
; Filament gcode
;_TOOLCHANGE 0
M107
;LAYER_CHANGE
;Z:0.2
;HEIGHT:0.2
;BEFORE_LAYER_CHANGE
G92 E0.0
;0.2
M73 P2 R37
G1 E-6 F2400
G1 Z0.075 F10800
G1 Z0.2
;AFTER_LAYER_CHANGE
;0.2
G1 Z0.275
M204 S800
G1 X92.677 Y93.593
G1 Z0.2
G1 E6 F3000
;TYPE:Skirt
;WIDTH:0.52
G1 F1200
G1 X92.284 Y95 E0.05793
G1 X92.284 Y115 E0.79339
G1 X92.594 Y116.259 E0.05141
G1 X93.593 Y117.323 E0.05793
G1 X95 Y117.716 E0.05793
G1 X115 Y117.716 E0.79339
G1 X116.259 Y117.406 E0.05141
G1 X117.323 Y116.407 E0.05793
G1 X117.716 Y115 E0.05793
G1 X117.716 Y95 E0.79339
G1 X117.406 Y93.741 E0.05141
G1 X116.407 Y92.677 E0.05793
G1 X115 Y92.284 E0.05793
G1 X95 Y92.284 E0.79339
G1 X93.741 Y92.594 E0.05141
G1 X92.721 Y93.552 E0.05555
G1 X93.153 Y93.736 F10800
G1 F1200
G1 X92.761 Y95 E0.05249
G1 X92.761 Y115 E0.79339
G1 X92.914 Y115.811 E0.03273
G1 X93.736 Y116.847 E0.05249
G1 X95 Y117.239 E0.05249
G1 X115 Y117.239 E0.79339
G1 X115.811 Y117.086 E0.03273
G1 X116.847 Y116.264 E0.05249
G1 X117.239 Y115 E0.05249
G1 X117.239 Y95 E0.79339
G1 X117.086 Y94.189 E0.03273
G1 X116.264 Y93.153 E0.05249
G1 X115 Y92.761 E0.05249
G1 X95 Y92.761 E0.79339
G1 X94.189 Y92.914 E0.03273
G1 X93.2 Y93.699 E0.05011
G1 E-3.6 F2400
;WIPE_START
G1 F8640
M204 S1000
G1 X92.761 Y95 E-0.36235
G1 X92.761 Y102.267 E-1.91765
;WIPE_END
G1 E-0.12 F2400
G1 Z0.275 F10800
; printing object xyzCalibration_cube.stl id:0 copy 0
M486 S0
; acceleration to travel
M204 S1500
G1 X95.127 Y96.674
; decel to extrusion
M204 S800
G1 X95.587 Y95.587
; end travel
G1 Z0.2
G1 E6 F3000
;TYPE:Internal perimeter
;WIDTH:0.42
G1 F1200
G1 X114.413 Y95.587 E0.59027
G1 X114.413 Y114.413 E0.59027
G1 X95.587 Y114.413 E0.59027
G1 X95.587 Y95.647 E0.58839
G1 X95.21 Y95.21 F10800
;TYPE:External perimeter
G1 F1200
G1 X114.79 Y95.21 E0.61392
G1 X114.79 Y114.79 E0.61392
G1 X95.21 Y114.79 E0.61392
G1 X95.21 Y95.27 E0.61204
;WIPE_START
M204 S1000
M73 P3 R37
G1 X95.556 Y95.41 F10800
;WIPE_END
G1 E-3.6 F2400
;WIPE_START
G1 F8640
G1 X104.196 Y95.41 E-2.28
;WIPE_END
G1 E-0.12 F2400
G1 Z0.275 F10800
; acceleration to travel
M204 S1500
G1 X112.017 Y95.653
; decel to extrusion
M204 S800
G1 X113.538 Y95.7
; end travel
G1 Z0.2
G1 E6 F3000
;TYPE:Solid infill
;WIDTH:0.420799
G1 F1200
G1 X114.138 Y96.3 E0.02666
G1 X114.138 Y96.834 E0.01675
G1 X113.166 Y95.862 E0.04315
G1 X112.633 Y95.862 E0.01675
G1 X114.138 Y97.367 E0.06684
G1 X114.138 Y97.9 E0.01675
G1 X112.1 Y95.862 E0.09053
G1 X111.567 Y95.862 E0.01675
G1 X114.138 Y98.433 E0.11422
G1 X114.138 Y98.967 E0.01675
G1 X111.033 Y95.862 E0.13791
G1 X110.5 Y95.862 E0.01675
G1 X114.138 Y99.5 E0.1616
G1 X114.138 Y100.033 E0.01675
G1 X109.967 Y95.862 E0.1853
G1 X109.434 Y95.862 E0.01675
G1 X114.138 Y100.566 E0.20899
G1 X114.138 Y101.1 E0.01675
G1 X108.9 Y95.862 E0.23268
G1 X108.367 Y95.862 E0.01675
G1 X114.138 Y101.633 E0.25637
G1 X114.138 Y102.166 E0.01675
G1 X107.834 Y95.862 E0.28006
G1 X107.3 Y95.862 E0.01675
G1 X114.138 Y102.7 E0.30375
G1 X114.138 Y103.233 E0.01675
G1 X106.767 Y95.862 E0.32744
G1 X106.234 Y95.862 E0.01675
G1 X114.138 Y103.766 E0.35113
G1 X114.138 Y104.299 E0.01675
G1 X105.701 Y95.862 E0.37482
G1 X105.167 Y95.862 E0.01675
G1 X114.138 Y104.833 E0.39852
G1 X114.138 Y105.366 E0.01675
G1 X104.634 Y95.862 E0.42221
G1 X104.101 Y95.862 E0.01675
G1 X114.138 Y105.899 E0.4459
G1 X114.138 Y106.432 E0.01675
G1 X103.568 Y95.862 E0.46959
G1 X103.034 Y95.862 E0.01675
G1 X114.138 Y106.966 E0.49328
G1 X114.138 Y107.499 E0.01675
G1 X102.501 Y95.862 E0.51697
G1 X101.968 Y95.862 E0.01675
G1 X114.138 Y108.032 E0.54066
G1 X114.138 Y108.566 E0.01675
M73 P3 R36
G1 X101.434 Y95.862 E0.56435
G1 X100.901 Y95.862 E0.01675
G1 X114.138 Y109.099 E0.58804
G1 X114.138 Y109.632 E0.01675
G1 X100.368 Y95.862 E0.61173
G1 X99.835 Y95.862 E0.01675
G1 X114.138 Y110.165 E0.63543
G1 X114.138 Y110.699 E0.01675
G1 X99.301 Y95.862 E0.65912
G1 X98.768 Y95.862 E0.01675
G1 X114.138 Y111.232 E0.68281
G1 X114.138 Y111.765 E0.01675
G1 X98.235 Y95.862 E0.7065
G1 X97.702 Y95.862 E0.01675
G1 X114.138 Y112.298 E0.73019
G1 X114.138 Y112.832 E0.01675
G1 X97.168 Y95.862 E0.75388
G1 X96.635 Y95.862 E0.01675
G1 X114.138 Y113.365 E0.77757
G1 X114.138 Y113.898 E0.01675
M73 P4 R36
G1 X96.102 Y95.862 E0.80126
G1 X95.862 Y95.862 E0.00752
G1 X95.862 Y96.156 E0.00923
G1 X113.844 Y114.138 E0.79885
G1 X113.311 Y114.138 E0.01675
G1 X95.862 Y96.689 E0.77516
G1 X95.862 Y97.223 E0.01675
G1 X112.777 Y114.138 E0.75147
G1 X112.244 Y114.138 E0.01675
G1 X95.862 Y97.756 E0.72778
G1 X95.862 Y98.289 E0.01675
G1 X111.711 Y114.138 E0.70408
G1 X111.178 Y114.138 E0.01675
G1 X95.862 Y98.822 E0.68039
G1 X95.862 Y99.356 E0.01675
G1 X110.644 Y114.138 E0.6567
G1 X110.111 Y114.138 E0.01675
G1 X95.862 Y99.889 E0.63301
G1 X95.862 Y100.422 E0.01675
G1 X109.578 Y114.138 E0.60932
G1 X109.044 Y114.138 E0.01675
G1 X95.862 Y100.956 E0.58563
G1 X95.862 Y101.489 E0.01675
G1 X108.511 Y114.138 E0.56194
G1 X107.978 Y114.138 E0.01675
G1 X95.862 Y102.022 E0.53825
G1 X95.862 Y102.555 E0.01675
G1 X107.445 Y114.138 E0.51456
G1 X106.911 Y114.138 E0.01675
G1 X95.862 Y103.089 E0.49086
G1 X95.862 Y103.622 E0.01675
G1 X106.378 Y114.138 E0.46717
G1 X105.845 Y114.138 E0.01675
G1 X95.862 Y104.155 E0.44348
G1 X95.862 Y104.688 E0.01675
G1 X105.312 Y114.138 E0.41979
G1 X104.778 Y114.138 E0.01675
G1 X95.862 Y105.222 E0.3961
G1 X95.862 Y105.755 E0.01675
G1 X104.245 Y114.138 E0.37241
G1 X103.712 Y114.138 E0.01675
G1 X95.862 Y106.288 E0.34872
G1 X95.862 Y106.822 E0.01675
G1 X103.178 Y114.138 E0.32503
G1 X102.645 Y114.138 E0.01675
G1 X95.862 Y107.355 E0.30134
G1 X95.862 Y107.888 E0.01675
G1 X102.112 Y114.138 E0.27764
G1 X101.579 Y114.138 E0.01675
G1 X95.862 Y108.421 E0.25395
G1 X95.862 Y108.955 E0.01675
M73 P5 R36
G1 X101.045 Y114.138 E0.23026
G1 X100.512 Y114.138 E0.01675
G1 X95.862 Y109.488 E0.20657
G1 X95.862 Y110.021 E0.01675
G1 X99.979 Y114.138 E0.18288
G1 X99.446 Y114.138 E0.01675
G1 X95.862 Y110.554 E0.15919
G1 X95.862 Y111.088 E0.01675
G1 X98.912 Y114.138 E0.1355
G1 X98.379 Y114.138 E0.01675
G1 X95.862 Y111.621 E0.11181
G1 X95.862 Y112.154 E0.01675
G1 X97.846 Y114.138 E0.08812
G1 X97.312 Y114.138 E0.01675
G1 X95.862 Y112.688 E0.06442
G1 X95.862 Y113.221 E0.01675
G1 X96.779 Y114.138 E0.04073
G1 X96.246 Y114.138 E0.01675
G1 X95.7 Y113.592 E0.02425
M106 S84.15
;LAYER_CHANGE
;Z:0.4
;HEIGHT:0.2
;BEFORE_LAYER_CHANGE
G92 E0.0
;0.4
G1 E-3.6 F2400
;WIPE_START
G1 F8640
M204 S1000
G1 X96.246 Y114.138 E-0.20368
G1 X96.779 Y114.138 E-0.14072
G1 X95.862 Y113.221 E-0.34218
G1 X95.862 Y112.688 E-0.14072
G1 X97.312 Y114.138 E-0.54119
G1 X97.846 Y114.138 E-0.14072
G1 X95.862 Y112.154 E-0.74021
G1 X95.862 Y112.038 E-0.03058
;WIPE_END
G1 E-0.12 F2400
G1 Z0.275 F10800
; stop printing object xyzCalibration_cube.stl id:0 copy 0
M486 S-1
G1 Z0.4
;AFTER_LAYER_CHANGE
;0.4
M104 S210 ; set temperature
M140 S60 ; set bed temperature
G1 Z0.475
; acceleration to travel
M204 S1500
G1 X92.988 Y112.038
; decel to extrusion
M204 S1000
G1 X92.284 Y112.038
; end travel
G1 Z0.4
G1 E6 F3000
;TYPE:Skirt
;WIDTH:0.52
G1 F1500
G1 X92.284 Y115 E0.11749
G1 X92.594 Y116.259 E0.05141
G1 X93.593 Y117.323 E0.05793
G1 X95 Y117.716 E0.05793
G1 X115 Y117.716 E0.79339
G1 X116.259 Y117.406 E0.05141
G1 X117.323 Y116.407 E0.05793
G1 X117.716 Y115 E0.05793
G1 X117.716 Y95 E0.79339
G1 X117.406 Y93.741 E0.05141
G1 X116.407 Y92.677 E0.05793
G1 X115 Y92.284 E0.05793
G1 X95 Y92.284 E0.79339
G1 X93.741 Y92.594 E0.05141
G1 X92.677 Y93.593 E0.05793
G1 X92.284 Y95 E0.05793
G1 X92.284 Y111.978 E0.67352
G1 X92.761 Y111.978 F10800
G1 F1500
G1 X92.761 Y115 E0.11987
G1 X92.914 Y115.811 E0.03273
G1 X93.736 Y116.847 E0.05249
G1 X95 Y117.239 E0.05249
G1 X115 Y117.239 E0.79339
G1 X115.811 Y117.086 E0.03273
G1 X116.847 Y116.264 E0.05249
G1 X117.239 Y115 E0.05249
G1 X117.239 Y95 E0.79339
G1 X117.086 Y94.189 E0.03273
G1 X116.264 Y93.153 E0.05249
G1 X115 Y92.761 E0.05249
G1 X95 Y92.761 E0.79339
G1 X94.189 Y92.914 E0.03273
G1 X93.153 Y93.736 E0.05249
G1 X92.761 Y95 E0.05249
G1 X92.761 Y111.918 E0.67114
G1 E-3.6 F2400
;WIPE_START
G1 F8640
G1 X92.761 Y115 E-0.81321
G1 X92.914 Y115.811 E-0.21772
G1 X93.736 Y116.847 E-0.34918
G1 X95 Y117.239 E-0.34918
G1 X97.087 Y117.239 E-0.55072
;WIPE_END
G1 E-0.12 F2400
G1 Z0.475 F10800
; printing object xyzCalibration_cube.stl id:0 copy 0
M486 S0
; acceleration to travel
M204 S1500
G1 X95.883 Y112.835
; decel to extrusion
M204 S800
G1 X95.632 Y111.918
; end travel
G1 Z0.4
G1 E6 F3000
;TYPE:Internal perimeter
;WIDTH:0.45
G1 X95.632 Y95.632 E0.55127
G1 X114.368 Y95.632 E0.63419
G1 X114.368 Y114.368 E0.63419
G1 X95.632 Y114.368 E0.63419
G1 X95.632 Y111.978 E0.08088
G1 X95.225 Y111.918 F10800
;TYPE:External perimeter
G1 F2400
G1 X95.225 Y95.225 E0.56505
G1 X114.775 Y95.225 E0.66174
G1 X114.775 Y114.775 E0.66174
G1 X95.225 Y114.775 E0.66174
G1 X95.225 Y111.978 E0.09466
;WIPE_START
M204 S1000
G1 X95.571 Y111.718 F10800
;WIPE_END
G1 E-3.6 F2400
;WIPE_START
G1 F8640
G1 X95.494 Y103.079 E-2.28
;WIPE_END
G1 E-0.12 F2400
G1 Z0.475 F10800
; acceleration to travel
M204 S1500
G1 X96.071 Y97.266
; decel to extrusion
M204 S1000
G1 X96.221 Y95.754
; end travel
G1 Z0.4
G1 E6 F3000
;TYPE:Solid infill
;WIDTH:0.449978
G1 X95.929 Y96.046 E0.01398
G1 X95.929 Y96.622 E0.01949
G1 X96.622 Y95.929 E0.03316
G1 X97.198 Y95.929 E0.01949
G1 X95.929 Y97.198 E0.06072
G1 X95.929 Y97.773 E0.01949
G1 X97.773 Y95.929 E0.08827
G1 X98.349 Y95.929 E0.01949
G1 X95.929 Y98.349 E0.11583
G1 X95.929 Y98.925 E0.01949
G1 X98.925 Y95.929 E0.14339
G1 X99.5 Y95.929 E0.01949
G1 X95.929 Y99.5 E0.17094
G1 X95.929 Y100.076 E0.01949
G1 X100.076 Y95.929 E0.1985
G1 X100.652 Y95.929 E0.01949
G1 X95.929 Y100.652 E0.22606
G1 X95.929 Y101.228 E0.01949
G1 X101.228 Y95.929 E0.25361
G1 X101.803 Y95.929 E0.01949
G1 X95.929 Y101.803 E0.28117
G1 X95.929 Y102.379 E0.01949
G1 X102.379 Y95.929 E0.30873
G1 X102.955 Y95.929 E0.01949
G1 X95.929 Y102.955 E0.33629
G1 X95.929 Y103.53 E0.01949
G1 X103.53 Y95.929 E0.36384
G1 X104.106 Y95.929 E0.01949
G1 X95.929 Y104.106 E0.3914
G1 X95.929 Y104.682 E0.01949
G1 X104.682 Y95.929 E0.41896
G1 X105.257 Y95.929 E0.01949
G1 X95.929 Y105.257 E0.44651
G1 X95.929 Y105.833 E0.01949
G1 X105.833 Y95.929 E0.47407
G1 X106.409 Y95.929 E0.01949
G1 X95.929 Y106.409 E0.50163
G1 X95.929 Y106.985 E0.01949
G1 X106.985 Y95.929 E0.52918
G1 X107.56 Y95.929 E0.01949
G1 X95.929 Y107.56 E0.55674
G1 X95.929 Y108.136 E0.01949
G1 X108.136 Y95.929 E0.5843
G1 X108.712 Y95.929 E0.01949
G1 X95.929 Y108.712 E0.61185
G1 X95.929 Y109.287 E0.01949
G1 X109.287 Y95.929 E0.63941
G1 X109.863 Y95.929 E0.01949
G1 X95.929 Y109.863 E0.66697
G1 X95.929 Y110.439 E0.01949
G1 X110.439 Y95.929 E0.69453
G1 X111.014 Y95.929 E0.01949
M73 P6 R36
G1 X95.929 Y111.014 E0.72208
G1 X95.929 Y111.59 E0.01949
G1 X111.59 Y95.929 E0.74964
G1 X112.166 Y95.929 E0.01949
G1 X95.929 Y112.166 E0.7772
G1 X95.929 Y112.741 E0.01949
G1 X112.741 Y95.929 E0.80475
G1 X113.317 Y95.929 E0.01949
G1 X95.929 Y113.317 E0.83231
G1 X95.929 Y113.893 E0.01949
G1 X113.893 Y95.929 E0.85987
G1 X114.071 Y95.929 E0.00602
G1 X114.071 Y96.327 E0.01346
G1 X96.327 Y114.071 E0.84934
G1 X96.903 Y114.071 E0.01949
M73 P6 R35
G1 X114.071 Y96.903 E0.82178
G1 X114.071 Y97.478 E0.01949
G1 X97.478 Y114.071 E0.79423
G1 X98.054 Y114.071 E0.01949
G1 X114.071 Y98.054 E0.76667
G1 X114.071 Y98.63 E0.01949
G1 X98.63 Y114.071 E0.73911
G1 X99.206 Y114.071 E0.01949
G1 X114.071 Y99.206 E0.71156
G1 X114.071 Y99.781 E0.01949
G1 X99.781 Y114.071 E0.684
G1 X100.357 Y114.071 E0.01949
G1 X114.071 Y100.357 E0.65644
G1 X114.071 Y100.933 E0.01949
G1 X100.933 Y114.071 E0.62888
G1 X101.508 Y114.071 E0.01949
G1 X114.071 Y101.508 E0.60133
G1 X114.071 Y102.084 E0.01949
G1 X102.084 Y114.071 E0.57377
G1 X102.66 Y114.071 E0.01949
G1 X114.071 Y102.66 E0.54621
G1 X114.071 Y103.235 E0.01949
G1 X103.235 Y114.071 E0.51866
G1 X103.811 Y114.071 E0.01949
G1 X114.071 Y103.811 E0.4911
G1 X114.071 Y104.387 E0.01949
G1 X104.387 Y114.071 E0.46354
G1 X104.962 Y114.071 E0.01949
G1 X114.071 Y104.962 E0.43599
G1 X114.071 Y105.538 E0.01949
G1 X105.538 Y114.071 E0.40843
G1 X106.114 Y114.071 E0.01949
G1 X114.071 Y106.114 E0.38087
G1 X114.071 Y106.69 E0.01949
G1 X106.69 Y114.071 E0.35332
G1 X107.265 Y114.071 E0.01949
G1 X114.071 Y107.265 E0.32576
G1 X114.071 Y107.841 E0.01949
G1 X107.841 Y114.071 E0.2982
G1 X108.417 Y114.071 E0.01949
G1 X114.071 Y108.417 E0.27064
G1 X114.071 Y108.992 E0.01949
G1 X108.992 Y114.071 E0.24309
G1 X109.568 Y114.071 E0.01949
G1 X114.071 Y109.568 E0.21553
G1 X114.071 Y110.144 E0.01949
G1 X110.144 Y114.071 E0.18797
G1 X110.719 Y114.071 E0.01949
G1 X114.071 Y110.719 E0.16042
G1 X114.071 Y111.295 E0.01949
G1 X111.295 Y114.071 E0.13286
G1 X111.871 Y114.071 E0.01949
G1 X114.071 Y111.871 E0.1053
G1 X114.071 Y112.447 E0.01949
G1 X112.447 Y114.071 E0.07775
G1 X113.022 Y114.071 E0.01949
G1 X114.071 Y113.022 E0.05019
G1 X114.071 Y113.598 E0.01949
G1 X113.423 Y114.246 E0.03101
M106 S170.85
;LAYER_CHANGE
;Z:0.6
;HEIGHT:0.2
;BEFORE_LAYER_CHANGE
G92 E0.0
;0.6
G1 E-3.6 F2400
;WIPE_START
G1 F8640
G1 X114.071 Y113.598 E-0.24178
G1 X114.071 Y113.022 E-0.15192
G1 X113.022 Y114.071 E-0.3913
G1 X112.447 Y114.071 E-0.15192
G1 X114.071 Y112.447 E-0.60615
G1 X114.071 Y111.871 E-0.15192
G1 X112.503 Y113.438 E-0.58501
;WIPE_END
G1 E-0.12 F2400
G1 Z0.475 F10800
; stop printing object xyzCalibration_cube.stl id:0 copy 0
M486 S-1
G1 Z0.6
;AFTER_LAYER_CHANGE
;0.6
G1 Z0.675
; acceleration to travel
M204 S1500
G1 X112.503 Y116.875
; decel to extrusion
M204 S1000
G1 X112.503 Y117.716
; end travel
G1 Z0.6
G1 E6 F3000
;TYPE:Skirt
;WIDTH:0.52
G1 F1500
G1 X115 Y117.716 E0.09905
G1 X116.259 Y117.406 E0.05141
G1 X117.323 Y116.407 E0.05793
G1 X117.716 Y115 E0.05793
G1 X117.716 Y95 E0.79339
G1 X117.406 Y93.741 E0.05141
G1 X116.407 Y92.677 E0.05793
G1 X115 Y92.284 E0.05793
G1 X95 Y92.284 E0.79339
G1 X93.741 Y92.594 E0.05141
G1 X92.677 Y93.593 E0.05793
G1 X92.284 Y95 E0.05793
G1 X92.284 Y115 E0.79339
G1 X92.594 Y116.259 E0.05141
G1 X93.593 Y117.323 E0.05793
G1 X95 Y117.716 E0.05793
G1 X112.443 Y117.716 E0.69196
G1 X112.443 Y117.239 F10800
G1 F1500
G1 X115 Y117.239 E0.10143
G1 X115.811 Y117.086 E0.03273
G1 X116.847 Y116.264 E0.05249
G1 X117.239 Y115 E0.05249
G1 X117.239 Y95 E0.79339
G1 X117.086 Y94.189 E0.03273
G1 X116.264 Y93.153 E0.05249
G1 X115 Y92.761 E0.05249
G1 X95 Y92.761 E0.79339
G1 X94.189 Y92.914 E0.03273
G1 X93.153 Y93.736 E0.05249
G1 X92.761 Y95 E0.05249
G1 X92.761 Y115 E0.79339
G1 X92.914 Y115.811 E0.03273
G1 X93.736 Y116.847 E0.05249
G1 X95 Y117.239 E0.05249
G1 X112.383 Y117.239 E0.68958
G1 E-3.6 F2400
;WIPE_START
G1 F8640
G1 X115 Y117.239 E-0.69055
G1 X115.811 Y117.086 E-0.21772
G1 X116.847 Y116.264 E-0.34918
G1 X117.239 Y115 E-0.34918
G1 X117.239 Y112.448 E-0.67338
;WIPE_END
G1 E-0.12 F2400
G1 Z0.675 F10800
; printing object xyzCalibration_cube.stl id:0 copy 0
M486 S0
; acceleration to travel
M204 S1500
