; generated by SuperSlicer 2.4 on 2022-10-25 at 06:20:20 UTC


;
;

;
;
; 

; external perimeters extrusion width = 0.45mm
; perimeters extrusion width = 0.45mm
; infill extrusion width = 0.45mm
; solid infill extrusion width = 0.45mm
; top infill extrusion width = 0.40mm
; first layer extrusion width = 0.42mm

; object:{"name":"xyzCalibration_cube","id":"xyzCalibration_cube.stl id:0 copy 0","object_center":[105.000000,105.000000,0.000000],"boundingbox_center":[105.000000,105.000000,10.000000],"boundingbox_size":[20.000000,20.000000,20.000000]}
; Total objects to print: 1
M486 T1
; plater:{"center":[105.000000,105.000000,0.000000],"boundingbox_center":[105.000000,105.000000,10.000000],"boundingbox_size":[20.000000,20.000000,20.000000]}

M73 P0 R49
;TYPE:Custom
G90 ; use absolute coordinates
M83 ; extruder relative mode
M204 S1250 T1250
M104 S215 ; set extruder temp
M140 S65 ; set bed temp
G28 ; home all
G1 Y1.0 Z0.3 F1000 ; move print head up
M190 S65 ; wait for bed temp
M109 S215 ; wait for extruder temp
G92 E0.0
; initial load
G1 X205.0 E19 F1000
M73 P0 R48
G1 Y1.6
M73 P1 R48
G1 X5.0 E19 F1000
G92 E0.0
; intro line
G1 Y2.0 Z0.2 F1000
G1 X65.0 E9.0 F1000
G1 X105.0 E12.5 F1000
G92 E0.0
M107
G21 ; set units to millimeters
G90 ; use absolute coordinates
M83 ; use relative distances for extrusion
; Filament gcode
;_TOOLCHANGE 0
M107
;LAYER_CHANGE
;Z:0.2
;HEIGHT:0.2
;BEFORE_LAYER_CHANGE
G92 E0.0
;0.2
G1 E-6 F2400
G1 Z0.075 F10800
G1 Z0.2
;AFTER_LAYER_CHANGE
;0.2
G1 Z0.275
M204 S800
G1 X92.677 Y93.593
G1 Z0.2
G1 E6 F3000
;TYPE:Skirt
;WIDTH:0.52
G1 F1200
G1 X92.284 Y95 E0.05793
G1 X92.284 Y115 E0.79339
G1 X92.594 Y116.259 E0.05141
G1 X93.593 Y117.323 E0.05793
G1 X95 Y117.716 E0.05793
G1 X115 Y117.716 E0.79339
G1 X116.259 Y117.406 E0.05141
G1 X117.323 Y116.407 E0.05793
G1 X117.716 Y115 E0.05793
G1 X117.716 Y95 E0.79339
G1 X117.406 Y93.741 E0.05141
G1 X116.407 Y92.677 E0.05793
G1 X115 Y92.284 E0.05793
G1 X95 Y92.284 E0.79339
G1 X93.741 Y92.594 E0.05141
G1 X92.721 Y93.552 E0.05555
G1 X93.153 Y93.736 F10800
G1 F1200
G1 X92.761 Y95 E0.05249
G1 X92.761 Y115 E0.79339
G1 X92.914 Y115.811 E0.03273
G1 X93.736 Y116.847 E0.05249
G1 X95 Y117.239 E0.05249
G1 X115 Y117.239 E0.79339
G1 X115.811 Y117.086 E0.03273
G1 X116.847 Y116.264 E0.05249
M73 P2 R48
G1 X117.239 Y115 E0.05249
G1 X117.239 Y95 E0.79339
G1 X117.086 Y94.189 E0.03273
G1 X116.264 Y93.153 E0.05249
G1 X115 Y92.761 E0.05249
G1 X95 Y92.761 E0.79339
G1 X94.189 Y92.914 E0.03273
G1 X93.2 Y93.699 E0.05011
G1 E-3.6 F2400
;WIPE_START
G1 F8640
M204 S1000
G1 X92.761 Y95 E-0.36235
G1 X92.761 Y102.267 E-1.91765
;WIPE_END
G1 E-0.12 F2400
G1 Z0.275 F10800
; printing object xyzCalibration_cube.stl id:0 copy 0
M486 S0
; acceleration to travel
M204 S1500
G1 X95.127 Y96.674
; decel to extrusion
M204 S800
G1 X95.587 Y95.587
; end travel
G1 Z0.2
G1 E6 F3000
;TYPE:Internal perimeter
;WIDTH:0.42
G1 F1200
G1 X114.413 Y95.587 E0.59027
G1 X114.413 Y114.413 E0.59027
G1 X95.587 Y114.413 E0.59027
G1 X95.587 Y95.647 E0.58839
G1 X95.21 Y95.21 F10800
;TYPE:External perimeter
G1 F1200
G1 X114.79 Y95.21 E0.61392
G1 X114.79 Y114.79 E0.61392
G1 X95.21 Y114.79 E0.61392
G1 X95.21 Y95.27 E0.61204
;WIPE_START
M204 S1000
G1 X95.556 Y95.41 F10800
;WIPE_END
G1 E-3.6 F2400
;WIPE_START
G1 F8640
G1 X104.196 Y95.41 E-2.28
;WIPE_END
G1 E-0.12 F2400
G1 Z0.275 F10800
; acceleration to travel
M204 S1500
G1 X112.017 Y95.653
; decel to extrusion
M204 S800
G1 X113.538 Y95.7
; end travel
G1 Z0.2
G1 E6 F3000
;TYPE:Solid infill
;WIDTH:0.420799
G1 F1200
G1 X114.138 Y96.3 E0.02666
G1 X114.138 Y96.834 E0.01675
G1 X113.166 Y95.862 E0.04315
G1 X112.633 Y95.862 E0.01675
G1 X114.138 Y97.367 E0.06684
G1 X114.138 Y97.9 E0.01675
G1 X112.1 Y95.862 E0.09053
G1 X111.567 Y95.862 E0.01675
G1 X114.138 Y98.433 E0.11422
G1 X114.138 Y98.967 E0.01675
G1 X111.033 Y95.862 E0.13791
G1 X110.5 Y95.862 E0.01675
G1 X114.138 Y99.5 E0.1616
G1 X114.138 Y100.033 E0.01675
G1 X109.967 Y95.862 E0.1853
G1 X109.434 Y95.862 E0.01675
G1 X114.138 Y100.566 E0.20899
G1 X114.138 Y101.1 E0.01675
G1 X108.9 Y95.862 E0.23268
G1 X108.367 Y95.862 E0.01675
G1 X114.138 Y101.633 E0.25637
G1 X114.138 Y102.166 E0.01675
G1 X107.834 Y95.862 E0.28006
G1 X107.3 Y95.862 E0.01675
G1 X114.138 Y102.7 E0.30375
G1 X114.138 Y103.233 E0.01675
G1 X106.767 Y95.862 E0.32744
G1 X106.234 Y95.862 E0.01675
G1 X114.138 Y103.766 E0.35113
G1 X114.138 Y104.299 E0.01675
G1 X105.701 Y95.862 E0.37482
G1 X105.167 Y95.862 E0.01675
G1 X114.138 Y104.833 E0.39852
G1 X114.138 Y105.366 E0.01675
G1 X104.634 Y95.862 E0.42221
G1 X104.101 Y95.862 E0.01675
G1 X114.138 Y105.899 E0.4459
G1 X114.138 Y106.432 E0.01675
M73 P2 R47
G1 X103.568 Y95.862 E0.46959
G1 X103.034 Y95.862 E0.01675
G1 X114.138 Y106.966 E0.49328
G1 X114.138 Y107.499 E0.01675
G1 X102.501 Y95.862 E0.51697
G1 X101.968 Y95.862 E0.01675
G1 X114.138 Y108.032 E0.54066
G1 X114.138 Y108.566 E0.01675
G1 X101.434 Y95.862 E0.56435
G1 X100.901 Y95.862 E0.01675
G1 X114.138 Y109.099 E0.58804
G1 X114.138 Y109.632 E0.01675
G1 X100.368 Y95.862 E0.61173
G1 X99.835 Y95.862 E0.01675
G1 X114.138 Y110.165 E0.63543
G1 X114.138 Y110.699 E0.01675
G1 X99.301 Y95.862 E0.65912
G1 X98.768 Y95.862 E0.01675
G1 X114.138 Y111.232 E0.68281
G1 X114.138 Y111.765 E0.01675
G1 X98.235 Y95.862 E0.7065
G1 X97.702 Y95.862 E0.01675
M73 P3 R47
G1 X114.138 Y112.298 E0.73019
G1 X114.138 Y112.832 E0.01675
G1 X97.168 Y95.862 E0.75388
G1 X96.635 Y95.862 E0.01675
G1 X114.138 Y113.365 E0.77757
G1 X114.138 Y113.898 E0.01675
G1 X96.102 Y95.862 E0.80126
G1 X95.862 Y95.862 E0.00752
G1 X95.862 Y96.156 E0.00923
G1 X113.844 Y114.138 E0.79885
G1 X113.311 Y114.138 E0.01675
G1 X95.862 Y96.689 E0.77516
G1 X95.862 Y97.223 E0.01675
G1 X112.777 Y114.138 E0.75147
G1 X112.244 Y114.138 E0.01675
G1 X95.862 Y97.756 E0.72778
G1 X95.862 Y98.289 E0.01675
G1 X111.711 Y114.138 E0.70408
G1 X111.178 Y114.138 E0.01675
G1 X95.862 Y98.822 E0.68039
G1 X95.862 Y99.356 E0.01675
G1 X110.644 Y114.138 E0.6567
G1 X110.111 Y114.138 E0.01675
G1 X95.862 Y99.889 E0.63301
G1 X95.862 Y100.422 E0.01675
G1 X109.578 Y114.138 E0.60932
G1 X109.044 Y114.138 E0.01675
G1 X95.862 Y100.956 E0.58563
G1 X95.862 Y101.489 E0.01675
G1 X108.511 Y114.138 E0.56194
G1 X107.978 Y114.138 E0.01675
G1 X95.862 Y102.022 E0.53825
G1 X95.862 Y102.555 E0.01675
G1 X107.445 Y114.138 E0.51456
G1 X106.911 Y114.138 E0.01675
G1 X95.862 Y103.089 E0.49086
G1 X95.862 Y103.622 E0.01675
G1 X106.378 Y114.138 E0.46717
G1 X105.845 Y114.138 E0.01675
G1 X95.862 Y104.155 E0.44348
G1 X95.862 Y104.688 E0.01675
G1 X105.312 Y114.138 E0.41979
G1 X104.778 Y114.138 E0.01675
G1 X95.862 Y105.222 E0.3961
G1 X95.862 Y105.755 E0.01675
G1 X104.245 Y114.138 E0.37241
G1 X103.712 Y114.138 E0.01675
G1 X95.862 Y106.288 E0.34872
G1 X95.862 Y106.822 E0.01675
G1 X103.178 Y114.138 E0.32503
G1 X102.645 Y114.138 E0.01675
G1 X95.862 Y107.355 E0.30134
G1 X95.862 Y107.888 E0.01675
G1 X102.112 Y114.138 E0.27764
G1 X101.579 Y114.138 E0.01675
G1 X95.862 Y108.421 E0.25395
G1 X95.862 Y108.955 E0.01675
G1 X101.045 Y114.138 E0.23026
G1 X100.512 Y114.138 E0.01675
G1 X95.862 Y109.488 E0.20657
G1 X95.862 Y110.021 E0.01675
G1 X99.979 Y114.138 E0.18288
G1 X99.446 Y114.138 E0.01675
G1 X95.862 Y110.554 E0.15919
G1 X95.862 Y111.088 E0.01675
G1 X98.912 Y114.138 E0.1355
G1 X98.379 Y114.138 E0.01675
G1 X95.862 Y111.621 E0.11181
G1 X95.862 Y112.154 E0.01675
G1 X97.846 Y114.138 E0.08812
G1 X97.312 Y114.138 E0.01675
G1 X95.862 Y112.688 E0.06442
G1 X95.862 Y113.221 E0.01675
G1 X96.779 Y114.138 E0.04073
G1 X96.246 Y114.138 E0.01675
G1 X95.7 Y113.592 E0.02425
M106 S84.15
;LAYER_CHANGE
;Z:0.35
;HEIGHT:0.15
;BEFORE_LAYER_CHANGE
G92 E0.0
;0.35
G1 E-3.6 F2400
;WIPE_START
G1 F8640
M204 S1000
G1 X96.246 Y114.138 E-0.20368
G1 X96.779 Y114.138 E-0.14072
G1 X95.862 Y113.221 E-0.34218
G1 X95.862 Y112.688 E-0.14072
G1 X97.312 Y114.138 E-0.54119
G1 X97.846 Y114.138 E-0.14072
G1 X95.862 Y112.154 E-0.74021
G1 X95.862 Y112.038 E-0.03058
;WIPE_END
G1 E-0.12 F2400
G1 Z0.275 F10800
; stop printing object xyzCalibration_cube.stl id:0 copy 0
M486 S-1
G1 Z0.35
;AFTER_LAYER_CHANGE
;0.35
M104 S210 ; set temperature
M140 S60 ; set bed temperature
G1 Z0.425
; acceleration to travel
M204 S1500
G1 X92.988 Y112.038
; decel to extrusion
M204 S1000
G1 X92.284 Y112.038
; end travel
G1 Z0.35
G1 E6 F3000
;TYPE:Skirt
;WIDTH:0.52
G1 F1500
M73 P4 R47
G1 X92.284 Y115 E0.0901
G1 X92.594 Y116.259 E0.03943
G1 X93.593 Y117.323 E0.04442
G1 X95 Y117.716 E0.04442
G1 X115 Y117.716 E0.60842
G1 X116.259 Y117.406 E0.03943
G1 X117.323 Y116.407 E0.04442
G1 X117.716 Y115 E0.04442
G1 X117.716 Y95 E0.60842
G1 X117.406 Y93.741 E0.03943
G1 X116.407 Y92.677 E0.04442
G1 X115 Y92.284 E0.04442
G1 X95 Y92.284 E0.60842
G1 X93.741 Y92.594 E0.03943
G1 X92.677 Y93.593 E0.04442
G1 X92.284 Y95 E0.04442
G1 X92.284 Y111.978 E0.5165
G1 X92.761 Y111.978 F10800
G1 F1500
G1 X92.761 Y115 E0.09192
G1 X92.914 Y115.811 E0.0251
G1 X93.736 Y116.847 E0.04025
G1 X95 Y117.239 E0.04025
G1 X115 Y117.239 E0.60842
G1 X115.811 Y117.086 E0.0251
G1 X116.847 Y116.264 E0.04025
G1 X117.239 Y115 E0.04025
G1 X117.239 Y95 E0.60842
G1 X117.086 Y94.189 E0.0251
G1 X116.264 Y93.153 E0.04025
G1 X115 Y92.761 E0.04025
G1 X95 Y92.761 E0.60842
G1 X94.189 Y92.914 E0.0251
G1 X93.153 Y93.736 E0.04025
G1 X92.761 Y95 E0.04025
G1 X92.761 Y111.918 E0.51468
G1 E-3.6 F2400
;WIPE_START
G1 F8640
G1 X92.761 Y115 E-0.81321
G1 X92.914 Y115.811 E-0.21772
G1 X93.736 Y116.847 E-0.34918
G1 X95 Y117.239 E-0.34918
G1 X97.087 Y117.239 E-0.55072
;WIPE_END
G1 E-0.12 F2400
G1 Z0.425 F10800
; printing object xyzCalibration_cube.stl id:0 copy 0
M486 S0
; acceleration to travel
M204 S1500
G1 X95.892 Y112.835
; decel to extrusion
M204 S800
G1 X95.643 Y111.918
; end travel
G1 Z0.35
G1 E6 F3000
;TYPE:Internal perimeter
;WIDTH:0.45
G1 X95.643 Y95.643 E0.42407
G1 X114.357 Y95.643 E0.48762
G1 X114.357 Y114.357 E0.48762
G1 X95.643 Y114.357 E0.48762
G1 X95.643 Y111.978 E0.06198
G1 X95.225 Y111.918 F10800
;TYPE:External perimeter
G1 F2400
G1 X95.225 Y95.225 E0.43496
G1 X114.775 Y95.225 E0.50939
G1 X114.775 Y114.775 E0.50939
G1 X95.225 Y114.775 E0.50939
G1 X95.225 Y111.978 E0.07287
;WIPE_START
M204 S1000
G1 X95.571 Y111.718 F10800
;WIPE_END
G1 E-3.6 F2400
;WIPE_START
G1 F8640
G1 X95.494 Y103.079 E-2.28
;WIPE_END
G1 E-0.12 F2400
G1 Z0.425 F10800
; acceleration to travel
M204 S1500
G1 X96.212 Y97.277
; decel to extrusion
M204 S1000
G1 X96.399 Y95.768
; end travel
G1 Z0.35
G1 E6 F3000
;TYPE:Solid infill
;WIDTH:0.449745
G1 X95.948 Y96.219 E0.01661
G1 X95.948 Y96.81 E0.01539
G1 X96.81 Y95.948 E0.03175
G1 X97.401 Y95.948 E0.01539
G1 X95.948 Y97.401 E0.05351
G1 X95.948 Y97.992 E0.01539
G1 X97.992 Y95.948 E0.07527
G1 X98.583 Y95.948 E0.01539
G1 X95.948 Y98.583 E0.09703
G1 X95.948 Y99.173 E0.01539
G1 X99.173 Y95.948 E0.11879
G1 X99.764 Y95.948 E0.01539
G1 X95.948 Y99.764 E0.14055
G1 X95.948 Y100.355 E0.01539
G1 X100.355 Y95.948 E0.16231
G1 X100.946 Y95.948 E0.01539
G1 X95.948 Y100.946 E0.18407
G1 X95.948 Y101.537 E0.01539
G1 X101.537 Y95.948 E0.20583
G1 X102.128 Y95.948 E0.01539
G1 X95.948 Y102.128 E0.22759
G1 X95.948 Y102.719 E0.01539
G1 X102.719 Y95.948 E0.24935
G1 X103.31 Y95.948 E0.01539
G1 X95.948 Y103.31 E0.27111
G1 X95.948 Y103.9 E0.01539
G1 X103.9 Y95.948 E0.29287
G1 X104.491 Y95.948 E0.01539
G1 X95.948 Y104.491 E0.31463
G1 X95.948 Y105.082 E0.01539
G1 X105.082 Y95.948 E0.33639
G1 X105.673 Y95.948 E0.01539
G1 X95.948 Y105.673 E0.35816
G1 X95.948 Y106.264 E0.01539
G1 X106.264 Y95.948 E0.37992
G1 X106.855 Y95.948 E0.01539
G1 X95.948 Y106.855 E0.40168
G1 X95.948 Y107.446 E0.01539
G1 X107.446 Y95.948 E0.42344
G1 X108.036 Y95.948 E0.01539
G1 X95.948 Y108.036 E0.4452
G1 X95.948 Y108.627 E0.01539
G1 X108.627 Y95.948 E0.46696
G1 X109.218 Y95.948 E0.01539
G1 X95.948 Y109.218 E0.48872
G1 X95.948 Y109.809 E0.01539
G1 X109.809 Y95.948 E0.51048
G1 X110.4 Y95.948 E0.01539
G1 X95.948 Y110.4 E0.53224
G1 X95.948 Y110.991 E0.01539
M73 P4 R46
G1 X110.991 Y95.948 E0.554
G1 X111.582 Y95.948 E0.01539
G1 X95.948 Y111.582 E0.57576
G1 X95.948 Y112.173 E0.01539
G1 X112.173 Y95.948 E0.59752
G1 X112.763 Y95.948 E0.01539
G1 X95.948 Y112.763 E0.61928
G1 X95.948 Y113.354 E0.01539
G1 X113.354 Y95.948 E0.64104
G1 X113.945 Y95.948 E0.01539
G1 X95.948 Y113.945 E0.6628
G1 X95.948 Y114.052 E0.00279
G1 X96.432 Y114.052 E0.0126
G1 X114.052 Y96.432 E0.64892
G1 X114.052 Y97.023 E0.01539
G1 X97.023 Y114.052 E0.62716
G1 X97.613 Y114.052 E0.01539
G1 X114.052 Y97.613 E0.6054
G1 X114.052 Y98.204 E0.01539
G1 X98.204 Y114.052 E0.58364
G1 X98.795 Y114.052 E0.01539
G1 X114.052 Y98.795 E0.56188
G1 X114.052 Y99.386 E0.01539
G1 X99.386 Y114.052 E0.54012
G1 X99.977 Y114.052 E0.01539
G1 X114.052 Y99.977 E0.51836
G1 X114.052 Y100.568 E0.01539
G1 X100.568 Y114.052 E0.4966
G1 X101.159 Y114.052 E0.01539
G1 X114.052 Y101.159 E0.47484
G1 X114.052 Y101.749 E0.01539
G1 X101.749 Y114.052 E0.45308
G1 X102.34 Y114.052 E0.01539
G1 X114.052 Y102.34 E0.43132
G1 X114.052 Y102.931 E0.01539
G1 X102.931 Y114.052 E0.40956
G1 X103.522 Y114.052 E0.01539
G1 X114.052 Y103.522 E0.3878
G1 X114.052 Y104.113 E0.01539
G1 X104.113 Y114.052 E0.36604
G1 X104.704 Y114.052 E0.01539
G1 X114.052 Y104.704 E0.34428
G1 X114.052 Y105.295 E0.01539
G1 X105.295 Y114.052 E0.32252
G1 X105.886 Y114.052 E0.01539
M73 P5 R46
G1 X114.052 Y105.886 E0.30076
G1 X114.052 Y106.476 E0.01539
G1 X106.476 Y114.052 E0.279
G1 X107.067 Y114.052 E0.01539
G1 X114.052 Y107.067 E0.25724
G1 X114.052 Y107.658 E0.01539
G1 X107.658 Y114.052 E0.23548
G1 X108.249 Y114.052 E0.01539
G1 X114.052 Y108.249 E0.21371
G1 X114.052 Y108.84 E0.01539
G1 X108.84 Y114.052 E0.19195
G1 X109.431 Y114.052 E0.01539
G1 X114.052 Y109.431 E0.17019
G1 X114.052 Y110.022 E0.01539
G1 X110.022 Y114.052 E0.14843
G1 X110.613 Y114.052 E0.01539
G1 X114.052 Y110.613 E0.12667
G1 X114.052 Y111.203 E0.01539
G1 X111.203 Y114.052 E0.10491
G1 X111.794 Y114.052 E0.01539
G1 X114.052 Y111.794 E0.08315
G1 X114.052 Y112.385 E0.01539
G1 X112.385 Y114.052 E0.06139
G1 X112.976 Y114.052 E0.01539
G1 X114.052 Y112.976 E0.03963
G1 X114.052 Y113.567 E0.01539
G1 X113.387 Y114.232 E0.02449
M106 S170.85
;LAYER_CHANGE
;Z:0.5
;HEIGHT:0.15
;BEFORE_LAYER_CHANGE
G92 E0.0
;0.5
G1 E-3.6 F2400
;WIPE_START
G1 F8640
G1 X114.052 Y113.567 E-0.24815
G1 X114.052 Y112.976 E-0.15592
G1 X112.976 Y114.052 E-0.40162
G1 X112.385 Y114.052 E-0.15592
G1 X114.052 Y112.385 E-0.62213
G1 X114.052 Y111.794 E-0.15592
G1 X112.604 Y113.242 E-0.54033
;WIPE_END
G1 E-0.12 F2400
G1 Z0.425 F10800
; stop printing object xyzCalibration_cube.stl id:0 copy 0
M486 S-1
G1 Z0.5
;AFTER_LAYER_CHANGE
;0.5
G1 Z0.575
; acceleration to travel
M204 S1500
G1 X112.604 Y116.836
; decel to extrusion
M204 S1000
G1 X112.604 Y117.716
; end travel
G1 Z0.5
G1 E6 F3000
;TYPE:Skirt
;WIDTH:0.52
G1 F1500
G1 X115 Y117.716 E0.07288
G1 X116.259 Y117.406 E0.03943
G1 X117.323 Y116.407 E0.04442
G1 X117.716 Y115 E0.04442
G1 X117.716 Y95 E0.60842
G1 X117.406 Y93.741 E0.03943
G1 X116.407 Y92.677 E0.04442
G1 X115 Y92.284 E0.04442
G1 X95 Y92.284 E0.60842
G1 X93.741 Y92.594 E0.03943
G1 X92.677 Y93.593 E0.04442
G1 X92.284 Y95 E0.04442
G1 X92.284 Y115 E0.60842
G1 X92.594 Y116.259 E0.03943
G1 X93.593 Y117.323 E0.04442
G1 X95 Y117.716 E0.04442
G1 X112.544 Y117.716 E0.53372
G1 X112.544 Y117.239 F10800
G1 F1500
G1 X115 Y117.239 E0.0747
G1 X115.811 Y117.086 E0.0251
G1 X116.847 Y116.264 E0.04025
G1 X117.239 Y115 E0.04025
G1 X117.239 Y95 E0.60842
G1 X117.086 Y94.189 E0.0251
G1 X116.264 Y93.153 E0.04025
G1 X115 Y92.761 E0.04025
G1 X95 Y92.761 E0.60842
G1 X94.189 Y92.914 E0.0251
G1 X93.153 Y93.736 E0.04025
G1 X92.761 Y95 E0.04025
G1 X92.761 Y115 E0.60842
G1 X92.914 Y115.811 E0.0251
G1 X93.736 Y116.847 E0.04025
G1 X95 Y117.239 E0.04025
G1 X112.484 Y117.239 E0.53189
G1 E-3.6 F2400
;WIPE_START
G1 F8640
G1 X115 Y117.239 E-0.66385
G1 X115.811 Y117.086 E-0.21772
G1 X116.847 Y116.264 E-0.34918
G1 X117.239 Y115 E-0.34918
G1 X117.239 Y112.347 E-0.70008
;WIPE_END
G1 E-0.12 F2400
G1 Z0.575 F10800
; printing object xyzCalibration_cube.stl id:0 copy 0
M486 S0
; acceleration to travel
M204 S1500
G1 X113.303 Y114.011
; decel to extrusion
M204 S800
G1 X112.484 Y114.357
; end travel
G1 Z0.5
G1 E6 F3000
;TYPE:Internal perimeter
