; generated by SuperSlicer 2.4 on 2022-12-21 at 20:53:15 UTC


;
;

;
;
; 

; external perimeters extrusion width = 0.60mm
; perimeters extrusion width = 0.50mm
; infill extrusion width = 0.50mm
; solid infill extrusion width = 0.50mm
; top infill extrusion width = 0.40mm
; support material extrusion width = 0.38mm
; first layer extrusion width = 0.42mm

; object:{"name":"Hole_r_2","id":"Hole_r_2.stl id:0 copy 0","object_center":[105.000000,105.000000,0.000000],"boundingbox_center":[105.000000,105.000000,30.298501],"boundingbox_size":[58.421539,75.533026,60.597001]}
; Total objects to print: 1
M486 T1
; plater:{"center":[105.000000,105.000000,0.000000],"boundingbox_center":[105.000000,105.000000,30.298501],"boundingbox_size":[58.421539,75.533026,60.597001]}

M73 P0 R106
;TYPE:Custom
G90 ; use absolute coordinates
M83 ; extruder relative mode
M204 S1250 T1250
M104 S215 ; set extruder temp
M140 S65 ; set bed temp
G28 ; home all
G29 ; AutoBed Leveling I think
G1 Y1.0 Z0.3 F1000 ; move print head up
M190 S65 ; wait for bed temp
M109 S215 ; wait for extruder temp
G92 E0.0
; initial load
G1 X205.0 E19 F1000
M73 P0 R105
G1 Y1.6
G1 X5.0 E19 F1000
G92 E0.0
; intro line
G1 Y2.0 Z0.2 F1000
G1 X65.0 E9.0 F1000
G1 X105.0 E12.5 F1000
G92 E0.0
M107
G21 ; set units to millimeters
G90 ; use absolute coordinates
M83 ; use relative distances for extrusion
; Filament gcode
;_TOOLCHANGE 0
M107
;LAYER_CHANGE
;Z:0.2
;HEIGHT:0.2
;BEFORE_LAYER_CHANGE
G92 E0.0
;0.2
G1 Z0.075 F10800
G1 Z0.2
;AFTER_LAYER_CHANGE
;0.2
G1 Z0.275
M204 S800
G1 X74.621 Y79.364
G1 Z0.2
;TYPE:Skirt
;WIDTH:0.52
G1 F1200
G1 X74.057 Y80.16 E0.03868
G1 X73.702 Y81.048 E0.03793
G1 X73.571 Y82.271 E0.04882
G1 X73.593 Y82.823 E0.02191
G1 X73.932 Y84.309 E0.06045
G1 X74.292 Y85.294 E0.04161
G1 X74.835 Y86.514 E0.05299
G1 X76.137 Y88.974 E0.11042
G1 X77.974 Y92.087 E0.14337
G1 X81.906 Y98.251 E0.29005
G1 X86.659 Y105.43 E0.34152
G1 X100.133 Y125.378 E0.95492
G1 X106.256 Y133.989 E0.41917
G1 X108.692 Y137.132 E0.15774
G1 X111.218 Y140.1 E0.1546
G1 X112.988 Y141.854 E0.09886
G1 X114.883 Y143.461 E0.09855
G1 X116.227 Y144.288 E0.06261
G1 X117.383 Y144.704 E0.04877
G1 X118.254 Y144.773 E0.03464
G1 X118.973 Y144.675 E0.02877
G1 X119.885 Y144.31 E0.03899
G1 X120.733 Y143.652 E0.04257
G1 X121.758 Y142.423 E0.06347
G1 X123.059 Y140.094 E0.10583
G1 X131.01 Y124.735 E0.68608
G1 X131.249 Y123.927 E0.03344
G1 X136.282 Y73.155 E2.02397
G1 X136.412 Y70.777 E0.09445
G1 X136.392 Y69.572 E0.04781
G1 X136.2 Y68.037 E0.06138
G1 X135.888 Y67.124 E0.03829
G1 X135.621 Y66.64 E0.02191
G1 X135.014 Y65.94 E0.03677
G1 X134.203 Y65.481 E0.03696
G1 X132.726 Y65.256 E0.05926
G1 X103.148 Y65.123 E1.17335
G1 X102.072 Y65.204 E0.04281
G1 X101.414 Y65.361 E0.02685
G1 X100.443 Y65.763 E0.0417
G1 X76.757 Y77.69 E1.05201
G1 X75.659 Y78.403 E0.05192
M73 P0 R104
G1 X74.621 Y79.364 E0.05612
M204 S1000
G1 Z0.275 F10800
; printing object Hole_r_2.stl id:0 copy 0
M486 S0
; acceleration to travel
M204 S1500
G1 X108.979 Y104.516
; decel to extrusion
M204 S800
G1 X127.304 Y117.931
; end travel
G1 Z0.2
;TYPE:Support material
;WIDTH:0.42
M73 P1 R104
G1 F1200
G1 X129.022 Y118.101 E0.05413
G1 X129.022 Y123.706 E0.17573
G1 X126.176 Y123.706 E0.08924
G1 X126.857 Y120.307 E0.10868
G1 X127.272 Y118.101 E0.07038
G1 X127.304 Y117.931 E0.00544
; acceleration to travel
M204 S1500
G1 X128.06 Y121.636 F10800
; decel to extrusion
M204 S800
G1 X128.463 Y123.612
; end travel
G1 F1200
G1 X128.463 Y118.303 E0.16644
G1 X128.044 Y118.262 E0.0132
G1 X128.044 Y123.45 E0.16266
G1 X127.625 Y123.45 E0.01314
G1 X127.625 Y118.22 E0.16396
G1 X127.512 Y118.209 E0.00354
G1 X127.206 Y119.839 E0.052
G1 X127.206 Y123.45 E0.11321
G1 X126.787 Y123.45 E0.01314
G1 X126.787 Y121.136 E0.07254
M204 S1000
G1 Z0.275 F10800
; acceleration to travel
M204 S1500
G1 X122.246 Y118.698
; decel to extrusion
M204 S800
G1 X119.824 Y117.397
; end travel
G1 Z0.2
G1 F1200
G1 X119.478 Y118.041 E0.02293
G1 X119.259 Y118.351 E0.01188
G1 X118.884 Y118.88 E0.02033
G1 X118.192 Y119.639 E0.03222
G1 X117.788 Y119.986 E0.01669
G1 X117.411 Y120.308 E0.01553
G1 X116.555 Y120.875 E0.03222
G1 X115.635 Y121.333 E0.03222
G1 X114.666 Y121.675 E0.03222
G1 X114.121 Y121.794 E0.0175
G1 X113.663 Y121.895 E0.01472
G1 X113.402 Y121.919 E0.0082
G1 X112.639 Y121.989 E0.02402
G1 X111.612 Y121.958 E0.03222
G1 X110.597 Y121.8 E0.03222
G1 X109.609 Y121.519 E0.03222
G1 X108.663 Y121.118 E0.03221
G1 X108.525 Y121.039 E0.00498
G1 X107.773 Y120.605 E0.02723
G1 X106.953 Y119.986 E0.03221
G1 X106.215 Y119.27 E0.03222
G1 X105.571 Y118.47 E0.03221
G1 X105.03 Y117.596 E0.03222
G1 X104.862 Y117.23 E0.01265
G1 X104.601 Y116.663 E0.01957
G1 X104.289 Y115.684 E0.03221
G1 X104.196 Y115.182 E0.01602
G1 X104.101 Y114.674 E0.0162
G1 X104.037 Y113.648 E0.03221
G1 X104.101 Y112.623 E0.03221
G1 X104.289 Y111.613 E0.03222
G1 X104.447 Y111.118 E0.01627
G1 X104.601 Y110.634 E0.01595
G1 X105.03 Y109.7 E0.03221
G1 X105.571 Y108.827 E0.03222
G1 X106.215 Y108.026 E0.03221
G1 X106.953 Y107.311 E0.03222
G1 X107.773 Y106.692 E0.03221
G1 X108.663 Y106.178 E0.03222
G1 X109.609 Y105.778 E0.03221
G1 X110.597 Y105.496 E0.03222
G1 X111.612 Y105.339 E0.03222
G1 X112.639 Y105.307 E0.03221
G1 X112.765 Y105.319 E0.00396
G1 X113.663 Y105.402 E0.02826
G1 X114.666 Y105.622 E0.03221
G1 X115.635 Y105.963 E0.03222
G1 X116.555 Y106.421 E0.03222
G1 X117.411 Y106.989 E0.03222
G1 X118.192 Y107.657 E0.03222
G1 X118.884 Y108.417 E0.03222
G1 X119.143 Y108.782 E0.01405
G1 X119.478 Y109.255 E0.01816
G1 X119.964 Y110.16 E0.03222
G1 X120.335 Y111.118 E0.03221
G1 X120.585 Y112.115 E0.03222
G1 X120.712 Y113.135 E0.03221
G1 X120.712 Y114.162 E0.03222
G1 X120.585 Y115.182 E0.03221
G1 X120.335 Y116.178 E0.03222
G1 X119.964 Y117.136 E0.03221
G1 X119.824 Y117.397 E0.00928
G1 X120.083 Y116.567 F10800
G1 F1200
G1 X120.083 Y111.179 E0.16893
G1 X119.73 Y110.268 E0.03063
G1 X119.664 Y110.145 E0.00438
G1 X119.664 Y117.152 E0.2197
G1 X119.259 Y117.906 E0.02685
G1 X119.245 Y117.926 E0.00075
G1 X119.245 Y109.371 E0.26824
G1 X118.934 Y108.931 E0.01691
G1 X118.826 Y108.779 E0.00583
G1 X118.826 Y118.518 E0.30535
G1 X118.684 Y118.719 E0.00773
G1 X118.407 Y119.022 E0.01287
G1 X118.407 Y108.274 E0.33699
G1 X118.013 Y107.842 E0.01836
G1 X117.988 Y107.821 E0.00102
G1 X117.988 Y119.476 E0.36544
G1 X117.621 Y119.791 E0.01518
G1 X117.569 Y119.835 E0.00212
G1 X117.569 Y107.462 E0.38795
G1 X117.257 Y107.194 E0.01291
G1 X117.15 Y107.123 E0.004
G1 X117.15 Y120.173 E0.40917
G1 X116.731 Y120.451 E0.01576
G1 X116.731 Y106.846 E0.42658
G1 X116.427 Y106.644 E0.01147
G1 X116.312 Y106.587 E0.004
G1 X116.312 Y120.71 E0.44281
G1 X115.893 Y120.918 E0.01468
G1 X115.893 Y106.378 E0.45589
G1 X115.535 Y106.2 E0.01255
G1 X115.474 Y106.178 E0.00202
G1 X115.474 Y121.118 E0.46842
G1 X115.055 Y121.266 E0.01393
G1 X115.055 Y106.031 E0.47768
G1 X114.636 Y105.883 E0.01393
G1 X114.636 Y121.413 E0.48694
G1 X114.596 Y121.428 E0.00135
G1 X114.217 Y121.51 E0.01215
G1 X114.217 Y105.786 E0.49303
G1 X113.799 Y105.694 E0.01345
G1 X113.799 Y121.602 E0.49878
G1 X113.623 Y121.641 E0.00563
G1 X113.38 Y121.663 E0.00767
G1 X113.38 Y105.633 E0.50261
G1 X112.961 Y105.594 E0.01319
G1 X112.961 Y121.702 E0.50504
G1 X112.632 Y121.733 E0.01036
G1 X112.542 Y121.73 E0.00282
G1 X112.542 Y105.567 E0.50678
G1 X112.123 Y105.58 E0.01314
G1 X112.123 Y121.717 E0.50597
G1 X111.704 Y121.704 E0.01314
G1 X111.704 Y105.593 E0.50516
G1 X111.636 Y105.595 E0.00212
G1 X111.285 Y105.649 E0.01115
G1 X111.285 Y121.647 E0.50161
G1 X110.866 Y121.582 E0.01329
G1 X110.866 Y105.714 E0.49753
G1 X110.652 Y105.747 E0.00678
G1 X110.447 Y105.806 E0.0067
G1 X110.447 Y121.491 E0.49179
G1 X110.028 Y121.371 E0.01366
G1 X110.028 Y105.925 E0.48431
G1 X109.694 Y106.02 E0.01087
G1 X109.609 Y106.056 E0.00291
G1 X109.609 Y121.24 E0.47609
G1 X109.19 Y121.063 E0.01426
G1 X109.19 Y106.233 E0.46497
G1 X108.771 Y106.412 E0.01428
G1 X108.771 Y120.885 E0.45379
G1 X108.653 Y120.817 E0.00425
G1 X108.352 Y120.643 E0.01092
G1 X108.352 Y106.654 E0.43862
G1 X107.933 Y106.896 E0.01517
G1 X107.933 Y120.401 E0.42345
G1 X107.915 Y120.391 E0.00065
G1 X107.514 Y120.088 E0.01576
G1 X107.514 Y107.209 E0.40381
G1 X107.12 Y107.506 E0.01547
G1 X107.095 Y107.531 E0.00111
G1 X107.095 Y119.766 E0.38363
G1 X106.676 Y119.36 E0.0183
G1 X106.676 Y107.937 E0.35815
G1 X106.405 Y108.199 E0.01182
G1 X106.257 Y108.384 E0.00742
G1 X106.257 Y118.913 E0.33013
G1 X105.838 Y118.392 E0.02095
G1 X105.838 Y108.904 E0.29748
G1 X105.781 Y108.975 E0.00285
G1 X105.419 Y109.56 E0.02156
G1 X105.419 Y117.737 E0.25638
G1 X105.257 Y117.475 E0.00966
G1 X105.095 Y117.123 E0.01215
G1 X105 Y116.917 E0.00711
G1 X105 Y110.38 E0.20496
G1 X104.841 Y110.726 E0.01196
G1 X104.691 Y111.196 E0.01545
G1 X104.581 Y111.542 E0.01139
G1 X104.581 Y116.289 E0.14884
M204 S1000
G1 Z0.275 F10800
M204 S800
G1 X102.85 Y116.84
G1 Z0.2
;TYPE:Internal perimeter
G1 F1200
G1 X102.992 Y117.286 E0.01469
G1 X103.51 Y118.413 E0.03888
G1 X104.163 Y119.467 E0.03888
G1 X104.94 Y120.433 E0.03888
G1 X105.83 Y121.296 E0.03888
G1 X106.82 Y122.043 E0.03888
G1 X107.893 Y122.663 E0.03888
G1 X109.035 Y123.147 E0.03888
G1 X110.228 Y123.486 E0.03888
G1 X111.453 Y123.676 E0.03888
G1 X112.693 Y123.714 E0.03888
G1 X113.927 Y123.6 E0.03888
G1 X115.139 Y123.335 E0.03888
G1 X116.308 Y122.923 E0.03888
G1 X117.418 Y122.37 E0.03888
G1 X118.452 Y121.685 E0.03888
G1 X119.393 Y120.878 E0.03888
G1 X120.229 Y119.962 E0.03888
G1 X120.945 Y118.95 E0.03888
G1 X121.532 Y117.858 E0.03888
G1 X121.98 Y116.701 E0.03888
G1 X122.282 Y115.499 E0.03888
G1 X122.434 Y114.268 E0.03888
G1 X122.434 Y113.028 E0.03888
G1 X122.282 Y111.798 E0.03888
G1 X121.98 Y110.595 E0.03888
G1 X121.532 Y109.439 E0.03888
G1 X120.945 Y108.347 E0.03888
G1 X120.229 Y107.335 E0.03888
G1 X119.393 Y106.418 E0.03888
G1 X118.452 Y105.611 E0.03888
G1 X117.418 Y104.927 E0.03888
G1 X116.308 Y104.374 E0.03888
G1 X115.139 Y103.962 E0.03888
G1 X113.927 Y103.696 E0.03888
G1 X112.693 Y103.582 E0.03888
G1 X111.453 Y103.62 E0.03888
G1 X110.228 Y103.81 E0.03888
G1 X109.035 Y104.15 E0.03888
G1 X107.893 Y104.633 E0.03888
G1 X106.82 Y105.253 E0.03888
G1 X105.83 Y106 E0.03888
G1 X104.94 Y106.863 E0.03888
G1 X104.163 Y107.829 E0.03888
G1 X103.51 Y108.884 E0.03888
G1 X102.992 Y110.01 E0.03888
G1 X102.616 Y111.192 E0.03888
G1 X102.388 Y112.411 E0.03888
G1 X102.311 Y113.648 E0.03888
G1 X102.388 Y114.886 E0.03888
G1 X102.616 Y116.105 E0.03888
G1 X102.85 Y116.84 E0.02419
G1 X103.209 Y116.726 F10800
G1 F1200
G1 X103.344 Y117.15 E0.01396
G1 X103.843 Y118.234 E0.03742
G1 X104.471 Y119.249 E0.03742
G1 X105.219 Y120.179 E0.03742
G1 X106.076 Y121.009 E0.03742
G1 X107.028 Y121.729 E0.03742
G1 X108.062 Y122.325 E0.03742
G1 X109.161 Y122.79 E0.03742
G1 X110.309 Y123.117 E0.03742
G1 X111.488 Y123.3 E0.03742
G1 X112.681 Y123.337 E0.03742
G1 X113.869 Y123.227 E0.03742
G1 X115.035 Y122.971 E0.03742
G1 X116.161 Y122.575 E0.03742
G1 X117.229 Y122.043 E0.03742
G1 X118.224 Y121.384 E0.03742
G1 X119.13 Y120.607 E0.03742
G1 X119.934 Y119.725 E0.03742
G1 X120.624 Y118.751 E0.03742
G1 X121.188 Y117.7 E0.03742
G1 X121.62 Y116.587 E0.03742
G1 X121.911 Y115.429 E0.03742
G1 X122.057 Y114.245 E0.03742
G1 X122.057 Y113.052 E0.03742
G1 X121.911 Y111.867 E0.03742
G1 X121.62 Y110.71 E0.03742
G1 X121.188 Y109.597 E0.03742
G1 X120.624 Y108.545 E0.03742
G1 X119.934 Y107.571 E0.03742
G1 X119.13 Y106.689 E0.03742
G1 X118.224 Y105.913 E0.03742
G1 X117.229 Y105.254 E0.03742
G1 X116.161 Y104.722 E0.03742
G1 X115.035 Y104.325 E0.03742
G1 X113.869 Y104.07 E0.03742
G1 X112.681 Y103.96 E0.03742
G1 X111.488 Y103.996 E0.03742
G1 X110.309 Y104.179 E0.03742
G1 X109.161 Y104.506 E0.03742
G1 X108.062 Y104.971 E0.03742
G1 X107.028 Y105.568 E0.03742
G1 X106.076 Y106.287 E0.03742
G1 X105.219 Y107.118 E0.03742
G1 X104.471 Y108.048 E0.03742
G1 X103.843 Y109.062 E0.03742
G1 X103.344 Y110.147 E0.03742
G1 X102.982 Y111.284 E0.03742
G1 X102.763 Y112.457 E0.03742
G1 X102.689 Y113.648 E0.03742
G1 X102.763 Y114.839 E0.03742
G1 X102.982 Y116.013 E0.03742
G1 X103.209 Y116.726 E0.02346
G1 X103.568 Y116.611 F10800
;TYPE:External perimeter
G1 F1200
G1 X103.696 Y117.013 E0.01323
G1 X104.175 Y118.055 E0.03596
G1 X104.779 Y119.03 E0.03596
G1 X105.498 Y119.924 E0.03596
G1 X106.322 Y120.722 E0.03596
G1 X107.237 Y121.414 E0.03596
G1 X108.23 Y121.987 E0.03596
G1 X109.286 Y122.434 E0.03596
G1 X110.39 Y122.748 E0.03596
G1 X111.523 Y122.924 E0.03596
G1 X112.669 Y122.959 E0.03596
G1 X113.811 Y122.853 E0.03596
G1 X114.932 Y122.608 E0.03596
G1 X116.013 Y122.227 E0.03596
G1 X117.04 Y121.716 E0.03596
G1 X117.996 Y121.082 E0.03596
G1 X118.867 Y120.336 E0.03596
G1 X119.64 Y119.488 E0.03596
G1 X120.303 Y118.552 E0.03596
G1 X120.845 Y117.542 E0.03596
G1 X121.26 Y116.472 E0.03596
G1 X121.539 Y115.36 E0.03596
G1 X121.68 Y114.222 E0.03596
G1 X121.68 Y113.075 E0.03596
G1 X121.539 Y111.937 E0.03596
G1 X121.26 Y110.824 E0.03596
G1 X120.845 Y109.755 E0.03596
G1 X120.303 Y108.744 E0.03596
G1 X119.64 Y107.808 E0.03596
G1 X118.867 Y106.961 E0.03596
G1 X117.996 Y106.214 E0.03596
G1 X117.04 Y105.581 E0.03596
G1 X116.013 Y105.07 E0.03596
G1 X114.932 Y104.688 E0.03596
G1 X113.811 Y104.443 E0.03596
G1 X112.669 Y104.337 E0.03596
G1 X111.523 Y104.373 E0.03596
G1 X110.39 Y104.549 E0.03596
G1 X109.286 Y104.862 E0.03596
G1 X108.23 Y105.309 E0.03596
G1 X107.237 Y105.883 E0.03596
G1 X106.322 Y106.574 E0.03596
G1 X105.498 Y107.373 E0.03596
G1 X104.779 Y108.266 E0.03596
G1 X104.175 Y109.241 E0.03596
G1 X103.696 Y110.283 E0.03596
G1 X103.348 Y111.376 E0.03596
G1 X103.138 Y112.504 E0.03596
G1 X103.067 Y113.648 E0.03596
G1 X103.138 Y114.793 E0.03596
G1 X103.348 Y115.92 E0.03596
G1 X103.568 Y116.611 E0.02273
;WIPE_START
M204 S1000
G1 X103.299 Y116.907 F10800
;WIPE_END
G1 Z0.275
; acceleration to travel
M204 S1500
G1 X101.012 Y118.386
; decel to extrusion
M204 S800
G1 X99.793 Y119.174
; end travel
G1 Z0.2
;TYPE:Internal perimeter
G1 F1200
G1 X96.405 Y114.184 E0.18912
G1 X89.328 Y103.659 E0.39767
G1 X84.781 Y96.783 E0.25846
G1 X82.273 Y92.87 E0.14574
G1 X81.192 Y91.129 E0.06424
G1 X79.37 Y88.051 E0.11215
G1 X78.01 Y85.51 E0.09036
G1 X77.526 Y84.484 E0.03559
G1 X77.277 Y83.874 E0.02063
G1 X76.906 Y82.798 E0.0357
G1 X76.822 Y82.425 E0.01199
G1 X76.812 Y81.953 E0.01481
G1 X76.826 Y81.777 E0.00554
G1 X76.869 Y81.693 E0.00295
G1 X77.03 Y81.479 E0.00841
G1 X77.734 Y80.845 E0.02968
G1 X78.304 Y80.503 E0.02084
G1 X78.433 Y80.467 E0.00422
G1 X78.855 Y80.411 E0.01334
G1 X79.398 Y80.465 E0.01709
G1 X79.838 Y80.575 E0.01422
G1 X80.109 Y80.667 E0.009
G1 X81.865 Y81.417 E0.05986
G1 X82.225 Y81.587 E0.01249
G1 X82.925 Y81.97 E0.025
G1 X86.724 Y84.229 E0.13858
G1 X87.226 Y84.55 E0.01869
G1 X88.156 Y85.008 E0.0325
G1 X89.76 Y85.614 E0.05378
G1 X90.133 Y85.722 E0.01218
G1 X90.76 Y85.794 E0.01977
G1 X91.524 Y85.817 E0.02397
G1 X92.243 Y85.661 E0.02306
G1 X93.159 Y85.336 E0.03048
G1 X93.504 Y85.102 E0.01307
G1 X94.582 Y84.077 E0.04664
G1 X94.821 Y83.802 E0.01143
G1 X95.827 Y82.227 E0.05859
G1 X95.957 Y81.987 E0.00856
G1 X97.645 Y78.268 E0.12805
G1 X99.176 Y74.382 E0.13095
G1 X100.543 Y71.387 E0.10324
G1 X100.688 Y71.11 E0.00981
G1 X101.815 Y69.563 E0.05999
G1 X102.634 Y68.996 E0.03125
G1 X102.81 Y68.934 E0.00585
G1 X103.055 Y68.892 E0.00778
G1 X103.958 Y69.017 E0.02858
G1 X105.782 Y69.893 E0.06346
G1 X106.322 Y70.256 E0.02039
G1 X109.181 Y72.44 E0.11282
G1 X112.282 Y75.005 E0.12619
G1 X113.163 Y75.705 E0.03527
G1 X114.05 Y76.347 E0.03432
G1 X116.258 Y77.806 E0.083
G1 X117.334 Y78.424 E0.03889
G1 X118.352 Y78.761 E0.03362
G1 X119.378 Y79.062 E0.03352
G1 X120.2 Y79.07 E0.0258
G1 X121.185 Y78.929 E0.0312
G1 X122.45 Y78.339 E0.04374
G1 X123.271 Y77.834 E0.03024
G1 X124.816 Y76.262 E0.06911
G1 X125.336 Y75.635 E0.02554
G1 X127.846 Y72.29 E0.13111
G1 X128.292 Y71.728 E0.0225
G1 X128.618 Y71.334 E0.01605
G1 X129.073 Y70.834 E0.02119
G1 X130.17 Y69.674 E0.05006
G1 X130.506 Y69.369 E0.01421
G1 X130.813 Y69.173 E0.01144
G1 X131.195 Y68.996 E0.0132
G1 X131.707 Y68.863 E0.01656
G1 X132.078 Y68.842 E0.01166
G1 X132.608 Y68.943 E0.01691
G1 X132.684 Y68.979 E0.00265
G1 X132.744 Y69.099 E0.0042
G1 X132.869 Y69.42 E0.01081
G1 X132.905 Y69.569 E0.00481
