; generated by SuperSlicer 2.4 on 2022-12-21 at 20:52:08 UTC


;
;

;
;
; 

; external perimeters extrusion width = 0.60mm
; perimeters extrusion width = 0.50mm
; infill extrusion width = 0.50mm
; solid infill extrusion width = 0.50mm
; top infill extrusion width = 0.40mm
; support material extrusion width = 0.38mm
; first layer extrusion width = 0.42mm

; object:{"name":"Hole_l_2","id":"Hole_l_2.stl id:0 copy 0","object_center":[105.000000,105.000000,0.000000],"boundingbox_center":[105.000000,105.000000,30.298501],"boundingbox_size":[58.341359,76.932203,60.597001]}
; Total objects to print: 1
M486 T1
; plater:{"center":[105.000000,105.000000,0.000000],"boundingbox_center":[105.000000,105.000000,30.298501],"boundingbox_size":[58.341359,76.932203,60.597001]}

M73 P0 R103
;TYPE:Custom
G90 ; use absolute coordinates
M83 ; extruder relative mode
M204 S1250 T1250
M104 S215 ; set extruder temp
M140 S65 ; set bed temp
G28 ; home all
G29 ; AutoBed Leveling I think
G1 Y1.0 Z0.3 F1000 ; move print head up
M190 S65 ; wait for bed temp
M109 S215 ; wait for extruder temp
G92 E0.0
; initial load
G1 X205.0 E19 F1000
G1 Y1.6
G1 X5.0 E19 F1000
G92 E0.0
; intro line
G1 Y2.0 Z0.2 F1000
G1 X65.0 E9.0 F1000
G1 X105.0 E12.5 F1000
G92 E0.0
M107
G21 ; set units to millimeters
G90 ; use absolute coordinates
M83 ; use relative distances for extrusion
; Filament gcode
;_TOOLCHANGE 0
M107
;LAYER_CHANGE
;Z:0.2
;HEIGHT:0.2
;BEFORE_LAYER_CHANGE
G92 E0.0
;0.2
G1 Z0.075 F10800
G1 Z0.2
;AFTER_LAYER_CHANGE
;0.2
G1 Z0.275
M204 S800
G1 X74.507 Y65.872
G1 Z0.2
;TYPE:Skirt
;WIDTH:0.52
G1 F1200
G1 X74.237 Y66.317 E0.02066
G1 X74.002 Y66.847 E0.023
G1 X73.819 Y67.573 E0.0297
G1 X73.65 Y69.689 E0.0842
G1 X73.771 Y72.042 E0.09348
G1 X78.75 Y123.92 E2.06741
G1 X79.018 Y124.787 E0.03599
M73 P0 R102
G1 X89.181 Y143.212 E0.83474
G1 X89.812 Y144.154 E0.04496
G1 X90.5 Y144.889 E0.03994
G1 X91.303 Y145.398 E0.03772
G1 X92.241 Y145.639 E0.03842
G1 X93.283 Y145.575 E0.04141
G1 X93.968 Y145.357 E0.02852
G1 X94.677 Y144.97 E0.03205
G1 X96.231 Y143.705 E0.07946
G1 X97.718 Y142.259 E0.0823
G1 X100.577 Y139.142 E0.1678
G1 X102.957 Y136.154 E0.15152
G1 X106.424 Y131.297 E0.23671
G1 X110.062 Y125.877 E0.25896
G1 X121.207 Y108.737 E0.81105
G1 X130.636 Y93.872 E0.69831
G1 X132.439 Y90.884 E0.13846
G1 X134.665 Y86.877 E0.1818
G1 X135.641 Y84.718 E0.094
G1 X135.991 Y83.655 E0.04442
G1 X136.227 Y82.48 E0.04751
G1 X136.261 Y81.83 E0.02584
G1 X136.185 Y81.024 E0.03212
G1 X135.878 Y80.085 E0.0392
G1 X135.047 Y78.841 E0.05934
G1 X134.347 Y78.163 E0.03864
G1 X133.059 Y77.119 E0.0658
G1 X109.651 Y65.099 E1.04382
G1 X108.705 Y64.689 E0.04092
G1 X108.003 Y64.516 E0.02867
G1 X107.074 Y64.451 E0.03695
G1 X76.777 Y64.606 E1.20187
G1 X75.954 Y64.776 E0.03336
M73 P1 R102
G1 X75.125 Y65.209 E0.0371
G1 X74.507 Y65.872 E0.03593
M204 S1000
G1 Z0.275 F10800
; printing object Hole_l_2.stl id:0 copy 0
M486 S0
; acceleration to travel
M204 S1500
G1 X78.727 Y97.248
; decel to extrusion
M204 S800
G1 X80.978 Y113.982
; end travel
G1 Z0.2
;TYPE:Support material
;WIDTH:0.42
G1 F1200
G1 X82.674 Y113.816 E0.05341
G1 X83.241 Y116.683 E0.09165
G1 X84.179 Y121.221 E0.14528
G1 X84.481 Y122.672 E0.04649
G1 X84.713 Y123.706 E0.03321
G1 X80.978 Y123.706 E0.1171
G1 X80.978 Y113.982 E0.30489
; acceleration to travel
M204 S1500
G1 X82.982 Y120.262 F10800
; decel to extrusion
M204 S800
G1 X84.051 Y123.612
; end travel
G1 F1200
G1 X84.051 Y121.866 E0.05474
G1 X83.928 Y121.273 E0.01899
G1 X83.632 Y119.842 E0.0458
G1 X83.632 Y123.45 E0.1131
G1 X83.213 Y123.45 E0.01314
G1 X83.213 Y117.815 E0.17668
G1 X82.99 Y116.735 E0.03458
G1 X82.794 Y115.745 E0.03161
G1 X82.794 Y123.45 E0.24156
G1 X82.375 Y123.45 E0.01314
G1 X82.375 Y114.103 E0.29307
G1 X81.956 Y114.144 E0.0132
G1 X81.956 Y123.45 E0.29178
G1 X81.537 Y123.45 E0.01314
G1 X81.537 Y114.022 E0.2956
M204 S1000
G1 Z0.275 F10800
; acceleration to travel
M204 S1500
G1 X86.579 Y113.967
; decel to extrusion
M204 S800
G1 X89.268 Y113.938
; end travel
G1 Z0.2
G1 F1200
G1 X89.334 Y112.892 E0.03286
G1 X89.53 Y111.863 E0.03286
G1 X89.854 Y110.866 E0.03286
G1 X90.3 Y109.918 E0.03286
G1 X90.862 Y109.033 E0.03286
G1 X91.53 Y108.225 E0.03286
G1 X92.293 Y107.508 E0.03286
G1 X93.141 Y106.892 E0.03286
G1 X94.06 Y106.387 E0.03286
G1 X95.034 Y106.001 E0.03286
G1 X96.049 Y105.741 E0.03286
G1 X97.089 Y105.609 E0.03286
G1 X98.137 Y105.609 E0.03286
G1 X99.176 Y105.741 E0.03286
G1 X100.192 Y106.001 E0.03286
G1 X100.836 Y106.256 E0.02172
G1 X101.166 Y106.387 E0.01113
G1 X102.084 Y106.892 E0.03286
G1 X102.466 Y107.17 E0.01481
G1 X102.932 Y107.508 E0.01805
G1 X103.696 Y108.225 E0.03286
G1 X104.364 Y109.033 E0.03286
G1 X104.926 Y109.918 E0.03286
G1 X105.372 Y110.866 E0.03286
G1 X105.696 Y111.863 E0.03286
G1 X105.892 Y112.892 E0.03286
G1 X105.958 Y113.938 E0.03286
G1 X105.892 Y114.984 E0.03286
G1 X105.742 Y115.771 E0.02511
G1 X105.696 Y116.013 E0.00775
G1 X105.372 Y117.01 E0.03286
G1 X104.926 Y117.958 E0.03286
G1 X104.364 Y118.843 E0.03286
G1 X103.696 Y119.65 E0.03286
G1 X102.932 Y120.368 E0.03286
G1 X102.301 Y120.826 E0.02446
G1 X102.084 Y120.984 E0.00839
G1 X101.166 Y121.489 E0.03286
G1 X100.494 Y121.755 E0.02264
G1 X100.192 Y121.874 E0.01021
G1 X99.176 Y122.135 E0.03286
G1 X98.137 Y122.266 E0.03286
G1 X97.089 Y122.266 E0.03286
G1 X96.049 Y122.135 E0.03286
G1 X95.034 Y121.874 E0.03286
G1 X94.06 Y121.489 E0.03286
G1 X93.141 Y120.984 E0.03286
G1 X92.293 Y120.368 E0.03286
G1 X91.53 Y119.65 E0.03286
G1 X90.862 Y118.843 E0.03286
G1 X90.3 Y117.958 E0.03286
G1 X90.163 Y117.666 E0.01011
G1 X89.854 Y117.01 E0.02275
G1 X89.53 Y116.013 E0.03286
G1 X89.334 Y114.984 E0.03286
G1 X89.268 Y113.938 E0.03286
; acceleration to travel
M204 S1500
G1 X99.801 Y115.648 F10800
; decel to extrusion
M204 S800
G1 X105.419 Y116.559
; end travel
G1 F1200
G1 X105.419 Y111.841 E0.14794
G1 X105.133 Y110.96 E0.02903
G1 X105 Y110.678 E0.00978
G1 X105 Y117.198 E0.20441
G1 X104.7 Y117.834 E0.02206
G1 X104.581 Y118.022 E0.00698
G1 X104.581 Y109.853 E0.25613
G1 X104.162 Y109.193 E0.02452
G1 X104.162 Y118.683 E0.29753
G1 X103.743 Y119.191 E0.02066
G1 X103.743 Y108.685 E0.32943
G1 X103.509 Y108.401 E0.01153
G1 X103.324 Y108.228 E0.00794
G1 X103.324 Y119.648 E0.35807
G1 X102.905 Y120.041 E0.01802
G1 X102.905 Y107.834 E0.38274
G1 X102.768 Y107.706 E0.00589
G1 X102.486 Y107.501 E0.01093
G1 X102.486 Y120.375 E0.40365
G1 X102.15 Y120.619 E0.01302
G1 X102.067 Y120.679 E0.00321
G1 X102.067 Y107.197 E0.42274
G1 X101.947 Y107.109 E0.00467
G1 X101.648 Y106.945 E0.01068
G1 X101.648 Y120.931 E0.43852
G1 X101.229 Y121.161 E0.01499
G1 X101.229 Y106.715 E0.45296
G1 X101.057 Y106.62 E0.00618
G1 X100.81 Y106.522 E0.00831
G1 X100.81 Y121.354 E0.46503
G1 X100.391 Y121.52 E0.01413
G1 X100.391 Y106.356 E0.47544
G1 X100.112 Y106.246 E0.00941
G1 X99.972 Y106.21 E0.00453
G1 X99.972 Y121.666 E0.48462
G1 X99.553 Y121.774 E0.01356
G1 X99.553 Y106.102 E0.49136
G1 X99.134 Y105.995 E0.01356
G1 X99.134 Y121.881 E0.49811
G1 X98.715 Y121.935 E0.01324
G1 X98.715 Y105.941 E0.50148
G1 X98.296 Y105.888 E0.01324
G1 X98.296 Y121.988 E0.5048
G1 X98.121 Y122.01 E0.00555
G1 X97.877 Y122.01 E0.00763
G1 X97.877 Y105.866 E0.50619
G1 X97.458 Y105.866 E0.01314
G1 X97.458 Y122.01 E0.50619
G1 X97.105 Y122.01 E0.01108
G1 X97.039 Y122.002 E0.00207
G1 X97.039 Y105.874 E0.50567
G1 X96.62 Y105.927 E0.01324
G1 X96.62 Y121.949 E0.50235
G1 X96.201 Y121.896 E0.01324
G1 X96.201 Y105.98 E0.49903
G1 X96.097 Y105.993 E0.00329
G1 X95.783 Y106.074 E0.01019
G1 X95.783 Y121.802 E0.49314
G1 X95.364 Y121.694 E0.01356
G1 X95.364 Y106.182 E0.48639
G1 X95.113 Y106.246 E0.0081
G1 X94.945 Y106.313 E0.0057
G1 X94.945 Y121.563 E0.47817
G1 X94.526 Y121.397 E0.01413
G1 X94.526 Y106.478 E0.46777
G1 X94.169 Y106.62 E0.01202
G1 X94.107 Y106.654 E0.00223
G1 X94.107 Y121.222 E0.45677
G1 X93.688 Y120.992 E0.01499
G1 X93.688 Y106.884 E0.44232
G1 X93.269 Y107.116 E0.01502
G1 X93.269 Y120.759 E0.42776
G1 X92.85 Y120.455 E0.01624
G1 X92.85 Y107.421 E0.40867
G1 X92.457 Y107.706 E0.01521
G1 X92.431 Y107.731 E0.00114
G1 X92.431 Y120.145 E0.38923
G1 X92.012 Y119.751 E0.01802
G1 X92.012 Y108.124 E0.36456
G1 X91.717 Y108.401 E0.01268
G1 X91.593 Y108.551 E0.00611
G1 X91.593 Y119.325 E0.33779
G1 X91.174 Y118.818 E0.02061
G1 X91.174 Y109.058 E0.30603
G1 X91.069 Y109.184 E0.00513
G1 X90.755 Y109.68 E0.01841
G1 X90.755 Y118.196 E0.26703
G1 X90.525 Y117.834 E0.01344
G1 X90.395 Y117.557 E0.0096
G1 X90.336 Y117.432 E0.00434
G1 X90.336 Y110.444 E0.2191
G1 X90.093 Y110.961 E0.0179
G1 X89.917 Y111.502 E0.01785
G1 X89.917 Y116.899 E0.16922
M204 S1000
G1 Z0.275 F10800
M204 S800
G1 X88.189 Y117.46
G1 Z0.2
;TYPE:Internal perimeter
G1 F1200
G1 X88.249 Y117.645 E0.0061
G1 X88.787 Y118.79 E0.03965
G1 X89.465 Y119.858 E0.03966
G1 X90.271 Y120.832 E0.03966
G1 X91.193 Y121.698 E0.03965
G1 X92.216 Y122.441 E0.03966
G1 X93.325 Y123.05 E0.03965
G1 X94.501 Y123.516 E0.03966
G1 X95.726 Y123.831 E0.03965
G1 X96.98 Y123.989 E0.03965
G1 X98.245 Y123.989 E0.03966
G1 X99.5 Y123.831 E0.03965
G1 X100.725 Y123.516 E0.03965
G1 X101.901 Y123.05 E0.03966
G1 X103.009 Y122.441 E0.03965
G1 X104.032 Y121.698 E0.03966
G1 X104.954 Y120.832 E0.03965
G1 X105.76 Y119.858 E0.03966
G1 X106.438 Y118.79 E0.03965
G1 X106.977 Y117.645 E0.03965
G1 X107.367 Y116.442 E0.03966
G1 X107.604 Y115.2 E0.03965
G1 X107.684 Y113.938 E0.03965
G1 X107.604 Y112.676 E0.03965
G1 X107.367 Y111.433 E0.03965
G1 X106.977 Y110.23 E0.03966
G1 X106.438 Y109.086 E0.03965
G1 X105.76 Y108.018 E0.03966
G1 X104.954 Y107.044 E0.03965
G1 X104.032 Y106.178 E0.03965
G1 X103.009 Y105.435 E0.03966
G1 X101.901 Y104.825 E0.03965
G1 X100.725 Y104.36 E0.03966
G1 X99.5 Y104.045 E0.03965
G1 X98.245 Y103.887 E0.03965
G1 X96.98 Y103.887 E0.03966
G1 X95.726 Y104.045 E0.03965
G1 X94.501 Y104.36 E0.03965
G1 X93.325 Y104.825 E0.03966
G1 X92.216 Y105.435 E0.03965
G1 X91.193 Y106.178 E0.03965
G1 X90.271 Y107.044 E0.03965
G1 X89.465 Y108.018 E0.03966
G1 X88.787 Y109.086 E0.03966
G1 X88.249 Y110.231 E0.03965
G1 X87.858 Y111.433 E0.03965
G1 X87.621 Y112.676 E0.03966
G1 X87.542 Y113.938 E0.03965
G1 X87.621 Y115.2 E0.03965
G1 X87.858 Y116.442 E0.03965
G1 X88.189 Y117.46 E0.03355
G1 X88.547 Y117.344 F10800
G1 F1200
G1 X88.6 Y117.506 E0.00536
G1 X89.119 Y118.608 E0.03817
G1 X89.771 Y119.635 E0.03817
G1 X90.547 Y120.573 E0.03817
G1 X91.434 Y121.407 E0.03817
G1 X92.419 Y122.122 E0.03817
G1 X93.486 Y122.709 E0.03817
G1 X94.617 Y123.157 E0.03817
G1 X95.796 Y123.459 E0.03817
G1 X97.004 Y123.612 E0.03817
G1 X98.221 Y123.612 E0.03817
G1 X99.429 Y123.459 E0.03817
G1 X100.608 Y123.157 E0.03817
G1 X101.74 Y122.709 E0.03817
G1 X102.807 Y122.122 E0.03817
G1 X103.791 Y121.407 E0.03817
G1 X104.679 Y120.573 E0.03817
G1 X105.455 Y119.635 E0.03817
G1 X106.107 Y118.608 E0.03817
G1 X106.625 Y117.506 E0.03817
G1 X107.001 Y116.349 E0.03817
G1 X107.23 Y115.153 E0.03817
G1 X107.306 Y113.938 E0.03817
G1 X107.23 Y112.723 E0.03817
G1 X107.001 Y111.527 E0.03817
G1 X106.625 Y110.37 E0.03817
G1 X106.107 Y109.268 E0.03817
G1 X105.455 Y108.24 E0.03817
G1 X104.679 Y107.302 E0.03817
G1 X103.791 Y106.469 E0.03817
G1 X102.807 Y105.754 E0.03817
G1 X101.74 Y105.167 E0.03817
G1 X100.608 Y104.719 E0.03817
G1 X99.429 Y104.416 E0.03817
G1 X98.221 Y104.264 E0.03817
G1 X97.004 Y104.264 E0.03817
G1 X95.796 Y104.416 E0.03817
G1 X94.617 Y104.719 E0.03817
G1 X93.486 Y105.167 E0.03817
G1 X92.419 Y105.754 E0.03817
G1 X91.434 Y106.469 E0.03817
G1 X90.547 Y107.302 E0.03817
G1 X89.771 Y108.24 E0.03817
G1 X89.119 Y109.268 E0.03817
G1 X88.6 Y110.37 E0.03817
G1 X88.224 Y111.527 E0.03817
G1 X87.996 Y112.723 E0.03817
G1 X87.92 Y113.938 E0.03817
G1 X87.996 Y115.153 E0.03817
G1 X88.224 Y116.349 E0.03817
G1 X88.547 Y117.344 E0.03281
G1 X88.906 Y117.227 F10800
;TYPE:External perimeter
G1 F1200
G1 X88.952 Y117.367 E0.00462
G1 X89.45 Y118.426 E0.03668
G1 X90.076 Y119.413 E0.03668
G1 X90.822 Y120.315 E0.03668
G1 X91.675 Y121.116 E0.03668
G1 X92.621 Y121.803 E0.03668
G1 X93.646 Y122.367 E0.03668
G1 X94.734 Y122.797 E0.03668
G1 X95.867 Y123.088 E0.03668
G1 X97.028 Y123.235 E0.03668
G1 X98.198 Y123.235 E0.03668
G1 X99.358 Y123.088 E0.03668
G1 X100.491 Y122.797 E0.03668
G1 X101.579 Y122.367 E0.03668
G1 X102.604 Y121.803 E0.03668
G1 X103.551 Y121.116 E0.03668
G1 X104.403 Y120.315 E0.03668
G1 X105.149 Y119.413 E0.03668
G1 X105.776 Y118.426 E0.03668
G1 X106.274 Y117.367 E0.03668
G1 X106.636 Y116.255 E0.03668
G1 X106.855 Y115.105 E0.03668
G1 X106.928 Y113.938 E0.03668
G1 X106.855 Y112.77 E0.03668
G1 X106.636 Y111.621 E0.03668
G1 X106.274 Y110.509 E0.03668
G1 X105.776 Y109.45 E0.03668
G1 X105.149 Y108.462 E0.03668
G1 X104.403 Y107.561 E0.03668
G1 X103.551 Y106.76 E0.03668
G1 X102.604 Y106.073 E0.03668
G1 X101.579 Y105.509 E0.03668
G1 X100.491 Y105.078 E0.03668
G1 X99.358 Y104.788 E0.03668
G1 X98.198 Y104.641 E0.03668
G1 X97.028 Y104.641 E0.03668
G1 X95.867 Y104.788 E0.03668
G1 X94.734 Y105.078 E0.03668
G1 X93.646 Y105.509 E0.03668
G1 X92.621 Y106.073 E0.03668
G1 X91.675 Y106.76 E0.03668
G1 X90.822 Y107.561 E0.03668
G1 X90.076 Y108.462 E0.03668
G1 X89.45 Y109.45 E0.03668
G1 X88.952 Y110.509 E0.03668
G1 X88.59 Y111.621 E0.03668
G1 X88.371 Y112.77 E0.03668
G1 X88.297 Y113.938 E0.03668
G1 X88.371 Y115.105 E0.03668
G1 X88.59 Y116.255 E0.03668
G1 X88.906 Y117.227 E0.03206
;WIPE_START
M204 S1000
G1 X88.638 Y117.524 F10800
;WIPE_END
G1 Z0.275
; acceleration to travel
M204 S1500
G1 X86.441 Y117.821
; decel to extrusion
M204 S800
G1 X85.269 Y117.978
; end travel
G1 Z0.2
;TYPE:Internal perimeter
G1 F1200
G1 X84.929 Y116.34 E0.05246
G1 X84.333 Y113.329 E0.09624
G1 X81.135 Y96.53 E0.53618
G1 X79.307 Y86.644 E0.31522
G1 X78.071 Y79.389 E0.23074
G1 X77.35 Y74.349 E0.15966
G1 X77.215 Y73.025 E0.04173
G1 X77.084 Y70.854 E0.06819
G1 X77.084 Y70.57 E0.00891
G1 X77.155 Y69.275 E0.04066
G1 X77.194 Y68.871 E0.01273
G1 X77.229 Y68.731 E0.00453
G1 X77.352 Y68.418 E0.01052
G1 X77.413 Y68.3 E0.00418
G1 X77.515 Y68.254 E0.00351
G1 X77.942 Y68.168 E0.01366
G1 X78.162 Y68.166 E0.00688
G1 X78.378 Y68.187 E0.00682
G1 X78.897 Y68.321 E0.01681
G1 X79.278 Y68.495 E0.01313
G1 X79.586 Y68.691 E0.01144
G1 X80.018 Y69.079 E0.01821
G1 X81.277 Y70.416 E0.05758
G1 X81.891 Y71.15 E0.02999
G1 X82.868 Y72.455 E0.05112
G1 X84.536 Y74.575 E0.08458
G1 X85.328 Y75.619 E0.04109
G1 X86.168 Y76.478 E0.03767
G1 X87 Y77.237 E0.03531
G1 X87.366 Y77.52 E0.0145
G1 X88.056 Y77.901 E0.02472
G1 X88.636 Y78.156 E0.01986
G1 X89.458 Y78.35 E0.02647
G1 X90.509 Y78.442 E0.03308
G1 X91.657 Y78.141 E0.03722
G1 X91.976 Y78.082 E0.01017
G1 X92.781 Y77.748 E0.02734
G1 X93.553 Y77.355 E0.02715
G1 X95.075 Y76.408 E0.0562
G1 X95.871 Y75.843 E0.03062
G1 X97.842 Y74.311 E0.07827
G1 X99.588 Y72.854 E0.0713
G1 X102.173 Y70.738 E0.10474
G1 X104.356 Y69.166 E0.08433
G1 X104.965 Y68.809 E0.02216
G1 X106.115 Y68.309 E0.0393
G1 X106.824 Y68.184 E0.02256
G1 X107.294 Y68.262 E0.01493
G1 X107.736 Y68.403 E0.01457
G1 X108.287 Y68.826 E0.02176
G1 X109.041 Y69.775 E0.03801
G1 X109.394 Y70.358 E0.02139
G1 X110.526 Y72.722 E0.08217
G1 X112.742 Y78.285 E0.18775
G1 X113.517 Y80.059 E0.0607
G1 X113.925 Y80.9 E0.0293
G1 X114.345 Y81.69 E0.02805
G1 X114.784 Y82.425 E0.02687
G1 X115.249 Y83.1 E0.02568
G1 X115.781 Y83.748 E0.0263
G1 X116.009 Y83.926 E0.00907
G1 X116.879 Y84.709 E0.03672
G1 X117.844 Y85.028 E0.03185
G1 X118.127 Y85.157 E0.00975
G1 X118.919 Y85.226 E0.02495
G1 X120.187 Y85.055 E0.04012
G1 X120.86 Y84.846 E0.02207
G1 X121.502 Y84.588 E0.02169
G1 X122.726 Y83.97 E0.043
G1 X124.529 Y82.892 E0.06586
G1 X126.053 Y81.948 E0.05622
G1 X127.244 Y81.252 E0.04324
G1 X128.326 Y80.67 E0.03852
G1 X129.201 Y80.268 E0.03019
G1 X130.145 Y80.011 E0.03067
G1 X130.748 Y80.024 E0.01893
G1 X131.003 Y80.136 E0.00871
G1 X131.094 Y80.197 E0.00345
G1 X131.318 Y80.412 E0.00972
G1 X132.038 Y81.215 E0.03384
G1 X132.384 Y81.728 E0.01939
G1 X132.465 Y81.872 E0.00519
G1 X132.56 Y82.138 E0.00884
G1 X132.58 Y82.704 E0.01776
G1 X132.34 Y83.779 E0.03452
G1 X132.09 Y84.483 E0.02343
G1 X131.219 Y86.408 E0.06626
G1 X130.6 Y87.593 E0.0419
G1 X129.432 Y89.656 E0.07435
G1 X127.9 Y92.207 E0.09329
G1 X124.783 Y97.207 E0.18474
M73 P1 R101
G1 X118.518 Y106.996 E0.36441
G1 X110.841 Y118.828 E0.44223
