; generated by SuperSlicer 2.4 on 2022-11-26 at 17:58:38 UTC


;
;

;
;
; 

; external perimeters extrusion width = 0.60mm
; perimeters extrusion width = 0.50mm
; infill extrusion width = 0.50mm
; solid infill extrusion width = 0.50mm
; top infill extrusion width = 0.40mm
; first layer extrusion width = 0.42mm

; object:{"name":"beak_with_hole Resized","id":"beak_with_hole Resized.stl id:0 copy 0","object_center":[105.000000,105.000000,0.000000],"boundingbox_center":[105.000000,105.000000,14.540636],"boundingbox_size":[33.518287,53.823589,29.081271]}
; Total objects to print: 1
M486 T1
; plater:{"center":[105.000000,105.000000,0.000000],"boundingbox_center":[105.000000,105.000000,14.540636],"boundingbox_size":[33.518287,53.823589,29.081271]}

M73 P0 R38
;TYPE:Custom
G90 ; use absolute coordinates
M83 ; extruder relative mode
M204 S1250 T1250
M104 S215 ; set extruder temp
M140 S65 ; set bed temp
G28 ; home all
G29 ; AutoBed Leveling I think
G1 Y1.0 Z0.3 F1000 ; move print head up
M190 S65 ; wait for bed temp
M109 S215 ; wait for extruder temp
G92 E0.0
; initial load
G1 X205.0 E19 F1000
G1 Y1.6
M73 P1 R38
G1 X5.0 E19 F1000
G92 E0.0
; intro line
G1 Y2.0 Z0.2 F1000
G1 X65.0 E9.0 F1000
G1 X105.0 E12.5 F1000
G92 E0.0
M107
G21 ; set units to millimeters
G90 ; use absolute coordinates
M83 ; use relative distances for extrusion
; Filament gcode
;_TOOLCHANGE 0
M107
;LAYER_CHANGE
;Z:0.2
;HEIGHT:0.2
;BEFORE_LAYER_CHANGE
G92 E0.0
;0.2
M73 P2 R38
G1 Z0.075 F10800
G1 Z0.2
;AFTER_LAYER_CHANGE
;0.2
G1 Z0.275
M204 S800
G1 X97.961 Y79.821
G1 Z0.2
;TYPE:Skirt
;WIDTH:0.52
M73 P2 R37
G1 F1200
G1 X97.194 Y81.196 E0.06248
G1 X96.058 Y83.915 E0.1169
G1 X95.123 Y87.115 E0.13225
G1 X88.903 Y112.716 E1.04513
G1 X88.902 Y113.77 E0.04178
G1 X89.578 Y114.907 E0.05249
G1 X90.779 Y115.463 E0.05249
G1 X117.402 Y119.055 E1.0657
G1 X118.401 Y118.963 E0.03977
G1 X119.48 Y118.196 E0.05249
G1 X119.937 Y116.955 E0.05249
G1 X121.043 Y95.326 E0.85914
G1 X120.744 Y89.914 E0.21502
G1 X120.185 Y86.575 E0.13429
G1 X119.505 Y84.069 E0.10302
G1 X118.521 Y81.709 E0.10143
G1 X118.208 Y81.187 E0.02414
G1 X116.403 Y79.056 E0.11077
G1 X115.791 Y78.559 E0.03127
G1 X113.652 Y77.374 E0.09701
G1 X112.983 Y77.133 E0.02821
G1 X107.754 Y76.167 E0.21094
G1 X104.397 Y76.012 E0.13332
G1 X103.873 Y76.049 E0.0208
G1 X102.942 Y76.237 E0.03769
G1 X101.515 Y76.722 E0.0598
G1 X100.252 Y77.459 E0.05801
G1 X99.08 Y78.45 E0.06088
G1 X97.961 Y79.821 E0.07018
M204 S1000
G1 Z0.275 F10800
; printing object beak_with_hole Resized.stl id:0 copy 0
M486 S0
; acceleration to travel
M204 S1500
G1 X98.595 Y95.246
; decel to extrusion
M204 S800
G1 X98.933 Y103.472
; end travel
G1 Z0.2
;TYPE:Internal perimeter
;WIDTH:0.42
G1 F1200
G1 X99.075 Y103.736 E0.00939
G1 X99.527 Y104.437 E0.02616
G1 X100.016 Y105.074 E0.02517
G1 X100.554 Y105.668 E0.02513
G1 X101.127 Y106.207 E0.02465
G1 X101.752 Y106.709 E0.02515
G1 X102.443 Y107.176 E0.02615
G1 X103.144 Y107.57 E0.02521
G1 X103.874 Y107.906 E0.02518
G1 X104.618 Y108.179 E0.02485
G1 X105.588 Y108.439 E0.03148
G1 X106.365 Y108.574 E0.02472
G1 X107.16 Y108.647 E0.02504
G1 X107.966 Y108.657 E0.02529
G1 X108.772 Y108.602 E0.02534
G1 X109.571 Y108.481 E0.02534
G1 X110.343 Y108.3 E0.02485
G1 X111.119 Y108.051 E0.02554
G1 X111.898 Y107.727 E0.02646
G1 X112.602 Y107.365 E0.02483
G1 X113.288 Y106.94 E0.02529
G1 X113.938 Y106.459 E0.02536
G1 X114.773 Y105.724 E0.03488
G1 X114.568 Y107.073 E0.04276
G1 X114.352 Y108.774 E0.05378
G1 X114.275 Y110.29 E0.04758
G1 X114.3 Y112.076 E0.05601
G1 X114.546 Y114.303 E0.07026
G1 X114.813 Y115.44 E0.03659
G1 X94.171 Y112.655 E0.65306
G1 X94.753 Y112.004 E0.02739
G1 X95.814 Y110.563 E0.05608
G1 X96.188 Y109.892 E0.0241
G1 X96.53 Y109.37 E0.01958
G1 X96.942 Y108.569 E0.02823
G1 X97.968 Y106.351 E0.07665
G1 X98.494 Y104.648 E0.05586
G1 X98.682 Y103.867 E0.0252
G1 X98.713 Y103.517 E0.01101
G1 X98.933 Y103.472 E0.00705
G1 X99.266 Y103.294 F10800
G1 F1200
G1 X99.4 Y103.545 E0.0089
G1 X99.836 Y104.22 E0.02519
G1 X100.306 Y104.832 E0.02421
G1 X100.824 Y105.404 E0.02419
G1 X101.374 Y105.922 E0.02371
G1 X101.976 Y106.406 E0.0242
G1 X102.641 Y106.855 E0.02518
G1 X103.316 Y107.234 E0.02425
G1 X104.018 Y107.557 E0.02423
G1 X104.732 Y107.819 E0.02385
G1 X105.669 Y108.07 E0.03042
G1 X106.414 Y108.2 E0.02372
G1 X107.179 Y108.271 E0.02409
G1 X107.955 Y108.28 E0.02433
G1 X108.731 Y108.226 E0.02439
G1 X109.5 Y108.11 E0.02438
G1 X110.242 Y107.936 E0.02391
G1 X110.989 Y107.697 E0.02457
G1 X111.739 Y107.385 E0.02549
G1 X112.416 Y107.037 E0.02387
G1 X113.076 Y106.627 E0.02434
G1 X113.701 Y106.165 E0.02438
G1 X114.338 Y105.605 E0.0266
G1 X114.867 Y105.055 E0.02392
G1 X115.093 Y104.779 E0.01117
G1 X115.305 Y104.879 E0.00737
G1 X115.203 Y105.409 E0.01693
G1 X114.941 Y107.125 E0.05442
G1 X114.728 Y108.808 E0.05319
G1 X114.652 Y110.297 E0.04675
G1 X114.676 Y112.053 E0.05506
G1 X114.919 Y114.239 E0.06898
G1 X115.305 Y115.886 E0.05304
G1 X93.416 Y112.934 E0.69251
G1 X94.46 Y111.766 E0.04912
G1 X95.496 Y110.359 E0.05477
G1 X95.865 Y109.697 E0.02377
G1 X96.204 Y109.18 E0.01938
G1 X96.603 Y108.404 E0.02736
G1 X97.615 Y106.215 E0.07561
G1 X98.13 Y104.549 E0.05469
G1 X98.309 Y103.806 E0.02395
G1 X98.459 Y102.112 E0.05332
G1 X98.69 Y102.074 E0.00734
G1 X99.042 Y102.876 E0.02746
G1 X99.266 Y103.294 E0.01487
M204 S1000
G1 Z0.275 F10800
; acceleration to travel
M204 S1500
G1 X100.587 Y89.399
; decel to extrusion
M204 S800
G1 X101.292 Y81.989
; end travel
G1 Z0.2
G1 F1200
G1 X101.667 Y81.494 E0.01947
G1 X102.203 Y80.94 E0.02418
G1 X102.584 Y80.613 E0.01572
G1 X103.616 Y80.125 E0.0358
G1 X104.025 Y80.009 E0.01331
G1 X105.579 Y79.908 E0.04885
G1 X106.09 Y79.921 E0.01601
G1 X107.351 Y79.996 E0.03963
G1 X109.559 Y80.265 E0.06975
G1 X110.402 Y80.423 E0.02688
G1 X112.394 Y81.017 E0.06517
G1 X112.614 Y81.143 E0.00795
G1 X114.289 Y82.371 E0.06512
G1 X114.437 Y82.552 E0.00733
G1 X115.339 Y83.811 E0.04855
G1 X115.961 Y85.346 E0.05195
G1 X116.626 Y88.201 E0.0919
G1 X116.76 Y89.533 E0.04197
G1 X116.929 Y91.697 E0.06807
G1 X116.938 Y92.686 E0.03099
G1 X116.881 Y94.239 E0.04873
G1 X116.656 Y94.291 E0.00722
G1 X116.184 Y93.417 E0.03117
G1 X115.753 Y92.797 E0.02366
G1 X115.36 Y92.292 E0.02006
G1 X114.931 Y91.81 E0.02022
G1 X114.482 Y91.364 E0.01986
G1 X113.867 Y90.837 E0.02537
G1 X113.208 Y90.36 E0.02552
G1 X112.513 Y89.937 E0.02552
G1 X111.785 Y89.573 E0.02552
G1 X111.03 Y89.269 E0.0255
G1 X110.269 Y89.032 E0.02502
G1 X109.475 Y88.853 E0.0255
G1 X108.609 Y88.732 E0.02742
G1 X105.454 Y88.942 E0.09915
G1 X104.655 Y89.161 E0.02597
G1 X103.906 Y89.434 E0.025
G1 X103.167 Y89.771 E0.02548
G1 X102.448 Y90.174 E0.02583
G1 X101.767 Y90.632 E0.02573
G1 X101.134 Y91.138 E0.02541
G1 X100.545 Y91.694 E0.02539
G1 X100.012 Y92.284 E0.02492
G1 X99.509 Y92.941 E0.02596
G1 X99.164 Y93.477 E0.01996
G1 X98.939 Y93.396 E0.00751
G1 X99.027 Y92.626 E0.02431
G1 X99.139 Y89.079 E0.11127
G1 X99.251 Y88.28 E0.0253
G1 X99.392 Y87.496 E0.02496
G1 X100.028 Y84.895 E0.08396
G1 X100.106 Y84.634 E0.00854
G1 X100.667 Y83.205 E0.04814
G1 X101.292 Y81.989 E0.04287
G1 X100.972 Y81.787 F10800
G1 F1200
G1 X101.381 Y81.248 E0.02121
G1 X101.945 Y80.665 E0.02544
G1 X102.377 Y80.294 E0.01786
G1 X103.483 Y79.771 E0.03835
G1 X103.96 Y79.635 E0.01554
G1 X105.572 Y79.53 E0.05066
G1 X106.106 Y79.545 E0.01674
G1 X107.385 Y79.62 E0.04019
G1 X109.617 Y79.892 E0.07049
G1 X110.491 Y80.056 E0.02788
G1 X112.543 Y80.668 E0.06715
G1 X112.82 Y80.826 E0.00998
G1 X114.55 Y82.096 E0.06729
G1 X114.736 Y82.323 E0.00921
G1 X115.672 Y83.627 E0.05034
G1 X116.321 Y85.232 E0.05428
G1 X116.998 Y88.139 E0.09358
G1 X117.135 Y89.499 E0.04286
G1 X117.306 Y91.681 E0.06861
G1 X117.315 Y92.691 E0.03167
G1 X117.216 Y95.384 E0.0845
G1 X117.168 Y95.973 E0.01851
G1 X116.927 Y96.005 E0.00762
G1 X116.6 Y95.101 E0.03014
G1 X116.276 Y94.38 E0.02477
G1 X115.862 Y93.615 E0.02729
G1 X115.449 Y93.021 E0.02268
G1 X115.07 Y92.534 E0.01937
G1 X114.657 Y92.069 E0.01946
G1 X114.226 Y91.641 E0.01906
M73 P3 R37
G1 X113.633 Y91.134 E0.02446
G1 X112.999 Y90.674 E0.02455
G1 X112.33 Y90.268 E0.02455
G1 X111.63 Y89.917 E0.02455
G1 X110.904 Y89.625 E0.02454
G1 X110.171 Y89.397 E0.02407
G1 X109.407 Y89.225 E0.02454
G1 X108.595 Y89.111 E0.02571
G1 X105.517 Y89.316 E0.09674
G1 X104.769 Y89.521 E0.0243
G1 X104.049 Y89.783 E0.02404
G1 X103.337 Y90.108 E0.02452
G1 X102.645 Y90.495 E0.02486
G1 X101.991 Y90.936 E0.02476
G1 X101.382 Y91.423 E0.02445
G1 X100.815 Y91.958 E0.02444
G1 X100.303 Y92.525 E0.02397
G1 X99.818 Y93.158 E0.025
G1 X99.401 Y93.806 E0.02415
G1 X99.038 Y94.485 E0.02414
G1 X98.786 Y95.061 E0.01971
G1 X98.549 Y95.015 E0.00756
G1 X98.51 Y93.833 E0.03709
G1 X98.65 Y92.598 E0.03896
G1 X98.763 Y89.046 E0.11142
G1 X98.878 Y88.22 E0.02617
G1 X99.023 Y87.418 E0.02556
G1 X99.664 Y84.796 E0.08463
G1 X99.75 Y84.511 E0.00933
G1 X100.323 Y83.049 E0.04922
G1 X100.972 Y81.787 E0.0445
G1 X100.651 Y81.585 F10800
;TYPE:External perimeter
G1 F1200
G1 X101.094 Y81.002 E0.02295
G1 X101.686 Y80.39 E0.0267
G1 X102.17 Y79.975 E0.02
G1 X103.35 Y79.417 E0.0409
G1 X103.895 Y79.261 E0.01778
G1 X104.09 Y79.236 E0.00617
G1 X105.565 Y79.153 E0.04632
G1 X106.122 Y79.168 E0.01747
G1 X107.419 Y79.245 E0.04075
G1 X109.675 Y79.519 E0.07124
G1 X110.58 Y79.689 E0.02888
G1 X112.693 Y80.319 E0.06913
G1 X113.026 Y80.509 E0.01202
G1 X114.812 Y81.82 E0.06946
G1 X115.036 Y82.093 E0.01108
G1 X116.005 Y83.444 E0.05213
G1 X116.682 Y85.118 E0.05662
G1 X117.371 Y88.077 E0.09526
G1 X117.511 Y89.466 E0.04375
G1 X117.683 Y91.664 E0.06916
G1 X117.692 Y92.696 E0.03235
G1 X117.593 Y95.406 E0.08504
G1 X117.549 Y95.945 E0.01693
G1 X117.313 Y97.86 E0.06051
G1 X117.078 Y99.165 E0.04159
G1 X116.888 Y99.967 E0.02583
G1 X116.818 Y99.955 E0.00223
G1 X116.891 Y99.315 E0.0202
G1 X116.917 Y98.459 E0.02683
G1 X116.854 Y97.636 E0.02588
G1 X116.734 Y96.87 E0.02433
G1 X116.533 Y96.024 E0.02725
G1 X116.25 Y95.243 E0.02606
G1 X115.938 Y94.548 E0.02389
G1 X115.54 Y93.813 E0.02619
G1 X115.145 Y93.245 E0.0217
G1 X114.779 Y92.775 E0.01867
G1 X114.384 Y92.329 E0.0187
G1 X113.97 Y91.919 E0.01826
G1 X113.4 Y91.43 E0.02355
G1 X112.791 Y90.988 E0.02359
G1 X112.148 Y90.598 E0.02359
G1 X111.475 Y90.261 E0.02359
G1 X110.777 Y89.98 E0.02358
G1 X110.073 Y89.761 E0.02311
G1 X109.339 Y89.596 E0.02358
G1 X108.581 Y89.489 E0.024
G1 X105.58 Y89.69 E0.09432
G1 X104.884 Y89.881 E0.02264
G1 X104.191 Y90.132 E0.02309
G1 X103.508 Y90.444 E0.02356
G1 X102.843 Y90.816 E0.02389
G1 X102.214 Y91.24 E0.02379
G1 X101.629 Y91.708 E0.02348
G1 X101.084 Y92.222 E0.02348
G1 X100.593 Y92.767 E0.02301
G1 X100.127 Y93.375 E0.02404
G1 X99.726 Y93.997 E0.02319
G1 X99.377 Y94.649 E0.02319
G1 X99.081 Y95.327 E0.02319
G1 X98.841 Y96.029 E0.02327
G1 X98.65 Y96.777 E0.0242
G1 X98.526 Y97.51 E0.02329
G1 X98.457 Y98.376 E0.02726
G1 X98.473 Y99.288 E0.02858
G1 X98.547 Y99.992 E0.02222
G1 X98.674 Y100.688 E0.02218
G1 X98.855 Y101.372 E0.02218
G1 X99.089 Y102.045 E0.02234
G1 X99.381 Y102.711 E0.02281
G1 X99.725 Y103.353 E0.02282
G1 X100.144 Y104.002 E0.02422
G1 X100.596 Y104.59 E0.02325
G1 X101.093 Y105.14 E0.02324
G1 X101.622 Y105.638 E0.02277
G1 X102.2 Y106.102 E0.02325
G1 X102.84 Y106.534 E0.02421
G1 X103.487 Y106.898 E0.02329
G1 X104.162 Y107.209 E0.02328
G1 X104.846 Y107.459 E0.02284
G1 X105.75 Y107.702 E0.02935
G1 X106.464 Y107.825 E0.02272
G1 X107.199 Y107.894 E0.02315
G1 X107.945 Y107.903 E0.02337
G1 X108.69 Y107.851 E0.02343
G1 X109.429 Y107.74 E0.02343
G1 X110.142 Y107.573 E0.02296
G1 X110.858 Y107.343 E0.0236
G1 X111.58 Y107.043 E0.02451
G1 X112.23 Y106.708 E0.02292
G1 X112.864 Y106.315 E0.02338
G1 X113.464 Y105.871 E0.0234
G1 X114.077 Y105.332 E0.02561
G1 X114.585 Y104.804 E0.02296
G1 X115.048 Y104.238 E0.02294
G1 X115.458 Y103.65 E0.02247
G1 X115.816 Y103.04 E0.0222
G1 X116.127 Y102.403 E0.0222
G1 X116.379 Y101.769 E0.02141
G1 X116.446 Y101.791 E0.00222
G1 X115.953 Y103.711 E0.06217
G1 X115.724 Y104.702 E0.03188
G1 X115.574 Y105.473 E0.02463
G1 X115.315 Y107.177 E0.05404
G1 X115.103 Y108.841 E0.0526
G1 X115.029 Y110.304 E0.04592
G1 X115.053 Y112.029 E0.0541
G1 X115.291 Y114.175 E0.0677
G1 X115.735 Y116.016 E0.05935
G1 X115.797 Y116.333 E0.01015
G1 X92.766 Y113.227 E0.72866
G1 X92.968 Y112.87 E0.01286
G1 X94.167 Y111.528 E0.05643
G1 X95.178 Y110.155 E0.05347
G1 X95.542 Y109.502 E0.02344
G1 X95.877 Y108.99 E0.01918
G1 X96.264 Y108.238 E0.0265
G1 X97.262 Y106.08 E0.07457
G1 X97.766 Y104.449 E0.05353
G1 X97.936 Y103.745 E0.0227
G1 X98.148 Y101.361 E0.07505
G1 X98.257 Y99.428 E0.06068
G1 X98.241 Y98.808 E0.01945
G1 X98.277 Y98.14 E0.02099
G1 X98.132 Y93.818 E0.13559
G1 X98.274 Y92.571 E0.03935
G1 X98.387 Y89.014 E0.11157
G1 X98.506 Y88.16 E0.02703
G1 X98.654 Y87.339 E0.02616
G1 X99.3 Y84.697 E0.0853
G1 X99.393 Y84.387 E0.01013
G1 X99.979 Y82.894 E0.05031
G1 X100.651 Y81.585 E0.04613
;WIPE_START
;WIPE_END
M204 S1000
G1 Z0.275 F10800
; acceleration to travel
M204 S1500
G1 X99.675 Y88.487
; decel to extrusion
M204 S800
G1 X99.154 Y92.169
; end travel
G1 Z0.2
;TYPE:Solid infill
;WIDTH:0.416963
G1 F1200
G1 X99.494 Y92.508 E0.01495
G1 X99.725 Y92.206 E0.01184
G1 X99.328 Y91.809 E0.01749
G1 X99.344 Y91.292 E0.0161
G1 X99.971 Y91.919 E0.02759
G1 X100.224 Y91.638 E0.01175
G1 X99.361 Y90.775 E0.03801
G1 X99.377 Y90.258 E0.0161
G1 X100.488 Y91.369 E0.04891
G1 X100.763 Y91.11 E0.01174
G1 X99.394 Y89.741 E0.06027
G1 X99.41 Y89.224 E0.0161
G1 X101.044 Y90.858 E0.07193
G1 X101.34 Y90.621 E0.01181
G1 X99.47 Y88.751 E0.08232
G1 X99.544 Y88.292 E0.01449
G1 X101.639 Y90.387 E0.09223
G1 X101.957 Y90.172 E0.01196
G1 X99.617 Y87.832 E0.10302
G1 X99.662 Y87.551 E0.00884
G1 X99.703 Y87.385 E0.00534
G1 X102.276 Y89.957 E0.11325
G1 X102.303 Y89.939 E0.00102
G1 X102.616 Y89.764 E0.01115
G1 X99.81 Y86.958 E0.12352
G1 X99.916 Y86.531 E0.01369
G1 X102.958 Y89.573 E0.13388
G1 X103.042 Y89.525 E0.003
G1 X103.318 Y89.399 E0.00944
G1 X100.023 Y86.105 E0.14504
G1 X100.13 Y85.678 E0.01369
G1 X103.684 Y89.232 E0.15647
G1 X103.801 Y89.179 E0.00402
G1 X104.067 Y89.082 E0.0088
G1 X100.236 Y85.251 E0.16865
G1 X100.343 Y84.824 E0.01369
G1 X104.458 Y88.94 E0.18118
G1 X104.571 Y88.899 E0.00375
G1 X104.869 Y88.817 E0.0096
G1 X100.482 Y84.43 E0.19312
G1 X100.632 Y84.047 E0.01281
G1 X105.287 Y88.703 E0.20493
G1 X105.408 Y88.67 E0.00389
G1 X105.764 Y88.646 E0.01111
G1 X100.783 Y83.665 E0.21928
G1 X100.919 Y83.318 E0.01158
G1 X100.936 Y83.285 E0.00118
G1 X106.264 Y88.613 E0.23454
G1 X106.764 Y88.579 E0.01559
G1 X101.117 Y82.932 E0.24858
G1 X101.298 Y82.58 E0.01233
G1 X107.264 Y88.546 E0.26262
G1 X107.763 Y88.512 E0.01559
G1 X101.479 Y82.228 E0.27666
G1 X101.526 Y82.136 E0.00322
G1 X101.696 Y81.912 E0.00876
G1 X108.263 Y88.479 E0.2891
G1 X108.619 Y88.455 E0.0111
G1 X108.798 Y88.48 E0.00562
G1 X101.933 Y81.615 E0.30221
G1 X102.195 Y81.344 E0.01174
G1 X109.419 Y88.568 E0.31799
G1 X109.524 Y88.583 E0.00333
G1 X110.095 Y88.711 E0.01821
G1 X102.463 Y81.079 E0.33596
G1 X102.735 Y80.846 E0.01114
G1 X102.755 Y80.837 E0.00067
G1 X110.839 Y88.922 E0.35588
G1 X111.123 Y89.01 E0.00926
G1 X111.688 Y89.237 E0.01897
G1 X103.117 Y80.666 E0.37732
G1 X103.479 Y80.495 E0.01247
G1 X112.733 Y89.749 E0.40739
G1 X113.361 Y90.13 E0.02285
G1 X114.038 Y90.621 E0.02603
G1 X114.668 Y91.162 E0.02585
G1 X115.131 Y91.621 E0.0203
G1 X115.574 Y92.119 E0.02075
G1 X116.417 Y93.269 E0.04438
G1 X116.609 Y93.625 E0.01258
G1 X116.627 Y93.643 E0.0008
G1 X116.646 Y93.129 E0.01602
G1 X103.86 Y80.342 E0.56288
G1 X104.072 Y80.282 E0.00687
G1 X104.316 Y80.266 E0.00762
G1 X116.662 Y92.611 E0.54347
G1 X116.657 Y92.074 E0.01674
G1 X104.817 Y80.233 E0.52122
G1 X105.318 Y80.201 E0.01562
G1 X116.638 Y91.521 E0.49832
G1 X116.587 Y90.937 E0.01825
M73 P4 R37
G1 X105.841 Y80.19 E0.47307
G1 X106.078 Y80.196 E0.00739
G1 X106.399 Y80.215 E0.01001
G1 X116.536 Y90.353 E0.44625
G1 X116.486 Y89.769 E0.01825
G1 X106.966 Y80.249 E0.41906
G1 X107.327 Y80.27 E0.01125
G1 X107.547 Y80.297 E0.00693
G1 X116.435 Y89.185 E0.39123
G1 X116.384 Y88.601 E0.01825
G1 X108.155 Y80.371 E0.36227
G1 X108.762 Y80.445 E0.01904
G1 X116.29 Y87.973 E0.3314
G1 X116.128 Y87.278 E0.02222
G1 X109.369 Y80.519 E0.29754
G1 X109.517 Y80.537 E0.00465
G1 X110.013 Y80.63 E0.01571
G1 X115.966 Y86.583 E0.26205
