; generated by SuperSlicer 2.4 on 2022-12-30 at 00:14:55 UTC


;
;

;
;
; 

; external perimeters extrusion width = 0.60mm
; perimeters extrusion width = 0.50mm
; infill extrusion width = 0.50mm
; solid infill extrusion width = 0.50mm
; top infill extrusion width = 0.40mm
; support material extrusion width = 0.38mm
; first layer extrusion width = 0.42mm

; external perimeters extrusion width = 0.60mm
; perimeters extrusion width = 0.50mm
; infill extrusion width = 0.50mm
; solid infill extrusion width = 0.50mm
; top infill extrusion width = 0.40mm
; support material extrusion width = 0.38mm
; first layer extrusion width = 0.42mm

; object:{"name":"BtmMonitorHolder","id":"BtmMonitorHolder.stl id:0 copy 0","object_center":[105.000001,123.500002,0.000000],"boundingbox_center":[105.000001,123.500002,12.000000],"boundingbox_size":[28.000000,35.000000,24.000000]}
; object:{"name":"TopMonitorHolder","id":"TopMonitorHolder.stl id:1 copy 0","object_center":[105.000000,84.500001,0.000000],"boundingbox_center":[105.000000,84.500001,15.500002],"boundingbox_size":[80.000000,35.000000,31.000004]}
; Total objects to print: 2
M486 T2
; plater:{"center":[105.000000,104.000001,0.000000],"boundingbox_center":[105.000000,104.000001,15.500002],"boundingbox_size":[80.000000,74.000001,31.000004]}

M73 P0 R88
;TYPE:Custom
G90 ; use absolute coordinates
M83 ; extruder relative mode
M204 S1250 T1250
M104 S215 ; set extruder temp
M140 S65 ; set bed temp
G28 ; home all
G29 ; AutoBed Leveling I think
G1 Y1.0 Z0.3 F1000 ; move print head up
M190 S65 ; wait for bed temp
M109 S215 ; wait for extruder temp
G92 E0.0
; initial load
G1 X205.0 E19 F1000
G1 Y1.6
G1 X5.0 E19 F1000
G92 E0.0
; intro line
G1 Y2.0 Z0.2 F1000
M73 P0 R87
G1 X65.0 E9.0 F1000
G1 X105.0 E12.5 F1000
G92 E0.0
M107
G21 ; set units to millimeters
G90 ; use absolute coordinates
M83 ; use relative distances for extrusion
; Filament gcode
;_TOOLCHANGE 0
M107
;LAYER_CHANGE
;Z:0.2
;HEIGHT:0.2
;BEFORE_LAYER_CHANGE
G92 E0.0
;0.2
G1 Z0.075 F10800
G1 Z0.2
;AFTER_LAYER_CHANGE
;0.2
G1 Z0.275
M204 S800
G1 X57.868 Y75.161
G1 Z0.2
;TYPE:Skirt
;WIDTH:0.52
G1 F1200
G1 X57.477 Y76.425 E0.05249
G1 X57.477 Y108.522 E1.27324
G1 X58.104 Y110.075 E0.06643
M73 P1 R87
G1 X89.388 Y142.553 E1.78888
G1 X91 Y143.239 E0.0695
G1 X119 Y143.239 E1.11074
G1 X120.612 Y142.553 E0.0695
G1 X151.896 Y110.075 E1.78888
G1 X152.523 Y108.522 E0.06643
G1 X152.523 Y76.425 E1.27324
G1 X152.027 Y75.021 E0.05907
G1 X150.93 Y74.282 E0.05249
G1 X119.646 Y64.857 E1.29612
G1 X119 Y64.761 E0.02589
G1 X91 Y64.761 E1.11074
G1 X90.354 Y64.857 E0.02589
G1 X59.07 Y74.282 E1.29612
G1 X57.868 Y75.161 E0.05907
M204 S1000
G1 Z0.275 F10800
; printing object BtmMonitorHolder.stl id:0 copy 0
M486 S0
; acceleration to travel
M204 S1500
G1 X80.105 Y95.902
; decel to extrusion
M204 S800
G1 X91.964 Y106.964
; end travel
G1 Z0.2
;TYPE:Internal perimeter
;WIDTH:0.42
G1 F1200
G1 X118.036 Y106.964 E0.81746
G1 X118.036 Y140.036 E1.03694
G1 X91.964 Y140.036 E0.81746
G1 X91.964 Y106.964 E1.03694
G1 X91.587 Y106.587 F10800
G1 F1200
G1 X118.413 Y106.587 E0.84111
G1 X118.413 Y140.413 E1.06059
G1 X91.587 Y140.413 E0.84111
G1 X91.587 Y106.587 E1.06059
G1 X91.21 Y106.21 F10800
;TYPE:External perimeter
G1 F1200
G1 X118.79 Y106.21 E0.86475
G1 X118.79 Y140.79 E1.08423
G1 X91.21 Y140.79 E0.86475
G1 X91.21 Y106.21 E1.08423
;WIPE_START
M204 S1000
G1 X91.556 Y106.41 F10800
;WIPE_END
G1 Z0.275
; acceleration to travel
M204 S1500
G1 X108.752 Y107.342
; decel to extrusion
M204 S800
G1 X117.923 Y107.84
; end travel
G1 Z0.2
;TYPE:Solid infill
;WIDTH:0.420362
G1 F1200
G1 X117.323 Y107.239 E0.02663
G1 X116.789 Y107.239 E0.01673
G1 X117.761 Y108.211 E0.0431
G1 X117.761 Y108.744 E0.01673
G1 X116.256 Y107.239 E0.06677
G1 X115.723 Y107.239 E0.01673
G1 X117.761 Y109.277 E0.09044
G1 X117.761 Y109.81 E0.01673
G1 X115.19 Y107.239 E0.1141
G1 X114.656 Y107.239 E0.01673
G1 X117.761 Y110.344 E0.13777
G1 X117.761 Y110.877 E0.01673
G1 X114.123 Y107.239 E0.16144
G1 X113.59 Y107.239 E0.01673
G1 X117.761 Y111.41 E0.1851
G1 X117.761 Y111.944 E0.01673
G1 X113.056 Y107.239 E0.20877
G1 X112.523 Y107.239 E0.01673
G1 X117.761 Y112.477 E0.23244
G1 X117.761 Y113.01 E0.01673
G1 X111.99 Y107.239 E0.2561
G1 X111.457 Y107.239 E0.01673
G1 X117.761 Y113.543 E0.27977
G1 X117.761 Y114.077 E0.01673
G1 X110.923 Y107.239 E0.30344
G1 X110.39 Y107.239 E0.01673
G1 X117.761 Y114.61 E0.3271
G1 X117.761 Y115.143 E0.01673
G1 X109.857 Y107.239 E0.35077
G1 X109.324 Y107.239 E0.01673
G1 X117.761 Y115.676 E0.37444
G1 X117.761 Y116.21 E0.01673
G1 X108.79 Y107.239 E0.3981
G1 X108.257 Y107.239 E0.01673
G1 X117.761 Y116.743 E0.42177
G1 X117.761 Y117.276 E0.01673
G1 X107.724 Y107.239 E0.44543
G1 X107.19 Y107.239 E0.01673
G1 X117.761 Y117.81 E0.4691
G1 X117.761 Y118.343 E0.01673
G1 X106.657 Y107.239 E0.49277
G1 X106.124 Y107.239 E0.01673
G1 X117.761 Y118.876 E0.51643
G1 X117.761 Y119.409 E0.01673
G1 X105.591 Y107.239 E0.5401
G1 X105.057 Y107.239 E0.01673
G1 X117.761 Y119.943 E0.56377
G1 X117.761 Y120.476 E0.01673
G1 X104.524 Y107.239 E0.58743
G1 X103.991 Y107.239 E0.01673
G1 X117.761 Y121.009 E0.6111
G1 X117.761 Y121.542 E0.01673
G1 X103.458 Y107.239 E0.63477
G1 X102.924 Y107.239 E0.01673
G1 X117.761 Y122.076 E0.65843
G1 X117.761 Y122.609 E0.01673
G1 X102.391 Y107.239 E0.6821
G1 X101.858 Y107.239 E0.01673
G1 X117.761 Y123.142 E0.70577
G1 X117.761 Y123.675 E0.01673
M73 P1 R86
G1 X101.325 Y107.239 E0.72943
G1 X100.791 Y107.239 E0.01673
G1 X117.761 Y124.209 E0.7531
G1 X117.761 Y124.742 E0.01673
G1 X100.258 Y107.239 E0.77677
G1 X99.725 Y107.239 E0.01673
M73 P2 R86
G1 X117.761 Y125.275 E0.80043
G1 X117.761 Y125.809 E0.01673
G1 X99.191 Y107.239 E0.8241
G1 X98.658 Y107.239 E0.01673
G1 X117.761 Y126.342 E0.84777
G1 X117.761 Y126.875 E0.01673
G1 X98.125 Y107.239 E0.87143
G1 X97.592 Y107.239 E0.01673
G1 X117.761 Y127.408 E0.8951
G1 X117.761 Y127.942 E0.01673
G1 X97.058 Y107.239 E0.91876
G1 X96.525 Y107.239 E0.01673
G1 X117.761 Y128.475 E0.94243
G1 X117.761 Y129.008 E0.01673
G1 X95.992 Y107.239 E0.9661
G1 X95.459 Y107.239 E0.01673
G1 X117.761 Y129.541 E0.98976
G1 X117.761 Y130.075 E0.01673
G1 X94.925 Y107.239 E1.01343
G1 X94.392 Y107.239 E0.01673
G1 X117.761 Y130.608 E1.0371
G1 X117.761 Y131.141 E0.01673
G1 X93.859 Y107.239 E1.06076
G1 X93.325 Y107.239 E0.01673
G1 X117.761 Y131.675 E1.08443
G1 X117.761 Y132.208 E0.01673
G1 X92.792 Y107.239 E1.1081
G1 X92.259 Y107.239 E0.01673
G1 X117.761 Y132.741 E1.13176
G1 X117.761 Y133.274 E0.01673
G1 X92.239 Y107.753 E1.13263
G1 X92.239 Y108.286 E0.01673
G1 X117.761 Y133.808 E1.13263
G1 X117.761 Y134.341 E0.01673
G1 X92.239 Y108.82 E1.13263
G1 X92.239 Y109.353 E0.01673
G1 X117.761 Y134.874 E1.13263
G1 X117.761 Y135.407 E0.01673
G1 X92.239 Y109.886 E1.13263
G1 X92.239 Y110.42 E0.01673
G1 X117.761 Y135.941 E1.13263
G1 X117.761 Y136.474 E0.01673
G1 X92.239 Y110.953 E1.13263
G1 X92.239 Y111.486 E0.01673
G1 X117.761 Y137.007 E1.13263
G1 X117.761 Y137.541 E0.01673
G1 X92.239 Y112.019 E1.13263
G1 X92.239 Y112.553 E0.01673
G1 X117.761 Y138.074 E1.13263
G1 X117.761 Y138.607 E0.01673
G1 X92.239 Y113.086 E1.13263
G1 X92.239 Y113.619 E0.01673
G1 X117.761 Y139.14 E1.13263
G1 X117.761 Y139.674 E0.01673
G1 X92.239 Y114.152 E1.13263
G1 X92.239 Y114.686 E0.01673
G1 X117.314 Y139.761 E1.11282
G1 X116.781 Y139.761 E0.01673
G1 X92.239 Y115.219 E1.08916
G1 X92.239 Y115.752 E0.01673
G1 X116.248 Y139.761 E1.06549
G1 X115.715 Y139.761 E0.01673
M73 P3 R86
G1 X92.239 Y116.285 E1.04182
G1 X92.239 Y116.819 E0.01673
G1 X115.181 Y139.761 E1.01816
G1 X114.648 Y139.761 E0.01673
M73 P3 R85
G1 X92.239 Y117.352 E0.99449
G1 X92.239 Y117.885 E0.01673
G1 X114.115 Y139.761 E0.97082
G1 X113.581 Y139.761 E0.01673
G1 X92.239 Y118.419 E0.94716
G1 X92.239 Y118.952 E0.01673
G1 X113.048 Y139.761 E0.92349
G1 X112.515 Y139.761 E0.01673
G1 X92.239 Y119.485 E0.89983
G1 X92.239 Y120.018 E0.01673
G1 X111.982 Y139.761 E0.87616
G1 X111.448 Y139.761 E0.01673
G1 X92.239 Y120.552 E0.85249
G1 X92.239 Y121.085 E0.01673
G1 X110.915 Y139.761 E0.82883
G1 X110.382 Y139.761 E0.01673
G1 X92.239 Y121.618 E0.80516
G1 X92.239 Y122.151 E0.01673
G1 X109.849 Y139.761 E0.78149
G1 X109.315 Y139.761 E0.01673
G1 X92.239 Y122.685 E0.75783
G1 X92.239 Y123.218 E0.01673
G1 X108.782 Y139.761 E0.73416
G1 X108.249 Y139.761 E0.01673
G1 X92.239 Y123.751 E0.71049
G1 X92.239 Y124.285 E0.01673
G1 X107.715 Y139.761 E0.68683
G1 X107.182 Y139.761 E0.01673
G1 X92.239 Y124.818 E0.66316
G1 X92.239 Y125.351 E0.01673
G1 X106.649 Y139.761 E0.63949
G1 X106.116 Y139.761 E0.01673
G1 X92.239 Y125.884 E0.61583
G1 X92.239 Y126.418 E0.01673
G1 X105.582 Y139.761 E0.59216
G1 X105.049 Y139.761 E0.01673
G1 X92.239 Y126.951 E0.56849
G1 X92.239 Y127.484 E0.01673
G1 X104.516 Y139.761 E0.54483
G1 X103.983 Y139.761 E0.01673
G1 X92.239 Y128.017 E0.52116
G1 X92.239 Y128.551 E0.01673
G1 X103.449 Y139.761 E0.49749
G1 X102.916 Y139.761 E0.01673
G1 X92.239 Y129.084 E0.47383
G1 X92.239 Y129.617 E0.01673
G1 X102.383 Y139.761 E0.45016
G1 X101.849 Y139.761 E0.01673
G1 X92.239 Y130.151 E0.42649
G1 X92.239 Y130.684 E0.01673
G1 X101.316 Y139.761 E0.40283
G1 X100.783 Y139.761 E0.01673
G1 X92.239 Y131.217 E0.37916
G1 X92.239 Y131.75 E0.01673
G1 X100.25 Y139.761 E0.3555
G1 X99.716 Y139.761 E0.01673
G1 X92.239 Y132.284 E0.33183
G1 X92.239 Y132.817 E0.01673
G1 X99.183 Y139.761 E0.30816
G1 X98.65 Y139.761 E0.01673
G1 X92.239 Y133.35 E0.2845
G1 X92.239 Y133.883 E0.01673
G1 X98.117 Y139.761 E0.26083
G1 X97.583 Y139.761 E0.01673
G1 X92.239 Y134.417 E0.23716
G1 X92.239 Y134.95 E0.01673
G1 X97.05 Y139.761 E0.2135
G1 X96.517 Y139.761 E0.01673
G1 X92.239 Y135.483 E0.18983
G1 X92.239 Y136.016 E0.01673
G1 X95.984 Y139.761 E0.16616
G1 X95.45 Y139.761 E0.01673
G1 X92.239 Y136.55 E0.1425
G1 X92.239 Y137.083 E0.01673
G1 X94.917 Y139.761 E0.11883
G1 X94.384 Y139.761 E0.01673
G1 X92.239 Y137.616 E0.09516
G1 X92.239 Y138.15 E0.01673
G1 X93.85 Y139.761 E0.0715
G1 X93.317 Y139.761 E0.01673
G1 X92.239 Y138.683 E0.04783
G1 X92.239 Y139.216 E0.01673
G1 X92.784 Y139.761 E0.02416
G1 X92.251 Y139.761 E0.01673
G1 X92.077 Y139.587 E0.00769
M204 S1000
G1 Z0.275 F10800
; stop printing object BtmMonitorHolder.stl id:0 copy 0
M486 S-1
; printing object TopMonitorHolder.stl id:1 copy 0
M486 S1
; acceleration to travel
M204 S1500
G1 X105.639 Y119.327
; decel to extrusion
M204 S800
G1 X112.872 Y108.522
; end travel
G1 Z0.2
;TYPE:Support material
;WIDTH:0.42
G1 F1200
G1 X112.872 Y102.759 E0.1807
G1 X119.314 Y102.759 E0.20199
G1 X119.759 Y102.314 E0.0197
G1 X119.759 Y97.688 E0.14506
G1 X134.134 Y97.688 E0.45075
G1 X134.134 Y87.259 E0.32698
G1 X119.759 Y87.259 E0.45075
G1 X119.759 Y76.425 E0.33969
G1 X150.284 Y76.425 E0.95711
G1 X150.284 Y108.522 E1.00636
G1 X112.872 Y108.522 E1.17303
; acceleration to travel
M204 S1500
G1 X136.975 Y108.46 F10800
; decel to extrusion
M204 S800
G1 X149.831 Y108.427
; end travel
G1 F1200
G1 X149.831 Y76.682 E0.99537
G1 X149.412 Y76.682 E0.01314
G1 X149.412 Y108.265 E0.99028
G1 X148.993 Y108.265 E0.01314
G1 X148.993 Y76.682 E0.99028
G1 X148.574 Y76.682 E0.01314
M73 P4 R85
G1 X148.574 Y108.265 E0.99028
G1 X148.155 Y108.265 E0.01314
G1 X148.155 Y76.682 E0.99028
G1 X147.736 Y76.682 E0.01314
G1 X147.736 Y108.265 E0.99028
G1 X147.317 Y108.265 E0.01314
G1 X147.317 Y76.682 E0.99028
G1 X146.898 Y76.682 E0.01314
G1 X146.898 Y108.265 E0.99028
G1 X146.479 Y108.265 E0.01314
G1 X146.479 Y76.682 E0.99028
G1 X146.06 Y76.682 E0.01314
G1 X146.06 Y108.265 E0.99028
G1 X145.641 Y108.265 E0.01314
M73 P4 R84
G1 X145.641 Y76.682 E0.99028
G1 X145.222 Y76.682 E0.01314
G1 X145.222 Y108.265 E0.99028
G1 X144.803 Y108.265 E0.01314
G1 X144.803 Y76.682 E0.99028
G1 X144.384 Y76.682 E0.01314
G1 X144.384 Y108.265 E0.99028
G1 X143.965 Y108.265 E0.01314
G1 X143.965 Y76.682 E0.99028
G1 X143.546 Y76.682 E0.01314
G1 X143.546 Y108.265 E0.99028
G1 X143.127 Y108.265 E0.01314
G1 X143.127 Y76.682 E0.99028
G1 X142.708 Y76.682 E0.01314
G1 X142.708 Y108.265 E0.99028
G1 X142.289 Y108.265 E0.01314
G1 X142.289 Y76.682 E0.99028
G1 X141.87 Y76.682 E0.01314
G1 X141.87 Y108.265 E0.99028
G1 X141.451 Y108.265 E0.01314
G1 X141.451 Y76.682 E0.99028
G1 X141.032 Y76.682 E0.01314
G1 X141.032 Y108.265 E0.99028
G1 X140.613 Y108.265 E0.01314
G1 X140.613 Y76.682 E0.99028
G1 X140.194 Y76.682 E0.01314
G1 X140.194 Y108.265 E0.99028
G1 X139.775 Y108.265 E0.01314
G1 X139.775 Y76.682 E0.99028
G1 X139.356 Y76.682 E0.01314
G1 X139.356 Y108.265 E0.99028
G1 X138.937 Y108.265 E0.01314
G1 X138.937 Y76.682 E0.99028
G1 X138.518 Y76.682 E0.01314
G1 X138.518 Y108.265 E0.99028
G1 X138.099 Y108.265 E0.01314
G1 X138.099 Y76.682 E0.99028
G1 X137.68 Y76.682 E0.01314
G1 X137.68 Y108.265 E0.99028
G1 X137.261 Y108.265 E0.01314
G1 X137.261 Y76.682 E0.99028
G1 X136.842 Y76.682 E0.01314
G1 X136.842 Y108.265 E0.99028
G1 X136.423 Y108.265 E0.01314
G1 X136.423 Y76.682 E0.99028
G1 X136.004 Y76.682 E0.01314
G1 X136.004 Y108.265 E0.99028
G1 X135.585 Y108.265 E0.01314
G1 X135.585 Y76.682 E0.99028
G1 X135.166 Y76.682 E0.01314
G1 X135.166 Y108.265 E0.99028
G1 X134.747 Y108.265 E0.01314
M73 P5 R84
G1 X134.747 Y76.682 E0.99028
G1 X134.328 Y76.682 E0.01314
G1 X134.328 Y108.265 E0.99028
G1 X133.909 Y108.265 E0.01314
G1 X133.909 Y97.944 E0.32361
G1 X133.49 Y97.944 E0.01314
G1 X133.49 Y108.265 E0.32361
G1 X133.071 Y108.265 E0.01314
G1 X133.071 Y97.944 E0.32361
G1 X132.652 Y97.944 E0.01314
G1 X132.652 Y108.265 E0.32361
G1 X132.234 Y108.265 E0.01314
G1 X132.234 Y97.944 E0.32361
G1 X131.815 Y97.944 E0.01314
G1 X131.815 Y108.265 E0.32361
G1 X131.396 Y108.265 E0.01314
G1 X131.396 Y97.944 E0.32361
G1 X130.977 Y97.944 E0.01314
G1 X130.977 Y108.265 E0.32361
G1 X130.558 Y108.265 E0.01314
G1 X130.558 Y97.944 E0.32361
G1 X130.139 Y97.944 E0.01314
G1 X130.139 Y108.265 E0.32361
G1 X129.72 Y108.265 E0.01314
G1 X129.72 Y97.944 E0.32361
G1 X129.301 Y97.944 E0.01314
G1 X129.301 Y108.265 E0.32361
G1 X128.882 Y108.265 E0.01314
G1 X128.882 Y97.944 E0.32361
G1 X128.463 Y97.944 E0.01314
G1 X128.463 Y108.265 E0.32361
G1 X128.044 Y108.265 E0.01314
G1 X128.044 Y97.944 E0.32361
G1 X127.625 Y97.944 E0.01314
G1 X127.625 Y108.265 E0.32361
G1 X127.206 Y108.265 E0.01314
G1 X127.206 Y97.944 E0.32361
G1 X126.787 Y97.944 E0.01314
G1 X126.787 Y108.265 E0.32361
G1 X126.368 Y108.265 E0.01314
G1 X126.368 Y97.944 E0.32361
G1 X125.949 Y97.944 E0.01314
G1 X125.949 Y108.265 E0.32361
G1 X125.53 Y108.265 E0.01314
G1 X125.53 Y97.944 E0.32361
G1 X125.111 Y97.944 E0.01314
G1 X125.111 Y108.265 E0.32361
G1 X124.692 Y108.265 E0.01314
G1 X124.692 Y97.944 E0.32361
G1 X124.273 Y97.944 E0.01314
G1 X124.273 Y108.265 E0.32361
G1 X123.854 Y108.265 E0.01314
G1 X123.854 Y97.944 E0.32361
G1 X123.435 Y97.944 E0.01314
M73 P5 R83
G1 X123.435 Y108.265 E0.32361
G1 X123.016 Y108.265 E0.01314
G1 X123.016 Y97.944 E0.32361
G1 X122.597 Y97.944 E0.01314
G1 X122.597 Y108.265 E0.32361
G1 X122.178 Y108.265 E0.01314
G1 X122.178 Y97.944 E0.32361
G1 X121.759 Y97.944 E0.01314
G1 X121.759 Y108.265 E0.32361
G1 X121.34 Y108.265 E0.01314
G1 X121.34 Y97.944 E0.32361
G1 X120.921 Y97.944 E0.01314
G1 X120.921 Y108.265 E0.32361
G1 X120.502 Y108.265 E0.01314
G1 X120.502 Y97.944 E0.32361
G1 X120.083 Y97.944 E0.01314
G1 X120.083 Y108.265 E0.32361
G1 X119.664 Y108.265 E0.01314
G1 X119.664 Y102.771 E0.17226
G1 X119.42 Y103.015 E0.01081
G1 X119.245 Y103.015 E0.00549
G1 X119.245 Y108.265 E0.16462
G1 X118.826 Y108.265 E0.01314
G1 X118.826 Y103.015 E0.16462
G1 X118.407 Y103.015 E0.01314
G1 X118.407 Y108.265 E0.16462
G1 X117.988 Y108.265 E0.01314
G1 X117.988 Y103.015 E0.16462
G1 X117.569 Y103.015 E0.01314
G1 X117.569 Y108.265 E0.16462
G1 X117.15 Y108.265 E0.01314
G1 X117.15 Y103.015 E0.16462
G1 X116.731 Y103.015 E0.01314
G1 X116.731 Y108.265 E0.16462
G1 X116.312 Y108.265 E0.01314
G1 X116.312 Y103.015 E0.16462
G1 X115.893 Y103.015 E0.01314
G1 X115.893 Y108.265 E0.16462
G1 X115.474 Y108.265 E0.01314
G1 X115.474 Y103.015 E0.16462
G1 X115.055 Y103.015 E0.01314
G1 X115.055 Y108.265 E0.16462
G1 X114.636 Y108.265 E0.01314
G1 X114.636 Y103.015 E0.16462
G1 X114.217 Y103.015 E0.01314
G1 X114.217 Y108.265 E0.16462
G1 X113.799 Y108.265 E0.01314
G1 X113.799 Y103.015 E0.16462
G1 X113.38 Y103.015 E0.01314
